; generated by Slic3r 1.3.0 on 2023-04-24 at 08:44:54

; external perimeters extrusion width = 0.50mm (2.95mm^3/s)
; perimeters extrusion width = 0.50mm (2.95mm^3/s)
; infill extrusion width = 0.50mm (2.95mm^3/s)
; solid infill extrusion width = 0.50mm (2.95mm^3/s)
; top infill extrusion width = 0.50mm (2.95mm^3/s)


; Filament gcode

G21 ; set units to millimeters
G90 ; use absolute coordinates
M82 ; use absolute distances for extrusion
G92 E0
G1 Z-149.500 F900.000
G1 X23.540 Y15.152 F900.000
G1 F900
G1 X23.540 Y19.437 E0.11904
G1 X21.186 Y19.437 E0.18443
G1 X21.066 Y19.572 E0.18946
G1 X20.658 Y19.900 E0.20399
G1 X20.202 Y20.156 E0.21852
G1 X19.709 Y20.333 E0.23305
G1 X19.195 Y20.425 E0.24759
G1 X18.671 Y20.431 E0.26212
G1 X18.162 Y20.352 E0.27643
G1 X17.659 Y20.185 E0.29115
G1 X17.196 Y19.940 E0.30571
G1 X16.781 Y19.621 E0.32024
G1 X16.425 Y19.238 E0.33477
G1 X16.137 Y18.801 E0.34931
G1 X15.925 Y18.323 E0.36384
G1 X15.796 Y17.816 E0.37837
G1 X15.753 Y17.294 E0.39290
G1 X15.796 Y16.773 E0.40743
G1 X15.925 Y16.266 E0.42197
G1 X16.137 Y15.788 E0.43650
G1 X16.425 Y15.351 E0.45103
G1 X16.781 Y14.968 E0.46556
G1 X17.196 Y14.649 E0.48009
G1 X17.658 Y14.404 E0.49463
G1 X18.155 Y14.239 E0.50916
G1 X18.664 Y14.159 E0.52347
G1 X19.194 Y14.163 E0.53820
G1 X19.709 Y14.256 E0.55275
G1 X20.202 Y14.433 E0.56728
G1 X20.658 Y14.689 E0.58182
G1 X21.066 Y15.017 E0.59635
G1 X21.186 Y15.152 E0.60137
G1 X23.453 Y15.152 E0.66435
G1 X23.147 Y15.544 F900.000
G1 F900
G1 X23.147 Y19.044 E0.76157
G1 X21.010 Y19.044 E0.82095
G1 X20.794 Y19.287 E0.82997
G1 X20.438 Y19.574 E0.84268
G1 X20.038 Y19.798 E0.85539
G1 X19.608 Y19.952 E0.86810
G1 X19.157 Y20.033 E0.88081
G1 X18.700 Y20.038 E0.89352
G1 X18.255 Y19.969 E0.90603
G1 X17.814 Y19.823 E0.91893
G1 X17.409 Y19.608 E0.93165
G1 X17.046 Y19.329 E0.94436
G1 X16.735 Y18.994 E0.95708
G1 X16.483 Y18.612 E0.96979
G1 X16.298 Y18.194 E0.98250
G1 X16.185 Y17.750 E0.99521
G1 X16.147 Y17.294 E1.00792
G1 X16.185 Y16.838 E1.02063
G1 X16.298 Y16.395 E1.03334
G1 X16.483 Y15.977 E1.04605
G1 X16.735 Y15.595 E1.05876
G1 X17.046 Y15.260 E1.07148
G1 X17.409 Y14.981 E1.08419
G1 X17.814 Y14.766 E1.09690
G1 X18.248 Y14.621 E1.10961
G1 X18.693 Y14.552 E1.12212
G1 X19.157 Y14.556 E1.13502
G1 X19.608 Y14.637 E1.14774
G1 X20.038 Y14.791 E1.16045
G1 X20.438 Y15.015 E1.17316
G1 X20.794 Y15.302 E1.18587
G1 X21.010 Y15.544 E1.19489
G1 X23.060 Y15.544 E1.25185
G1 X23.727 Y15.564 F900.000
G1 X24.028 Y14.664 F900.000
G1 F900
G1 X24.028 Y19.925 E1.39798
G1 X21.438 Y19.925 E1.46993
G1 X20.781 Y20.396 E1.49239
G1 X20.372 Y20.610 E1.50521
G1 X19.935 Y20.772 E1.51814
G1 X19.482 Y20.876 E1.53107
G1 X19.025 Y20.921 E1.54381
G1 X18.553 Y20.907 E1.55694
G1 X18.094 Y20.833 E1.56985
G1 X17.648 Y20.701 E1.58278
G1 X17.222 Y20.513 E1.59571
G1 X16.824 Y20.272 E1.60863
G1 X16.460 Y19.983 E1.62156
G1 X16.136 Y19.648 E1.63449
G1 X15.857 Y19.276 E1.64742
G1 X15.628 Y18.870 E1.66035
G1 X15.454 Y18.439 E1.67327
G1 X15.336 Y17.989 E1.68620
G1 X15.277 Y17.534 E1.69894
G1 X15.276 Y17.061 E1.71207
G1 X15.336 Y16.600 E1.72498
G1 X15.454 Y16.150 E1.73791
G1 X15.628 Y15.719 E1.75084
G1 X15.857 Y15.313 E1.76376
G1 X16.136 Y14.940 E1.77669
G1 X16.460 Y14.606 E1.78962
G1 X16.824 Y14.316 E1.80255
G1 X17.222 Y14.076 E1.81548
G1 X17.648 Y13.888 E1.82840
G1 X18.094 Y13.756 E1.84133
G1 X18.553 Y13.682 E1.85426
G1 X19.019 Y13.667 E1.86719
G1 X19.475 Y13.712 E1.87992
G1 X19.936 Y13.817 E1.89306
G1 X20.372 Y13.978 E1.90597
G1 X20.781 Y14.193 E1.91879
G1 X21.438 Y14.664 E1.94125
G1 X23.941 Y14.664 E2.01079
G1 X24.421 Y14.271 F900.000
G1 F900
G1 X24.421 Y20.317 E2.17873
G1 X21.564 Y20.317 E2.25808
G1 X20.987 Y20.731 E2.27780
G1 X20.532 Y20.970 E2.29209
G1 X20.048 Y21.149 E2.30641
G1 X19.545 Y21.265 E2.32074
G1 X19.039 Y21.314 E2.33487
G1 X18.516 Y21.299 E2.34941
G1 X18.007 Y21.217 E2.36373
G1 X17.512 Y21.071 E2.37806
G1 X17.040 Y20.862 E2.39239
G1 X16.599 Y20.595 E2.40672
G1 X16.195 Y20.274 E2.42105
G1 X15.836 Y19.904 E2.43538
G1 X15.527 Y19.490 E2.44971
G1 X15.274 Y19.041 E2.46404
G1 X15.080 Y18.563 E2.47837
G1 X14.949 Y18.064 E2.49270
G1 X14.884 Y17.560 E2.50682
G1 X14.883 Y17.036 E2.52136
G1 X14.949 Y16.525 E2.53568
G1 X15.080 Y16.026 E2.55001
G1 X15.274 Y15.548 E2.56434
G1 X15.527 Y15.098 E2.57867
G1 X15.836 Y14.685 E2.59300
G1 X16.195 Y14.315 E2.60733
G1 X16.599 Y13.994 E2.62166
G1 X17.040 Y13.726 E2.63599
G1 X17.512 Y13.518 E2.65032
G1 X18.007 Y13.372 E2.66465
G1 X18.516 Y13.290 E2.67898
G1 X19.032 Y13.274 E2.69331
G1 X19.538 Y13.324 E2.70743
G1 X20.048 Y13.440 E2.72197
G1 X20.532 Y13.619 E2.73629
G1 X20.987 Y13.858 E2.75058
G1 X21.564 Y14.271 E2.77030
G1 X24.334 Y14.271 E2.84723
G1 X24.111 Y14.762 F900.000
G1 Z-149.000 F900.000
G1 X23.540 Y15.152 F900.000
G1 F900
G1 X23.540 Y19.437 E2.96627
G1 X21.186 Y19.437 E3.03166
G1 X21.066 Y19.572 E3.03669
G1 X19.589 Y20.760 E3.08932
G1 X19.589 Y20.354 E3.10060
G1 X19.195 Y20.425 E3.11174
G1 X18.671 Y20.431 E3.12627
G1 X18.155 Y20.350 E3.14081
G1 X17.680 Y20.192 E3.15469
G1 X17.198 Y19.941 E3.16979
G1 X16.781 Y19.621 E3.18439
G1 X16.425 Y19.238 E3.19893
G1 X16.137 Y18.801 E3.21346
G1 X15.925 Y18.323 E3.22799
G1 X15.796 Y17.816 E3.24252
G1 X15.753 Y17.294 E3.25705
G1 X15.796 Y16.773 E3.27159
G1 X15.925 Y16.266 E3.28612
G1 X16.137 Y15.788 E3.30065
G1 X16.425 Y15.351 E3.31518
G1 X16.781 Y14.968 E3.32971
G1 X17.196 Y14.649 E3.34425
G1 X17.658 Y14.404 E3.35878
G1 X18.155 Y14.239 E3.37331
G1 X18.648 Y14.161 E3.38719
G1 X19.192 Y14.163 E3.40229
G1 X19.709 Y14.256 E3.41690
G1 X20.202 Y14.433 E3.43143
G1 X20.658 Y14.689 E3.44596
G1 X21.066 Y15.017 E3.46049
G1 X21.186 Y15.152 E3.46552
G1 X23.453 Y15.152 E3.52850
G1 X23.147 Y15.544 F900.000
G1 F900
G1 X23.147 Y19.044 E3.62572
G1 X21.010 Y19.044 E3.68510
G1 X20.794 Y19.287 E3.69411
G1 X19.982 Y19.940 E3.72306
G1 X19.982 Y19.818 E3.72646
G1 X19.608 Y19.952 E3.73751
G1 X19.157 Y20.033 E3.75022
G1 X18.700 Y20.038 E3.76294
G1 X18.248 Y19.967 E3.77565
G1 X17.834 Y19.830 E3.78775
G1 X17.410 Y19.609 E3.80103
G1 X17.046 Y19.329 E3.81377
G1 X16.735 Y18.994 E3.82648
G1 X16.483 Y18.612 E3.83919
G1 X16.298 Y18.194 E3.85191
G1 X16.185 Y17.750 E3.86462
G1 X16.147 Y17.294 E3.87733
G1 X16.185 Y16.838 E3.89004
G1 X16.298 Y16.395 E3.90275
G1 X16.483 Y15.977 E3.91546
G1 X16.735 Y15.595 E3.92817
G1 X17.046 Y15.260 E3.94088
G1 X17.409 Y14.981 E3.95359
G1 X17.814 Y14.766 E3.96631
G1 X18.248 Y14.621 E3.97902
G1 X18.678 Y14.554 E3.99112
G1 X19.156 Y14.556 E4.00440
G1 X19.608 Y14.637 E4.01714
G1 X20.038 Y14.791 E4.02985
G1 X20.438 Y15.015 E4.04256
G1 X20.794 Y15.302 E4.05528
G1 X21.010 Y15.544 E4.06429
G1 X23.060 Y15.544 E4.12125
G1 X23.727 Y15.564 F900.000
G1 X24.002 Y14.690 F900.000
G1 F900
G1 X24.002 Y19.899 E4.26593
G1 X21.427 Y19.899 E4.33743
G1 X20.767 Y20.374 E4.36005
G1 X20.361 Y20.587 E4.37276
G1 X19.928 Y20.747 E4.38560
G1 X19.477 Y20.850 E4.39843
G1 X19.038 Y20.893 E4.41069
G1 X18.554 Y20.881 E4.42414
G1 X18.100 Y20.808 E4.43693
G1 X17.657 Y20.677 E4.44976
G1 X17.234 Y20.490 E4.46260
G1 X16.856 Y20.262 E4.47485
G1 X16.476 Y19.962 E4.48831
G1 X16.155 Y19.631 E4.50110
G1 X15.879 Y19.261 E4.51393
G1 X15.652 Y18.859 E4.52676
G1 X15.479 Y18.431 E4.53960
G1 X15.361 Y17.984 E4.55243
G1 X15.302 Y17.525 E4.56527
G1 X15.302 Y17.063 E4.57810
G1 X15.361 Y16.605 E4.59094
G1 X15.479 Y16.158 E4.60377
G1 X15.644 Y15.749 E4.61603
G1 X15.880 Y15.326 E4.62948
G1 X16.155 Y14.957 E4.64227
G1 X16.477 Y14.626 E4.65510
G1 X16.839 Y14.338 E4.66794
G1 X17.234 Y14.099 E4.68077
G1 X17.657 Y13.912 E4.69361
G1 X18.100 Y13.781 E4.70644
G1 X18.556 Y13.708 E4.71927
G1 X19.018 Y13.694 E4.73211
G1 X19.457 Y13.737 E4.74437
G1 X19.929 Y13.843 E4.75782
G1 X20.361 Y14.002 E4.77061
G1 X20.767 Y14.215 E4.78332
G1 X21.427 Y14.690 E4.80594
G1 X23.915 Y14.690 E4.87503
G1 X24.394 Y14.298 F900.000
G1 F900
G1 X24.394 Y20.291 E5.04152
G1 X21.554 Y20.291 E5.12041
G1 X20.974 Y20.709 E5.14028
G1 X20.521 Y20.946 E5.15447
G1 X20.040 Y21.124 E5.16871
G1 X19.541 Y21.239 E5.18294
G1 X19.052 Y21.286 E5.19657
G1 X18.518 Y21.273 E5.21143
G1 X18.012 Y21.192 E5.22565
G1 X17.521 Y21.046 E5.23988
G1 X17.052 Y20.839 E5.25412
G1 X16.632 Y20.585 E5.26775
G1 X16.212 Y20.254 E5.28260
G1 X15.856 Y19.887 E5.29682
G1 X15.549 Y19.476 E5.31106
G1 X15.298 Y19.030 E5.32529
G1 X15.105 Y18.555 E5.33953
G1 X14.975 Y18.059 E5.35377
G1 X14.909 Y17.551 E5.36800
G1 X14.909 Y17.038 E5.38224
G1 X14.975 Y16.530 E5.39647
G1 X15.105 Y16.034 E5.41071
G1 X15.289 Y15.579 E5.42434
G1 X15.550 Y15.112 E5.43920
G1 X15.856 Y14.702 E5.45341
G1 X16.213 Y14.334 E5.46765
G1 X16.614 Y14.015 E5.48189
G1 X17.052 Y13.750 E5.49612
G1 X17.521 Y13.543 E5.51036
G1 X18.012 Y13.397 E5.52460
G1 X18.518 Y13.316 E5.53883
G1 X19.031 Y13.300 E5.55307
G1 X19.519 Y13.348 E5.56670
G1 X20.041 Y13.465 E5.58155
G1 X20.521 Y13.643 E5.59577
G1 X20.974 Y13.880 E5.60996
G1 X21.554 Y14.298 E5.62983
G1 X24.307 Y14.298 E5.70631
G1 X24.084 Y14.788 F900.000
G1 Z-148.500 F900.000
G1 X23.540 Y15.152 F900.000
G1 F900
G1 X23.540 Y19.437 E5.82535
G1 X21.186 Y19.437 E5.89074
G1 X21.066 Y19.572 E5.89577
G1 X20.658 Y19.900 E5.91030
G1 X20.202 Y20.156 E5.92483
G1 X19.709 Y20.333 E5.93936
G1 X19.195 Y20.425 E5.95389
G1 X18.671 Y20.431 E5.96843
G1 X18.155 Y20.350 E5.98296
G1 X17.658 Y20.185 E5.99749
G1 X17.196 Y19.940 E6.01202
G1 X16.781 Y19.621 E6.02655
G1 X16.425 Y19.238 E6.04109
G1 X16.137 Y18.801 E6.05562
G1 X15.925 Y18.323 E6.07015
G1 X15.796 Y17.816 E6.08468
G1 X15.753 Y17.294 E6.09921
G1 X15.796 Y16.773 E6.11375
G1 X15.925 Y16.266 E6.12828
G1 X16.137 Y15.788 E6.14281
G1 X16.425 Y15.351 E6.15734
G1 X16.781 Y14.968 E6.17187
G1 X17.196 Y14.649 E6.18641
G1 X17.658 Y14.404 E6.20094
G1 X18.155 Y14.239 E6.21547
G1 X18.633 Y14.164 E6.22892
G1 X19.190 Y14.163 E6.24441
G1 X19.709 Y14.256 E6.25905
G1 X20.202 Y14.433 E6.27359
G1 X20.658 Y14.689 E6.28812
G1 X21.066 Y15.017 E6.30265
G1 X21.186 Y15.152 E6.30768
G1 X23.453 Y15.152 E6.37065
G1 X23.147 Y15.544 F900.000
G1 F900
G1 X23.147 Y19.044 E6.46787
G1 X21.010 Y19.044 E6.52726
G1 X20.794 Y19.287 E6.53627
G1 X20.438 Y19.574 E6.54898
G1 X20.038 Y19.798 E6.56169
G1 X19.608 Y19.952 E6.57440
G1 X19.157 Y20.033 E6.58711
G1 X18.700 Y20.038 E6.59982
G1 X18.248 Y19.967 E6.61254
G1 X17.814 Y19.823 E6.62525
G1 X17.409 Y19.608 E6.63796
G1 X17.046 Y19.329 E6.65067
G1 X16.735 Y18.994 E6.66338
G1 X16.483 Y18.612 E6.67609
G1 X16.298 Y18.194 E6.68880
G1 X16.185 Y17.750 E6.70151
G1 X16.147 Y17.294 E6.71422
G1 X16.185 Y16.838 E6.72694
G1 X16.298 Y16.395 E6.73965
G1 X16.483 Y15.977 E6.75236
G1 X16.735 Y15.595 E6.76507
G1 X17.046 Y15.260 E6.77778
G1 X17.409 Y14.981 E6.79049
G1 X17.814 Y14.766 E6.80320
G1 X18.248 Y14.621 E6.81591
G1 X18.664 Y14.556 E6.82762
G1 X19.156 Y14.556 E6.84128
G1 X19.608 Y14.637 E6.85403
G1 X20.038 Y14.791 E6.86675
G1 X20.438 Y15.015 E6.87946
G1 X20.794 Y15.302 E6.89217
G1 X21.010 Y15.544 E6.90118
G1 X23.060 Y15.544 E6.95815
G1 X23.727 Y15.564 F900.000
G1 X23.975 Y14.717 F900.000
G1 F900
G1 X23.975 Y19.872 E7.10136
G1 X21.417 Y19.872 E7.17243
G1 X20.753 Y20.352 E7.19519
G1 X20.350 Y20.563 E7.20780
G1 X19.920 Y20.722 E7.22054
G1 X19.473 Y20.824 E7.23328
G1 X19.051 Y20.866 E7.24506
G1 X18.556 Y20.855 E7.25883
G1 X18.105 Y20.782 E7.27150
G1 X17.666 Y20.652 E7.28424
G1 X17.246 Y20.467 E7.29698
G1 X16.854 Y20.229 E7.30972
G1 X16.495 Y19.944 E7.32246
G1 X16.175 Y19.614 E7.33520
G1 X15.901 Y19.247 E7.34794
G1 X15.676 Y18.847 E7.36068
G1 X15.503 Y18.422 E7.37343
G1 X15.387 Y17.979 E7.38617
G1 X15.328 Y17.524 E7.39891
G1 X15.328 Y17.065 E7.41165
G1 X15.387 Y16.610 E7.42439
G1 X15.495 Y16.200 E7.43617
G1 X15.677 Y15.739 E7.44994
G1 X15.901 Y15.342 E7.46260
G1 X16.175 Y14.974 E7.47534
G1 X16.495 Y14.645 E7.48809
G1 X16.854 Y14.359 E7.50083
G1 X17.246 Y14.122 E7.51357
G1 X17.666 Y13.937 E7.52631
G1 X18.105 Y13.807 E7.53905
G1 X18.558 Y13.734 E7.55179
G1 X19.017 Y13.720 E7.56453
G1 X19.439 Y13.761 E7.57631
G1 X19.923 Y13.868 E7.59008
G1 X20.350 Y14.026 E7.60275
G1 X20.753 Y14.237 E7.61536
G1 X21.417 Y14.717 E7.63812
G1 X23.888 Y14.717 E7.70677
G1 X24.368 Y14.324 F900.000
G1 F900
G1 X24.368 Y20.265 E7.87180
G1 X21.544 Y20.265 E7.95025
G1 X20.960 Y20.687 E7.97026
G1 X20.510 Y20.922 E7.98436
G1 X20.033 Y21.099 E7.99850
G1 X19.537 Y21.213 E8.01264
G1 X19.066 Y21.259 E8.02577
G1 X18.520 Y21.247 E8.04095
G1 X18.018 Y21.166 E8.05506
G1 X17.530 Y21.022 E8.06920
G1 X17.064 Y20.816 E8.08335
G1 X16.629 Y20.552 E8.09749
G1 X16.230 Y20.235 E8.11163
G1 X15.876 Y19.870 E8.12578
G1 X15.571 Y19.462 E8.13992
G1 X15.321 Y19.018 E8.15406
G1 X15.130 Y18.546 E8.16820
G1 X15.001 Y18.054 E8.18235
G1 X14.936 Y17.549 E8.19649
G1 X14.936 Y17.040 E8.21063
G1 X15.001 Y16.535 E8.22477
G1 X15.121 Y16.078 E8.23791
G1 X15.322 Y15.570 E8.25308
G1 X15.571 Y15.127 E8.26719
G1 X15.876 Y14.719 E8.28134
G1 X16.230 Y14.354 E8.29548
G1 X16.629 Y14.037 E8.30962
G1 X17.064 Y13.773 E8.32377
G1 X17.530 Y13.567 E8.33791
G1 X18.018 Y13.423 E8.35205
G1 X18.521 Y13.342 E8.36619
G1 X19.030 Y13.327 E8.38034
G1 X19.500 Y13.373 E8.39347
G1 X20.034 Y13.491 E8.40864
G1 X20.510 Y13.667 E8.42276
G1 X20.960 Y13.902 E8.43685
G1 X21.544 Y14.324 E8.45686
G1 X24.281 Y14.324 E8.53290
G1 X24.058 Y14.814 F900.000
G1 Z-148.000 F900.000
G1 X23.540 Y15.152 F900.000
G1 F900
G1 X23.540 Y19.437 E8.65193
G1 X21.186 Y19.437 E8.71733
G1 X21.066 Y19.572 E8.72235
G1 X20.658 Y19.900 E8.73689
G1 X20.202 Y20.156 E8.75142
G1 X19.709 Y20.333 E8.76595
G1 X19.195 Y20.425 E8.78048
G1 X18.671 Y20.431 E8.79501
G1 X18.155 Y20.350 E8.80954
G1 X17.710 Y20.202 E8.82257
G1 X17.201 Y19.943 E8.83844
G1 X16.781 Y19.621 E8.85312
G1 X16.425 Y19.238 E8.86766
G1 X16.137 Y18.801 E8.88219
G1 X15.925 Y18.323 E8.89672
G1 X15.796 Y17.816 E8.91125
G1 X15.753 Y17.294 E8.92578
G1 X15.796 Y16.773 E8.94032
G1 X15.925 Y16.266 E8.95485
G1 X16.137 Y15.788 E8.96938
G1 X16.425 Y15.351 E8.98391
G1 X16.781 Y14.968 E8.99844
G1 X17.196 Y14.649 E9.01298
G1 X17.610 Y14.429 E9.02600
G1 X18.149 Y14.239 E9.04187
G1 X18.682 Y14.156 E9.05686
G1 X19.196 Y14.164 E9.07113
G1 X19.709 Y14.256 E9.08562
G1 X20.202 Y14.433 E9.10016
G1 X20.658 Y14.689 E9.11469
G1 X21.066 Y15.017 E9.12922
G1 X21.186 Y15.152 E9.13425
G1 X23.453 Y15.152 E9.19722
G1 X23.147 Y15.544 F900.000
G1 F900
G1 X23.147 Y19.044 E9.29444
G1 X21.010 Y19.044 E9.35383
G1 X20.794 Y19.287 E9.36284
G1 X20.438 Y19.574 E9.37555
G1 X20.038 Y19.798 E9.38826
G1 X19.608 Y19.952 E9.40097
G1 X19.157 Y20.033 E9.41368
G1 X18.700 Y20.038 E9.42639
G1 X18.248 Y19.967 E9.43911
G1 X17.862 Y19.839 E9.45041
G1 X17.411 Y19.609 E9.46445
G1 X17.046 Y19.329 E9.47722
G1 X16.735 Y18.994 E9.48993
G1 X16.483 Y18.612 E9.50264
G1 X16.298 Y18.194 E9.51536
G1 X16.185 Y17.750 E9.52807
G1 X16.147 Y17.294 E9.54078
G1 X16.185 Y16.838 E9.55349
G1 X16.298 Y16.395 E9.56620
G1 X16.483 Y15.977 E9.57891
G1 X16.735 Y15.595 E9.59162
G1 X17.046 Y15.260 E9.60433
G1 X17.409 Y14.981 E9.61704
G1 X17.769 Y14.790 E9.62835
G1 X18.245 Y14.622 E9.64239
G1 X18.710 Y14.549 E9.65545
G1 X19.158 Y14.556 E9.66789
G1 X19.608 Y14.637 E9.68059
G1 X20.038 Y14.791 E9.69330
G1 X20.438 Y15.015 E9.70601
G1 X20.794 Y15.302 E9.71872
G1 X21.010 Y15.544 E9.72773
G1 X23.060 Y15.544 E9.78470
G1 X23.727 Y15.564 F900.000
G1 X23.949 Y14.743 F900.000
G1 F900
G1 X23.949 Y19.846 E9.92646
G1 X21.407 Y19.846 E9.99708
G1 X20.739 Y20.330 E10.01999
G1 X20.340 Y20.539 E10.03250
G1 X19.913 Y20.697 E10.04515
G1 X19.469 Y20.799 E10.05779
G1 X19.016 Y20.843 E10.07044
G1 X18.561 Y20.829 E10.08309
G1 X18.111 Y20.757 E10.09574
G1 X17.675 Y20.628 E10.10839
G1 X17.258 Y20.444 E10.12103
G1 X16.910 Y20.233 E10.13233
G1 X16.510 Y19.922 E10.14642
G1 X16.195 Y19.597 E10.15896
G1 X15.923 Y19.233 E10.17161
G1 X15.699 Y18.836 E10.18426
G1 X15.528 Y18.414 E10.19691
G1 X15.413 Y17.974 E10.20956
G1 X15.354 Y17.522 E10.22220
G1 X15.354 Y17.067 E10.23485
G1 X15.413 Y16.615 E10.24750
G1 X15.528 Y16.175 E10.26015
G1 X15.699 Y15.753 E10.27279
G1 X15.923 Y15.356 E10.28544
G1 X16.195 Y14.991 E10.29809
G1 X16.512 Y14.665 E10.31074
G1 X16.869 Y14.381 E10.32338
G1 X17.258 Y14.145 E10.33603
G1 X17.675 Y13.961 E10.34868
G1 X18.111 Y13.832 E10.36133
G1 X18.561 Y13.760 E10.37397
G1 X19.016 Y13.746 E10.38662
G1 X19.421 Y13.786 E10.39792
