DVAR $hFile
DVAR $cCheck
DVAR $press
DVAR $length
DVAR $lame
DVAR $comport
DVAR $COM5
DVAR $linepressure5


G71
G76
G91 ;G90 = absolute, G91 = relative
G68

RAMP TYPE SINE X Y
VELOCITY OFF
RAMP RATE 900

$linepressure5 = 20.0000
CALL setPress5 P$COM5 Q$linepressure5

ENABLE X Y D
'HOME X Y D
G90
G0 D-80 F60
G0 X0 Y0 D0 F60
G91

;Begin Motion
'G0 X150 Y50 F60
G0 D-149.5 F60
G1 F20

FILECLOSE
$hFile = FILEOPEN "COM5", 2
COMMINIT $hFile, "baud=115200 parity=N data=8 stop=1"
COMMSETTIMEOUT $hFile, -1, -1, 1000

;
FILEWRITE $hFile"\x05\x02\x30\x38\x50\x53\x20\x20\x30\x33\x34\x30\x45\x45\x03"

; generated by Slic3r 1.3.0 on 2023-07-04 at 12:35:58 
; external perimeters extrusion width = 0.49mm (2.83mm^3/s) 
; perimeters extrusion width = 0.49mm (2.83mm^3/s) 
; infill extrusion width = 0.49mm (2.83mm^3/s) 
; solid infill extrusion width = 0.49mm (2.83mm^3/s) 
; top infill extrusion width = 0.49mm (2.83mm^3/s) 
; Filament gcode 
; CW1 ; set units to millimeters 
G90 ; use absolute coordinates 
G1 D-149.510 ;not extruding 
G1 X5.550 Y20.419 ;not extruding 
FILEWRITE $hFile"\x05\x02\x30\x34\x44\x49\x20\x20\x43\x46\x03"
DWELL 0.15
G1 X6.000 Y20.833 ;extruding 
G1 X6.135 Y21.005 ;extruding 
G1 X6.230 Y21.175 ;extruding 
G1 X6.294 Y21.356 ;extruding 
G1 X6.324 Y21.681 ;extruding 
G1 X6.290 Y21.927 ;extruding 
G1 X6.009 Y22.876 ;extruding 
G1 X5.978 Y23.164 ;extruding 
G1 X5.998 Y23.550 ;extruding 
G1 X6.073 Y23.921 ;extruding 
G1 X6.231 Y24.367 ;extruding 
G1 X6.489 Y24.857 ;extruding 
G1 X6.823 Y25.315 ;extruding 
G1 X7.239 Y25.752 ;extruding 
G1 X7.076 Y26.375 ;extruding 
G1 X7.025 Y26.878 ;extruding 
G1 X7.059 Y27.461 ;extruding 
G1 X7.180 Y28.004 ;extruding 
G1 X7.409 Y28.583 ;extruding 
G1 X7.748 Y29.142 ;extruding 
G1 X8.141 Y29.600 ;extruding 
G1 X8.582 Y29.968 ;extruding 
G1 X9.090 Y30.267 ;extruding 
G1 X9.558 Y30.446 ;extruding 
G1 X9.890 Y30.535 ;extruding 
G1 X9.937 Y31.011 ;extruding 
G1 X9.999 Y31.242 ;extruding 
G1 X10.095 Y31.453 ;extruding 
G1 X10.223 Y31.645 ;extruding 
G1 X10.425 Y31.865 ;extruding 
G1 X10.817 Y32.173 ;extruding 
G1 X11.827 Y32.803 ;extruding 
G1 X12.203 Y33.080 ;extruding 
G1 X12.497 Y33.365 ;extruding 
G1 X12.713 Y33.664 ;extruding 
G1 X12.827 Y33.881 ;extruding 
G1 X12.927 Y34.174 ;extruding 
G1 X12.983 Y34.521 ;extruding 
G1 X12.993 Y35.061 ;extruding 
G1 X11.364 Y35.076 ;extruding 
G1 X10.002 Y34.880 ;extruding 
G1 X8.610 Y34.469 ;extruding 
G1 X8.224 Y34.314 ;extruding 
G1 X7.026 Y33.726 ;extruding 
G1 X5.764 Y32.841 ;extruding 
G1 X4.841 Y31.941 ;extruding 
G1 X4.120 Y30.966 ;extruding 
G1 X3.623 Y30.002 ;extruding 
G1 X3.276 Y28.924 ;extruding 
G1 X3.102 Y27.783 ;extruding 
G1 X3.127 Y26.527 ;extruding 
G1 X3.315 Y25.463 ;extruding 
G1 X3.716 Y24.191 ;extruding 
G1 X4.461 Y22.516 ;extruding 
G1 X5.509 Y20.496 ;extruding 
FILEWRITE $hFile"\x05\x02\x30\x34\x44\x49\x20\x20\x43\x46\x03"
G1 X7.258 Y22.229 ;not extruding 
FILEWRITE $hFile"\x05\x02\x30\x34\x44\x49\x20\x20\x43\x46\x03"
DWELL 0.15
G1 X7.491 Y22.177 ;extruding 
G1 X16.865 Y27.171 ;extruding 
G1 X18.355 Y30.093 ;extruding 
G1 X7.322 Y25.708 ;extruding 
G1 X7.349 Y25.399 ;extruding 
G1 X7.281 Y25.178 ;extruding 
G1 X6.852 Y24.129 ;extruding 
G1 X6.714 Y23.713 ;extruding 
G1 X6.628 Y23.288 ;extruding 
G1 X6.632 Y22.900 ;extruding 
G1 X6.720 Y22.635 ;extruding 
G1 X6.861 Y22.446 ;extruding 
G1 X6.979 Y22.350 ;extruding 
G1 X7.178 Y22.264 ;extruding 
FILEWRITE $hFile"\x05\x02\x30\x34\x44\x49\x20\x20\x43\x46\x03"
G1 X18.739 Y28.045 ;not extruding 
FILEWRITE $hFile"\x05\x02\x30\x34\x44\x49\x20\x20\x43\x46\x03"
DWELL 0.15
G1 X7.630 Y22.126 ;extruding 
G1 X7.407 Y22.046 ;extruding 
G1 X7.198 Y21.929 ;extruding 
G1 X7.014 Y21.782 ;extruding 
G1 X6.862 Y21.608 ;extruding 
G1 X6.756 Y21.438 ;extruding 
G1 X6.669 Y21.231 ;extruding 
G1 X6.616 Y21.012 ;extruding 
G1 X6.595 Y20.772 ;extruding 
G1 X6.612 Y20.512 ;extruding 
G1 X6.676 Y20.235 ;extruding 
G1 X6.778 Y19.980 ;extruding 
G1 X6.932 Y19.723 ;extruding 
G1 X7.117 Y19.507 ;extruding 
G1 X7.346 Y19.313 ;extruding 
G1 X7.603 Y19.156 ;extruding 
G1 X7.911 Y19.028 ;extruding 
G1 X8.211 Y18.955 ;extruding 
G1 X8.460 Y18.935 ;extruding 
G1 X8.908 Y18.962 ;extruding 
G1 X9.466 Y19.103 ;extruding 
G1 X10.488 Y19.484 ;extruding 
G1 X12.001 Y19.893 ;extruding 
G1 X12.354 Y20.050 ;extruding 
G1 X12.678 Y20.261 ;extruding 
G1 X19.960 Y26.667 ;extruding 
G1 X18.797 Y27.980 ;extruding 
FILEWRITE $hFile"\x05\x02\x30\x34\x44\x49\x20\x20\x43\x46\x03"
G1 X25.790 Y25.121 ;not extruding 
FILEWRITE $hFile"\x05\x02\x30\x34\x44\x49\x20\x20\x43\x46\x03"
DWELL 0.15
G1 X19.859 Y26.432 ;extruding 
G1 X12.620 Y20.063 ;extruding 
G1 X12.569 Y19.555 ;extruding 
G1 X12.595 Y19.243 ;extruding 
G1 X12.689 Y18.835 ;extruding 
G1 X12.924 Y18.250 ;extruding 
G1 X13.186 Y17.816 ;extruding 
G1 X13.570 Y17.352 ;extruding 
G1 X13.860 Y17.101 ;extruding 
G1 X14.253 Y16.867 ;extruding 
G1 X14.495 Y16.778 ;extruding 
G1 X14.777 Y16.725 ;extruding 
G1 X14.987 Y16.718 ;extruding 
G1 X15.250 Y16.748 ;extruding 
G1 X15.591 Y16.839 ;extruding 
G1 X16.027 Y17.030 ;extruding 
G1 X16.616 Y17.393 ;extruding 
G1 X17.252 Y17.910 ;extruding 
G1 X17.837 Y18.497 ;extruding 
G1 X19.727 Y20.542 ;extruding 
G1 X21.228 Y21.930 ;extruding 
G1 X22.759 Y23.095 ;extruding 
G1 X24.136 Y23.929 ;extruding 
G1 X25.833 Y24.698 ;extruding 
G1 X25.798 Y25.035 ;extruding 
FILEWRITE $hFile"\x05\x02\x30\x34\x44\x49\x20\x20\x43\x46\x03"
G1 X28.685 Y23.294 ;not extruding 
FILEWRITE $hFile"\x05\x02\x30\x34\x44\x49\x20\x20\x43\x46\x03"
DWELL 0.15
G1 X26.783 Y22.759 ;extruding 
G1 X25.182 Y22.186 ;extruding 
G1 X23.690 Y21.470 ;extruding 
G1 X23.467 Y21.343 ;extruding 
G1 X22.212 Y20.508 ;extruding 
G1 X21.205 Y19.613 ;extruding 
G1 X20.787 Y19.098 ;extruding 
G1 X20.537 Y18.662 ;extruding 
G1 X20.397 Y18.291 ;extruding 
G1 X20.320 Y17.920 ;extruding 
G1 X20.284 Y17.358 ;extruding 
G1 X20.344 Y16.051 ;extruding 
G1 X20.313 Y15.379 ;extruding 
G1 X19.932 Y13.333 ;extruding 
G1 X28.685 Y18.662 ;extruding 
G1 X28.685 Y23.207 ;extruding 
FILEWRITE $hFile"\x05\x02\x30\x34\x44\x49\x20\x20\x43\x46\x03"
G1 X33.323 Y18.579 ;not extruding 
FILEWRITE $hFile"\x05\x02\x30\x34\x44\x49\x20\x20\x43\x46\x03"
DWELL 0.15
G1 X28.761 Y18.579 ;extruding 
G1 X19.955 Y13.219 ;extruding 
G1 X19.997 Y12.146 ;extruding 
G1 X20.161 Y11.342 ;extruding 
G1 X20.353 Y10.826 ;extruding 
G1 X20.603 Y10.377 ;extruding 
G1 X20.979 Y9.898 ;extruding 
G1 X21.454 Y9.463 ;extruding 
G1 X22.179 Y8.987 ;extruding 
G1 X23.355 Y8.449 ;extruding 
G1 X25.101 Y7.906 ;extruding 
G1 X33.270 Y18.510 ;extruding 
FILEWRITE $hFile"\x05\x02\x30\x34\x44\x49\x20\x20\x43\x46\x03"
G1 X38.548 Y20.444 ;not extruding 
FILEWRITE $hFile"\x05\x02\x30\x34\x44\x49\x20\x20\x43\x46\x03"
DWELL 0.15
G1 X33.443 Y18.555 ;extruding 
G1 X25.216 Y7.874 ;extruding 
G1 X27.225 Y7.381 ;extruding 
G1 X29.320 Y6.970 ;extruding 
G1 X30.912 Y6.823 ;extruding 
G1 X32.535 Y6.894 ;extruding 
G1 X38.513 Y20.365 ;extruding 
FILEWRITE $hFile"\x05\x02\x30\x34\x44\x49\x20\x20\x43\x46\x03"
G1 X43.632 Y25.024 ;not extruding 
FILEWRITE $hFile"\x05\x02\x30\x34\x44\x49\x20\x20\x43\x46\x03"
DWELL 0.15
G1 X38.558 Y20.194 ;extruding 
G1 X32.644 Y6.869 ;extruding 
G1 X34.419 Y7.370 ;extruding 
G1 X35.892 Y8.027 ;extruding 
G1 X37.306 Y8.935 ;extruding 
G1 X38.658 Y10.113 ;extruding 
G1 X43.632 Y23.346 ;extruding 
G1 X43.632 Y24.937 ;extruding 
FILEWRITE $hFile"\x05\x02\x30\x34\x44\x49\x20\x20\x43\x46\x03"
G1 X43.147 Y21.745 ;not extruding 
FILEWRITE $hFile"\x05\x02\x30\x34\x44\x49\x20\x20\x43\x46\x03"
DWELL 0.15
G1 X39.348 Y11.636 ;extruding 
G1 X39.790 Y11.388 ;extruding 
G1 X40.255 Y11.986 ;extruding 
G1 X41.429 Y13.728 ;extruding 
G1 X42.536 Y15.705 ;extruding 
G1 X43.632 Y18.039 ;extruding 
G1 X43.632 Y21.657 ;extruding 
G1 X43.233 Y21.729 ;extruding 
FILEWRITE $hFile"\x05\x02\x30\x34\x44\x49\x20\x20\x43\x46\x03"
G1 X43.127 Y24.695 ;not extruding 
FILEWRITE $hFile"\x05\x02\x30\x34\x44\x49\x20\x20\x43\x46\x03"
DWELL 0.15
G1 X42.946 Y25.080 ;extruding 
G1 X41.421 Y24.899 ;extruding 
G1 X34.762 Y24.290 ;extruding 
G1 X31.887 Y23.919 ;extruding 
G1 X28.770 Y23.313 ;extruding 
G1 X28.770 Y18.689 ;extruding 
G1 X33.299 Y18.689 ;extruding 
G1 X39.054 Y20.819 ;extruding 
G1 X43.064 Y24.635 ;extruding 
FILEWRITE $hFile"\x05\x02\x30\x34\x44\x49\x20\x20\x43\x46\x03"
G1 X41.780 Y27.115 ;not extruding 
FILEWRITE $hFile"\x05\x02\x30\x34\x44\x49\x20\x20\x43\x46\x03"
DWELL 0.15
G1 X41.858 Y27.543 ;extruding 
G1 X38.426 Y29.335 ;extruding 
G1 X35.899 Y30.435 ;extruding 
G1 X33.231 Y31.367 ;extruding 
G1 X29.560 Y32.382 ;extruding 
G1 X27.873 Y32.813 ;extruding 
G1 X26.252 Y33.257 ;extruding 
G1 X25.256 Y33.453 ;extruding 
G1 X24.472 Y33.511 ;extruding 
G1 X23.860 Y33.469 ;extruding 
G1 X23.396 Y33.367 ;extruding 
G1 X22.967 Y33.204 ;extruding 
G1 X22.554 Y32.964 ;extruding 
G1 X22.277 Y32.742 ;extruding 
G1 X22.056 Y32.502 ;extruding 
G1 X21.902 Y32.272 ;extruding 
G1 X21.792 Y32.030 ;extruding 
G1 X21.739 Y31.837 ;extruding 
G1 X21.715 Y31.631 ;extruding 
G1 X21.725 Y31.412 ;extruding 
G1 X21.767 Y31.210 ;extruding 
G1 X21.849 Y30.995 ;extruding 
G1 X21.981 Y30.762 ;extruding 
G1 X22.084 Y30.643 ;extruding 
G1 X21.563 Y30.319 ;extruding 
G1 X20.736 Y29.611 ;extruding 
G1 X20.268 Y29.072 ;extruding 
G1 X19.989 Y28.657 ;extruding 
G1 X19.818 Y28.302 ;extruding 
G1 X19.732 Y28.024 ;extruding 
G1 X19.696 Y27.791 ;extruding 
G1 X19.697 Y27.582 ;extruding 
G1 X19.726 Y27.400 ;extruding 
G1 X19.820 Y27.149 ;extruding 
G1 X19.932 Y26.973 ;extruding 
G1 X20.070 Y26.820 ;extruding 
G1 X20.264 Y26.663 ;extruding 
G1 X20.496 Y26.527 ;extruding 
G1 X20.919 Y26.358 ;extruding 
G1 X25.970 Y25.230 ;extruding 
G1 X41.694 Y27.105 ;extruding 
FILEWRITE $hFile"\x05\x02\x30\x34\x44\x49\x20\x20\x43\x46\x03"
G1 X20.137 Y33.586 ;not extruding 
FILEWRITE $hFile"\x05\x02\x30\x34\x44\x49\x20\x20\x43\x46\x03"
DWELL 0.15
G1 X13.704 Y33.586 ;extruding 
G1 X13.470 Y33.325 ;extruding 
G1 X13.180 Y33.092 ;extruding 
G1 X12.022 Y32.412 ;extruding 
G1 X11.421 Y32.013 ;extruding 
G1 X11.156 Y31.773 ;extruding 
G1 X10.960 Y31.534 ;extruding 
G1 X10.827 Y31.308 ;extruding 
G1 X10.736 Y31.076 ;extruding 
G1 X10.679 Y30.786 ;extruding 
G1 X10.655 Y30.220 ;extruding 
G1 X19.820 Y32.965 ;extruding 
G1 X20.097 Y33.509 ;extruding 
FILEWRITE $hFile"\x05\x02\x30\x34\x44\x49\x20\x20\x43\x46\x03"
G1 X19.751 Y32.830 ;not extruding 
FILEWRITE $hFile"\x05\x02\x30\x34\x44\x49\x20\x20\x43\x46\x03"
DWELL 0.15
G1 X9.496 Y29.758 ;extruding 
G1 X9.366 Y29.520 ;extruding 
G1 X9.188 Y29.290 ;extruding 
G1 X8.344 Y28.484 ;extruding 
G1 X7.842 Y27.967 ;extruding 
G1 X7.595 Y27.633 ;extruding 
G1 X7.443 Y27.344 ;extruding 
G1 X7.335 Y26.967 ;extruding 
G1 X7.320 Y26.742 ;extruding 
G1 X7.343 Y26.514 ;extruding 
G1 X7.408 Y26.278 ;extruding 
G1 X7.557 Y25.920 ;extruding 
G1 X18.431 Y30.241 ;extruding 
G1 X19.711 Y32.752 ;extruding 
FILEWRITE $hFile"\x05\x02\x30\x34\x44\x49\x20\x20\x43\x46\x03"
G1 X17.742 Y16.562 ;not extruding 
FILEWRITE $hFile"\x05\x02\x30\x34\x44\x49\x20\x20\x43\x46\x03"
DWELL 0.15
G1 X18.128 Y16.262 ;extruding 
G1 X17.816 Y15.707 ;extruding 
G1 X17.659 Y15.270 ;extruding 
G1 X17.543 Y14.686 ;extruding 
G1 X17.536 Y14.081 ;extruding 
G1 X17.637 Y13.409 ;extruding 
G1 X17.911 Y12.540 ;extruding 
G1 X18.480 Y11.380 ;extruding 
G1 X19.545 Y9.793 ;extruding 
G1 X20.005 Y9.212 ;extruding 
G1 X20.711 Y8.423 ;extruding 
G1 X21.843 Y7.386 ;extruding 
G1 X23.039 Y6.555 ;extruding 
G1 X24.533 Y5.822 ;extruding 
G1 X26.116 Y5.327 ;extruding 
G1 X27.803 Y5.050 ;extruding 
G1 X29.419 Y5.002 ;extruding 
G1 X31.189 Y5.189 ;extruding 
G1 X32.899 Y5.627 ;extruding 
G1 X34.552 Y6.301 ;extruding 
G1 X36.013 Y7.117 ;extruding 
G1 X37.768 Y8.387 ;extruding 
G1 X39.369 Y9.874 ;extruding 
G1 X40.838 Y11.580 ;extruding 
G1 X42.101 Y13.408 ;extruding 
G1 X43.187 Y15.400 ;extruding 
G1 X43.632 Y15.287 ;extruding 
G1 X43.632 Y1.860 ;extruding 
G1 X44.892 Y1.860 ;extruding 
G1 X44.892 Y31.370 ;extruding 
G1 X43.632 Y31.370 ;extruding 
G1 X43.632 Y27.920 ;extruding 
G1 X39.760 Y29.876 ;extruding 
G1 X36.184 Y31.418 ;extruding 
G1 X32.570 Y32.718 ;extruding 
G1 X28.776 Y33.814 ;extruding 
G1 X25.453 Y34.559 ;extruding 
G1 X24.774 Y34.690 ;extruding 
G1 X20.963 Y35.262 ;extruding 
G1 X17.114 Y35.593 ;extruding 
G1 X14.650 Y35.661 ;extruding 
G1 X12.426 Y35.556 ;extruding 
G1 X10.473 Y35.269 ;extruding 
G1 X8.931 Y34.873 ;extruding 
G1 X7.406 Y34.281 ;extruding 
G1 X6.034 Y33.534 ;extruding 
G1 X4.924 Y32.727 ;extruding 
G1 X3.975 Y31.802 ;extruding 
G1 X3.378 Y31.001 ;extruding 
G1 X2.991 Y30.269 ;extruding 
G1 X2.740 Y29.531 ;extruding 
G1 X2.596 Y28.715 ;extruding 
G1 X2.558 Y27.954 ;extruding 
G1 X2.643 Y26.740 ;extruding 
G1 X2.918 Y25.296 ;extruding 
G1 X3.418 Y23.658 ;extruding 
G1 X4.034 Y22.238 ;extruding 
G1 X4.957 Y20.680 ;extruding 
G1 X5.990 Y19.387 ;extruding 
G1 X7.126 Y18.305 ;extruding 
G1 X7.286 Y18.174 ;extruding 
G1 X8.566 Y17.261 ;extruding 
G1 X10.032 Y16.464 ;extruding 
G1 X11.738 Y15.789 ;extruding 
G1 X13.127 Y15.431 ;extruding 
G1 X14.318 Y15.302 ;extruding 
G1 X15.123 Y15.332 ;extruding 
G1 X15.772 Y15.451 ;extruding 
G1 X16.475 Y15.692 ;extruding 
G1 X17.012 Y15.985 ;extruding 
G1 X17.673 Y16.508 ;extruding 
FILEWRITE $hFile"\x05\x02\x30\x34\x44\x49\x20\x20\x43\x46\x03"
G1 X7.812 Y28.489 ;not extruding 
FILEWRITE $hFile"\x05\x02\x30\x34\x44\x49\x20\x20\x43\x46\x03"
DWELL 0.15
G1 X8.052 Y28.902 ;extruding 
G1 X8.136 Y28.818 ;extruding 
G1 X8.471 Y29.137 ;extruding 
G1 X8.352 Y29.255 ;extruding 
G1 X8.412 Y29.325 ;extruding 
G1 X8.697 Y29.563 ;extruding 
G1 X8.805 Y29.456 ;extruding 
G1 X8.902 Y29.549 ;extruding 
G1 X9.092 Y29.822 ;extruding 
FILEWRITE $hFile"\x05\x02\x30\x34\x44\x49\x20\x20\x43\x46\x03"
G1 X13.100 Y33.521 ;not extruding 
FILEWRITE $hFile"\x05\x02\x30\x34\x44\x49\x20\x20\x43\x46\x03"
DWELL 0.15
G1 X13.082 Y33.539 ;extruding 
G1 X13.182 Y33.728 ;extruding 
G1 X13.247 Y33.919 ;extruding 
G1 X13.373 Y33.793 ;extruding 
G1 X13.532 Y33.971 ;extruding 
G1 X13.740 Y33.971 ;extruding 
G1 X13.348 Y34.363 ;extruding 
G1 X13.368 Y34.487 ;extruding 
G1 X13.375 Y34.881 ;extruding 
G1 X14.284 Y33.971 ;extruding 
G1 X14.829 Y33.971 ;extruding 
G1 X13.576 Y35.225 ;extruding 
G1 X14.096 Y35.249 ;extruding 
G1 X15.374 Y33.971 ;extruding 
G1 X15.919 Y33.971 ;extruding 
G1 X14.616 Y35.274 ;extruding 
G1 X15.173 Y35.261 ;extruding 
G1 X16.463 Y33.971 ;extruding 
G1 X17.008 Y33.971 ;extruding 
G1 X15.734 Y35.246 ;extruding 
G1 X16.294 Y35.230 ;extruding 
G1 X17.553 Y33.971 ;extruding 
G1 X18.098 Y33.971 ;extruding 
G1 X16.854 Y35.215 ;extruding 
G1 X17.434 Y35.179 ;extruding 
G1 X18.642 Y33.971 ;extruding 
G1 X19.187 Y33.971 ;extruding 
G1 X18.030 Y35.128 ;extruding 
G1 X18.626 Y35.077 ;extruding 
G1 X19.732 Y33.971 ;extruding 
G1 X20.276 Y33.971 ;extruding 
G1 X19.222 Y35.026 ;extruding 
G1 X19.818 Y34.974 ;extruding 
G1 X21.896 Y32.896 ;extruding 
G1 X22.014 Y33.024 ;extruding 
G1 X22.180 Y33.157 ;extruding 
G1 X20.414 Y34.923 ;extruding 
G1 X21.017 Y34.865 ;extruding 
G1 X22.503 Y33.379 ;extruding 
G1 X22.854 Y33.573 ;extruding 
G1 X21.658 Y34.769 ;extruding 
G1 X22.299 Y34.672 ;extruding 
G1 X23.248 Y33.723 ;extruding 
G1 X23.690 Y33.826 ;extruding 
G1 X22.940 Y34.576 ;extruding 
G1 X23.581 Y34.480 ;extruding 
G1 X24.184 Y33.877 ;extruding 
G1 X24.474 Y33.897 ;extruding 
G1 X24.727 Y33.878 ;extruding 
G1 X24.222 Y34.384 ;extruding 
G1 X24.709 Y34.310 ;extruding 
G1 X24.871 Y34.279 ;extruding 
G1 X25.317 Y33.833 ;extruding 
G1 X25.995 Y33.700 ;extruding 
G1 X25.553 Y34.142 ;extruding 
G1 X26.255 Y33.985 ;extruding 
G1 X26.709 Y33.531 ;extruding 
G1 X27.459 Y33.325 ;extruding 
G1 X26.957 Y33.828 ;extruding 
G1 X27.659 Y33.670 ;extruding 
G1 X28.203 Y33.126 ;extruding 
G1 X28.935 Y32.939 ;extruding 
G1 X28.361 Y33.513 ;extruding 
G1 X28.681 Y33.441 ;extruding 
G1 X29.097 Y33.321 ;extruding 
G1 X29.666 Y32.752 ;extruding 
G1 X30.419 Y32.544 ;extruding 
G1 X29.864 Y33.100 ;extruding 
G1 X30.630 Y32.878 ;extruding 
G1 X31.173 Y32.335 ;extruding 
G1 X31.926 Y32.127 ;extruding 
G1 X31.396 Y32.657 ;extruding 
G1 X32.162 Y32.435 ;extruding 
G1 X32.679 Y31.919 ;extruding 
G1 X33.441 Y31.701 ;extruding 
G1 X32.981 Y32.161 ;extruding 
G1 X33.832 Y31.855 ;extruding 
G1 X34.278 Y31.409 ;extruding 
G1 X35.115 Y31.116 ;extruding 
G1 X34.682 Y31.549 ;extruding 
G1 X35.533 Y31.243 ;extruding 
G1 X35.953 Y30.824 ;extruding 
G1 X36.904 Y30.417 ;extruding 
G1 X36.427 Y30.894 ;extruding 
G1 X37.385 Y30.481 ;extruding 
G1 X37.868 Y29.997 ;extruding 
G1 X38.592 Y29.682 ;extruding 
G1 X38.877 Y29.534 ;extruding 
G1 X38.343 Y30.068 ;extruding 
G1 X39.301 Y29.655 ;extruding 
G1 X40.017 Y28.938 ;extruding 
G1 X41.157 Y28.343 ;extruding 
G1 X40.357 Y29.143 ;extruding 
FILEWRITE $hFile"\x05\x02\x30\x34\x44\x49\x20\x20\x43\x46\x03"
G1 X42.204 Y27.296 ;not extruding 
FILEWRITE $hFile"\x05\x02\x30\x34\x44\x49\x20\x20\x43\x46\x03"
DWELL 0.15
G1 X43.792 Y25.708 ;extruding 
G1 X43.513 Y25.442 ;extruding 
G1 X42.121 Y26.834 ;extruding 
G1 X42.108 Y26.766 ;extruding 
G1 X41.694 Y26.717 ;extruding 
G1 X42.943 Y25.467 ;extruding 
G1 X42.456 Y25.409 ;extruding 
G1 X41.207 Y26.659 ;extruding 
G1 X40.720 Y26.601 ;extruding 
G1 X41.969 Y25.352 ;extruding 
G1 X41.482 Y25.294 ;extruding 
G1 X40.233 Y26.543 ;extruding 
G1 X39.747 Y26.485 ;extruding 
G1 X40.986 Y25.246 ;extruding 
G1 X40.487 Y25.200 ;extruding 
G1 X39.260 Y26.427 ;extruding 
G1 X38.773 Y26.369 ;extruding 
G1 X39.988 Y25.155 ;extruding 
G1 X39.489 Y25.109 ;extruding 
G1 X38.287 Y26.311 ;extruding 
G1 X37.800 Y26.253 ;extruding 
G1 X38.989 Y25.063 ;extruding 
G1 X38.490 Y25.018 ;extruding 
G1 X37.313 Y26.195 ;extruding 
G1 X36.827 Y26.137 ;extruding 
G1 X37.991 Y24.972 ;extruding 
G1 X37.492 Y24.926 ;extruding 
G1 X36.340 Y26.079 ;extruding 
G1 X35.853 Y26.021 ;extruding 
G1 X36.993 Y24.881 ;extruding 
G1 X36.494 Y24.835 ;extruding 
G1 X35.367 Y25.963 ;extruding 
G1 X34.880 Y25.904 ;extruding 
G1 X35.995 Y24.789 ;extruding 
G1 X35.496 Y24.744 ;extruding 
G1 X34.393 Y25.846 ;extruding 
G1 X33.907 Y25.788 ;extruding 
G1 X34.997 Y24.698 ;extruding 
G1 X34.505 Y24.645 ;extruding 
G1 X33.420 Y25.730 ;extruding 
G1 X32.933 Y25.672 ;extruding 
G1 X34.023 Y24.583 ;extruding 
G1 X33.540 Y24.521 ;extruding 
G1 X32.446 Y25.614 ;extruding 
G1 X31.960 Y25.556 ;extruding 
G1 X33.058 Y24.458 ;extruding 
G1 X32.575 Y24.396 ;extruding 
G1 X31.473 Y25.498 ;extruding 
G1 X30.986 Y25.440 ;extruding 
G1 X32.093 Y24.334 ;extruding 
G1 X31.622 Y24.260 ;extruding 
G1 X30.500 Y25.382 ;extruding 
G1 X30.013 Y25.324 ;extruding 
G1 X31.166 Y24.171 ;extruding 
G1 X30.710 Y24.082 ;extruding 
G1 X29.526 Y25.266 ;extruding 
G1 X29.040 Y25.208 ;extruding 
G1 X30.254 Y23.994 ;extruding 
G1 X29.798 Y23.905 ;extruding 
G1 X28.553 Y25.150 ;extruding 
G1 X28.066 Y25.092 ;extruding 
G1 X29.342 Y23.816 ;extruding 
G1 X29.070 Y23.763 ;extruding 
G1 X29.070 Y23.802 ;extruding 
G1 X28.868 Y23.745 ;extruding 
G1 X27.580 Y25.034 ;extruding 
G1 X27.093 Y24.976 ;extruding 
G1 X28.430 Y23.639 ;extruding 
G1 X28.385 Y23.630 ;extruding 
G1 X28.385 Y23.609 ;extruding 
G1 X28.018 Y23.506 ;extruding 
G1 X26.606 Y24.918 ;extruding 
G1 X26.202 Y24.870 ;extruding 
G1 X26.213 Y24.766 ;extruding 
G1 X27.593 Y23.386 ;extruding 
G1 X27.168 Y23.267 ;extruding 
G1 X26.057 Y24.377 ;extruding 
G1 X25.683 Y24.207 ;extruding 
G1 X26.743 Y23.147 ;extruding 
G1 X26.337 Y23.008 ;extruding 
G1 X25.308 Y24.037 ;extruding 
G1 X24.933 Y23.868 ;extruding 
G1 X25.936 Y22.864 ;extruding 
G1 X25.535 Y22.721 ;extruding 
G1 X24.558 Y23.698 ;extruding 
G1 X24.316 Y23.588 ;extruding 
G1 X24.196 Y23.515 ;extruding 
G1 X25.134 Y22.577 ;extruding 
G1 X24.757 Y22.409 ;extruding 
G1 X23.857 Y23.310 ;extruding 
G1 X23.517 Y23.104 ;extruding 
G1 X24.389 Y22.232 ;extruding 
G1 X24.021 Y22.056 ;extruding 
G1 X23.178 Y22.899 ;extruding 
G1 X22.851 Y22.681 ;extruding 
G1 X23.653 Y21.879 ;extruding 
G1 X23.298 Y21.689 ;extruding 
G1 X22.541 Y22.446 ;extruding 
G1 X22.232 Y22.211 ;extruding 
G1 X22.969 Y21.473 ;extruding 
G1 X22.642 Y21.256 ;extruding 
G1 X21.923 Y21.975 ;extruding 
G1 X21.613 Y21.740 ;extruding 
G1 X22.315 Y21.038 ;extruding 
G1 X21.988 Y20.821 ;extruding 
G1 X21.319 Y21.490 ;extruding 
G1 X21.036 Y21.228 ;extruding 
G1 X21.698 Y20.566 ;extruding 
G1 X21.410 Y20.309 ;extruding 
G1 X20.753 Y20.966 ;extruding 
G1 X20.470 Y20.705 ;extruding 
G1 X21.121 Y20.053 ;extruding 
G1 X20.926 Y19.880 ;extruding 
G1 X20.847 Y19.782 ;extruding 
G1 X20.187 Y20.443 ;extruding 
G1 X19.911 Y20.174 ;extruding 
G1 X20.603 Y19.482 ;extruding 
G1 X20.469 Y19.316 ;extruding 
G1 X20.380 Y19.161 ;extruding 
G1 X19.649 Y19.891 ;extruding 
G1 X19.388 Y19.608 ;extruding 
G1 X20.182 Y18.813 ;extruding 
G1 X20.033 Y18.417 ;extruding 
G1 X19.126 Y19.325 ;extruding 
G1 X18.864 Y19.042 ;extruding 
G1 X19.937 Y17.969 ;extruding 
G1 X19.905 Y17.457 ;extruding 
G1 X18.603 Y18.759 ;extruding 
G1 X18.341 Y18.476 ;extruding 
G1 X19.920 Y16.897 ;extruding 
G1 X19.946 Y16.325 ;extruding 
G1 X18.078 Y18.194 ;extruding 
G1 X17.806 Y17.921 ;extruding 
G1 X19.947 Y15.781 ;extruding 
G1 X19.930 Y15.423 ;extruding 
G1 X19.904 Y15.279 ;extruding 
G1 X17.534 Y17.648 ;extruding 
G1 X17.236 Y17.401 ;extruding 
G1 X17.654 Y16.984 ;extruding 
G1 X17.350 Y16.743 ;extruding 
G1 X16.936 Y17.157 ;extruding 
G1 X16.611 Y16.938 ;extruding 
G1 X17.046 Y16.503 ;extruding 
G1 X16.732 Y16.271 ;extruding 
G1 X16.274 Y16.730 ;extruding 
G1 X15.903 Y16.556 ;extruding 
G1 X16.380 Y16.079 ;extruding 
G1 X15.984 Y15.930 ;extruding 
G1 X15.498 Y16.416 ;extruding 
G1 X15.322 Y16.369 ;extruding 
G1 X15.033 Y16.336 ;extruding 
G1 X15.565 Y15.804 ;extruding 
G1 X15.105 Y15.720 ;extruding 
G1 X14.425 Y16.400 ;extruding 
G1 X14.087 Y16.518 ;extruding 
G1 X13.634 Y16.788 ;extruding 
G1 X13.294 Y17.082 ;extruding 
G1 X12.872 Y17.592 ;extruding 
G1 X12.579 Y18.077 ;extruding 
G1 X12.465 Y18.359 ;extruding 
G1 X11.473 Y19.351 ;extruding 
G1 X11.044 Y19.236 ;extruding 
G1 X14.583 Y15.697 ;extruding 
G1 X14.331 Y15.688 ;extruding 
G1 X14.013 Y15.722 ;extruding 
G1 X10.615 Y19.120 ;extruding 
G1 X10.218 Y18.972 ;extruding 
G1 X13.402 Y15.788 ;extruding 
G1 X13.196 Y15.811 ;extruding 
G1 X12.710 Y15.936 ;extruding 
G1 X9.821 Y18.824 ;extruding 
G1 X9.409 Y18.692 ;extruding 
G1 X11.976 Y16.125 ;extruding 
G1 X11.858 Y16.155 ;extruding 
G1 X11.102 Y16.455 ;extruding 
G1 X8.974 Y18.582 ;extruding 
G1 X8.462 Y18.550 ;extruding 
G1 X10.200 Y16.811 ;extruding 
G1 X9.008 Y17.459 ;extruding 
G1 X7.811 Y18.656 ;extruding 
G1 X7.427 Y18.812 ;extruding 
G1 X7.120 Y19.001 ;extruding 
G1 X6.845 Y19.233 ;extruding 
G1 X6.618 Y19.498 ;extruding 
G1 X6.432 Y19.808 ;extruding 
G1 X6.296 Y20.171 ;extruding 
G1 X6.081 Y20.385 ;extruding 
G1 X5.853 Y20.175 ;extruding 
G1 X6.278 Y19.644 ;extruding 
FILEWRITE $hFile"\x05\x02\x30\x34\x44\x49\x20\x20\x43\x46\x03"
G1 X11.902 Y19.467 ;not extruding 
FILEWRITE $hFile"\x05\x02\x30\x34\x44\x49\x20\x20\x43\x46\x03"
DWELL 0.15
G1 X12.222 Y19.147 ;extruding 
G1 X12.320 Y18.719 ;extruding 
G1 X12.465 Y18.359 ;extruding 
FILEWRITE $hFile"\x05\x02\x30\x34\x44\x49\x20\x20\x43\x46\x03"
G1 X18.499 Y16.138 ;not extruding 
FILEWRITE $hFile"\x05\x02\x30\x34\x44\x49\x20\x20\x43\x46\x03"
DWELL 0.15
G1 X19.819 Y14.819 ;extruding 
G1 X19.735 Y14.358 ;extruding 
G1 X18.304 Y15.789 ;extruding 
G1 X18.167 Y15.546 ;extruding 
G1 X18.124 Y15.425 ;extruding 
G1 X19.649 Y13.899 ;extruding 
G1 X19.561 Y13.443 ;extruding 
G1 X17.999 Y15.005 ;extruding 
G1 X17.927 Y14.646 ;extruding 
G1 X17.926 Y14.533 ;extruding 
G1 X19.473 Y12.986 ;extruding 
G1 X19.390 Y12.553 ;extruding 
G1 X19.591 Y12.675 ;extruding 
G1 X19.605 Y12.309 ;extruding 
G1 X17.941 Y13.973 ;extruding 
G1 X18.013 Y13.496 ;extruding 
G1 X18.077 Y13.292 ;extruding 
G1 X19.702 Y11.667 ;extruding 
G1 X19.790 Y11.236 ;extruding 
G1 X19.909 Y10.915 ;extruding 
FILEWRITE $hFile"\x05\x02\x30\x34\x44\x49\x20\x20\x43\x46\x03"
G1 X21.652 Y8.083 ;not extruding 
FILEWRITE $hFile"\x05\x02\x30\x34\x44\x49\x20\x20\x43\x46\x03"
DWELL 0.15
G1 X20.985 Y8.694 ;extruding 
G1 X20.508 Y9.227 ;extruding 
G1 X21.652 Y8.083 ;extruding 
G1 X22.084 Y7.687 ;extruding 
G1 X23.235 Y6.887 ;extruding 
G1 X23.544 Y6.736 ;extruding 
G1 X19.032 Y11.248 ;extruding 
G1 X18.814 Y11.573 ;extruding 
G1 X18.392 Y12.432 ;extruding 
G1 X19.909 Y10.915 ;extruding 
G1 X20.003 Y10.664 ;extruding 
G1 X20.282 Y10.163 ;extruding 
G1 X20.696 Y9.635 ;extruding 
G1 X21.217 Y9.158 ;extruding 
G1 X21.992 Y8.649 ;extruding 
G1 X22.330 Y8.495 ;extruding 
G1 X24.613 Y6.211 ;extruding 
G1 X25.422 Y5.947 ;extruding 
G1 X23.309 Y8.060 ;extruding 
G1 X24.105 Y7.809 ;extruding 
G1 X26.213 Y5.701 ;extruding 
G1 X26.865 Y5.594 ;extruding 
G1 X24.905 Y7.554 ;extruding 
G1 X25.626 Y7.377 ;extruding 
G1 X27.517 Y5.487 ;extruding 
G1 X27.840 Y5.434 ;extruding 
G1 X28.123 Y5.425 ;extruding 
G1 X26.348 Y7.200 ;extruding 
G1 X27.070 Y7.023 ;extruding 
G1 X28.684 Y5.409 ;extruding 
G1 X29.245 Y5.392 ;extruding 
G1 X27.752 Y6.885 ;extruding 
G1 X28.430 Y6.752 ;extruding 
G1 X29.758 Y5.425 ;extruding 
G1 X30.250 Y5.477 ;extruding 
G1 X29.108 Y6.620 ;extruding 
G1 X29.726 Y6.546 ;extruding 
G1 X30.743 Y5.529 ;extruding 
G1 X31.120 Y5.568 ;extruding 
G1 X31.222 Y5.594 ;extruding 
G1 X30.326 Y6.491 ;extruding 
G1 X30.923 Y6.438 ;extruding 
G1 X31.656 Y5.706 ;extruding 
G1 X32.089 Y5.817 ;extruding 
G1 X31.445 Y6.461 ;extruding 
G1 X31.966 Y6.484 ;extruding 
G1 X32.026 Y6.425 ;extruding 
G1 X31.960 Y6.276 ;extruding 
G1 X32.127 Y6.324 ;extruding 
G1 X32.523 Y5.928 ;extruding 
G1 X32.778 Y5.993 ;extruding 
G1 X32.937 Y6.058 ;extruding 
G1 X32.552 Y6.443 ;extruding 
G1 X32.977 Y6.563 ;extruding 
G1 X33.324 Y6.216 ;extruding 
G1 X33.711 Y6.374 ;extruding 
G1 X33.402 Y6.683 ;extruding 
G1 X33.827 Y6.803 ;extruding 
G1 X34.098 Y6.532 ;extruding 
G1 X34.385 Y6.649 ;extruding 
G1 X34.475 Y6.699 ;extruding 
G1 X34.251 Y6.923 ;extruding 
G1 X34.550 Y7.007 ;extruding 
G1 X34.662 Y7.057 ;extruding 
G1 X34.825 Y6.894 ;extruding 
G1 X35.174 Y7.090 ;extruding 
G1 X35.039 Y7.225 ;extruding 
G1 X35.415 Y7.393 ;extruding 
G1 X35.524 Y7.285 ;extruding 
G1 X35.867 Y7.487 ;extruding 
G1 X35.792 Y7.561 ;extruding 
G1 X36.158 Y7.740 ;extruding 
G1 X36.183 Y7.715 ;extruding 
G1 X36.499 Y7.944 ;extruding 
G1 X36.489 Y7.953 ;extruding 
FILEWRITE $hFile"\x05\x02\x30\x34\x44\x49\x20\x20\x43\x46\x03"
G1 X39.182 Y10.247 ;not extruding 
FILEWRITE $hFile"\x05\x02\x30\x34\x44\x49\x20\x20\x43\x46\x03"
DWELL 0.15
G1 X39.137 Y10.293 ;extruding 
G1 X39.315 Y10.768 ;extruding 
G1 X39.485 Y10.598 ;extruding 
G1 X39.786 Y10.949 ;extruding 
FILEWRITE $hFile"\x05\x02\x30\x34\x44\x49\x20\x20\x43\x46\x03"
G1 X44.377 Y2.245 ;not extruding 
FILEWRITE $hFile"\x05\x02\x30\x34\x44\x49\x20\x20\x43\x46\x03"
DWELL 0.15
G1 X44.016 Y2.245 ;extruding 
G1 X44.016 Y2.605 ;extruding 
G1 X44.377 Y2.245 ;extruding 
G1 X44.507 Y2.245 ;extruding 
G1 X44.507 Y2.660 ;extruding 
G1 X44.016 Y3.150 ;extruding 
G1 X44.016 Y3.695 ;extruding 
G1 X44.507 Y3.204 ;extruding 
G1 X44.507 Y3.749 ;extruding 
G1 X44.016 Y4.239 ;extruding 
G1 X44.016 Y4.784 ;extruding 
G1 X44.507 Y4.294 ;extruding 
G1 X44.507 Y4.838 ;extruding 
G1 X44.016 Y5.329 ;extruding 
G1 X44.016 Y5.874 ;extruding 
G1 X44.507 Y5.383 ;extruding 
G1 X44.507 Y5.928 ;extruding 
G1 X44.016 Y6.418 ;extruding 
G1 X44.016 Y6.963 ;extruding 
G1 X44.507 Y6.473 ;extruding 
G1 X44.507 Y7.017 ;extruding 
G1 X44.016 Y7.508 ;extruding 
G1 X44.016 Y8.052 ;extruding 
G1 X44.507 Y7.562 ;extruding 
G1 X44.507 Y8.107 ;extruding 
G1 X44.016 Y8.597 ;extruding 
G1 X44.016 Y9.142 ;extruding 
G1 X44.507 Y8.652 ;extruding 
G1 X44.507 Y9.196 ;extruding 
G1 X44.016 Y9.687 ;extruding 
G1 X44.016 Y10.231 ;extruding 
G1 X44.507 Y9.741 ;extruding 
G1 X44.507 Y10.286 ;extruding 
G1 X44.016 Y10.776 ;extruding 
G1 X44.016 Y11.321 ;extruding 
G1 X44.507 Y10.830 ;extruding 
G1 X44.507 Y11.375 ;extruding 
G1 X44.016 Y11.865 ;extruding 
G1 X44.016 Y12.410 ;extruding 
G1 X44.507 Y11.920 ;extruding 
G1 X44.507 Y12.465 ;extruding 
G1 X44.016 Y12.955 ;extruding 
G1 X44.016 Y13.500 ;extruding 
G1 X44.507 Y13.009 ;extruding 
G1 X44.507 Y13.554 ;extruding 
G1 X44.016 Y14.044 ;extruding 
G1 X44.016 Y14.589 ;extruding 
G1 X44.507 Y14.099 ;extruding 
G1 X44.507 Y14.643 ;extruding 
G1 X44.016 Y15.134 ;extruding 
G1 X44.016 Y15.586 ;extruding 
G1 X43.410 Y15.740 ;extruding 
G1 X43.116 Y16.034 ;extruding 
G1 X43.290 Y16.405 ;extruding 
G1 X44.507 Y15.188 ;extruding 
G1 X44.507 Y15.733 ;extruding 
G1 X43.464 Y16.776 ;extruding 
G1 X43.638 Y17.146 ;extruding 
G1 X44.507 Y16.278 ;extruding 
G1 X44.507 Y16.822 ;extruding 
G1 X43.812 Y17.517 ;extruding 
G1 X43.986 Y17.888 ;extruding 
G1 X44.507 Y17.367 ;extruding 
G1 X44.507 Y17.912 ;extruding 
G1 X44.016 Y18.402 ;extruding 
G1 X44.016 Y18.947 ;extruding 
G1 X44.507 Y18.457 ;extruding 
G1 X44.507 Y19.001 ;extruding 
G1 X44.016 Y19.492 ;extruding 
G1 X44.016 Y20.036 ;extruding 
G1 X44.507 Y19.546 ;extruding 
G1 X44.507 Y20.091 ;extruding 
G1 X44.016 Y20.581 ;extruding 
G1 X44.016 Y21.126 ;extruding 
G1 X44.507 Y20.635 ;extruding 
G1 X44.507 Y21.180 ;extruding 
G1 X44.016 Y21.671 ;extruding 
G1 X44.016 Y21.978 ;extruding 
G1 X43.640 Y22.047 ;extruding 
G1 X43.578 Y22.109 ;extruding 
G1 X43.726 Y22.505 ;extruding 
G1 X44.507 Y21.725 ;extruding 
G1 X44.507 Y22.270 ;extruding 
G1 X43.875 Y22.901 ;extruding 
G1 X44.016 Y23.305 ;extruding 
G1 X44.507 Y22.814 ;extruding 
G1 X44.507 Y23.359 ;extruding 
G1 X44.016 Y23.849 ;extruding 
G1 X44.016 Y24.394 ;extruding 
G1 X44.507 Y23.904 ;extruding 
G1 X44.507 Y24.449 ;extruding 
G1 X44.016 Y24.939 ;extruding 
G1 X44.016 Y25.484 ;extruding 
G1 X44.507 Y24.993 ;extruding 
G1 X44.507 Y25.538 ;extruding 
G1 X41.458 Y28.587 ;extruding 
G1 X42.559 Y28.031 ;extruding 
G1 X44.507 Y26.083 ;extruding 
G1 X44.507 Y26.627 ;extruding 
G1 X43.660 Y27.475 ;extruding 
G1 X44.016 Y27.294 ;extruding 
G1 X44.016 Y27.662 ;extruding 
G1 X44.507 Y27.172 ;extruding 
G1 X44.507 Y27.717 ;extruding 
G1 X44.016 Y28.207 ;extruding 
G1 X44.016 Y28.752 ;extruding 
G1 X44.507 Y28.262 ;extruding 
G1 X44.507 Y28.806 ;extruding 
G1 X44.016 Y29.297 ;extruding 
G1 X44.016 Y29.841 ;extruding 
G1 X44.507 Y29.351 ;extruding 
G1 X44.507 Y29.896 ;extruding 
G1 X44.016 Y30.386 ;extruding 
G1 X44.016 Y30.931 ;extruding 
G1 X44.507 Y30.440 ;extruding 
G1 X44.507 Y30.985 ;extruding 
FILEWRITE $hFile"\x05\x02\x30\x34\x44\x49\x20\x20\x43\x46\x03"
G1 X20.600 Y33.648 ;not extruding 
FILEWRITE $hFile"\x05\x02\x30\x34\x44\x49\x20\x20\x43\x46\x03"
DWELL 0.15
G1 X21.654 Y32.594 ;extruding 
G1 X21.564 Y32.459 ;extruding 
G1 X21.464 Y32.239 ;extruding 
G1 X20.416 Y33.287 ;extruding 
G1 X20.232 Y32.926 ;extruding 
G1 X21.348 Y31.810 ;extruding 
G1 X21.329 Y31.645 ;extruding 
G1 X21.342 Y31.363 ;extruding 
G1 X21.366 Y31.247 ;extruding 
G1 X20.048 Y32.565 ;extruding 
G1 X19.864 Y32.205 ;extruding 
G1 X21.399 Y30.670 ;extruding 
G1 X21.097 Y30.427 ;extruding 
G1 X19.680 Y31.844 ;extruding 
G1 X19.496 Y31.483 ;extruding 
G1 X20.804 Y30.176 ;extruding 
G1 X20.510 Y29.925 ;extruding 
G1 X19.312 Y31.122 ;extruding 
G1 X19.128 Y30.762 ;extruding 
G1 X20.251 Y29.639 ;extruding 
G1 X19.998 Y29.347 ;extruding 
G1 X18.944 Y30.401 ;extruding 
G1 X18.760 Y30.040 ;extruding 
G1 X19.774 Y29.027 ;extruding 
G1 X19.654 Y28.849 ;extruding 
G1 X19.574 Y28.682 ;extruding 
G1 X18.576 Y29.679 ;extruding 
G1 X18.392 Y29.319 ;extruding 
G1 X19.413 Y28.298 ;extruding 
G1 X19.356 Y28.111 ;extruding 
G1 X19.332 Y27.956 ;extruding 
G1 X18.826 Y28.527 ;extruding 
G1 X18.704 Y28.462 ;extruding 
G1 X18.208 Y28.958 ;extruding 
G1 X18.024 Y28.597 ;extruding 
G1 X18.349 Y28.273 ;extruding 
G1 X17.993 Y28.084 ;extruding 
G1 X17.840 Y28.236 ;extruding 
G1 X17.676 Y27.915 ;extruding 
G1 X17.993 Y28.084 ;extruding 
FILEWRITE $hFile"\x05\x02\x30\x34\x44\x49\x20\x20\x43\x46\x03"
G1 X78.030 Y35.061 ;not extruding 
FILEWRITE $hFile"\x05\x02\x30\x34\x44\x49\x20\x20\x43\x46\x03"
DWELL 0.15
G1 X78.040 Y34.521 ;extruding 
G1 X78.096 Y34.174 ;extruding 
G1 X78.196 Y33.881 ;extruding 
G1 X78.310 Y33.664 ;extruding 
G1 X78.526 Y33.365 ;extruding 
G1 X78.820 Y33.080 ;extruding 
G1 X79.196 Y32.803 ;extruding 
G1 X80.206 Y32.173 ;extruding 
G1 X80.598 Y31.865 ;extruding 
G1 X80.800 Y31.645 ;extruding 
G1 X80.928 Y31.453 ;extruding 
G1 X81.024 Y31.242 ;extruding 
G1 X81.086 Y31.011 ;extruding 
G1 X81.133 Y30.535 ;extruding 
G1 X81.465 Y30.446 ;extruding 
G1 X81.933 Y30.267 ;extruding 
G1 X82.441 Y29.968 ;extruding 
G1 X82.882 Y29.600 ;extruding 
G1 X83.276 Y29.142 ;extruding 
G1 X83.614 Y28.583 ;extruding 
G1 X83.843 Y28.004 ;extruding 
G1 X83.974 Y27.352 ;extruding 
G1 X83.999 Y26.902 ;extruding 
G1 X83.947 Y26.374 ;extruding 
G1 X83.784 Y25.752 ;extruding 
G1 X84.199 Y25.316 ;extruding 
G1 X84.574 Y24.786 ;extruding 
G1 X84.816 Y24.304 ;extruding 
G1 X84.950 Y23.921 ;extruding 
G1 X85.025 Y23.550 ;extruding 
G1 X85.045 Y23.150 ;extruding 
G1 X85.007 Y22.829 ;extruding 
G1 X84.733 Y21.928 ;extruding 
G1 X84.700 Y21.690 ;extruding 
G1 X84.704 Y21.502 ;extruding 
G1 X84.779 Y21.208 ;extruding 
G1 X84.880 Y21.016 ;extruding 
G1 X85.023 Y20.834 ;extruding 
G1 X85.474 Y20.418 ;extruding 
G1 X86.562 Y22.516 ;extruding 
G1 X87.307 Y24.191 ;extruding 
G1 X87.712 Y25.479 ;extruding 
G1 X87.906 Y26.605 ;extruding 
G1 X87.921 Y27.784 ;extruding 
G1 X87.746 Y28.929 ;extruding 
G1 X87.381 Y30.046 ;extruding 
G1 X86.873 Y31.016 ;extruding 
G1 X86.181 Y31.942 ;extruding 
G1 X85.259 Y32.841 ;extruding 
G1 X83.997 Y33.726 ;extruding 
G1 X82.590 Y34.408 ;extruding 
G1 X81.109 Y34.862 ;extruding 
G1 X79.659 Y35.076 ;extruding 
G1 X78.117 Y35.062 ;extruding 
FILEWRITE $hFile"\x05\x02\x30\x34\x44\x49\x20\x20\x43\x46\x03"
G1 X72.668 Y30.093 ;not extruding 
FILEWRITE $hFile"\x05\x02\x30\x34\x44\x49\x20\x20\x43\x46\x03"
DWELL 0.15
G1 X74.158 Y27.171 ;extruding 
G1 X83.532 Y22.177 ;extruding 
G1 X83.809 Y22.239 ;extruding 
G1 X84.057 Y22.357 ;extruding 
G1 X84.237 Y22.529 ;extruding 
G1 X84.356 Y22.756 ;extruding 
G1 X84.406 Y23.107 ;extruding 
G1 X84.386 Y23.361 ;extruding 
G1 X84.308 Y23.715 ;extruding 
G1 X84.171 Y24.129 ;extruding 
G1 X83.742 Y25.178 ;extruding 
G1 X83.674 Y25.399 ;extruding 
G1 X83.701 Y25.708 ;extruding 
G1 X72.749 Y30.061 ;extruding 
FILEWRITE $hFile"\x05\x02\x30\x34\x44\x49\x20\x20\x43\x46\x03"
G1 X72.284 Y28.045 ;not extruding 
FILEWRITE $hFile"\x05\x02\x30\x34\x44\x49\x20\x20\x43\x46\x03"
DWELL 0.15
G1 X71.063 Y26.667 ;extruding 
G1 X78.345 Y20.261 ;extruding 
G1 X78.669 Y20.050 ;extruding 
G1 X79.022 Y19.893 ;extruding 
G1 X80.535 Y19.484 ;extruding 
G1 X81.557 Y19.103 ;extruding 
G1 X82.086 Y18.968 ;extruding 
G1 X82.491 Y18.931 ;extruding 
G1 X82.812 Y18.955 ;extruding 
G1 X83.112 Y19.028 ;extruding 
G1 X83.421 Y19.156 ;extruding 
G1 X83.686 Y19.320 ;extruding 
G1 X83.907 Y19.508 ;extruding 
G1 X84.096 Y19.730 ;extruding 
G1 X84.245 Y19.980 ;extruding 
G1 X84.347 Y20.235 ;extruding 
G1 X84.411 Y20.512 ;extruding 
G1 X84.428 Y20.772 ;extruding 
G1 X84.407 Y21.014 ;extruding 
G1 X84.338 Y21.273 ;extruding 
G1 X84.167 Y21.601 ;extruding 
G1 X84.009 Y21.782 ;extruding 
G1 X83.825 Y21.929 ;extruding 
G1 X83.616 Y22.046 ;extruding 
G1 X83.393 Y22.126 ;extruding 
G1 X72.361 Y28.004 ;extruding 
FILEWRITE $hFile"\x05\x02\x30\x34\x44\x49\x20\x20\x43\x46\x03"
G1 X65.237 Y25.122 ;not extruding 
FILEWRITE $hFile"\x05\x02\x30\x34\x44\x49\x20\x20\x43\x46\x03"
DWELL 0.15
G1 X65.199 Y24.698 ;extruding 
G1 X66.886 Y23.930 ;extruding 
G1 X68.427 Y22.981 ;extruding 
G1 X69.796 Y21.929 ;extruding 
G1 X70.830 Y20.999 ;extruding 
G1 X71.434 Y20.399 ;extruding 
G1 X73.224 Y18.458 ;extruding 
G1 X73.876 Y17.821 ;extruding 
G1 X74.458 Y17.356 ;extruding 
G1 X74.997 Y17.029 ;extruding 
G1 X75.457 Y16.831 ;extruding 
G1 X75.763 Y16.750 ;extruding 
G1 X76.037 Y16.718 ;extruding 
G1 X76.280 Y16.728 ;extruding 
G1 X76.517 Y16.775 ;extruding 
G1 X76.911 Y16.939 ;extruding 
G1 X77.167 Y17.104 ;extruding 
G1 X77.451 Y17.350 ;extruding 
G1 X77.766 Y17.715 ;extruding 
G1 X78.098 Y18.247 ;extruding 
G1 X78.325 Y18.802 ;extruding 
G1 X78.428 Y19.243 ;extruding 
G1 X78.456 Y19.594 ;extruding 
G1 X78.401 Y20.064 ;extruding 
G1 X71.165 Y26.432 ;extruding 
G1 X65.322 Y25.141 ;extruding 
FILEWRITE $hFile"\x05\x02\x30\x34\x44\x49\x20\x20\x43\x46\x03"
G1 X62.338 Y23.294 ;not extruding 
FILEWRITE $hFile"\x05\x02\x30\x34\x44\x49\x20\x20\x43\x46\x03"
DWELL 0.15
G1 X62.338 Y18.662 ;extruding 
G1 X71.087 Y13.336 ;extruding 
G1 X70.710 Y15.379 ;extruding 
G1 X70.679 Y16.051 ;extruding 
G1 X70.739 Y17.357 ;extruding 
G1 X70.709 Y17.886 ;extruding 
G1 X70.626 Y18.291 ;extruding 
G1 X70.486 Y18.662 ;extruding 
G1 X70.236 Y19.098 ;extruding 
G1 X69.818 Y19.613 ;extruding 
G1 X68.812 Y20.507 ;extruding 
G1 X67.556 Y21.343 ;extruding 
G1 X67.333 Y21.470 ;extruding 
G1 X65.841 Y22.186 ;extruding 
G1 X64.240 Y22.759 ;extruding 
G1 X62.421 Y23.270 ;extruding 
FILEWRITE $hFile"\x05\x02\x30\x34\x44\x49\x20\x20\x43\x46\x03"
G1 X57.700 Y18.579 ;not extruding 
FILEWRITE $hFile"\x05\x02\x30\x34\x44\x49\x20\x20\x43\x46\x03"
DWELL 0.15
G1 X65.925 Y7.902 ;extruding 
G1 X67.787 Y8.498 ;extruding 
G1 X68.899 Y9.015 ;extruding 
G1 X69.600 Y9.488 ;extruding 
G1 X70.081 Y9.941 ;extruding 
G1 X70.395 Y10.337 ;extruding 
G1 X70.670 Y10.826 ;extruding 
G1 X70.870 Y11.368 ;extruding 
G1 X71.018 Y12.090 ;extruding 
G1 X71.069 Y13.218 ;extruding 
G1 X62.262 Y18.579 ;extruding 
G1 X57.787 Y18.579 ;extruding 
FILEWRITE $hFile"\x05\x02\x30\x34\x44\x49\x20\x20\x43\x46\x03"
G1 X52.475 Y20.444 ;not extruding 
FILEWRITE $hFile"\x05\x02\x30\x34\x44\x49\x20\x20\x43\x46\x03"
DWELL 0.15
G1 X58.488 Y6.894 ;extruding 
G1 X60.111 Y6.823 ;extruding 
G1 X61.641 Y6.960 ;extruding 
G1 X63.761 Y7.373 ;extruding 
G1 X65.807 Y7.874 ;extruding 
G1 X57.580 Y18.555 ;extruding 
G1 X52.556 Y20.414 ;extruding 
FILEWRITE $hFile"\x05\x02\x30\x34\x44\x49\x20\x20\x43\x46\x03"
G1 X47.392 Y25.024 ;not extruding 
FILEWRITE $hFile"\x05\x02\x30\x34\x44\x49\x20\x20\x43\x46\x03"
DWELL 0.15
G1 X47.392 Y23.346 ;extruding 
G1 X52.365 Y10.113 ;extruding 
G1 X53.717 Y8.935 ;extruding 
G1 X55.131 Y8.027 ;extruding 
G1 X56.605 Y7.370 ;extruding 
G1 X58.378 Y6.873 ;extruding 
G1 X52.465 Y20.194 ;extruding 
G1 X47.455 Y24.964 ;extruding 
FILEWRITE $hFile"\x05\x02\x30\x34\x44\x49\x20\x20\x43\x46\x03"
G1 X47.876 Y21.745 ;not extruding 
FILEWRITE $hFile"\x05\x02\x30\x34\x44\x49\x20\x20\x43\x46\x03"
DWELL 0.15
G1 X47.392 Y21.657 ;extruding 
G1 X47.392 Y18.039 ;extruding 
G1 X48.513 Y15.657 ;extruding 
G1 X49.608 Y13.706 ;extruding 
G1 X50.804 Y11.939 ;extruding 
G1 X51.233 Y11.389 ;extruding 
G1 X51.675 Y11.637 ;extruding 
G1 X47.906 Y21.664 ;extruding 
FILEWRITE $hFile"\x05\x02\x30\x34\x44\x49\x20\x20\x43\x46\x03"
G1 X47.897 Y24.695 ;not extruding 
FILEWRITE $hFile"\x05\x02\x30\x34\x44\x49\x20\x20\x43\x46\x03"
DWELL 0.15
G1 X51.969 Y20.819 ;extruding 
G1 X57.724 Y18.689 ;extruding 
G1 X62.253 Y18.689 ;extruding 
G1 X62.253 Y23.313 ;extruding 
G1 X59.136 Y23.919 ;extruding 
G1 X56.262 Y24.290 ;extruding 
G1 X49.602 Y24.899 ;extruding 
G1 X48.078 Y25.080 ;extruding 
G1 X47.934 Y24.774 ;extruding 
FILEWRITE $hFile"\x05\x02\x30\x34\x44\x49\x20\x20\x43\x46\x03"
G1 X49.243 Y27.115 ;not extruding 
FILEWRITE $hFile"\x05\x02\x30\x34\x44\x49\x20\x20\x43\x46\x03"
DWELL 0.15
G1 X65.053 Y25.230 ;extruding 
G1 X69.909 Y26.302 ;extruding 
G1 X70.109 Y26.360 ;extruding 
G1 X70.528 Y26.527 ;extruding 
G1 X70.772 Y26.672 ;extruding 
G1 X70.954 Y26.820 ;extruding 
G1 X71.091 Y26.973 ;extruding 
G1 X71.203 Y27.149 ;extruding 
G1 X71.301 Y27.410 ;extruding 
G1 X71.328 Y27.782 ;extruding 
G1 X71.291 Y28.024 ;extruding 
G1 X71.205 Y28.302 ;extruding 
G1 X71.034 Y28.658 ;extruding 
G1 X70.706 Y29.139 ;extruding 
G1 X70.287 Y29.612 ;extruding 
G1 X69.536 Y30.259 ;extruding 
G1 X68.939 Y30.642 ;extruding 
G1 X69.042 Y30.762 ;extruding 
G1 X69.174 Y30.995 ;extruding 
G1 X69.256 Y31.210 ;extruding 
G1 X69.298 Y31.411 ;extruding 
G1 X69.308 Y31.614 ;extruding 
G1 X69.284 Y31.836 ;extruding 
G1 X69.231 Y32.030 ;extruding 
G1 X69.122 Y32.272 ;extruding 
G1 X68.966 Y32.503 ;extruding 
G1 X68.723 Y32.762 ;extruding 
G1 X68.440 Y32.985 ;extruding 
G1 X68.083 Y33.190 ;extruding 
G1 X67.628 Y33.367 ;extruding 
G1 X67.163 Y33.470 ;extruding 
G1 X66.523 Y33.512 ;extruding 
G1 X65.766 Y33.452 ;extruding 
G1 X64.771 Y33.257 ;extruding 
G1 X63.150 Y32.813 ;extruding 
G1 X61.260 Y32.327 ;extruding 
G1 X57.831 Y31.379 ;extruding 
G1 X55.124 Y30.435 ;extruding 
G1 X52.516 Y29.298 ;extruding 
G1 X49.165 Y27.543 ;extruding 
G1 X49.227 Y27.200 ;extruding 
FILEWRITE $hFile"\x05\x02\x30\x34\x44\x49\x20\x20\x43\x46\x03"
G1 X70.886 Y33.586 ;not extruding 
FILEWRITE $hFile"\x05\x02\x30\x34\x44\x49\x20\x20\x43\x46\x03"
DWELL 0.15
G1 X71.203 Y32.965 ;extruding 
G1 X80.376 Y30.218 ;extruding 
G1 X80.332 Y30.862 ;extruding 
G1 X80.286 Y31.077 ;extruding 
G1 X80.200 Y31.299 ;extruding 
G1 X80.062 Y31.535 ;extruding 
G1 X79.834 Y31.806 ;extruding 
G1 X79.521 Y32.076 ;extruding 
G1 X78.872 Y32.490 ;extruding 
G1 X77.842 Y33.092 ;extruding 
G1 X77.553 Y33.325 ;extruding 
G1 X77.319 Y33.586 ;extruding 
G1 X70.973 Y33.586 ;extruding 
FILEWRITE $hFile"\x05\x02\x30\x34\x44\x49\x20\x20\x43\x46\x03"
G1 X71.272 Y32.830 ;not extruding 
FILEWRITE $hFile"\x05\x02\x30\x34\x44\x49\x20\x20\x43\x46\x03"
DWELL 0.15
G1 X72.592 Y30.241 ;extruding 
G1 X83.484 Y25.913 ;extruding 
G1 X83.680 Y26.508 ;extruding 
G1 X83.703 Y26.742 ;extruding 
G1 X83.689 Y26.959 ;extruding 
G1 X83.644 Y27.161 ;extruding 
G1 X83.577 Y27.351 ;extruding 
G1 X83.420 Y27.645 ;extruding 
G1 X83.181 Y27.967 ;extruding 
G1 X82.789 Y28.373 ;extruding 
G1 X81.835 Y29.290 ;extruding 
G1 X81.657 Y29.520 ;extruding 
G1 X81.527 Y29.758 ;extruding 
G1 X71.356 Y32.805 ;extruding 
FILEWRITE $hFile"\x05\x02\x30\x34\x44\x49\x20\x20\x43\x46\x03"
G1 X73.281 Y16.557 ;not extruding 
FILEWRITE $hFile"\x05\x02\x30\x34\x44\x49\x20\x20\x43\x46\x03"
DWELL 0.15
G1 X74.010 Y15.986 ;extruding 
G1 X74.557 Y15.688 ;extruding 
G1 X75.166 Y15.470 ;extruding 
G1 X75.900 Y15.332 ;extruding 
G1 X76.791 Y15.303 ;extruding 
G1 X77.895 Y15.431 ;extruding 
G1 X79.348 Y15.810 ;extruding 
G1 X80.991 Y16.464 ;extruding 
G1 X82.457 Y17.261 ;extruding 
G1 X83.827 Y18.246 ;extruding 
G1 X84.953 Y19.303 ;extruding 
G1 X85.105 Y19.467 ;extruding 
G1 X86.097 Y20.724 ;extruding 
G1 X86.988 Y22.235 ;extruding 
G1 X87.606 Y23.658 ;extruding 
G1 X88.105 Y25.296 ;extruding 
G1 X88.380 Y26.740 ;extruding 
G1 X88.465 Y27.954 ;extruding 
G1 X88.427 Y28.715 ;extruding 
G1 X88.283 Y29.531 ;extruding 
G1 X88.032 Y30.269 ;extruding 
G1 X87.645 Y31.001 ;extruding 
G1 X87.085 Y31.757 ;extruding 
G1 X86.144 Y32.689 ;extruding 
G1 X84.989 Y33.534 ;extruding 
G1 X83.612 Y34.283 ;extruding 
G1 X82.091 Y34.873 ;extruding 
G1 X80.420 Y35.297 ;extruding 
G1 X78.535 Y35.562 ;extruding 
G1 X76.563 Y35.657 ;extruding 
G1 X73.785 Y35.587 ;extruding 
G1 X71.648 Y35.429 ;extruding 
G1 X69.946 Y35.249 ;extruding 
G1 X66.488 Y34.731 ;extruding 
G1 X65.782 Y34.602 ;extruding 
G1 X62.099 Y33.778 ;extruding 
G1 X58.453 Y32.718 ;extruding 
G1 X54.839 Y31.418 ;extruding 
G1 X51.263 Y29.876 ;extruding 
G1 X47.392 Y27.919 ;extruding 
G1 X47.392 Y31.370 ;extruding 
G1 X46.132 Y31.370 ;extruding 
G1 X46.132 Y1.860 ;extruding 
G1 X47.392 Y1.860 ;extruding 
G1 X47.392 Y15.286 ;extruding 
G1 X47.836 Y15.399 ;extruding 
G1 X48.915 Y13.419 ;extruding 
G1 X50.177 Y11.591 ;extruding 
G1 X51.654 Y9.874 ;extruding 
G1 X53.290 Y8.360 ;extruding 
G1 X54.936 Y7.161 ;extruding 
G1 X56.461 Y6.306 ;extruding 
G1 X58.049 Y5.655 ;extruding 
G1 X58.230 Y5.597 ;extruding 
G1 X59.835 Y5.189 ;extruding 
G1 X61.528 Y5.003 ;extruding 
G1 X63.221 Y5.049 ;extruding 
G1 X64.768 Y5.298 ;extruding 
G1 X65.038 Y5.363 ;extruding 
G1 X66.490 Y5.822 ;extruding 
G1 X67.927 Y6.520 ;extruding 
G1 X69.266 Y7.459 ;extruding 
G1 X70.311 Y8.423 ;extruding 
G1 X71.028 Y9.224 ;extruding 
G1 X71.486 Y9.804 ;extruding 
G1 X72.462 Y11.240 ;extruding 
G1 X73.133 Y12.591 ;extruding 
G1 X73.387 Y13.409 ;extruding 
G1 X73.476 Y13.982 ;extruding 
G1 X73.481 Y14.677 ;extruding 
G1 X73.396 Y15.169 ;extruding 
G1 X73.206 Y15.708 ;extruding 
G1 X72.907 Y16.250 ;extruding 
G1 X73.213 Y16.502 ;extruding 
FILEWRITE $hFile"\x05\x02\x30\x34\x44\x49\x20\x20\x43\x46\x03"
G1 X70.579 Y19.272 ;not extruding 
FILEWRITE $hFile"\x05\x02\x30\x34\x44\x49\x20\x20\x43\x46\x03"
DWELL 0.15
G1 X73.015 Y16.837 ;extruding 
G1 X72.714 Y16.590 ;extruding 
G1 X71.021 Y18.283 ;extruding 
G1 X71.091 Y17.936 ;extruding 
G1 X71.108 Y17.648 ;extruding 
G1 X72.418 Y16.338 ;extruding 
G1 X72.854 Y15.550 ;extruding 
G1 X72.961 Y15.247 ;extruding 
G1 X71.112 Y17.096 ;extruding 
G1 X71.088 Y16.572 ;extruding 
G1 X73.095 Y14.565 ;extruding 
G1 X73.091 Y14.021 ;extruding 
G1 X71.064 Y16.048 ;extruding 
G1 X71.091 Y15.474 ;extruding 
G1 X73.018 Y13.546 ;extruding 
G1 X73.011 Y13.496 ;extruding 
G1 X72.895 Y13.122 ;extruding 
G1 X71.206 Y14.810 ;extruding 
G1 X71.330 Y14.139 ;extruding 
G1 X72.761 Y12.707 ;extruding 
G1 X72.579 Y12.341 ;extruding 
G1 X71.454 Y13.467 ;extruding 
G1 X71.578 Y12.795 ;extruding 
G1 X72.397 Y11.975 ;extruding 
G1 X72.216 Y11.609 ;extruding 
G1 X71.417 Y12.407 ;extruding 
G1 X71.401 Y12.043 ;extruding 
G1 X71.373 Y11.904 ;extruding 
G1 X72.013 Y11.264 ;extruding 
G1 X71.791 Y10.938 ;extruding 
G1 X71.280 Y11.450 ;extruding 
G1 X71.241 Y11.262 ;extruding 
G1 X71.154 Y11.027 ;extruding 
G1 X71.570 Y10.612 ;extruding 
G1 X71.348 Y10.286 ;extruding 
G1 X71.002 Y10.631 ;extruding 
G1 X70.805 Y10.281 ;extruding 
G1 X71.122 Y9.964 ;extruding 
G1 X70.880 Y9.658 ;extruding 
G1 X70.583 Y9.955 ;extruding 
G1 X70.337 Y9.653 ;extruding 
G1 X70.632 Y9.358 ;extruding 
G1 X70.373 Y9.069 ;extruding 
G1 X70.055 Y9.387 ;extruding 
G1 X69.761 Y9.133 ;extruding 
G1 X70.115 Y8.780 ;extruding 
G1 X69.837 Y8.509 ;extruding 
G1 X69.434 Y8.912 ;extruding 
G1 X69.107 Y8.691 ;extruding 
G1 X69.552 Y8.246 ;extruding 
G1 X69.267 Y7.983 ;extruding 
G1 X68.736 Y8.515 ;extruding 
G1 X68.362 Y8.341 ;extruding 
G1 X68.977 Y7.726 ;extruding 
G1 X68.655 Y7.500 ;extruding 
G1 X67.987 Y8.167 ;extruding 
G1 X67.579 Y8.028 ;extruding 
G1 X68.333 Y7.274 ;extruding 
G1 X68.011 Y7.049 ;extruding 
G1 X67.164 Y7.895 ;extruding 
G1 X66.749 Y7.762 ;extruding 
G1 X67.682 Y6.829 ;extruding 
G1 X67.314 Y6.650 ;extruding 
G1 X66.352 Y7.611 ;extruding 
G1 X65.920 Y7.496 ;extruding 
G1 X66.945 Y6.471 ;extruding 
G1 X66.576 Y6.292 ;extruding 
G1 X65.472 Y7.396 ;extruding 
G1 X65.032 Y7.288 ;extruding 
G1 X66.189 Y6.130 ;extruding 
G1 X65.773 Y5.999 ;extruding 
G1 X64.592 Y7.180 ;extruding 
G1 X64.152 Y7.072 ;extruding 
G1 X65.357 Y5.868 ;extruding 
G1 X64.940 Y5.736 ;extruding 
G1 X63.706 Y6.970 ;extruding 
G1 X63.247 Y6.881 ;extruding 
G1 X64.486 Y5.643 ;extruding 
G1 X64.014 Y5.567 ;extruding 
G1 X62.789 Y6.792 ;extruding 
G1 X62.330 Y6.702 ;extruding 
G1 X63.542 Y5.491 ;extruding 
G1 X63.185 Y5.433 ;extruding 
G1 X63.055 Y5.430 ;extruding 
G1 X61.872 Y6.613 ;extruding 
G1 X61.386 Y6.551 ;extruding 
G1 X62.521 Y5.415 ;extruding 
G1 X61.988 Y5.401 ;extruding 
G1 X60.883 Y6.506 ;extruding 
G1 X60.380 Y6.461 ;extruding 
G1 X61.441 Y5.400 ;extruding 
G1 X60.826 Y5.467 ;extruding 
G1 X59.844 Y6.450 ;extruding 
G1 X59.271 Y6.475 ;extruding 
G1 X60.211 Y5.535 ;extruding 
G1 X59.903 Y5.568 ;extruding 
G1 X59.536 Y5.662 ;extruding 
G1 X58.860 Y6.338 ;extruding 
G1 X58.098 Y6.551 ;extruding 
G1 X58.801 Y5.848 ;extruding 
G1 X58.181 Y6.016 ;extruding 
G1 X58.019 Y6.083 ;extruding 
G1 X57.337 Y6.765 ;extruding 
G1 X56.576 Y6.978 ;extruding 
G1 X57.090 Y6.464 ;extruding 
G1 X56.629 Y6.653 ;extruding 
G1 X56.000 Y7.006 ;extruding 
G1 X55.617 Y7.389 ;extruding 
G1 X54.947 Y7.688 ;extruding 
G1 X54.454 Y8.005 ;extruding 
G1 X54.513 Y7.945 ;extruding 
FILEWRITE $hFile"\x05\x02\x30\x34\x44\x49\x20\x20\x43\x46\x03"
G1 X51.933 Y10.140 ;not extruding 
FILEWRITE $hFile"\x05\x02\x30\x34\x44\x49\x20\x20\x43\x46\x03"
DWELL 0.15
G1 X51.950 Y10.125 ;extruding 
G1 X51.569 Y11.136 ;extruding 
FILEWRITE $hFile"\x05\x02\x30\x34\x44\x49\x20\x20\x43\x46\x03"
G1 X46.517 Y2.245 ;not extruding 
FILEWRITE $hFile"\x05\x02\x30\x34\x44\x49\x20\x20\x43\x46\x03"
DWELL 0.15
G1 X47.007 Y2.245 ;extruding 
G1 X47.007 Y2.303 ;extruding 
G1 X46.516 Y2.793 ;extruding 
G1 X46.516 Y3.341 ;extruding 
G1 X47.007 Y2.851 ;extruding 
G1 X47.007 Y3.399 ;extruding 
G1 X46.516 Y3.889 ;extruding 
G1 X46.516 Y4.437 ;extruding 
G1 X47.007 Y3.946 ;extruding 
G1 X47.007 Y4.494 ;extruding 
G1 X46.516 Y4.985 ;extruding 
G1 X46.516 Y5.532 ;extruding 
G1 X47.007 Y5.042 ;extruding 
G1 X47.007 Y5.590 ;extruding 
G1 X46.516 Y6.080 ;extruding 
G1 X46.516 Y6.628 ;extruding 
G1 X47.007 Y6.138 ;extruding 
G1 X47.007 Y6.686 ;extruding 
G1 X46.516 Y7.176 ;extruding 
G1 X46.516 Y7.724 ;extruding 
G1 X47.007 Y7.234 ;extruding 
G1 X47.007 Y7.781 ;extruding 
G1 X46.516 Y8.272 ;extruding 
G1 X46.516 Y8.820 ;extruding 
G1 X47.007 Y8.329 ;extruding 
G1 X47.007 Y8.877 ;extruding 
G1 X46.516 Y9.367 ;extruding 
G1 X46.516 Y9.915 ;extruding 
G1 X47.007 Y9.425 ;extruding 
G1 X47.007 Y9.973 ;extruding 
G1 X46.516 Y10.463 ;extruding 
G1 X46.516 Y11.011 ;extruding 
G1 X47.007 Y10.521 ;extruding 
G1 X47.007 Y11.069 ;extruding 
G1 X46.516 Y11.559 ;extruding 
G1 X46.516 Y12.107 ;extruding 
G1 X47.007 Y11.616 ;extruding 
G1 X47.007 Y12.164 ;extruding 
G1 X46.516 Y12.655 ;extruding 
G1 X46.516 Y13.203 ;extruding 
G1 X47.007 Y12.712 ;extruding 
G1 X47.007 Y13.260 ;extruding 
G1 X46.516 Y13.750 ;extruding 
G1 X46.516 Y14.298 ;extruding 
G1 X47.007 Y13.808 ;extruding 
G1 X47.007 Y14.356 ;extruding 
G1 X46.516 Y14.846 ;extruding 
G1 X46.516 Y15.394 ;extruding 
G1 X47.007 Y14.904 ;extruding 
G1 X47.007 Y15.452 ;extruding 
G1 X46.516 Y15.942 ;extruding 
G1 X46.516 Y16.490 ;extruding 
G1 X47.337 Y15.669 ;extruding 
G1 X47.774 Y15.780 ;extruding 
G1 X46.516 Y17.038 ;extruding 
G1 X46.516 Y17.585 ;extruding 
G1 X47.769 Y16.333 ;extruding 
G1 X47.282 Y17.368 ;extruding 
G1 X46.516 Y18.133 ;extruding 
G1 X46.516 Y18.681 ;extruding 
G1 X47.007 Y18.191 ;extruding 
G1 X47.007 Y18.739 ;extruding 
G1 X46.516 Y19.229 ;extruding 
G1 X46.516 Y19.777 ;extruding 
G1 X47.007 Y19.287 ;extruding 
G1 X47.007 Y19.834 ;extruding 
G1 X46.516 Y20.325 ;extruding 
G1 X46.516 Y20.873 ;extruding 
G1 X47.007 Y20.382 ;extruding 
G1 X47.007 Y20.930 ;extruding 
G1 X46.516 Y21.421 ;extruding 
G1 X46.516 Y21.968 ;extruding 
G1 X47.007 Y21.478 ;extruding 
G1 X47.007 Y21.978 ;extruding 
G1 X47.047 Y21.986 ;extruding 
G1 X46.516 Y22.516 ;extruding 
G1 X46.516 Y23.064 ;extruding 
G1 X47.430 Y22.151 ;extruding 
G1 X47.100 Y23.028 ;extruding 
G1 X46.516 Y23.612 ;extruding 
G1 X46.516 Y24.160 ;extruding 
G1 X47.007 Y23.670 ;extruding 
G1 X47.007 Y24.217 ;extruding 
G1 X46.516 Y24.708 ;extruding 
G1 X46.516 Y25.256 ;extruding 
G1 X47.007 Y24.765 ;extruding 
G1 X47.007 Y25.313 ;extruding 
G1 X46.516 Y25.803 ;extruding 
G1 X46.516 Y26.351 ;extruding 
G1 X47.007 Y25.861 ;extruding 
G1 X47.007 Y25.921 ;extruding 
G1 X47.726 Y25.237 ;extruding 
G1 X47.847 Y25.494 ;extruding 
G1 X47.931 Y25.485 ;extruding 
G1 X46.516 Y26.899 ;extruding 
G1 X46.516 Y27.447 ;extruding 
G1 X48.552 Y25.411 ;extruding 
G1 X49.174 Y25.337 ;extruding 
G1 X47.147 Y27.365 ;extruding 
G1 X47.511 Y27.548 ;extruding 
G1 X49.791 Y25.268 ;extruding 
G1 X50.394 Y25.213 ;extruding 
G1 X47.875 Y27.732 ;extruding 
G1 X48.239 Y27.916 ;extruding 
G1 X48.810 Y27.345 ;extruding 
G1 X48.736 Y27.752 ;extruding 
G1 X48.877 Y27.826 ;extruding 
G1 X48.603 Y28.100 ;extruding 
G1 X48.966 Y28.284 ;extruding 
G1 X49.236 Y28.014 ;extruding 
G1 X49.596 Y28.203 ;extruding 
G1 X49.330 Y28.468 ;extruding 
G1 X49.694 Y28.652 ;extruding 
G1 X49.955 Y28.391 ;extruding 
G1 X50.315 Y28.579 ;extruding 
G1 X50.058 Y28.836 ;extruding 
G1 X50.422 Y29.020 ;extruding 
G1 X50.674 Y28.768 ;extruding 
G1 X51.034 Y28.956 ;extruding 
G1 X50.786 Y29.204 ;extruding 
G1 X51.150 Y29.388 ;extruding 
G1 X51.394 Y29.144 ;extruding 
G1 X51.753 Y29.332 ;extruding 
G1 X51.519 Y29.567 ;extruding 
G1 X51.902 Y29.732 ;extruding 
G1 X52.113 Y29.521 ;extruding 
G1 X52.480 Y29.702 ;extruding 
G1 X52.284 Y29.897 ;extruding 
G1 X52.667 Y30.062 ;extruding 
G1 X52.861 Y29.868 ;extruding 
G1 X53.243 Y30.034 ;extruding 
G1 X53.050 Y30.227 ;extruding 
G1 X53.433 Y30.392 ;extruding 
G1 X53.624 Y30.201 ;extruding 
G1 X54.006 Y30.367 ;extruding 
G1 X53.815 Y30.557 ;extruding 
G1 X54.198 Y30.723 ;extruding 
G1 X54.387 Y30.533 ;extruding 
G1 X54.769 Y30.700 ;extruding 
G1 X54.581 Y30.888 ;extruding 
G1 X54.964 Y31.053 ;extruding 
G1 X55.161 Y30.855 ;extruding 
G1 X55.567 Y30.997 ;extruding 
G1 X55.366 Y31.199 ;extruding 
G1 X55.769 Y31.344 ;extruding 
G1 X55.973 Y31.139 ;extruding 
G1 X56.380 Y31.280 ;extruding 
G1 X56.172 Y31.488 ;extruding 
G1 X56.574 Y31.633 ;extruding 
G1 X56.786 Y31.422 ;extruding 
G1 X57.192 Y31.564 ;extruding 
G1 X56.977 Y31.778 ;extruding 
G1 X57.380 Y31.923 ;extruding 
G1 X57.598 Y31.705 ;extruding 
G1 X58.021 Y31.831 ;extruding 
G1 X57.783 Y32.068 ;extruding 
G1 X58.186 Y32.213 ;extruding 
G1 X58.450 Y31.949 ;extruding 
G1 X58.879 Y32.068 ;extruding 
G1 X58.590 Y32.357 ;extruding 
G1 X59.014 Y32.481 ;extruding 
G1 X59.308 Y32.187 ;extruding 
G1 X59.737 Y32.306 ;extruding 
G1 X59.439 Y32.604 ;extruding 
G1 X59.863 Y32.727 ;extruding 
G1 X60.167 Y32.424 ;extruding 
G1 X60.596 Y32.543 ;extruding 
G1 X60.288 Y32.851 ;extruding 
G1 X60.713 Y32.974 ;extruding 
G1 X61.025 Y32.662 ;extruding 
G1 X61.459 Y32.776 ;extruding 
G1 X61.137 Y33.097 ;extruding 
G1 X61.562 Y33.221 ;extruding 
G1 X61.895 Y32.888 ;extruding 
G1 X62.330 Y33.000 ;extruding 
G1 X61.986 Y33.344 ;extruding 
G1 X62.195 Y33.405 ;extruding 
G1 X62.422 Y33.456 ;extruding 
G1 X62.766 Y33.112 ;extruding 
G1 X63.200 Y33.226 ;extruding 
G1 X62.870 Y33.556 ;extruding 
G1 X63.318 Y33.656 ;extruding 
G1 X63.630 Y33.344 ;extruding 
G1 X64.060 Y33.461 ;extruding 
G1 X63.765 Y33.756 ;extruding 
G1 X64.213 Y33.857 ;extruding 
G1 X64.490 Y33.579 ;extruding 
G1 X64.936 Y33.682 ;extruding 
G1 X64.660 Y33.957 ;extruding 
G1 X65.108 Y34.057 ;extruding 
G1 X65.394 Y33.771 ;extruding 
G1 X65.867 Y33.846 ;extruding 
G1 X65.556 Y34.157 ;extruding 
G1 X66.009 Y34.252 ;extruding 
G1 X66.375 Y33.886 ;extruding 
G1 X66.521 Y33.897 ;extruding 
G1 X66.939 Y33.870 ;extruding 
G1 X66.472 Y34.337 ;extruding 
G1 X66.946 Y34.410 ;extruding 
G1 X67.586 Y33.771 ;extruding 
G1 X67.740 Y33.737 ;extruding 
G1 X68.250 Y33.538 ;extruding 
G1 X68.524 Y33.381 ;extruding 
G1 X67.423 Y34.482 ;extruding 
G1 X67.899 Y34.553 ;extruding 
G1 X72.107 Y30.345 ;extruding 
G1 X71.537 Y31.463 ;extruding 
G1 X68.376 Y34.624 ;extruding 
G1 X68.852 Y34.696 ;extruding 
G1 X70.967 Y32.581 ;extruding 
G1 X70.397 Y33.699 ;extruding 
G1 X69.329 Y34.767 ;extruding 
G1 X69.805 Y34.838 ;extruding 
G1 X70.673 Y33.971 ;extruding 
G1 X71.220 Y33.971 ;extruding 
G1 X70.293 Y34.898 ;extruding 
G1 X70.789 Y34.951 ;extruding 
G1 X71.768 Y33.971 ;extruding 
G1 X72.316 Y33.971 ;extruding 
G1 X71.284 Y35.003 ;extruding 
G1 X71.783 Y35.053 ;extruding 
G1 X72.864 Y33.971 ;extruding 
G1 X73.412 Y33.971 ;extruding 
G1 X72.293 Y35.090 ;extruding 
G1 X72.803 Y35.128 ;extruding 
G1 X73.960 Y33.971 ;extruding 
G1 X74.508 Y33.971 ;extruding 
G1 X73.313 Y35.166 ;extruding 
G1 X73.824 Y35.203 ;extruding 
G1 X75.055 Y33.971 ;extruding 
G1 X75.603 Y33.971 ;extruding 
G1 X74.358 Y35.216 ;extruding 
G1 X74.893 Y35.230 ;extruding 
G1 X76.151 Y33.971 ;extruding 
G1 X76.699 Y33.971 ;extruding 
G1 X75.427 Y35.243 ;extruding 
G1 X75.962 Y35.257 ;extruding 
G1 X77.247 Y33.971 ;extruding 
G1 X77.491 Y33.971 ;extruding 
G1 X77.819 Y33.605 ;extruding 
G1 X77.970 Y33.483 ;extruding 
G1 X77.841 Y33.728 ;extruding 
G1 X77.740 Y34.026 ;extruding 
G1 X76.496 Y35.270 ;extruding 
G1 X77.067 Y35.247 ;extruding 
G1 X77.652 Y34.662 ;extruding 
G1 X77.642 Y35.219 ;extruding 
FILEWRITE $hFile"\x05\x02\x30\x34\x44\x49\x20\x20\x43\x46\x03"
G1 X69.470 Y32.434 ;not extruding 
FILEWRITE $hFile"\x05\x02\x30\x34\x44\x49\x20\x20\x43\x46\x03"
DWELL 0.15
G1 X72.678 Y29.227 ;extruding 
G1 X73.248 Y28.109 ;extruding 
G1 X69.690 Y31.667 ;extruding 
G1 X69.681 Y31.362 ;extruding 
G1 X69.640 Y31.169 ;extruding 
G1 X72.378 Y28.431 ;extruding 
G1 X72.197 Y28.527 ;extruding 
G1 X71.980 Y28.281 ;extruding 
G1 X71.278 Y28.983 ;extruding 
G1 X71.368 Y28.851 ;extruding 
G1 X71.564 Y28.443 ;extruding 
G1 X71.679 Y28.034 ;extruding 
G1 X71.722 Y27.991 ;extruding 
FILEWRITE $hFile"\x05\x02\x30\x34\x44\x49\x20\x20\x43\x46\x03"
G1 X71.278 Y28.983 ;not extruding 
FILEWRITE $hFile"\x05\x02\x30\x34\x44\x49\x20\x20\x43\x46\x03"
DWELL 0.15
G1 X71.010 Y29.376 ;extruding 
G1 X70.557 Y29.887 ;extruding 
G1 X69.767 Y30.569 ;extruding 
G1 X69.559 Y30.702 ;extruding 
G1 X69.490 Y30.771 ;extruding 
FILEWRITE $hFile"\x05\x02\x30\x34\x44\x49\x20\x20\x43\x46\x03"
G1 X84.782 Y20.410 ;not extruding 
FILEWRITE $hFile"\x05\x02\x30\x34\x44\x49\x20\x20\x43\x46\x03"
DWELL 0.15
G1 X85.104 Y20.088 ;extruding 
G1 X84.862 Y19.781 ;extruding 
G1 X84.661 Y19.983 ;extruding 
G1 X84.591 Y19.809 ;extruding 
G1 X84.478 Y19.618 ;extruding 
G1 X84.598 Y19.498 ;extruding 
G1 X84.316 Y19.232 ;extruding 
G1 X84.241 Y19.307 ;extruding 
G1 X83.956 Y19.044 ;extruding 
G1 X84.033 Y18.967 ;extruding 
G1 X83.750 Y18.702 ;extruding 
G1 X83.623 Y18.829 ;extruding 
G1 X83.240 Y18.664 ;extruding 
G1 X83.453 Y18.451 ;extruding 
G1 X83.135 Y18.222 ;extruding 
G1 X82.789 Y18.568 ;extruding 
G1 X82.488 Y18.545 ;extruding 
G1 X82.242 Y18.567 ;extruding 
G1 X82.816 Y17.993 ;extruding 
G1 X82.497 Y17.764 ;extruding 
G1 X81.555 Y18.706 ;extruding 
G1 X80.702 Y19.011 ;extruding 
G1 X82.170 Y17.543 ;extruding 
G1 X81.815 Y17.350 ;extruding 
G1 X79.911 Y19.254 ;extruding 
G1 X79.161 Y19.457 ;extruding 
G1 X81.460 Y17.157 ;extruding 
G1 X81.105 Y16.964 ;extruding 
G1 X78.815 Y19.254 ;extruding 
G1 X78.720 Y18.801 ;extruding 
G1 X80.742 Y16.779 ;extruding 
G1 X80.351 Y16.623 ;extruding 
G1 X78.576 Y18.398 ;extruding 
G1 X78.408 Y18.018 ;extruding 
G1 X79.959 Y16.467 ;extruding 
G1 X79.567 Y16.311 ;extruding 
G1 X78.198 Y17.680 ;extruding 
G1 X78.077 Y17.486 ;extruding 
G1 X77.969 Y17.361 ;extruding 
G1 X79.169 Y16.161 ;extruding 
G1 X78.735 Y16.047 ;extruding 
G1 X77.714 Y17.068 ;extruding 
G1 X77.420 Y16.814 ;extruding 
G1 X78.300 Y15.934 ;extruding 
G1 X77.866 Y15.821 ;extruding 
G1 X77.090 Y16.596 ;extruding 
G1 X76.703 Y16.436 ;extruding 
G1 X77.380 Y15.758 ;extruding 
G1 X76.889 Y15.702 ;extruding 
G1 X76.250 Y16.341 ;extruding 
G1 X76.022 Y16.332 ;extruding 
G1 X75.666 Y16.377 ;extruding 
G1 X76.340 Y15.702 ;extruding 
G1 X75.942 Y15.715 ;extruding 
G1 X75.742 Y15.753 ;extruding 
G1 X74.790 Y16.705 ;extruding 
G1 X74.237 Y17.040 ;extruding 
G1 X73.621 Y17.532 ;extruding 
G1 X72.948 Y18.189 ;extruding 
G1 X71.156 Y20.132 ;extruding 
G1 X70.565 Y20.719 ;extruding 
G1 X69.550 Y21.633 ;extruding 
G1 X68.533 Y22.414 ;extruding 
G1 X75.014 Y15.933 ;extruding 
G1 X74.715 Y16.040 ;extruding 
G1 X74.223 Y16.308 ;extruding 
G1 X73.617 Y16.782 ;extruding 
G1 X66.979 Y23.420 ;extruding 
G1 X66.704 Y23.589 ;extruding 
G1 X65.892 Y23.959 ;extruding 
G1 X69.023 Y20.828 ;extruding 
G1 X67.758 Y21.670 ;extruding 
G1 X67.475 Y21.829 ;extruding 
G1 X64.886 Y24.417 ;extruding 
G1 X64.792 Y24.460 ;extruding 
G1 X64.796 Y24.508 ;extruding 
G1 X64.381 Y24.922 ;extruding 
G1 X63.759 Y24.996 ;extruding 
G1 X66.422 Y22.334 ;extruding 
G1 X65.989 Y22.542 ;extruding 
G1 X65.486 Y22.722 ;extruding 
G1 X63.137 Y25.070 ;extruding 
G1 X62.515 Y25.145 ;extruding 
G1 X64.633 Y23.027 ;extruding 
G1 X64.357 Y23.125 ;extruding 
G1 X63.842 Y23.271 ;extruding 
G1 X61.893 Y25.219 ;extruding 
G1 X61.271 Y25.293 ;extruding 
G1 X63.079 Y23.485 ;extruding 
G1 X62.638 Y23.609 ;extruding 
G1 X62.638 Y23.630 ;extruding 
G1 X62.317 Y23.700 ;extruding 
G1 X60.649 Y25.367 ;extruding 
G1 X60.027 Y25.441 ;extruding 
G1 X61.646 Y23.823 ;extruding 
G1 X60.965 Y23.955 ;extruding 
G1 X59.405 Y25.516 ;extruding 
G1 X58.783 Y25.590 ;extruding 
G1 X60.285 Y24.088 ;extruding 
G1 X59.605 Y24.220 ;extruding 
G1 X58.161 Y25.664 ;extruding 
G1 X57.539 Y25.738 ;extruding 
G1 X58.945 Y24.332 ;extruding 
G1 X58.316 Y24.413 ;extruding 
G1 X56.917 Y25.812 ;extruding 
G1 X56.295 Y25.886 ;extruding 
G1 X57.687 Y24.494 ;extruding 
G1 X57.058 Y24.575 ;extruding 
G1 X55.673 Y25.961 ;extruding 
G1 X55.051 Y26.035 ;extruding 
G1 X56.429 Y24.656 ;extruding 
G1 X55.821 Y24.717 ;extruding 
G1 X54.429 Y26.109 ;extruding 
G1 X53.807 Y26.183 ;extruding 
G1 X55.218 Y24.772 ;extruding 
G1 X54.615 Y24.827 ;extruding 
G1 X53.185 Y26.257 ;extruding 
G1 X52.563 Y26.331 ;extruding 
G1 X54.012 Y24.882 ;extruding 
G1 X53.409 Y24.937 ;extruding 
G1 X51.941 Y26.406 ;extruding 
G1 X51.319 Y26.480 ;extruding 
G1 X52.806 Y24.993 ;extruding 
G1 X52.203 Y25.048 ;extruding 
G1 X50.697 Y26.554 ;extruding 
G1 X50.075 Y26.628 ;extruding 
G1 X51.600 Y25.103 ;extruding 
G1 X50.997 Y25.158 ;extruding 
G1 X49.453 Y26.702 ;extruding 
G1 X48.915 Y26.766 ;extruding 
G1 X48.810 Y27.345 ;extruding 
FILEWRITE $hFile"\x05\x02\x30\x34\x44\x49\x20\x20\x43\x46\x03"
G1 X47.007 Y27.505 ;not extruding 
FILEWRITE $hFile"\x05\x02\x30\x34\x44\x49\x20\x20\x43\x46\x03"
DWELL 0.15
G1 X46.516 Y27.995 ;extruding 
G1 X46.516 Y28.543 ;extruding 
G1 X47.007 Y28.052 ;extruding 
G1 X47.007 Y28.600 ;extruding 
G1 X46.516 Y29.091 ;extruding 
G1 X46.516 Y29.638 ;extruding 
G1 X47.007 Y29.148 ;extruding 
G1 X47.007 Y29.696 ;extruding 
G1 X46.516 Y30.186 ;extruding 
G1 X46.516 Y30.734 ;extruding 
G1 X47.007 Y30.244 ;extruding 
G1 X47.007 Y30.792 ;extruding 
G1 X46.813 Y30.985 ;extruding 
FILEWRITE $hFile"\x05\x02\x30\x34\x44\x49\x20\x20\x43\x46\x03"
G1 D-149.020 ;not extruding 
G1 X12.991 Y35.056 ;not extruding 
FILEWRITE $hFile"\x05\x02\x30\x34\x44\x49\x20\x20\x43\x46\x03"
DWELL 0.15
G1 X11.774 Y35.091 ;extruding 
G1 X11.359 Y35.075 ;extruding 
G1 X10.183 Y34.917 ;extruding 
G1 X9.587 Y34.780 ;extruding 
G1 X8.948 Y34.587 ;extruding 
G1 X8.374 Y34.384 ;extruding 
G1 X7.822 Y34.135 ;extruding 
G1 X7.436 Y33.948 ;extruding 
G1 X6.907 Y33.654 ;extruding 
G1 X6.188 Y33.167 ;extruding 
G1 X5.743 Y32.823 ;extruding 
G1 X5.096 Y32.214 ;extruding 
G1 X4.840 Y31.939 ;extruding 
G1 X4.349 Y31.309 ;extruding 
G1 X4.057 Y30.862 ;extruding 
G1 X3.626 Y30.006 ;extruding 
G1 X3.492 Y29.648 ;extruding 
G1 X3.276 Y28.924 ;extruding 
G1 X3.143 Y28.157 ;extruding 
G1 X3.102 Y27.779 ;extruding 
G1 X3.117 Y26.605 ;extruding 
G1 X3.315 Y25.465 ;extruding 
G1 X3.595 Y24.529 ;extruding 
G1 X3.718 Y24.187 ;extruding 
G1 X4.350 Y22.742 ;extruding 
G1 X5.548 Y20.423 ;extruding 
G1 X5.979 Y20.811 ;extruding 
G1 X6.122 Y20.985 ;extruding 
G1 X6.230 Y21.174 ;extruding 
G1 X6.294 Y21.356 ;extruding 
G1 X6.324 Y21.677 ;extruding 
G1 X6.290 Y21.926 ;extruding 
G1 X6.039 Y22.731 ;extruding 
G1 X5.996 Y22.960 ;extruding 
G1 X5.977 Y23.189 ;extruding 
G1 X6.004 Y23.589 ;extruding 
G1 X6.096 Y23.999 ;extruding 
G1 X6.302 Y24.517 ;extruding 
G1 X6.489 Y24.857 ;extruding 
G1 X6.761 Y25.239 ;extruding 
G1 X7.239 Y25.754 ;extruding 
G1 X7.079 Y26.357 ;extruding 
G1 X7.026 Y26.830 ;extruding 
G1 X7.064 Y27.492 ;extruding 
G1 X7.176 Y27.991 ;extruding 
G1 X7.416 Y28.597 ;extruding 
G1 X7.781 Y29.188 ;extruding 
G1 X8.125 Y29.584 ;extruding 
G1 X8.521 Y29.925 ;extruding 
G1 X8.701 Y30.050 ;extruding 
G1 X9.068 Y30.256 ;extruding 
G1 X9.577 Y30.451 ;extruding 
G1 X9.891 Y30.534 ;extruding 
G1 X9.934 Y30.994 ;extruding 
G1 X9.999 Y31.240 ;extruding 
G1 X10.095 Y31.453 ;extruding 
G1 X10.227 Y31.651 ;extruding 
G1 X10.424 Y31.864 ;extruding 
G1 X10.844 Y32.191 ;extruding 
G1 X11.904 Y32.856 ;extruding 
G1 X12.175 Y33.057 ;extruding 
G1 X12.494 Y33.361 ;extruding 
G1 X12.663 Y33.581 ;extruding 
G1 X12.772 Y33.771 ;extruding 
G1 X12.917 Y34.135 ;extruding 
G1 X12.984 Y34.521 ;extruding 
G1 X12.990 Y34.969 ;extruding 
FILEWRITE $hFile"\x05\x02\x30\x34\x44\x49\x20\x20\x43\x46\x03"
G1 X18.355 Y30.093 ;not extruding 
FILEWRITE $hFile"\x05\x02\x30\x34\x44\x49\x20\x20\x43\x46\x03"
DWELL 0.15
G1 X7.320 Y25.707 ;extruding 
G1 X7.354 Y25.440 ;extruding 
G1 X7.343 Y25.373 ;extruding 
G1 X7.291 Y25.204 ;extruding 
G1 X6.820 Y24.032 ;extruding 
G1 X6.705 Y23.680 ;extruding 
G1 X6.647 Y23.422 ;extruding 
G1 X6.618 Y23.155 ;extruding 
G1 X6.632 Y22.911 ;extruding 
G1 X6.673 Y22.745 ;extruding 
G1 X6.790 Y22.524 ;extruding 
G1 X6.959 Y22.364 ;extruding 
G1 X7.091 Y22.287 ;extruding 
G1 X7.491 Y22.177 ;extruding 
G1 X16.865 Y27.171 ;extruding 
G1 X18.316 Y30.015 ;extruding 
FILEWRITE $hFile"\x05\x02\x30\x34\x44\x49\x20\x20\x43\x46\x03"
G1 X18.739 Y28.045 ;not extruding 
FILEWRITE $hFile"\x05\x02\x30\x34\x44\x49\x20\x20\x43\x46\x03"
DWELL 0.15
G1 X7.631 Y22.126 ;extruding 
G1 X7.420 Y22.052 ;extruding 
G1 X7.198 Y21.929 ;extruding 
G1 X7.015 Y21.783 ;extruding 
G1 X6.870 Y21.619 ;extruding 
G1 X6.755 Y21.436 ;extruding 
G1 X6.654 Y21.183 ;extruding 
G1 X6.607 Y20.947 ;extruding 
G1 X6.595 Y20.732 ;extruding 
G1 X6.621 Y20.460 ;extruding 
G1 X6.704 Y20.161 ;extruding 
G1 X6.785 Y19.965 ;extruding 
G1 X6.942 Y19.710 ;extruding 
G1 X7.117 Y19.507 ;extruding 
G1 X7.337 Y19.320 ;extruding 
G1 X7.603 Y19.156 ;extruding 
G1 X7.923 Y19.023 ;extruding 
G1 X8.312 Y18.946 ;extruding 
G1 X8.583 Y18.932 ;extruding 
G1 X8.913 Y18.963 ;extruding 
G1 X9.504 Y19.115 ;extruding 
G1 X10.673 Y19.547 ;extruding 
G1 X11.976 Y19.884 ;extruding 
G1 X12.344 Y20.044 ;extruding 
G1 X12.664 Y20.250 ;extruding 
G1 X19.960 Y26.667 ;extruding 
G1 X18.797 Y27.980 ;extruding 
FILEWRITE $hFile"\x05\x02\x30\x34\x44\x49\x20\x20\x43\x46\x03"
G1 X25.790 Y25.121 ;not extruding 
FILEWRITE $hFile"\x05\x02\x30\x34\x44\x49\x20\x20\x43\x46\x03"
DWELL 0.15
G1 X19.859 Y26.432 ;extruding 
G1 X12.627 Y20.069 ;extruding 
G1 X12.577 Y19.762 ;extruding 
G1 X12.573 Y19.467 ;extruding 
G1 X12.595 Y19.243 ;extruding 
G1 X12.669 Y18.902 ;extruding 
G1 X12.849 Y18.410 ;extruding 
G1 X13.101 Y17.945 ;extruding 
G1 X13.426 Y17.510 ;extruding 
G1 X13.574 Y17.348 ;extruding 
G1 X13.860 Y17.100 ;extruding 
G1 X14.279 Y16.856 ;extruding 
G1 X14.556 Y16.762 ;extruding 
G1 X14.857 Y16.719 ;extruding 
G1 X15.221 Y16.742 ;extruding 
G1 X15.533 Y16.820 ;extruding 
G1 X16.041 Y17.037 ;extruding 
G1 X16.564 Y17.355 ;extruding 
G1 X17.281 Y17.937 ;extruding 
G1 X17.728 Y18.382 ;extruding 
G1 X19.309 Y20.108 ;extruding 
G1 X19.952 Y20.763 ;extruding 
G1 X21.221 Y21.924 ;extruding 
G1 X22.383 Y22.829 ;extruding 
G1 X22.864 Y23.165 ;extruding 
G1 X24.048 Y23.881 ;extruding 
G1 X24.496 Y24.110 ;extruding 
G1 X25.833 Y24.696 ;extruding 
G1 X25.798 Y25.035 ;extruding 
FILEWRITE $hFile"\x05\x02\x30\x34\x44\x49\x20\x20\x43\x46\x03"
G1 X28.685 Y23.295 ;not extruding 
FILEWRITE $hFile"\x05\x02\x30\x34\x44\x49\x20\x20\x43\x46\x03"
DWELL 0.15
G1 X26.629 Y22.709 ;extruding 
G1 X25.193 Y22.191 ;extruding 
G1 X23.887 Y21.575 ;extruding 
G1 X23.248 Y21.209 ;extruding 
G1 X22.374 Y20.627 ;extruding 
G1 X21.842 Y20.198 ;extruding 
G1 X21.230 Y19.640 ;extruding 
G1 X20.781 Y19.088 ;extruding 
G1 X20.532 Y18.652 ;extruding 
G1 X20.397 Y18.292 ;extruding 
G1 X20.331 Y17.987 ;extruding 
G1 X20.284 Y17.366 ;extruding 
G1 X20.345 Y15.989 ;extruding 
G1 X20.327 Y15.526 ;extruding 
G1 X20.294 Y15.218 ;extruding 
G1 X19.932 Y13.333 ;extruding 
G1 X28.685 Y18.662 ;extruding 
G1 X28.685 Y23.208 ;extruding 
FILEWRITE $hFile"\x05\x02\x30\x34\x44\x49\x20\x20\x43\x46\x03"
G1 X33.323 Y18.579 ;not extruding 
FILEWRITE $hFile"\x05\x02\x30\x34\x44\x49\x20\x20\x43\x46\x03"
DWELL 0.15
G1 X28.761 Y18.579 ;extruding 
G1 X19.955 Y13.219 ;extruding 
G1 X19.997 Y12.145 ;extruding 
G1 X20.177 Y11.289 ;extruding 
G1 X20.353 Y10.827 ;extruding 
G1 X20.549 Y10.464 ;extruding 
G1 X20.712 Y10.222 ;extruding 
G1 X20.980 Y9.897 ;extruding 
G1 X21.361 Y9.540 ;extruding 
G1 X21.905 Y9.150 ;extruding 
G1 X22.343 Y8.900 ;extruding 
G1 X23.355 Y8.449 ;extruding 
G1 X25.101 Y7.906 ;extruding 
G1 X33.270 Y18.510 ;extruding 
FILEWRITE $hFile"\x05\x02\x30\x34\x44\x49\x20\x20\x43\x46\x03"
G1 X38.548 Y20.444 ;not extruding 
FILEWRITE $hFile"\x05\x02\x30\x34\x44\x49\x20\x20\x43\x46\x03"
DWELL 0.15
G1 X33.443 Y18.555 ;extruding 
G1 X25.216 Y7.874 ;extruding 
G1 X27.365 Y7.349 ;extruding 
G1 X29.474 Y6.948 ;extruding 
G1 X30.912 Y6.823 ;extruding 
G1 X32.535 Y6.894 ;extruding 
G1 X38.513 Y20.365 ;extruding 
FILEWRITE $hFile"\x05\x02\x30\x34\x44\x49\x20\x20\x43\x46\x03"
G1 X43.632 Y25.024 ;not extruding 
FILEWRITE $hFile"\x05\x02\x30\x34\x44\x49\x20\x20\x43\x46\x03"
DWELL 0.15
G1 X38.558 Y20.194 ;extruding 
G1 X32.645 Y6.873 ;extruding 
G1 X34.419 Y7.370 ;extruding 
G1 X35.892 Y8.027 ;extruding 
G1 X37.307 Y8.936 ;extruding 
G1 X38.658 Y10.113 ;extruding 
G1 X43.632 Y23.346 ;extruding 
G1 X43.632 Y24.937 ;extruding 
FILEWRITE $hFile"\x05\x02\x30\x34\x44\x49\x20\x20\x43\x46\x03"
G1 X43.147 Y21.745 ;not extruding 
FILEWRITE $hFile"\x05\x02\x30\x34\x44\x49\x20\x20\x43\x46\x03"
DWELL 0.15
G1 X39.347 Y11.635 ;extruding 
G1 X39.790 Y11.387 ;extruding 
G1 X40.269 Y12.006 ;extruding 
G1 X41.455 Y13.773 ;extruding 
G1 X42.538 Y15.708 ;extruding 
G1 X43.632 Y18.039 ;extruding 
G1 X43.632 Y21.657 ;extruding 
G1 X43.233 Y21.729 ;extruding 
FILEWRITE $hFile"\x05\x02\x30\x34\x44\x49\x20\x20\x43\x46\x03"
G1 X43.126 Y24.694 ;not extruding 
FILEWRITE $hFile"\x05\x02\x30\x34\x44\x49\x20\x20\x43\x46\x03"
DWELL 0.15
G1 X42.946 Y25.079 ;extruding 
G1 X41.345 Y24.892 ;extruding 
G1 X34.448 Y24.254 ;extruding 
G1 X31.887 Y23.919 ;extruding 
G1 X28.770 Y23.313 ;extruding 
G1 X28.770 Y18.689 ;extruding 
G1 X33.299 Y18.689 ;extruding 
G1 X39.054 Y20.819 ;extruding 
G1 X43.063 Y24.634 ;extruding 
FILEWRITE $hFile"\x05\x02\x30\x34\x44\x49\x20\x20\x43\x46\x03"
G1 X41.782 Y27.115 ;not extruding 
FILEWRITE $hFile"\x05\x02\x30\x34\x44\x49\x20\x20\x43\x46\x03"
DWELL 0.15
G1 X41.863 Y27.542 ;extruding 
G1 X38.267 Y29.408 ;extruding 
G1 X35.899 Y30.435 ;extruding 
G1 X33.308 Y31.343 ;extruding 
G1 X29.714 Y32.343 ;extruding 
G1 X27.924 Y32.799 ;extruding 
G1 X26.237 Y33.261 ;extruding 
G1 X25.191 Y33.461 ;extruding 
G1 X24.409 Y33.510 ;extruding 
G1 X23.842 Y33.467 ;extruding 
G1 X23.373 Y33.361 ;extruding 
G1 X22.965 Y33.203 ;extruding 
G1 X22.497 Y32.921 ;extruding 
G1 X22.276 Y32.741 ;extruding 
G1 X22.056 Y32.502 ;extruding 
G1 X21.900 Y32.270 ;extruding 
G1 X21.777 Y31.985 ;extruding 
G1 X21.714 Y31.639 ;extruding 
G1 X21.724 Y31.416 ;extruding 
G1 X21.769 Y31.206 ;extruding 
G1 X21.848 Y30.997 ;extruding 
G1 X21.982 Y30.760 ;extruding 
G1 X22.083 Y30.643 ;extruding 
G1 X21.580 Y30.330 ;extruding 
G1 X21.340 Y30.144 ;extruding 
G1 X20.736 Y29.611 ;extruding 
G1 X20.332 Y29.158 ;extruding 
G1 X19.988 Y28.656 ;extruding 
G1 X19.788 Y28.220 ;extruding 
G1 X19.695 Y27.800 ;extruding 
G1 X19.719 Y27.426 ;extruding 
G1 X19.808 Y27.172 ;extruding 
G1 X19.911 Y27.001 ;extruding 
G1 X20.067 Y26.822 ;extruding 
G1 X20.226 Y26.691 ;extruding 
G1 X20.507 Y26.521 ;extruding 
G1 X20.883 Y26.370 ;extruding 
G1 X21.114 Y26.303 ;extruding 
G1 X25.970 Y25.230 ;extruding 
G1 X41.695 Y27.105 ;extruding 
FILEWRITE $hFile"\x05\x02\x30\x34\x44\x49\x20\x20\x43\x46\x03"
G1 X20.137 Y33.586 ;not extruding 
FILEWRITE $hFile"\x05\x02\x30\x34\x44\x49\x20\x20\x43\x46\x03"
DWELL 0.15
G1 X13.704 Y33.586 ;extruding 
G1 X13.463 Y33.319 ;extruding 
G1 X13.156 Y33.075 ;extruding 
G1 X11.799 Y32.274 ;extruding 
G1 X11.458 Y32.043 ;extruding 
G1 X11.246 Y31.861 ;extruding 
G1 X10.965 Y31.542 ;extruding 
G1 X10.828 Y31.311 ;extruding 
G1 X10.726 Y31.040 ;extruding 
G1 X10.671 Y30.651 ;extruding 
G1 X10.670 Y30.225 ;extruding 
G1 X19.820 Y32.965 ;extruding 
G1 X20.097 Y33.509 ;extruding 
FILEWRITE $hFile"\x05\x02\x30\x34\x44\x49\x20\x20\x43\x46\x03"
G1 X19.751 Y32.830 ;not extruding 
FILEWRITE $hFile"\x05\x02\x30\x34\x44\x49\x20\x20\x43\x46\x03"
DWELL 0.15
G1 X9.496 Y29.758 ;extruding 
G1 X9.366 Y29.519 ;extruding 
G1 X9.173 Y29.273 ;extruding 
G1 X8.362 Y28.501 ;extruding 
G1 X7.883 Y28.014 ;extruding 
G1 X7.596 Y27.634 ;extruding 
G1 X7.438 Y27.334 ;extruding 
G1 X7.335 Y26.972 ;extruding 
G1 X7.320 Y26.747 ;extruding 
G1 X7.341 Y26.523 ;extruding 
G1 X7.426 Y26.234 ;extruding 
G1 X7.558 Y25.920 ;extruding 
G1 X18.431 Y30.241 ;extruding 
G1 X19.711 Y32.752 ;extruding 
FILEWRITE $hFile"\x05\x02\x30\x34\x44\x49\x20\x20\x43\x46\x03"
G1 X17.718 Y16.570 ;not extruding 
FILEWRITE $hFile"\x05\x02\x30\x34\x44\x49\x20\x20\x43\x46\x03"
DWELL 0.15
G1 X18.119 Y16.266 ;extruding 
G1 X17.816 Y15.707 ;extruding 
G1 X17.711 Y15.428 ;extruding 
G1 X17.619 Y15.136 ;extruding 
G1 X17.543 Y14.690 ;extruding 
G1 X17.534 Y14.097 ;extruding 
G1 X17.637 Y13.409 ;extruding 
G1 X17.891 Y12.589 ;extruding 
G1 X18.399 Y11.523 ;extruding 
G1 X18.665 Y11.070 ;extruding 
G1 X19.431 Y9.946 ;extruding 
G1 X20.010 Y9.206 ;extruding 
G1 X20.712 Y8.422 ;extruding 
G1 X21.570 Y7.617 ;extruding 
G1 X21.840 Y7.388 ;extruding 
G1 X22.933 Y6.619 ;extruding 
G1 X23.316 Y6.398 ;extruding 
G1 X24.537 Y5.820 ;extruding 
G1 X24.803 Y5.723 ;extruding 
G1 X26.093 Y5.332 ;extruding 
G1 X27.462 Y5.092 ;extruding 
G1 X27.799 Y5.050 ;extruding 
G1 X29.274 Y4.999 ;extruding 
G1 X29.639 Y5.011 ;extruding 
G1 X31.188 Y5.188 ;extruding 
G1 X32.899 Y5.627 ;extruding 
G1 X34.500 Y6.276 ;extruding 
G1 X36.091 Y7.164 ;extruding 
G1 X37.767 Y8.387 ;extruding 
G1 X39.369 Y9.874 ;extruding 
G1 X40.838 Y11.580 ;extruding 
G1 X42.069 Y13.358 ;extruding 
G1 X43.191 Y15.399 ;extruding 
G1 X43.632 Y15.279 ;extruding 
G1 X43.632 Y1.860 ;extruding 
G1 X44.892 Y1.860 ;extruding 
G1 X44.892 Y31.370 ;extruding 
G1 X43.632 Y31.370 ;extruding 
G1 X43.632 Y27.919 ;extruding 
G1 X39.760 Y29.876 ;extruding 
G1 X36.151 Y31.431 ;extruding 
G1 X32.570 Y32.718 ;extruding 
G1 X29.604 Y33.591 ;extruding 
G1 X28.496 Y33.884 ;extruding 
G1 X25.918 Y34.464 ;extruding 
G1 X24.769 Y34.691 ;extruding 
G1 X21.909 Y35.138 ;extruding 
G1 X20.834 Y35.277 ;extruding 
G1 X18.096 Y35.528 ;extruding 
G1 X16.872 Y35.605 ;extruding 
G1 X14.645 Y35.661 ;extruding 
G1 X13.221 Y35.611 ;extruding 
G1 X12.303 Y35.544 ;extruding 
G1 X10.949 Y35.359 ;extruding 
G1 X10.217 Y35.215 ;extruding 
G1 X9.045 Y34.908 ;extruding 
G1 X7.970 Y34.521 ;extruding 
G1 X7.355 Y34.257 ;extruding 
G1 X6.382 Y33.743 ;extruding 
G1 X6.037 Y33.537 ;extruding 
G1 X5.025 Y32.810 ;extruding 
G1 X4.594 Y32.434 ;extruding 
G1 X3.980 Y31.808 ;extruding 
G1 X3.537 Y31.237 ;extruding 
G1 X3.381 Y31.006 ;extruding 
G1 X2.991 Y30.269 ;extruding 
G1 X2.740 Y29.531 ;extruding 
G1 X2.596 Y28.715 ;extruding 
G1 X2.558 Y27.954 ;extruding 
G1 X2.643 Y26.740 ;extruding 
G1 X2.918 Y25.296 ;extruding 
G1 X3.418 Y23.656 ;extruding 
G1 X3.732 Y22.895 ;extruding 
G1 X4.046 Y22.213 ;extruding 
G1 X4.635 Y21.175 ;extruding 
G1 X5.018 Y20.593 ;extruding 
G1 X5.724 Y19.690 ;extruding 
G1 X5.986 Y19.390 ;extruding 
G1 X6.974 Y18.435 ;extruding 
G1 X7.480 Y18.021 ;extruding 
G1 X8.401 Y17.366 ;extruding 
G1 X8.963 Y17.025 ;extruding 
G1 X10.032 Y16.464 ;extruding 
G1 X11.237 Y15.966 ;extruding 
G1 X11.734 Y15.790 ;extruding 
G1 X13.128 Y15.431 ;extruding 
G1 X13.830 Y15.336 ;extruding 
G1 X14.314 Y15.300 ;extruding 
G1 X15.021 Y15.322 ;extruding 
G1 X15.629 Y15.417 ;extruding 
G1 X15.959 Y15.500 ;extruding 
G1 X16.490 Y15.698 ;extruding 
G1 X17.014 Y15.986 ;extruding 
G1 X17.463 Y16.327 ;extruding 
G1 X17.655 Y16.510 ;extruding 
FILEWRITE $hFile"\x05\x02\x30\x34\x44\x49\x20\x20\x43\x46\x03"
G1 X24.044 Y23.429 ;not extruding 
FILEWRITE $hFile"\x05\x02\x30\x34\x44\x49\x20\x20\x43\x46\x03"
DWELL 0.15
G1 X24.661 Y23.762 ;extruding 
G1 X25.131 Y23.968 ;extruding 
G1 X21.909 Y20.747 ;extruding 
G1 X22.145 Y20.937 ;extruding 
G1 X23.045 Y21.537 ;extruding 
G1 X23.518 Y21.807 ;extruding 
G1 X26.105 Y24.395 ;extruding 
G1 X26.245 Y24.456 ;extruding 
G1 X26.238 Y24.527 ;extruding 
G1 X26.632 Y24.921 ;extruding 
G1 X27.254 Y24.995 ;extruding 
G1 X24.591 Y22.332 ;extruding 
G1 X25.046 Y22.546 ;extruding 
G1 X25.527 Y22.720 ;extruding 
G1 X27.876 Y25.069 ;extruding 
G1 X28.498 Y25.144 ;extruding 
G1 X26.385 Y23.030 ;extruding 
G1 X27.164 Y23.262 ;extruding 
G1 X29.120 Y25.218 ;extruding 
G1 X29.743 Y25.292 ;extruding 
G1 X27.931 Y23.480 ;extruding 
G1 X28.385 Y23.610 ;extruding 
G1 X28.385 Y23.630 ;extruding 
G1 X28.697 Y23.699 ;extruding 
G1 X30.365 Y25.366 ;extruding 
G1 X30.987 Y25.440 ;extruding 
G1 X29.368 Y23.821 ;extruding 
G1 X30.048 Y23.954 ;extruding 
G1 X31.609 Y25.514 ;extruding 
G1 X32.231 Y25.589 ;extruding 
G1 X30.729 Y24.086 ;extruding 
G1 X31.409 Y24.218 ;extruding 
G1 X32.853 Y25.663 ;extruding 
G1 X33.476 Y25.737 ;extruding 
G1 X32.070 Y24.331 ;extruding 
G1 X32.700 Y24.414 ;extruding 
G1 X34.098 Y25.811 ;extruding 
G1 X34.720 Y25.885 ;extruding 
G1 X33.331 Y24.496 ;extruding 
G1 X33.961 Y24.578 ;extruding 
G1 X35.342 Y25.960 ;extruding 
G1 X35.964 Y26.034 ;extruding 
G1 X34.584 Y24.653 ;extruding 
G1 X35.187 Y24.709 ;extruding 
G1 X36.586 Y26.108 ;extruding 
G1 X37.209 Y26.182 ;extruding 
G1 X35.791 Y24.765 ;extruding 
G1 X36.395 Y24.820 ;extruding 
G1 X37.831 Y26.256 ;extruding 
G1 X38.453 Y26.331 ;extruding 
G1 X36.999 Y24.876 ;extruding 
G1 X37.602 Y24.932 ;extruding 
G1 X39.075 Y26.405 ;extruding 
G1 X39.697 Y26.479 ;extruding 
G1 X38.206 Y24.988 ;extruding 
G1 X38.810 Y25.044 ;extruding 
G1 X40.319 Y26.553 ;extruding 
G1 X40.942 Y26.627 ;extruding 
G1 X39.414 Y25.100 ;extruding 
G1 X40.018 Y25.155 ;extruding 
G1 X41.564 Y26.701 ;extruding 
FILEWRITE $hFile"\x05\x02\x30\x34\x44\x49\x20\x20\x43\x46\x03"
G1 X44.507 Y28.000 ;not extruding 
FILEWRITE $hFile"\x05\x02\x30\x34\x44\x49\x20\x20\x43\x46\x03"
DWELL 0.15
G1 X44.016 Y27.510 ;extruding 
G1 X44.016 Y28.058 ;extruding 
G1 X44.507 Y28.548 ;extruding 
G1 X44.507 Y29.096 ;extruding 
G1 X44.016 Y28.606 ;extruding 
G1 X44.016 Y29.154 ;extruding 
G1 X44.507 Y29.644 ;extruding 
G1 X44.507 Y30.192 ;extruding 
G1 X44.016 Y29.702 ;extruding 
G1 X44.016 Y30.250 ;extruding 
G1 X44.507 Y30.740 ;extruding 
G1 X44.507 Y30.985 ;extruding 
G1 X44.204 Y30.985 ;extruding 
G1 X44.016 Y30.798 ;extruding 
FILEWRITE $hFile"\x05\x02\x30\x34\x44\x49\x20\x20\x43\x46\x03"
G1 X39.453 Y11.134 ;not extruding 
FILEWRITE $hFile"\x05\x02\x30\x34\x44\x49\x20\x20\x43\x46\x03"
DWELL 0.15
G1 X39.073 Y10.125 ;extruding 
G1 X39.092 Y10.142 ;extruding 
FILEWRITE $hFile"\x05\x02\x30\x34\x44\x49\x20\x20\x43\x46\x03"
G1 X36.561 Y8.000 ;not extruding 
FILEWRITE $hFile"\x05\x02\x30\x34\x44\x49\x20\x20\x43\x46\x03"
DWELL 0.15
G1 X35.879 Y7.485 ;extruding 
G1 X35.013 Y6.999 ;extruding 
G1 X35.400 Y7.386 ;extruding 
G1 X34.550 Y7.007 ;extruding 
G1 X34.443 Y6.977 ;extruding 
G1 X33.924 Y6.458 ;extruding 
G1 X33.002 Y6.084 ;extruding 
G1 X33.681 Y6.763 ;extruding 
G1 X32.920 Y6.550 ;extruding 
G1 X32.220 Y5.850 ;extruding 
G1 X31.483 Y5.661 ;extruding 
G1 X32.159 Y6.336 ;extruding 
G1 X31.962 Y6.281 ;extruding 
G1 X32.054 Y6.488 ;extruding 
G1 X31.749 Y6.475 ;extruding 
G1 X30.806 Y5.532 ;extruding 
G1 X30.187 Y5.461 ;extruding 
G1 X31.176 Y6.449 ;extruding 
G1 X30.904 Y6.438 ;extruding 
G1 X30.639 Y6.461 ;extruding 
G1 X29.572 Y5.394 ;extruding 
G1 X29.023 Y5.393 ;extruding 
G1 X30.134 Y6.504 ;extruding 
G1 X29.630 Y6.548 ;extruding 
G1 X28.493 Y5.411 ;extruding 
G1 X27.963 Y5.429 ;extruding 
G1 X29.152 Y6.618 ;extruding 
G1 X28.691 Y6.705 ;extruding 
G1 X27.468 Y5.482 ;extruding 
G1 X27.002 Y5.564 ;extruding 
G1 X28.231 Y6.793 ;extruding 
G1 X27.770 Y6.880 ;extruding 
G1 X26.535 Y5.645 ;extruding 
G1 X26.182 Y5.707 ;extruding 
G1 X26.080 Y5.738 ;extruding 
G1 X27.310 Y6.968 ;extruding 
G1 X26.868 Y7.074 ;extruding 
G1 X25.660 Y5.865 ;extruding 
G1 X25.239 Y5.993 ;extruding 
G1 X26.428 Y7.182 ;extruding 
G1 X25.988 Y7.289 ;extruding 
G1 X24.823 Y6.125 ;extruding 
G1 X24.441 Y6.291 ;extruding 
G1 X25.547 Y7.397 ;extruding 
G1 X25.106 Y7.504 ;extruding 
G1 X24.069 Y6.467 ;extruding 
G1 X23.697 Y6.643 ;extruding 
G1 X24.666 Y7.612 ;extruding 
G1 X24.260 Y7.754 ;extruding 
G1 X23.337 Y6.830 ;extruding 
G1 X23.000 Y7.042 ;extruding 
G1 X23.845 Y7.887 ;extruding 
G1 X23.431 Y8.021 ;extruding 
G1 X22.679 Y7.269 ;extruding 
G1 X22.357 Y7.495 ;extruding 
G1 X23.034 Y8.171 ;extruding 
G1 X22.655 Y8.340 ;extruding 
G1 X22.039 Y7.724 ;extruding 
G1 X21.746 Y7.980 ;extruding 
G1 X22.276 Y8.509 ;extruding 
G1 X21.918 Y8.700 ;extruding 
G1 X21.464 Y8.245 ;extruding 
G1 X21.181 Y8.510 ;extruding 
G1 X21.578 Y8.907 ;extruding 
G1 X21.257 Y9.135 ;extruding 
G1 X20.905 Y8.783 ;extruding 
G1 X20.647 Y9.072 ;extruding 
G1 X20.961 Y9.387 ;extruding 
G1 X20.681 Y9.655 ;extruding 
G1 X20.388 Y9.361 ;extruding 
G1 X20.305 Y9.453 ;extruding 
G1 X20.141 Y9.663 ;extruding 
G1 X20.434 Y9.955 ;extruding 
G1 X20.211 Y10.281 ;extruding 
G1 X19.901 Y9.970 ;extruding 
G1 X19.666 Y10.284 ;extruding 
G1 X20.019 Y10.636 ;extruding 
G1 X19.864 Y11.030 ;extruding 
G1 X19.444 Y10.610 ;extruding 
G1 X19.294 Y10.831 ;extruding 
G1 X19.274 Y10.988 ;extruding 
G1 X19.748 Y11.461 ;extruding 
G1 X19.652 Y11.914 ;extruding 
G1 X19.000 Y11.262 ;extruding 
G1 X18.797 Y11.606 ;extruding 
G1 X19.601 Y12.411 ;extruding 
G1 X19.591 Y12.675 ;extruding 
G1 X19.390 Y12.553 ;extruding 
G1 X19.436 Y12.793 ;extruding 
G1 X18.612 Y11.970 ;extruding 
G1 X18.435 Y12.341 ;extruding 
G1 X19.566 Y13.472 ;extruding 
G1 X19.697 Y14.150 ;extruding 
G1 X18.258 Y12.712 ;extruding 
G1 X18.127 Y13.128 ;extruding 
G1 X19.827 Y14.829 ;extruding 
G1 X19.936 Y15.485 ;extruding 
G1 X18.004 Y13.554 ;extruding 
G1 X17.933 Y14.031 ;extruding 
G1 X19.957 Y16.055 ;extruding 
G1 X19.934 Y16.579 ;extruding 
G1 X17.926 Y14.571 ;extruding 
G1 X17.927 Y14.654 ;extruding 
G1 X17.994 Y15.046 ;extruding 
G1 X18.059 Y15.252 ;extruding 
G1 X19.910 Y17.104 ;extruding 
G1 X19.898 Y17.372 ;extruding 
G1 X19.920 Y17.661 ;extruding 
G1 X18.595 Y16.336 ;extruding 
G1 X18.615 Y16.374 ;extruding 
G1 X18.313 Y16.602 ;extruding 
G1 X20.004 Y18.293 ;extruding 
G1 X20.027 Y18.401 ;extruding 
G1 X20.183 Y18.816 ;extruding 
G1 X20.453 Y19.290 ;extruding 
G1 X18.001 Y16.838 ;extruding 
G1 X17.689 Y17.073 ;extruding 
G1 X17.675 Y17.061 ;extruding 
G1 X24.044 Y23.429 ;extruding 
G1 X23.074 Y22.842 ;extruding 
G1 X22.494 Y22.428 ;extruding 
G1 X15.989 Y15.922 ;extruding 
G1 X15.552 Y15.795 ;extruding 
G1 X15.269 Y15.750 ;extruding 
G1 X16.209 Y16.691 ;extruding 
G1 X15.656 Y16.454 ;extruding 
G1 X15.348 Y16.377 ;extruding 
G1 X14.667 Y15.696 ;extruding 
G1 X14.323 Y15.685 ;extruding 
G1 X14.123 Y15.700 ;extruding 
G1 X14.766 Y16.344 ;extruding 
G1 X14.467 Y16.386 ;extruding 
G1 X14.313 Y16.438 ;extruding 
G1 X13.626 Y15.752 ;extruding 
G1 X13.149 Y15.823 ;extruding 
G1 X13.937 Y16.610 ;extruding 
G1 X13.598 Y16.819 ;extruding 
G1 X12.714 Y15.935 ;extruding 
G1 X12.278 Y16.047 ;extruding 
G1 X13.304 Y17.073 ;extruding 
G1 X13.051 Y17.368 ;extruding 
G1 X11.843 Y16.160 ;extruding 
G1 X11.438 Y16.303 ;extruding 
G1 X12.817 Y17.682 ;extruding 
G1 X12.617 Y18.030 ;extruding 
G1 X11.048 Y16.461 ;extruding 
G1 X10.660 Y16.621 ;extruding 
G1 X12.442 Y18.403 ;extruding 
G1 X12.297 Y18.806 ;extruding 
G1 X10.272 Y16.781 ;extruding 
G1 X9.907 Y16.964 ;extruding 
G1 X12.206 Y19.263 ;extruding 
G1 X12.189 Y19.557 ;extruding 
G1 X11.848 Y19.453 ;extruding 
G1 X9.548 Y17.153 ;extruding 
G1 X9.189 Y17.342 ;extruding 
G1 X11.109 Y19.262 ;extruding 
G1 X10.788 Y19.179 ;extruding 
G1 X10.297 Y18.998 ;extruding 
G1 X8.846 Y17.547 ;extruding 
G1 X8.511 Y17.760 ;extruding 
G1 X9.457 Y18.706 ;extruding 
G1 X8.979 Y18.583 ;extruding 
G1 X8.766 Y18.563 ;extruding 
G1 X8.191 Y17.988 ;extruding 
G1 X7.870 Y18.215 ;extruding 
G1 X8.226 Y18.571 ;extruding 
G1 X7.775 Y18.668 ;extruding 
G1 X7.560 Y18.453 ;extruding 
G1 X7.258 Y18.699 ;extruding 
G1 X7.393 Y18.833 ;extruding 
G1 X7.061 Y19.050 ;extruding 
G1 X6.978 Y18.967 ;extruding 
G1 X6.699 Y19.236 ;extruding 
G1 X6.776 Y19.313 ;extruding 
G1 X6.630 Y19.482 ;extruding 
G1 X6.541 Y19.626 ;extruding 
G1 X6.421 Y19.506 ;extruding 
G1 X6.152 Y19.785 ;extruding 
G1 X6.358 Y19.991 ;extruding 
G1 X6.238 Y20.419 ;extruding 
G1 X5.904 Y20.084 ;extruding 
FILEWRITE $hFile"\x05\x02\x30\x34\x44\x49\x20\x20\x43\x46\x03"
G1 X19.358 Y28.059 ;not extruding 
FILEWRITE $hFile"\x05\x02\x30\x34\x44\x49\x20\x20\x43\x46\x03"
DWELL 0.15
G1 X19.296 Y27.997 ;extruding 
G1 X19.229 Y28.072 ;extruding 
G1 X19.196 Y28.274 ;extruding 
G1 X19.095 Y28.224 ;extruding 
G1 X19.038 Y28.287 ;extruding 
G1 X19.770 Y29.019 ;extruding 
G1 X20.028 Y29.396 ;extruding 
G1 X20.464 Y29.884 ;extruding 
G1 X21.095 Y30.441 ;extruding 
G1 X21.530 Y30.778 ;extruding 
G1 X21.381 Y31.178 ;extruding 
G1 X18.621 Y28.418 ;extruding 
G1 X17.676 Y27.915 ;extruding 
G1 X17.787 Y28.132 ;extruding 
G1 X21.330 Y31.675 ;extruding 
G1 X21.406 Y32.097 ;extruding 
G1 X21.561 Y32.453 ;extruding 
G1 X18.357 Y29.250 ;extruding 
G1 X18.928 Y30.368 ;extruding 
G1 X18.993 Y30.434 ;extruding 
G1 X18.964 Y30.439 ;extruding 
G1 X18.928 Y30.368 ;extruding 
FILEWRITE $hFile"\x05\x02\x30\x34\x44\x49\x20\x20\x43\x46\x03"
G1 X13.379 Y35.231 ;not extruding 
FILEWRITE $hFile"\x05\x02\x30\x34\x44\x49\x20\x20\x43\x46\x03"
DWELL 0.15
G1 X13.371 Y34.675 ;extruding 
G1 X13.947 Y35.251 ;extruding 
G1 X14.514 Y35.271 ;extruding 
G1 X13.293 Y34.050 ;extruding 
G1 X13.119 Y33.603 ;extruding 
G1 X13.050 Y33.482 ;extruding 
G1 X13.199 Y33.600 ;extruding 
G1 X13.533 Y33.971 ;extruding 
G1 X13.763 Y33.971 ;extruding 
G1 X15.057 Y35.265 ;extruding 
G1 X15.592 Y35.252 ;extruding 
G1 X14.311 Y33.971 ;extruding 
G1 X14.859 Y33.971 ;extruding 
G1 X16.126 Y35.239 ;extruding 
G1 X16.661 Y35.226 ;extruding 
G1 X15.407 Y33.971 ;extruding 
G1 X15.955 Y33.971 ;extruding 
G1 X17.183 Y35.200 ;extruding 
G1 X17.699 Y35.168 ;extruding 
G1 X16.503 Y33.971 ;extruding 
G1 X17.051 Y33.971 ;extruding 
G1 X18.211 Y35.131 ;extruding 
G1 X18.713 Y35.085 ;extruding 
G1 X17.599 Y33.971 ;extruding 
G1 X18.146 Y33.971 ;extruding 
G1 X19.214 Y35.039 ;extruding 
G1 X19.716 Y34.993 ;extruding 
G1 X18.694 Y33.971 ;extruding 
G1 X19.242 Y33.971 ;extruding 
G1 X20.218 Y34.947 ;extruding 
G1 X20.720 Y34.901 ;extruding 
G1 X19.790 Y33.971 ;extruding 
G1 X20.338 Y33.971 ;extruding 
G1 X21.208 Y34.841 ;extruding 
G1 X21.693 Y34.778 ;extruding 
G1 X20.639 Y33.723 ;extruding 
G1 X20.068 Y32.605 ;extruding 
G1 X22.170 Y34.707 ;extruding 
G1 X22.644 Y34.633 ;extruding 
G1 X19.498 Y31.487 ;extruding 
G1 X19.056 Y30.621 ;extruding 
G1 X19.069 Y30.509 ;extruding 
G1 X23.118 Y34.559 ;extruding 
G1 X23.592 Y34.485 ;extruding 
G1 X22.449 Y33.342 ;extruding 
G1 X22.796 Y33.550 ;extruding 
G1 X23.261 Y33.730 ;extruding 
G1 X23.421 Y33.766 ;extruding 
G1 X24.066 Y34.411 ;extruding 
G1 X24.540 Y34.337 ;extruding 
G1 X24.074 Y33.870 ;extruding 
G1 X24.406 Y33.896 ;extruding 
G1 X24.633 Y33.882 ;extruding 
G1 X25.003 Y34.252 ;extruding 
G1 X25.461 Y34.162 ;extruding 
G1 X25.148 Y33.849 ;extruding 
G1 X25.618 Y33.771 ;extruding 
G1 X25.916 Y34.069 ;extruding 
G1 X26.364 Y33.969 ;extruding 
G1 X26.078 Y33.683 ;extruding 
G1 X26.524 Y33.581 ;extruding 
G1 X26.811 Y33.868 ;extruding 
G1 X27.259 Y33.768 ;extruding 
G1 X26.954 Y33.463 ;extruding 
G1 X27.385 Y33.346 ;extruding 
G1 X27.706 Y33.667 ;extruding 
G1 X28.153 Y33.567 ;extruding 
G1 X27.815 Y33.228 ;extruding 
G1 X28.249 Y33.114 ;extruding 
G1 X28.595 Y33.460 ;extruding 
G1 X29.028 Y33.345 ;extruding 
G1 X28.685 Y33.002 ;extruding 
G1 X29.122 Y32.891 ;extruding 
G1 X29.462 Y33.231 ;extruding 
G1 X29.500 Y33.220 ;extruding 
G1 X29.886 Y33.107 ;extruding 
G1 X29.559 Y32.780 ;extruding 
G1 X29.992 Y32.665 ;extruding 
G1 X30.309 Y32.982 ;extruding 
G1 X30.733 Y32.858 ;extruding 
G1 X30.421 Y32.546 ;extruding 
G1 X30.849 Y32.426 ;extruding 
G1 X31.156 Y32.733 ;extruding 
G1 X31.579 Y32.609 ;extruding 
G1 X31.278 Y32.307 ;extruding 
G1 X31.707 Y32.188 ;extruding 
G1 X32.003 Y32.484 ;extruding 
G1 X32.426 Y32.359 ;extruding 
G1 X32.135 Y32.068 ;extruding 
G1 X32.564 Y31.949 ;extruding 
G1 X32.830 Y32.216 ;extruding 
G1 X33.233 Y32.071 ;extruding 
G1 X32.993 Y31.830 ;extruding 
G1 X33.421 Y31.710 ;extruding 
G1 X33.637 Y31.926 ;extruding 
G1 X34.040 Y31.781 ;extruding 
G1 X33.827 Y31.568 ;extruding 
G1 X34.233 Y31.426 ;extruding 
G1 X34.443 Y31.636 ;extruding 
G1 X34.846 Y31.491 ;extruding 
G1 X34.639 Y31.284 ;extruding 
G1 X35.045 Y31.142 ;extruding 
G1 X35.249 Y31.346 ;extruding 
G1 X35.652 Y31.201 ;extruding 
G1 X35.450 Y31.000 ;extruding 
G1 X35.856 Y30.858 ;extruding 
G1 X36.053 Y31.054 ;extruding 
G1 X36.436 Y30.889 ;extruding 
G1 X36.249 Y30.702 ;extruding 
G1 X36.631 Y30.537 ;extruding 
G1 X36.819 Y30.724 ;extruding 
G1 X37.202 Y30.559 ;extruding 
G1 X37.014 Y30.371 ;extruding 
G1 X37.396 Y30.205 ;extruding 
G1 X37.585 Y30.394 ;extruding 
G1 X37.968 Y30.229 ;extruding 
G1 X37.778 Y30.040 ;extruding 
G1 X38.160 Y29.874 ;extruding 
G1 X38.351 Y30.064 ;extruding 
G1 X38.733 Y29.899 ;extruding 
G1 X38.537 Y29.702 ;extruding 
G1 X38.897 Y29.515 ;extruding 
G1 X39.116 Y29.734 ;extruding 
G1 X39.499 Y29.569 ;extruding 
G1 X39.258 Y29.328 ;extruding 
G1 X39.619 Y29.140 ;extruding 
G1 X39.868 Y29.390 ;extruding 
G1 X40.232 Y29.206 ;extruding 
G1 X39.980 Y28.953 ;extruding 
G1 X40.340 Y28.766 ;extruding 
G1 X40.596 Y29.022 ;extruding 
G1 X40.960 Y28.838 ;extruding 
G1 X40.701 Y28.579 ;extruding 
G1 X41.062 Y28.392 ;extruding 
G1 X41.324 Y28.654 ;extruding 
G1 X41.688 Y28.470 ;extruding 
G1 X41.423 Y28.204 ;extruding 
G1 X41.783 Y28.017 ;extruding 
G1 X42.052 Y28.286 ;extruding 
G1 X42.416 Y28.102 ;extruding 
G1 X42.144 Y27.830 ;extruding 
G1 X42.295 Y27.751 ;extruding 
G1 X42.220 Y27.358 ;extruding 
G1 X42.780 Y27.918 ;extruding 
G1 X43.144 Y27.734 ;extruding 
G1 X40.621 Y25.211 ;extruding 
G1 X41.225 Y25.267 ;extruding 
G1 X43.508 Y27.550 ;extruding 
G1 X43.872 Y27.366 ;extruding 
G1 X41.844 Y25.337 ;extruding 
G1 X42.464 Y25.410 ;extruding 
G1 X44.507 Y27.452 ;extruding 
G1 X44.507 Y26.904 ;extruding 
G1 X43.085 Y25.483 ;extruding 
G1 X43.177 Y25.494 ;extruding 
G1 X43.297 Y25.237 ;extruding 
G1 X44.016 Y25.921 ;extruding 
G1 X44.016 Y25.866 ;extruding 
G1 X44.507 Y26.356 ;extruding 
G1 X44.507 Y25.808 ;extruding 
G1 X44.016 Y25.318 ;extruding 
G1 X44.016 Y24.770 ;extruding 
G1 X44.507 Y25.260 ;extruding 
G1 X44.507 Y24.712 ;extruding 
G1 X44.016 Y24.222 ;extruding 
G1 X44.016 Y23.674 ;extruding 
G1 X44.507 Y24.165 ;extruding 
G1 X44.507 Y23.617 ;extruding 
G1 X43.926 Y23.036 ;extruding 
G1 X43.596 Y22.158 ;extruding 
G1 X44.507 Y23.069 ;extruding 
G1 X44.507 Y22.521 ;extruding 
G1 X43.972 Y21.986 ;extruding 
G1 X44.016 Y21.978 ;extruding 
G1 X44.016 Y21.482 ;extruding 
G1 X44.507 Y21.973 ;extruding 
G1 X44.507 Y21.425 ;extruding 
G1 X44.016 Y20.934 ;extruding 
G1 X44.016 Y20.386 ;extruding 
G1 X44.507 Y20.877 ;extruding 
G1 X44.507 Y20.329 ;extruding 
G1 X44.016 Y19.838 ;extruding 
G1 X44.016 Y19.290 ;extruding 
G1 X44.507 Y19.781 ;extruding 
G1 X44.507 Y19.233 ;extruding 
G1 X44.016 Y18.742 ;extruding 
G1 X44.016 Y18.194 ;extruding 
G1 X44.507 Y18.685 ;extruding 
G1 X44.507 Y18.137 ;extruding 
G1 X43.745 Y17.375 ;extruding 
G1 X43.261 Y16.343 ;extruding 
G1 X44.507 Y17.589 ;extruding 
G1 X44.507 Y17.041 ;extruding 
G1 X43.248 Y15.782 ;extruding 
G1 X43.679 Y15.665 ;extruding 
G1 X44.507 Y16.493 ;extruding 
G1 X44.507 Y15.945 ;extruding 
G1 X44.016 Y15.454 ;extruding 
G1 X44.016 Y14.906 ;extruding 
G1 X44.507 Y15.397 ;extruding 
G1 X44.507 Y14.849 ;extruding 
G1 X44.016 Y14.358 ;extruding 
G1 X44.016 Y13.810 ;extruding 
G1 X44.507 Y14.301 ;extruding 
G1 X44.507 Y13.753 ;extruding 
G1 X44.016 Y13.262 ;extruding 
G1 X44.016 Y12.715 ;extruding 
G1 X44.507 Y13.205 ;extruding 
G1 X44.507 Y12.657 ;extruding 
G1 X44.016 Y12.167 ;extruding 
G1 X44.016 Y11.619 ;extruding 
G1 X44.507 Y12.109 ;extruding 
G1 X44.507 Y11.561 ;extruding 
G1 X44.016 Y11.071 ;extruding 
G1 X44.016 Y10.523 ;extruding 
G1 X44.507 Y11.013 ;extruding 
G1 X44.507 Y10.465 ;extruding 
G1 X44.016 Y9.975 ;extruding 
G1 X44.016 Y9.427 ;extruding 
G1 X44.507 Y9.917 ;extruding 
G1 X44.507 Y9.369 ;extruding 
G1 X44.016 Y8.879 ;extruding 
G1 X44.016 Y8.331 ;extruding 
G1 X44.507 Y8.821 ;extruding 
G1 X44.507 Y8.273 ;extruding 
G1 X44.016 Y7.783 ;extruding 
G1 X44.016 Y7.235 ;extruding 
G1 X44.507 Y7.725 ;extruding 
G1 X44.507 Y7.177 ;extruding 
G1 X44.016 Y6.687 ;extruding 
G1 X44.016 Y6.139 ;extruding 
G1 X44.507 Y6.629 ;extruding 
G1 X44.507 Y6.081 ;extruding 
G1 X44.016 Y5.591 ;extruding 
G1 X44.016 Y5.043 ;extruding 
G1 X44.507 Y5.533 ;extruding 
G1 X44.507 Y4.985 ;extruding 
G1 X44.016 Y4.495 ;extruding 
G1 X44.016 Y3.947 ;extruding 
G1 X44.507 Y4.437 ;extruding 
G1 X44.507 Y3.889 ;extruding 
G1 X44.016 Y3.399 ;extruding 
G1 X44.016 Y2.851 ;extruding 
G1 X44.507 Y3.341 ;extruding 
G1 X44.507 Y2.793 ;extruding 
G1 X44.016 Y2.303 ;extruding 
G1 X44.016 Y2.245 ;extruding 
G1 X44.507 Y2.245 ;extruding 
FILEWRITE $hFile"\x05\x02\x30\x34\x44\x49\x20\x20\x43\x46\x03"
G1 X78.032 Y35.056 ;not extruding 
FILEWRITE $hFile"\x05\x02\x30\x34\x44\x49\x20\x20\x43\x46\x03"
DWELL 0.15
G1 X78.040 Y34.521 ;extruding 
G1 X78.106 Y34.135 ;extruding 
G1 X78.251 Y33.771 ;extruding 
G1 X78.360 Y33.581 ;extruding 
G1 X78.529 Y33.361 ;extruding 
G1 X78.848 Y33.057 ;extruding 
G1 X79.119 Y32.856 ;extruding 
G1 X80.179 Y32.191 ;extruding 
G1 X80.599 Y31.864 ;extruding 
G1 X80.796 Y31.651 ;extruding 
G1 X80.928 Y31.453 ;extruding 
G1 X81.024 Y31.240 ;extruding 
G1 X81.089 Y30.994 ;extruding 
G1 X81.133 Y30.534 ;extruding 
G1 X81.446 Y30.451 ;extruding 
G1 X81.955 Y30.256 ;extruding 
G1 X82.322 Y30.050 ;extruding 
G1 X82.502 Y29.925 ;extruding 
G1 X82.898 Y29.584 ;extruding 
G1 X83.242 Y29.188 ;extruding 
G1 X83.607 Y28.597 ;extruding 
G1 X83.847 Y27.991 ;extruding 
G1 X83.960 Y27.489 ;extruding 
G1 X83.990 Y27.135 ;extruding 
G1 X83.997 Y26.835 ;extruding 
G1 X83.944 Y26.357 ;extruding 
G1 X83.784 Y25.754 ;extruding 
G1 X84.264 Y25.238 ;extruding 
G1 X84.464 Y24.965 ;extruding 
G1 X84.654 Y24.644 ;extruding 
G1 X84.792 Y24.368 ;extruding 
G1 X84.905 Y24.066 ;extruding 
G1 X85.019 Y23.587 ;extruding 
G1 X85.046 Y23.192 ;extruding 
G1 X85.006 Y22.828 ;extruding 
G1 X84.733 Y21.925 ;extruding 
G1 X84.699 Y21.682 ;extruding 
G1 X84.713 Y21.444 ;extruding 
G1 X84.790 Y21.179 ;extruding 
G1 X84.903 Y20.981 ;extruding 
G1 X85.105 Y20.756 ;extruding 
G1 X85.478 Y20.423 ;extruding 
G1 X86.673 Y22.742 ;extruding 
G1 X87.305 Y24.187 ;extruding 
G1 X87.428 Y24.529 ;extruding 
G1 X87.720 Y25.512 ;extruding 
G1 X87.906 Y26.605 ;extruding 
G1 X87.921 Y27.779 ;extruding 
G1 X87.880 Y28.158 ;extruding 
G1 X87.744 Y28.938 ;extruding 
G1 X87.530 Y29.650 ;extruding 
G1 X87.341 Y30.137 ;extruding 
G1 X86.965 Y30.863 ;extruding 
G1 X86.674 Y31.308 ;extruding 
G1 X86.296 Y31.806 ;extruding 
G1 X85.928 Y32.213 ;extruding 
G1 X85.280 Y32.823 ;extruding 
G1 X84.835 Y33.167 ;extruding 
G1 X84.116 Y33.654 ;extruding 
G1 X83.585 Y33.949 ;extruding 
G1 X82.592 Y34.406 ;extruding 
G1 X82.073 Y34.588 ;extruding 
G1 X81.113 Y34.860 ;extruding 
G1 X80.838 Y34.917 ;extruding 
G1 X79.664 Y35.075 ;extruding 
G1 X79.249 Y35.091 ;extruding 
G1 X78.119 Y35.059 ;extruding 
FILEWRITE $hFile"\x05\x02\x30\x34\x44\x49\x20\x20\x43\x46\x03"
G1 X72.284 Y28.045 ;not extruding 
FILEWRITE $hFile"\x05\x02\x30\x34\x44\x49\x20\x20\x43\x46\x03"
DWELL 0.15
G1 X71.063 Y26.667 ;extruding 
G1 X78.359 Y20.250 ;extruding 
G1 X78.679 Y20.044 ;extruding 
G1 X79.047 Y19.884 ;extruding 
G1 X80.350 Y19.547 ;extruding 
G1 X81.518 Y19.116 ;extruding 
G1 X82.034 Y18.977 ;extruding 
G1 X82.472 Y18.931 ;extruding 
G1 X82.795 Y18.953 ;extruding 
G1 X83.104 Y19.025 ;extruding 
G1 X83.420 Y19.156 ;extruding 
G1 X83.686 Y19.320 ;extruding 
G1 X83.907 Y19.508 ;extruding 
G1 X84.096 Y19.730 ;extruding 
G1 X84.238 Y19.966 ;extruding 
G1 X84.344 Y20.225 ;extruding 
G1 X84.411 Y20.511 ;extruding 
G1 X84.428 Y20.772 ;extruding 
G1 X84.407 Y21.018 ;extruding 
G1 X84.313 Y21.338 ;extruding 
G1 X84.180 Y21.582 ;extruding 
G1 X84.010 Y21.781 ;extruding 
G1 X83.825 Y21.929 ;extruding 
G1 X83.603 Y22.052 ;extruding 
G1 X83.393 Y22.126 ;extruding 
G1 X72.361 Y28.004 ;extruding 
FILEWRITE $hFile"\x05\x02\x30\x34\x44\x49\x20\x20\x43\x46\x03"
G1 X72.668 Y30.093 ;not extruding 
FILEWRITE $hFile"\x05\x02\x30\x34\x44\x49\x20\x20\x43\x46\x03"
DWELL 0.15
G1 X74.158 Y27.171 ;extruding 
G1 X83.532 Y22.177 ;extruding 
G1 X83.809 Y22.239 ;extruding 
G1 X84.057 Y22.357 ;extruding 
G1 X84.239 Y22.532 ;extruding 
G1 X84.350 Y22.746 ;extruding 
G1 X84.391 Y22.911 ;extruding 
G1 X84.405 Y23.155 ;extruding 
G1 X84.376 Y23.422 ;extruding 
G1 X84.318 Y23.680 ;extruding 
G1 X84.169 Y24.134 ;extruding 
G1 X83.733 Y25.203 ;extruding 
G1 X83.675 Y25.397 ;extruding 
G1 X83.709 Y25.705 ;extruding 
G1 X72.749 Y30.061 ;extruding 
FILEWRITE $hFile"\x05\x02\x30\x34\x44\x49\x20\x20\x43\x46\x03"
G1 X71.272 Y32.830 ;not extruding 
FILEWRITE $hFile"\x05\x02\x30\x34\x44\x49\x20\x20\x43\x46\x03"
DWELL 0.15
G1 X72.592 Y30.241 ;extruding 
G1 X83.465 Y25.920 ;extruding 
G1 X83.613 Y26.270 ;extruding 
G1 X83.682 Y26.525 ;extruding 
G1 X83.703 Y26.747 ;extruding 
G1 X83.688 Y26.972 ;extruding 
G1 X83.585 Y27.334 ;extruding 
G1 X83.427 Y27.634 ;extruding 
G1 X83.141 Y28.013 ;extruding 
G1 X81.851 Y29.272 ;extruding 
G1 X81.657 Y29.519 ;extruding 
G1 X81.527 Y29.758 ;extruding 
G1 X71.356 Y32.805 ;extruding 
FILEWRITE $hFile"\x05\x02\x30\x34\x44\x49\x20\x20\x43\x46\x03"
G1 X70.886 Y33.586 ;not extruding 
FILEWRITE $hFile"\x05\x02\x30\x34\x44\x49\x20\x20\x43\x46\x03"
DWELL 0.15
G1 X71.203 Y32.965 ;extruding 
G1 X80.364 Y30.221 ;extruding 
