; generated by Slic3r 1.3.0 on 2023-03-24 at 23:03:14

; external perimeters extrusion width = 0.50mm (2.95mm^3/s)
; perimeters extrusion width = 0.50mm (2.95mm^3/s)
; infill extrusion width = 0.50mm (2.95mm^3/s)
; solid infill extrusion width = 0.50mm (2.95mm^3/s)
; top infill extrusion width = 0.50mm (2.95mm^3/s)


; Filament gcode

G21 ; set units to millimeters
G90 ; use absolute coordinates
G1 Z-149.500 F900.000
G1 X12.022 Y12.974 F900.000
G1 F900
G1 X13.392 Y11.735 0.00000
G1 X14.897 Y10.702 0.00000
G1 X16.561 Y9.857 0.00000
G1 X18.307 Y9.251 0.00000
G1 X20.117 Y8.883 0.00000
G1 X21.938 Y8.761 0.00000
G1 X23.801 Y8.883 0.00000
G1 X25.612 Y9.251 0.00000
G1 X27.357 Y9.857 0.00000
G1 X29.005 Y10.690 0.00000
G1 X30.528 Y11.735 0.00000
G1 X31.897 Y12.974 0.00000
G1 X33.076 Y14.368 0.00000
G1 X34.083 Y15.939 0.00000
G1 X34.861 Y17.616 0.00000
G1 X35.408 Y19.380 0.00000
G1 X35.715 Y21.201 0.00000
G1 X35.777 Y23.047 0.00000
G1 X35.592 Y24.884 0.00000
G1 X35.164 Y26.681 0.00000
G1 X34.500 Y28.404 0.00000
G1 X33.613 Y30.024 0.00000
G1 X32.517 Y31.510 0.00000
G1 X31.233 Y32.838 0.00000
G1 X29.784 Y33.983 0.00000
G1 X28.195 Y34.924 0.00000
G1 X26.495 Y35.645 0.00000
G1 X24.714 Y36.133 0.00000
G1 X22.883 Y36.379 0.00000
G1 X21.036 Y36.379 0.00000
G1 X19.206 Y36.133 0.00000
G1 X17.425 Y35.645 0.00000
G1 X15.725 Y34.924 0.00000
G1 X14.128 Y33.978 0.00000
G1 X12.686 Y32.837 0.00000
G1 X11.402 Y31.510 0.00000
G1 X10.307 Y30.024 0.00000
G1 X9.419 Y28.404 0.00000
G1 X8.756 Y26.681 0.00000
G1 X8.328 Y24.884 0.00000
G1 X8.143 Y23.047 0.00000
G1 X8.204 Y21.201 0.00000
G1 X8.508 Y19.401 0.00000
G1 X9.058 Y17.617 0.00000
G1 X9.836 Y15.941 0.00000
G1 X10.830 Y14.384 0.00000
G1 X11.966 Y13.040 0.00000
G1 X12.305 Y13.247 F900.000
G1 F900
G1 X13.636 Y12.044 0.00000
G1 X15.097 Y11.040 0.00000
G1 X16.715 Y10.220 0.00000
G1 X18.411 Y9.631 0.00000
G1 X20.170 Y9.273 0.00000
G1 X21.939 Y9.155 0.00000
G1 X23.749 Y9.273 0.00000
G1 X25.508 Y9.631 0.00000
G1 X27.203 Y10.219 0.00000
G1 X28.805 Y11.028 0.00000
G1 X30.284 Y12.044 0.00000
G1 X31.615 Y13.247 0.00000
G1 X32.759 Y14.601 0.00000
G1 X33.738 Y16.129 0.00000
G1 X34.494 Y17.757 0.00000
G1 X35.025 Y19.471 0.00000
G1 X35.324 Y21.240 0.00000
G1 X35.384 Y23.034 0.00000
G1 X35.204 Y24.819 0.00000
G1 X34.788 Y26.564 0.00000
G1 X34.143 Y28.238 0.00000
G1 X33.281 Y29.812 0.00000
G1 X32.217 Y31.256 0.00000
G1 X30.969 Y32.546 0.00000
G1 X29.561 Y33.658 0.00000
G1 X28.017 Y34.572 0.00000
G1 X26.366 Y35.273 0.00000
G1 X24.635 Y35.747 0.00000
G1 X22.857 Y35.986 0.00000
G1 X21.063 Y35.986 0.00000
G1 X19.284 Y35.747 0.00000
G1 X17.554 Y35.273 0.00000
G1 X15.902 Y34.572 0.00000
G1 X14.351 Y33.653 0.00000
G1 X12.950 Y32.546 0.00000
G1 X11.703 Y31.256 0.00000
G1 X10.639 Y29.812 0.00000
G1 X9.776 Y28.238 0.00000
G1 X9.132 Y26.564 0.00000
G1 X8.716 Y24.819 0.00000
G1 X8.536 Y23.034 0.00000
G1 X8.596 Y21.240 0.00000
G1 X8.891 Y19.492 0.00000
G1 X9.425 Y17.758 0.00000
G1 X10.181 Y16.130 0.00000
G1 X11.147 Y14.618 0.00000
G1 X12.249 Y13.314 0.00000
G1 X12.588 Y13.521 F900.000
G1 F900
G1 X13.880 Y12.353 0.00000
G1 X15.298 Y11.379 0.00000
G1 X16.869 Y10.582 0.00000
G1 X18.515 Y10.010 0.00000
G1 X20.222 Y9.663 0.00000
G1 X21.939 Y9.548 0.00000
G1 X23.697 Y9.663 0.00000
G1 X25.404 Y10.010 0.00000
G1 X27.050 Y10.582 0.00000
G1 X28.604 Y11.367 0.00000
G1 X30.040 Y12.353 0.00000
G1 X31.332 Y13.521 0.00000
G1 X32.443 Y14.835 0.00000
G1 X33.393 Y16.318 0.00000
G1 X34.126 Y17.899 0.00000
G1 X34.642 Y19.562 0.00000
G1 X34.932 Y21.280 0.00000
G1 X34.990 Y23.020 0.00000
G1 X34.816 Y24.753 0.00000
G1 X34.412 Y26.447 0.00000
G1 X33.786 Y28.073 0.00000
G1 X32.949 Y29.600 0.00000
G1 X31.916 Y31.002 0.00000
G1 X30.705 Y32.254 0.00000
G1 X29.338 Y33.334 0.00000
G1 X27.840 Y34.221 0.00000
G1 X26.236 Y34.901 0.00000
G1 X24.557 Y35.361 0.00000
G1 X22.831 Y35.593 0.00000
G1 X21.089 Y35.593 0.00000
G1 X19.363 Y35.361 0.00000
G1 X17.683 Y34.901 0.00000
G1 X16.080 Y34.221 0.00000
G1 X14.574 Y33.329 0.00000
G1 X13.214 Y32.254 0.00000
G1 X12.004 Y31.002 0.00000
G1 X10.970 Y29.600 0.00000
G1 X10.133 Y28.073 0.00000
G1 X9.507 Y26.447 0.00000
G1 X9.104 Y24.753 0.00000
G1 X8.929 Y23.020 0.00000
G1 X8.988 Y21.280 0.00000
G1 X9.274 Y19.583 0.00000
G1 X9.793 Y17.900 0.00000
G1 X10.526 Y16.319 0.00000
G1 X11.464 Y14.851 0.00000
G1 X12.532 Y13.587 0.00000
G1 X12.871 Y13.795 F900.000
G1 F900
G1 X14.124 Y12.662 0.00000
G1 X15.499 Y11.717 0.00000
G1 X17.023 Y10.944 0.00000
G1 X18.619 Y10.390 0.00000
G1 X20.275 Y10.053 0.00000
G1 X21.939 Y9.942 0.00000
G1 X23.645 Y10.053 0.00000
G1 X25.300 Y10.390 0.00000
G1 X26.896 Y10.944 0.00000
G1 X28.403 Y11.706 0.00000
G1 X29.796 Y12.662 0.00000
G1 X31.049 Y13.795 0.00000
G1 X32.126 Y15.069 0.00000
G1 X33.048 Y16.508 0.00000
G1 X33.759 Y18.040 0.00000
G1 X34.259 Y19.654 0.00000
G1 X34.540 Y21.319 0.00000
G1 X34.597 Y23.007 0.00000
G1 X34.428 Y24.688 0.00000
G1 X34.036 Y26.331 0.00000
G1 X33.429 Y27.907 0.00000
G1 X32.617 Y29.388 0.00000
G1 X31.616 Y30.748 0.00000
G1 X30.441 Y31.962 0.00000
G1 X29.116 Y33.009 0.00000
G1 X27.662 Y33.870 0.00000
G1 X26.107 Y34.529 0.00000
G1 X24.478 Y34.975 0.00000
G1 X22.804 Y35.201 0.00000
G1 X21.115 Y35.201 0.00000
G1 X19.441 Y34.975 0.00000
G1 X17.812 Y34.529 0.00000
G1 X16.257 Y33.870 0.00000
G1 X14.796 Y33.005 0.00000
G1 X13.478 Y31.962 0.00000
G1 X12.304 Y30.748 0.00000
G1 X11.302 Y29.388 0.00000
G1 X10.490 Y27.907 0.00000
G1 X9.883 Y26.331 0.00000
G1 X9.492 Y24.688 0.00000
G1 X9.323 Y23.007 0.00000
G1 X9.379 Y21.319 0.00000
G1 X9.657 Y19.674 0.00000
G1 X10.160 Y18.041 0.00000
G1 X10.872 Y16.508 0.00000
G1 X11.780 Y15.084 0.00000
G1 X12.815 Y13.861 0.00000
G1 X13.154 Y14.068 F900.000
G1 F900
G1 X14.368 Y12.970 0.00000
G1 X15.700 Y12.056 0.00000
G1 X17.177 Y11.306 0.00000
G1 X18.723 Y10.769 0.00000
G1 X20.327 Y10.443 0.00000
G1 X21.940 Y10.336 0.00000
G1 X23.592 Y10.443 0.00000
G1 X25.196 Y10.769 0.00000
G1 X26.742 Y11.306 0.00000
G1 X28.203 Y12.044 0.00000
G1 X29.552 Y12.970 0.00000
G1 X30.766 Y14.068 0.00000
G1 X31.809 Y15.302 0.00000
G1 X32.703 Y16.697 0.00000
G1 X33.392 Y18.182 0.00000
G1 X33.877 Y19.745 0.00000
G1 X34.149 Y21.358 0.00000
G1 X34.204 Y22.994 0.00000
G1 X34.040 Y24.622 0.00000
G1 X33.660 Y26.214 0.00000
G1 X33.072 Y27.741 0.00000
G1 X32.286 Y29.177 0.00000
G1 X31.315 Y30.494 0.00000
G1 X30.177 Y31.670 0.00000
G1 X28.893 Y32.685 0.00000
G1 X27.485 Y33.519 0.00000
G1 X25.978 Y34.157 0.00000
G1 X24.400 Y34.590 0.00000
G1 X22.778 Y34.808 0.00000
G1 X21.142 Y34.808 0.00000
G1 X19.520 Y34.590 0.00000
G1 X17.941 Y34.157 0.00000
G1 X16.435 Y33.519 0.00000
G1 X15.019 Y32.680 0.00000
G1 X13.742 Y31.670 0.00000
G1 X12.605 Y30.494 0.00000
G1 X11.634 Y29.177 0.00000
G1 X10.847 Y27.741 0.00000
G1 X10.259 Y26.214 0.00000
G1 X9.880 Y24.622 0.00000
G1 X9.716 Y22.994 0.00000
G1 X9.771 Y21.358 0.00000
G1 X10.040 Y19.765 0.00000
G1 X10.528 Y18.182 0.00000
G1 X11.217 Y16.697 0.00000
G1 X12.097 Y15.318 0.00000
G1 X13.098 Y14.135 0.00000
G1 X13.154 Y14.068 F900.000
G1 X11.861 Y12.677 F900.000
G1 F900
G1 X14.295 Y10.415 0.00000
G1 X16.454 Y9.578 0.00000
G1 X19.161 Y8.479 0.00000
G1 X24.494 Y8.427 0.00000
G1 X26.653 Y9.264 0.00000
G1 X29.394 Y10.275 0.00000
G1 X33.371 Y13.829 0.00000
G1 X34.403 Y15.902 0.00000
G1 X35.747 Y18.496 0.00000
G1 X36.288 Y23.772 0.00000
G1 X34.888 Y28.881 0.00000
G1 X32.577 Y31.975 0.00000
G1 X31.841 Y33.056 0.00000
G1 X27.258 Y35.956 0.00000
G1 X24.982 Y36.381 0.00000
G1 X22.119 Y36.965 0.00000
G1 X16.883 Y36.038 0.00000
G1 X13.590 Y34.023 0.00000
G1 X12.445 Y33.390 0.00000
G1 X9.135 Y29.094 0.00000
G1 X8.501 Y26.867 0.00000
G1 X7.656 Y24.070 0.00000
G1 X8.097 Y18.755 0.00000
G1 X9.129 Y16.682 0.00000
G1 X10.388 Y14.046 0.00000
G1 X11.797 Y12.737 0.00000
G1 X10.124 Y13.756 F900.000
G1 F900
G1 X14.043 Y10.113 0.00000
G1 X12.520 Y7.754 0.00000
G1 X12.001 Y6.989 0.00000
G1 X12.129 Y6.905 0.00000
G1 X13.238 Y8.752 0.00000
G1 X14.106 Y10.067 0.00000
G1 X16.309 Y9.213 0.00000
G1 X19.081 Y8.087 0.00000
G1 X18.515 Y5.345 0.00000
G1 X18.308 Y4.449 0.00000
G1 X18.450 Y4.418 0.00000
G1 X18.563 Y4.978 0.00000
G1 X18.823 Y6.532 0.00000
G1 X19.161 Y8.086 0.00000
G1 X24.511 Y8.034 0.00000
G1 X24.975 Y5.265 0.00000
G1 X25.107 Y4.351 0.00000
G1 X25.258 Y4.374 0.00000
G1 X24.833 Y6.486 0.00000
G1 X24.589 Y8.043 0.00000
G1 X26.792 Y8.896 0.00000
G1 X29.599 Y9.932 0.00000
G1 X31.028 Y7.524 0.00000
G1 X31.479 Y6.722 0.00000
G1 X31.612 Y6.798 0.00000
G1 X30.454 Y8.612 0.00000
G1 X29.659 Y9.985 0.00000
G1 X33.648 Y13.551 0.00000
G1 X35.856 Y11.816 0.00000
G1 X36.570 Y11.229 0.00000
G1 X36.661 Y11.343 0.00000
G1 X36.206 Y11.696 0.00000
G1 X34.932 Y12.621 0.00000
G1 X33.700 Y13.610 0.00000
G1 X34.753 Y15.724 0.00000
G1 X36.130 Y18.381 0.00000
G1 X38.808 Y17.564 0.00000
G1 X39.681 Y17.275 0.00000
G1 X39.728 Y17.421 0.00000
G1 X37.651 Y17.981 0.00000
G1 X36.138 Y18.460 0.00000
G1 X36.684 Y23.783 0.00000
G1 X39.484 Y23.989 0.00000
G1 X40.403 Y24.036 0.00000
G1 X40.394 Y24.180 0.00000
G1 X39.824 Y24.136 0.00000
G1 X38.258 Y23.961 0.00000
G1 X36.671 Y23.860 0.00000
G1 X35.256 Y29.021 0.00000
G1 X37.793 Y30.224 0.00000
G1 X38.633 Y30.600 0.00000
G1 X38.570 Y30.739 0.00000
G1 X36.657 Y29.754 0.00000
G1 X35.221 Y29.091 0.00000
G1 X32.897 Y32.203 0.00000
G1 X32.066 Y33.424 0.00000
G1 X33.964 Y35.428 0.00000
G1 X34.614 Y36.084 0.00000
G1 X34.509 Y36.184 0.00000
G1 X34.117 Y35.766 0.00000
G1 X33.078 Y34.582 0.00000
G1 X31.972 Y33.438 0.00000
G1 X27.450 Y36.299 0.00000
G1 X28.514 Y38.898 0.00000
G1 X28.882 Y39.741 0.00000
G1 X28.741 Y39.801 0.00000
G1 X27.991 Y37.784 0.00000
G1 X27.380 Y36.333 0.00000
G1 X25.057 Y36.767 0.00000
G1 X22.125 Y37.364 0.00000
G1 X22.179 Y40.164 0.00000
G1 X22.217 Y41.083 0.00000
G1 X22.072 Y41.088 0.00000
G1 X22.064 Y40.516 0.00000
G1 X22.094 Y38.941 0.00000
G1 X22.047 Y37.351 0.00000
G1 X16.778 Y36.419 0.00000
G1 X15.814 Y39.056 0.00000
G1 X15.517 Y39.926 0.00000
G1 X15.380 Y39.879 0.00000
G1 X15.579 Y39.342 0.00000
G1 X16.176 Y37.884 0.00000
G1 X16.705 Y36.390 0.00000
G1 X13.392 Y34.363 0.00000
G1 X12.100 Y33.648 0.00000
G1 X10.279 Y35.723 0.00000
G1 X9.686 Y36.430 0.00000
G1 X9.570 Y36.330 0.00000
G1 X11.042 Y34.759 0.00000
G1 X12.076 Y33.556 0.00000
G1 X8.811 Y29.317 0.00000
G1 X6.321 Y30.616 0.00000
G1 X5.516 Y31.060 0.00000
G1 X5.443 Y30.926 0.00000
G1 X7.382 Y29.993 0.00000
G1 X8.771 Y29.250 0.00000
G1 X8.124 Y26.978 0.00000
G1 X7.259 Y24.113 0.00000
G1 X4.476 Y24.425 0.00000
G1 X3.564 Y24.547 0.00000
G1 X3.546 Y24.403 0.00000
G1 X4.115 Y24.343 0.00000
G1 X5.686 Y24.227 0.00000
G1 X7.265 Y24.034 0.00000
G1 X7.707 Y18.701 0.00000
G1 X4.992 Y17.984 0.00000
G1 X4.098 Y17.770 0.00000
G1 X4.133 Y17.629 0.00000
G1 X4.685 Y17.778 0.00000
G1 X6.192 Y18.237 0.00000
G1 X7.723 Y18.625 0.00000
G1 X8.776 Y16.510 0.00000
G1 X10.066 Y13.810 0.00000
G1 X7.800 Y12.166 0.00000
G1 X7.043 Y11.642 0.00000
G1 X7.127 Y11.524 0.00000
G1 X7.588 Y11.862 0.00000
G1 X8.827 Y12.835 0.00000
G1 X10.053 Y13.705 0.00000
G1 X10.091 Y13.251 F900.000
G1 F900
G1 X13.534 Y10.049 0.00000
G1 X12.195 Y7.975 0.00000
G1 X11.965 Y7.655 0.00000
G1 X11.459 Y6.876 0.00000
G1 X12.255 Y6.352 0.00000
G1 X13.570 Y8.543 0.00000
G1 X14.259 Y9.586 0.00000
G1 X16.164 Y8.848 0.00000
G1 X18.631 Y7.847 0.00000
G1 X18.132 Y5.434 0.00000
G1 X18.033 Y5.052 0.00000
G1 X17.844 Y4.150 0.00000
G1 X18.769 Y3.945 0.00000
G1 X19.209 Y6.458 0.00000
G1 X19.477 Y7.690 0.00000
G1 X24.178 Y7.645 0.00000
G1 X24.586 Y5.210 0.00000
G1 X24.632 Y4.817 0.00000
G1 X24.783 Y3.902 0.00000
G1 X25.723 Y4.051 0.00000
G1 X25.220 Y6.556 0.00000
G1 X25.026 Y7.791 0.00000
G1 X26.931 Y8.529 0.00000
G1 X29.428 Y9.450 0.00000
G1 X30.685 Y7.332 0.00000
G1 X30.869 Y6.982 0.00000
G1 X31.338 Y6.188 0.00000
G1 X32.164 Y6.662 0.00000
G1 X30.790 Y8.816 0.00000
G1 X30.159 Y9.905 0.00000
G1 X33.664 Y13.039 0.00000
G1 X35.606 Y11.514 0.00000
G1 X35.904 Y11.255 0.00000
G1 X36.634 Y10.679 0.00000
G1 X37.224 Y11.419 0.00000
G1 X35.170 Y12.934 0.00000
G1 X34.192 Y13.718 0.00000
G1 X35.103 Y15.546 0.00000
G1 X36.328 Y17.910 0.00000
G1 X38.684 Y17.191 0.00000
G1 X39.055 Y17.057 0.00000
G1 X39.937 Y16.786 0.00000
G1 X40.228 Y17.693 0.00000
G1 X37.762 Y18.358 0.00000
G1 X36.561 Y18.738 0.00000
G1 X37.041 Y23.415 0.00000
G1 X39.503 Y23.596 0.00000
G1 X39.898 Y23.606 0.00000
G1 X40.817 Y23.671 0.00000
G1 X40.762 Y24.617 0.00000
G1 X38.224 Y24.352 0.00000
G1 X36.965 Y24.272 0.00000
G1 X35.722 Y28.807 0.00000
G1 X37.953 Y29.866 0.00000
G1 X38.318 Y30.017 0.00000
G1 X39.151 Y30.410 0.00000
G1 X38.756 Y31.276 0.00000
G1 X36.485 Y30.107 0.00000
G1 X35.345 Y29.581 0.00000
G1 X33.217 Y32.431 0.00000
G1 X32.569 Y33.383 0.00000
G1 X34.243 Y35.151 0.00000
G1 X34.528 Y35.424 0.00000
G1 X35.168 Y36.097 0.00000
G1 X34.485 Y36.752 0.00000
G1 X32.789 Y34.848 0.00000
G1 X31.912 Y33.941 0.00000
G1 X27.938 Y36.455 0.00000
G1 X28.874 Y38.740 0.00000
G1 X29.041 Y39.097 0.00000
G1 X29.393 Y39.950 0.00000
G1 X28.517 Y40.323 0.00000
G1 X27.626 Y37.929 0.00000
G1 X27.141 Y36.777 0.00000
G1 X25.133 Y37.152 0.00000
G1 X22.524 Y37.684 0.00000
G1 X22.571 Y40.146 0.00000
G1 X22.598 Y40.540 0.00000
G1 X22.618 Y41.462 0.00000
G1 X21.671 Y41.494 0.00000
G1 X21.701 Y38.943 0.00000
G1 X21.664 Y37.682 0.00000
G1 X17.034 Y36.863 0.00000
G1 X16.186 Y39.181 0.00000
G1 X16.069 Y39.559 0.00000
G1 X15.754 Y40.425 0.00000
G1 X14.860 Y40.113 0.00000
G1 X15.809 Y37.744 0.00000
G1 X16.229 Y36.559 0.00000
G1 X13.194 Y34.702 0.00000
G1 X12.186 Y34.145 0.00000
G1 X10.580 Y35.975 0.00000
G1 X10.335 Y36.284 0.00000
G1 X9.724 Y36.983 0.00000
G1 X9.005 Y36.360 0.00000
G1 X10.750 Y34.497 0.00000
G1 X11.570 Y33.542 0.00000
G1 X8.700 Y29.818 0.00000
G1 X6.512 Y30.960 0.00000
G1 X6.171 Y31.160 0.00000
G1 X5.355 Y31.588 0.00000
G1 X4.902 Y30.750 0.00000
G1 X7.204 Y29.643 0.00000
G1 X8.306 Y29.053 0.00000
G1 X7.747 Y27.088 0.00000
G1 X6.977 Y24.540 0.00000
G1 X4.529 Y24.814 0.00000
G1 X4.140 Y24.877 0.00000
G1 X3.224 Y24.982 0.00000
G1 X3.105 Y24.042 0.00000
G1 X5.648 Y23.836 0.00000
G1 X6.900 Y23.683 0.00000
G1 X7.288 Y18.997 0.00000
G1 X4.901 Y18.367 0.00000
G1 X4.515 Y18.285 0.00000
G1 X3.623 Y18.051 0.00000
G1 X3.851 Y17.133 0.00000
G1 X6.297 Y17.859 0.00000
G1 X7.512 Y18.166 0.00000
G1 X8.423 Y16.338 0.00000
G1 X9.570 Y13.936 0.00000
G1 X7.577 Y12.489 0.00000
G1 X7.246 Y12.273 0.00000
G1 X6.499 Y11.733 0.00000
G1 X7.044 Y10.959 0.00000
G1 X9.062 Y12.520 0.00000
G1 X10.020 Y13.200 0.00000
G1 X10.057 Y12.745 F900.000
G1 F900
G1 X13.026 Y9.986 0.00000
G1 X10.918 Y6.762 0.00000
G1 X12.149 Y5.952 0.00000
G1 X12.391 Y5.817 0.00000
G1 X13.903 Y8.333 0.00000
G1 X14.413 Y9.106 0.00000
G1 X16.019 Y8.483 0.00000
G1 X18.180 Y7.606 0.00000
G1 X17.381 Y3.850 0.00000
G1 X18.822 Y3.531 0.00000
G1 X19.091 Y3.493 0.00000
G1 X19.594 Y6.384 0.00000
G1 X19.793 Y7.295 0.00000
G1 X23.845 Y7.255 0.00000
G1 X24.459 Y3.453 0.00000
G1 X25.915 Y3.683 0.00000
G1 X26.185 Y3.747 0.00000
G1 X25.606 Y6.625 0.00000
G1 X25.463 Y7.539 0.00000
G1 X27.070 Y8.162 0.00000
G1 X29.258 Y8.969 0.00000
G1 X31.197 Y5.655 0.00000
G1 X32.478 Y6.390 0.00000
G1 X32.705 Y6.545 0.00000
G1 X31.126 Y9.020 0.00000
G1 X30.659 Y9.825 0.00000
G1 X33.681 Y12.527 0.00000
G1 X36.697 Y10.129 0.00000
G1 X37.617 Y11.281 0.00000
G1 X37.772 Y11.507 0.00000
G1 X35.408 Y13.246 0.00000
G1 X34.685 Y13.826 0.00000
G1 X35.453 Y15.369 0.00000
G1 X36.526 Y17.439 0.00000
G1 X40.192 Y16.297 0.00000
G1 X40.643 Y17.702 0.00000
G1 X40.706 Y17.970 0.00000
G1 X37.872 Y18.735 0.00000
G1 X36.985 Y19.016 0.00000
G1 X37.398 Y23.048 0.00000
G1 X41.232 Y23.307 0.00000
G1 X41.145 Y24.781 0.00000
G1 X41.108 Y25.051 0.00000
G1 X38.190 Y24.743 0.00000
G1 X37.259 Y24.685 0.00000
G1 X36.188 Y28.593 0.00000
G1 X39.670 Y30.221 0.00000
G1 X39.056 Y31.563 0.00000
G1 X38.922 Y31.804 0.00000
G1 X36.313 Y30.460 0.00000
G1 X35.470 Y30.070 0.00000
G1 X33.537 Y32.659 0.00000
G1 X33.071 Y33.343 0.00000
G1 X35.722 Y36.109 0.00000
G1 X34.451 Y37.309 0.00000
G1 X32.500 Y35.114 0.00000
G1 X31.852 Y34.444 0.00000
G1 X28.426 Y36.611 0.00000
G1 X29.903 Y40.159 0.00000
G1 X28.545 Y40.738 0.00000
G1 X28.284 Y40.825 0.00000
G1 X27.261 Y38.074 0.00000
G1 X26.902 Y37.221 0.00000
G1 X25.208 Y37.538 0.00000
G1 X22.923 Y38.003 0.00000
G1 X23.018 Y41.842 0.00000
G1 X21.543 Y41.891 0.00000
G1 X21.271 Y41.878 0.00000
G1 X21.308 Y38.945 0.00000
G1 X21.281 Y38.013 0.00000
G1 X17.290 Y37.307 0.00000
G1 X15.990 Y40.924 0.00000
G1 X14.597 Y40.437 0.00000
G1 X14.348 Y40.327 0.00000
G1 X15.442 Y37.604 0.00000
G1 X15.753 Y36.728 0.00000
G1 X12.997 Y35.042 0.00000
G1 X12.273 Y34.641 0.00000
G1 X9.763 Y37.536 0.00000
G1 X8.574 Y36.506 0.00000
G1 X8.448 Y36.379 0.00000
G1 X10.458 Y34.234 0.00000
G1 X11.064 Y33.529 0.00000
G1 X8.590 Y30.318 0.00000
G1 X5.193 Y32.116 0.00000
G1 X4.492 Y30.817 0.00000
G1 X4.380 Y30.565 0.00000
G1 X7.026 Y29.293 0.00000
G1 X7.842 Y28.856 0.00000
G1 X7.370 Y27.199 0.00000
G1 X6.696 Y24.967 0.00000
G1 X2.883 Y25.416 0.00000
G1 X2.697 Y23.951 0.00000
G1 X2.685 Y23.679 0.00000
G1 X5.609 Y23.445 0.00000
G1 X6.535 Y23.332 0.00000
G1 X6.870 Y19.293 0.00000
G1 X3.148 Y18.333 0.00000
G1 X3.505 Y16.900 0.00000
G1 X3.591 Y16.642 0.00000
G1 X6.403 Y17.481 0.00000
G1 X7.302 Y17.708 0.00000
G1 X8.070 Y16.166 0.00000
G1 X9.075 Y14.062 0.00000
G1 X5.954 Y11.825 0.00000
G1 X6.804 Y10.617 0.00000
G1 X6.978 Y10.408 0.00000
G1 X9.297 Y12.205 0.00000
G1 X9.986 Y12.695 0.00000
G1 X10.024 Y12.240 F900.000
G1 F900
G1 X12.517 Y9.922 0.00000
G1 X11.546 Y8.418 0.00000
G1 X11.316 Y8.098 0.00000
G1 X10.372 Y6.651 0.00000
G1 X11.945 Y5.616 0.00000
G1 X12.532 Y5.289 0.00000
G1 X14.235 Y8.124 0.00000
G1 X14.566 Y8.625 0.00000
G1 X15.875 Y8.118 0.00000
G1 X17.729 Y7.365 0.00000
G1 X16.913 Y3.552 0.00000
G1 X18.752 Y3.144 0.00000
G1 X19.416 Y3.051 0.00000
G1 X19.980 Y6.309 0.00000
G1 X20.108 Y6.899 0.00000
G1 X23.512 Y6.866 0.00000
G1 X23.808 Y5.099 0.00000
G1 X23.854 Y4.708 0.00000
G1 X24.131 Y3.003 0.00000
G1 X25.991 Y3.298 0.00000
G1 X26.645 Y3.452 0.00000
G1 X25.993 Y6.694 0.00000
G1 X25.900 Y7.287 0.00000
G1 X27.209 Y7.794 0.00000
G1 X29.087 Y8.487 0.00000
G1 X31.053 Y5.119 0.00000
G1 X32.687 Y6.057 0.00000
G1 X33.240 Y6.436 0.00000
G1 X31.461 Y9.224 0.00000
G1 X31.159 Y9.745 0.00000
G1 X33.697 Y12.014 0.00000
G1 X35.105 Y10.908 0.00000
G1 X35.403 Y10.650 0.00000
G1 X36.758 Y9.575 0.00000
G1 X37.932 Y11.047 0.00000
G1 X38.311 Y11.600 0.00000
G1 X35.647 Y13.558 0.00000
G1 X35.177 Y13.934 0.00000
G1 X35.803 Y15.191 0.00000
G1 X36.724 Y16.968 0.00000
G1 X40.446 Y15.804 0.00000
G1 X41.022 Y17.597 0.00000
G1 X41.176 Y18.250 0.00000
G1 X37.982 Y19.112 0.00000
G1 X37.408 Y19.294 0.00000
G1 X37.755 Y22.680 0.00000
G1 X41.647 Y22.940 0.00000
G1 X41.536 Y24.820 0.00000
G1 X41.444 Y25.483 0.00000
G1 X38.156 Y25.135 0.00000
G1 X37.553 Y25.097 0.00000
G1 X36.654 Y28.380 0.00000
G1 X40.190 Y30.028 0.00000
G1 X39.407 Y31.741 0.00000
G1 X39.080 Y32.327 0.00000
G1 X36.140 Y30.813 0.00000
G1 X35.594 Y30.560 0.00000
G1 X33.857 Y32.887 0.00000
G1 X33.574 Y33.302 0.00000
G1 X34.800 Y34.597 0.00000
G1 X35.084 Y34.869 0.00000
G1 X36.279 Y36.119 0.00000
G1 X34.848 Y37.492 0.00000
G1 X34.407 Y37.854 0.00000
G1 X32.211 Y35.380 0.00000
G1 X31.791 Y34.946 0.00000
G1 X28.915 Y36.767 0.00000
G1 X30.418 Y40.367 0.00000
G1 X28.685 Y41.105 0.00000
G1 X28.049 Y41.319 0.00000
G1 X26.896 Y38.219 0.00000
G1 X26.663 Y37.665 0.00000
G1 X25.283 Y37.923 0.00000
G1 X23.322 Y38.323 0.00000
G1 X23.423 Y42.221 0.00000
G1 X21.540 Y42.284 0.00000
G1 X20.871 Y42.253 0.00000
G1 X20.915 Y38.947 0.00000
G1 X20.897 Y38.344 0.00000
G1 X17.545 Y37.751 0.00000
G1 X16.231 Y41.424 0.00000
G1 X14.453 Y40.802 0.00000
G1 X13.840 Y40.532 0.00000
G1 X15.075 Y37.464 0.00000
G1 X15.276 Y36.897 0.00000
G1 X12.799 Y35.381 0.00000
G1 X12.359 Y35.138 0.00000
G1 X11.184 Y36.478 0.00000
G1 X10.939 Y36.787 0.00000
G1 X9.804 Y38.092 0.00000
G1 X8.306 Y36.793 0.00000
G1 X7.903 Y36.387 0.00000
G1 X10.165 Y33.972 0.00000
G1 X10.558 Y33.515 0.00000
G1 X8.480 Y30.818 0.00000
G1 X5.034 Y32.647 0.00000
G1 X4.139 Y30.990 0.00000
G1 X3.868 Y30.376 0.00000
G1 X6.848 Y28.942 0.00000
G1 X7.378 Y28.659 0.00000
G1 X6.994 Y27.309 0.00000
G1 X6.415 Y25.393 0.00000
G1 X2.542 Y25.854 0.00000
G1 X2.306 Y23.985 0.00000
G1 X2.275 Y23.316 0.00000
G1 X5.571 Y23.054 0.00000
G1 X6.170 Y22.981 0.00000
G1 X6.451 Y19.588 0.00000
G1 X2.673 Y18.618 0.00000
G1 X3.127 Y16.790 0.00000
G1 X3.340 Y16.155 0.00000
G1 X6.508 Y17.102 0.00000
G1 X7.091 Y17.250 0.00000
G1 X7.717 Y15.993 0.00000
G1 X8.580 Y14.188 0.00000
G1 X5.408 Y11.919 0.00000
G1 X6.492 Y10.379 0.00000
G1 X6.920 Y9.863 0.00000
G1 X9.532 Y11.891 0.00000
G1 X9.953 Y12.190 0.00000
G1 X10.442 Y12.642 F900.000
G1 Z-149.000 F900.000
G1 X11.559 Y13.525 F900.000
G1 F900
G1 X12.019 Y12.977 0.00000
G1 X13.392 Y11.735 0.00000
G1 X14.914 Y10.690 0.00000
G1 X16.563 Y9.857 0.00000
G1 X18.307 Y9.251 0.00000
G1 X20.117 Y8.883 0.00000
G1 X21.895 Y8.764 0.00000
G1 X23.798 Y8.882 0.00000
G1 X25.612 Y9.251 0.00000
G1 X27.357 Y9.857 0.00000
G1 X28.948 Y10.661 0.00000
G1 X30.524 Y11.732 0.00000
G1 X31.897 Y12.974 0.00000
G1 X33.048 Y14.335 0.00000
G1 X34.082 Y15.937 0.00000
G1 X34.861 Y17.616 0.00000
G1 X35.408 Y19.380 0.00000
G1 X35.715 Y21.201 0.00000
G1 X35.777 Y23.047 0.00000
G1 X35.592 Y24.884 0.00000
G1 X35.164 Y26.681 0.00000
G1 X34.500 Y28.404 0.00000
G1 X33.644 Y29.967 0.00000
G1 X32.520 Y31.507 0.00000
G1 X31.233 Y32.838 0.00000
G1 X29.784 Y33.983 0.00000
G1 X28.195 Y34.924 0.00000
G1 X26.495 Y35.645 0.00000
G1 X24.714 Y36.133 0.00000
G1 X22.883 Y36.379 0.00000
G1 X21.036 Y36.379 0.00000
G1 X19.206 Y36.133 0.00000
G1 X17.425 Y35.645 0.00000
G1 X15.725 Y34.924 0.00000
G1 X14.136 Y33.983 0.00000
G1 X12.686 Y32.838 0.00000
G1 X11.402 Y31.510 0.00000
G1 X10.307 Y30.024 0.00000
G1 X9.419 Y28.404 0.00000
G1 X8.751 Y26.668 0.00000
G1 X8.327 Y24.883 0.00000
G1 X8.143 Y23.047 0.00000
G1 X8.204 Y21.201 0.00000
G1 X8.512 Y19.380 0.00000
G1 X9.059 Y17.616 0.00000
G1 X9.836 Y15.941 0.00000
G1 X10.795 Y14.438 0.00000
G1 X11.504 Y13.592 0.00000
G1 X11.861 Y13.778 F900.000
G1 F900
G1 X12.303 Y13.250 0.00000
G1 X13.636 Y12.044 0.00000
G1 X15.115 Y11.028 0.00000
G1 X16.716 Y10.219 0.00000
G1 X18.411 Y9.631 0.00000
G1 X20.170 Y9.273 0.00000
G1 X21.896 Y9.158 0.00000
G1 X23.747 Y9.273 0.00000
G1 X25.508 Y9.631 0.00000
G1 X27.203 Y10.219 0.00000
G1 X28.748 Y11.000 0.00000
G1 X30.281 Y12.042 0.00000
G1 X31.615 Y13.247 0.00000
G1 X32.732 Y14.569 0.00000
G1 X33.737 Y16.127 0.00000
G1 X34.494 Y17.757 0.00000
G1 X35.025 Y19.471 0.00000
G1 X35.324 Y21.240 0.00000
G1 X35.384 Y23.034 0.00000
G1 X35.204 Y24.819 0.00000
G1 X34.788 Y26.564 0.00000
G1 X34.143 Y28.238 0.00000
G1 X33.311 Y29.756 0.00000
G1 X32.219 Y31.254 0.00000
G1 X30.969 Y32.546 0.00000
G1 X29.561 Y33.658 0.00000
G1 X28.017 Y34.572 0.00000
G1 X26.366 Y35.273 0.00000
G1 X24.635 Y35.747 0.00000
G1 X22.857 Y35.986 0.00000
G1 X21.063 Y35.986 0.00000
G1 X19.284 Y35.747 0.00000
G1 X17.554 Y35.273 0.00000
G1 X15.902 Y34.572 0.00000
G1 X14.358 Y33.658 0.00000
G1 X12.950 Y32.546 0.00000
G1 X11.703 Y31.256 0.00000
G1 X10.639 Y29.812 0.00000
G1 X9.776 Y28.238 0.00000
G1 X9.127 Y26.552 0.00000
G1 X8.716 Y24.818 0.00000
G1 X8.536 Y23.034 0.00000
G1 X8.596 Y21.240 0.00000
G1 X8.894 Y19.471 0.00000
G1 X9.426 Y17.757 0.00000
G1 X10.181 Y16.130 0.00000
G1 X11.112 Y14.671 0.00000
G1 X11.805 Y13.844 0.00000
G1 X12.162 Y14.030 F900.000
G1 F900
G1 X12.586 Y13.523 0.00000
G1 X13.880 Y12.353 0.00000
G1 X15.316 Y11.367 0.00000
G1 X16.870 Y10.582 0.00000
G1 X18.515 Y10.010 0.00000
G1 X20.222 Y9.663 0.00000
G1 X21.897 Y9.551 0.00000
G1 X23.695 Y9.663 0.00000
G1 X25.404 Y10.010 0.00000
G1 X27.050 Y10.582 0.00000
G1 X28.548 Y11.339 0.00000
G1 X30.038 Y12.351 0.00000
G1 X31.332 Y13.521 0.00000
G1 X32.416 Y14.803 0.00000
G1 X33.392 Y16.317 0.00000
G1 X34.126 Y17.899 0.00000
G1 X34.642 Y19.562 0.00000
G1 X34.932 Y21.280 0.00000
G1 X34.990 Y23.020 0.00000
G1 X34.816 Y24.753 0.00000
G1 X34.412 Y26.447 0.00000
G1 X33.786 Y28.073 0.00000
G1 X32.979 Y29.545 0.00000
G1 X31.918 Y31.000 0.00000
G1 X30.705 Y32.254 0.00000
G1 X29.338 Y33.334 0.00000
G1 X27.840 Y34.221 0.00000
G1 X26.236 Y34.901 0.00000
G1 X24.557 Y35.361 0.00000
G1 X22.831 Y35.593 0.00000
G1 X21.089 Y35.593 0.00000
G1 X19.363 Y35.361 0.00000
G1 X17.683 Y34.901 0.00000
G1 X16.080 Y34.221 0.00000
G1 X14.581 Y33.334 0.00000
G1 X13.214 Y32.254 0.00000
G1 X12.004 Y31.002 0.00000
G1 X10.970 Y29.600 0.00000
G1 X10.133 Y28.073 0.00000
G1 X9.503 Y26.435 0.00000
G1 X9.104 Y24.753 0.00000
G1 X8.929 Y23.020 0.00000
G1 X8.988 Y21.280 0.00000
G1 X9.277 Y19.562 0.00000
G1 X9.793 Y17.899 0.00000
G1 X10.526 Y16.319 0.00000
G1 X11.430 Y14.904 0.00000
G1 X12.106 Y14.096 0.00000
G1 X12.463 Y14.282 F900.000
G1 F900
G1 X12.870 Y13.796 0.00000
G1 X14.124 Y12.662 0.00000
G1 X15.516 Y11.706 0.00000
G1 X17.024 Y10.944 0.00000
G1 X18.619 Y10.390 0.00000
G1 X20.275 Y10.053 0.00000
G1 X21.898 Y9.945 0.00000
G1 X23.644 Y10.053 0.00000
G1 X25.300 Y10.390 0.00000
G1 X26.896 Y10.944 0.00000
G1 X28.348 Y11.678 0.00000
G1 X29.795 Y12.661 0.00000
G1 X31.049 Y13.795 0.00000
G1 X32.099 Y15.037 0.00000
G1 X33.047 Y16.507 0.00000
G1 X33.759 Y18.040 0.00000
G1 X34.259 Y19.654 0.00000
G1 X34.540 Y21.319 0.00000
G1 X34.597 Y23.007 0.00000
G1 X34.428 Y24.688 0.00000
G1 X34.036 Y26.331 0.00000
G1 X33.429 Y27.907 0.00000
G1 X32.647 Y29.334 0.00000
G1 X31.617 Y30.747 0.00000
G1 X30.441 Y31.962 0.00000
G1 X29.116 Y33.009 0.00000
G1 X27.662 Y33.870 0.00000
G1 X26.107 Y34.529 0.00000
G1 X24.478 Y34.975 0.00000
G1 X22.804 Y35.201 0.00000
G1 X21.115 Y35.201 0.00000
G1 X19.441 Y34.975 0.00000
G1 X17.812 Y34.529 0.00000
G1 X16.257 Y33.870 0.00000
G1 X14.804 Y33.009 0.00000
G1 X13.478 Y31.962 0.00000
G1 X12.304 Y30.748 0.00000
G1 X11.302 Y29.388 0.00000
G1 X10.490 Y27.907 0.00000
G1 X9.879 Y26.319 0.00000
G1 X9.492 Y24.687 0.00000
G1 X9.323 Y23.007 0.00000
G1 X9.379 Y21.319 0.00000
G1 X9.660 Y19.654 0.00000
G1 X10.161 Y18.040 0.00000
G1 X10.872 Y16.508 0.00000
G1 X11.747 Y15.136 0.00000
G1 X12.407 Y14.348 0.00000
G1 X12.764 Y14.534 F900.000
G1 F900
G1 X13.153 Y14.069 0.00000
G1 X14.368 Y12.970 0.00000
G1 X15.717 Y12.044 0.00000
G1 X17.177 Y11.306 0.00000
G1 X18.723 Y10.769 0.00000
G1 X20.327 Y10.443 0.00000
G1 X21.899 Y10.338 0.00000
G1 X23.592 Y10.443 0.00000
G1 X25.196 Y10.769 0.00000
G1 X26.742 Y11.306 0.00000
G1 X28.149 Y12.017 0.00000
G1 X29.552 Y12.970 0.00000
G1 X30.766 Y14.068 0.00000
G1 X31.783 Y15.272 0.00000
G1 X32.703 Y16.697 0.00000
G1 X33.392 Y18.182 0.00000
G1 X33.877 Y19.745 0.00000
G1 X34.149 Y21.358 0.00000
G1 X34.204 Y22.994 0.00000
G1 X34.040 Y24.622 0.00000
G1 X33.660 Y26.214 0.00000
G1 X33.072 Y27.741 0.00000
G1 X32.315 Y29.123 0.00000
G1 X31.315 Y30.494 0.00000
G1 X30.177 Y31.670 0.00000
G1 X28.893 Y32.685 0.00000
G1 X27.485 Y33.519 0.00000
G1 X25.978 Y34.157 0.00000
G1 X24.400 Y34.590 0.00000
G1 X22.778 Y34.808 0.00000
G1 X21.142 Y34.808 0.00000
G1 X19.520 Y34.590 0.00000
G1 X17.941 Y34.157 0.00000
G1 X16.435 Y33.519 0.00000
G1 X15.027 Y32.685 0.00000
G1 X13.742 Y31.670 0.00000
G1 X12.605 Y30.494 0.00000
G1 X11.634 Y29.177 0.00000
G1 X10.847 Y27.741 0.00000
G1 X10.255 Y26.202 0.00000
G1 X9.880 Y24.622 0.00000
G1 X9.716 Y22.994 0.00000
G1 X9.771 Y21.358 0.00000
G1 X10.043 Y19.745 0.00000
G1 X10.528 Y18.182 0.00000
G1 X11.217 Y16.697 0.00000
G1 X12.065 Y15.369 0.00000
G1 X12.708 Y14.601 0.00000
G1 X12.551 Y13.994 F900.000
G1 X11.519 Y13.168 F900.000
G1 F900
G1 X14.126 Y10.614 0.00000
G1 X15.676 Y10.013 0.00000
G1 X18.979 Y8.592 0.00000
G1 X20.642 Y8.592 0.00000
G1 X24.235 Y8.460 0.00000
G1 X25.786 Y9.061 0.00000
G1 X29.184 Y10.236 0.00000
G1 X30.421 Y11.364 0.00000
G1 X31.106 Y11.929 0.00000
G1 X31.549 Y12.333 0.00000
G1 X33.141 Y13.647 0.00000
G1 X33.903 Y15.178 0.00000
G1 X34.337 Y15.952 0.00000
G1 X34.605 Y16.490 0.00000
G1 X35.614 Y18.290 0.00000
G1 X35.772 Y19.993 0.00000
G1 X35.897 Y20.872 0.00000
G1 X35.953 Y21.469 0.00000
G1 X36.244 Y23.513 0.00000
G1 X35.779 Y25.147 0.00000
G1 X34.922 Y28.638 0.00000
G1 X33.913 Y29.975 0.00000
G1 X33.414 Y30.708 0.00000
G1 X33.052 Y31.187 0.00000
G1 X31.891 Y32.893 0.00000
G1 X30.446 Y33.788 0.00000
G1 X27.461 Y35.791 0.00000
G1 X25.815 Y36.099 0.00000
G1 X24.952 Y36.305 0.00000
G1 X24.362 Y36.415 0.00000
G1 X22.354 Y36.893 0.00000
G1 X20.684 Y36.581 0.00000
G1 X17.128 Y36.051 0.00000
G1 X15.704 Y35.169 0.00000
G1 X14.928 Y34.739 0.00000
G1 X14.418 Y34.424 0.00000
G1 X12.611 Y33.424 0.00000
G1 X11.581 Y32.060 0.00000
G1 X11.012 Y31.378 0.00000
G1 X10.650 Y30.900 0.00000
G1 X9.327 Y29.315 0.00000
G1 X8.859 Y27.671 0.00000
G1 X8.574 Y26.830 0.00000
G1 X8.410 Y26.253 0.00000
G1 X7.749 Y24.297 0.00000
G1 X7.905 Y22.606 0.00000
G1 X8.106 Y19.016 0.00000
G1 X8.852 Y17.517 0.00000
G1 X9.208 Y16.704 0.00000
G1 X9.475 Y16.167 0.00000
G1 X10.304 Y14.276 0.00000
G1 X11.455 Y13.227 0.00000
G1 X9.976 Y14.044 F900.000
G1 F900
G1 X11.289 Y12.846 0.00000
G1 X13.835 Y10.349 0.00000
G1 X12.756 Y8.679 0.00000
G1 X12.066 Y7.719 0.00000
G1 X11.761 Y7.249 0.00000
G1 X11.863 Y7.182 0.00000
G1 X12.164 Y7.639 0.00000
G1 X12.566 Y8.317 0.00000
G1 X13.871 Y10.291 0.00000
G1 X15.528 Y9.649 0.00000
G1 X18.803 Y8.240 0.00000
G1 X18.401 Y6.294 0.00000
G1 X18.104 Y5.149 0.00000
G1 X17.989 Y4.597 0.00000
G1 X18.108 Y4.572 0.00000
G1 X18.225 Y5.110 0.00000
G1 X18.355 Y5.887 0.00000
G1 X18.858 Y8.199 0.00000
G1 X20.635 Y8.199 0.00000
G1 X24.198 Y8.069 0.00000
G1 X24.526 Y6.108 0.00000
G1 X24.663 Y4.933 0.00000
G1 X24.754 Y4.381 0.00000
G1 X24.874 Y4.400 0.00000
G1 X24.790 Y4.941 0.00000
G1 X24.630 Y5.712 0.00000
G1 X24.264 Y8.050 0.00000
G1 X25.921 Y8.692 0.00000
G1 X29.291 Y9.857 0.00000
G1 X30.305 Y8.148 0.00000
G1 X30.857 Y7.102 0.00000
G1 X31.143 Y6.617 0.00000
G1 X31.248 Y6.678 0.00000
G1 X30.972 Y7.154 0.00000
G1 X30.545 Y7.816 0.00000
G1 X29.359 Y9.864 0.00000
G1 X30.678 Y11.067 0.00000
G1 X31.363 Y11.632 0.00000
G1 X31.806 Y12.037 0.00000
G1 X33.405 Y13.356 0.00000
G1 X34.957 Y12.137 0.00000
G1 X35.849 Y11.361 0.00000
G1 X36.291 Y11.012 0.00000
G1 X36.367 Y11.107 0.00000
G1 X35.938 Y11.452 0.00000
G1 X35.300 Y11.915 0.00000
G1 X33.454 Y13.396 0.00000
G1 X34.250 Y14.995 0.00000
G1 X34.684 Y15.769 0.00000
G1 X34.952 Y16.306 0.00000
G1 X35.966 Y18.114 0.00000
G1 X37.853 Y17.538 0.00000
G1 X38.966 Y17.137 0.00000
G1 X39.504 Y16.971 0.00000
G1 X39.541 Y17.087 0.00000
G1 X39.015 Y17.253 0.00000
G1 X38.254 Y17.454 0.00000
G1 X35.997 Y18.169 0.00000
G1 X36.162 Y19.947 0.00000
G1 X36.287 Y20.826 0.00000
G1 X36.343 Y21.423 0.00000
G1 X36.635 Y23.475 0.00000
G1 X38.603 Y23.620 0.00000
G1 X39.786 Y23.648 0.00000
G1 X40.344 Y23.688 0.00000
G1 X40.337 Y23.809 0.00000
G1 X39.790 Y23.775 0.00000
G1 X39.007 Y23.687 0.00000
G1 X36.645 Y23.538 0.00000
G1 X36.159 Y25.247 0.00000
G1 X35.309 Y28.710 0.00000
G1 X37.105 Y29.562 0.00000
G1 X38.198 Y30.015 0.00000
G1 X38.707 Y30.256 0.00000
G1 X38.656 Y30.366 0.00000
G1 X38.156 Y30.135 0.00000
G1 X37.458 Y29.771 0.00000
G1 X35.309 Y28.778 0.00000
G1 X34.233 Y30.204 0.00000
G1 X33.733 Y30.937 0.00000
G1 X33.371 Y31.416 0.00000
G1 X32.205 Y33.129 0.00000
G1 X33.562 Y34.562 0.00000
G1 X34.417 Y35.379 0.00000
G1 X34.803 Y35.785 0.00000
G1 X34.715 Y35.869 0.00000
G1 X34.335 Y35.476 0.00000
G1 X33.815 Y34.884 0.00000
G1 X32.170 Y33.182 0.00000
G1 X30.659 Y34.118 0.00000
G1 X27.698 Y36.105 0.00000
G1 X28.452 Y37.945 0.00000
G1 X28.954 Y39.016 0.00000
G1 X29.168 Y39.536 0.00000
G1 X29.056 Y39.583 0.00000
G1 X28.842 Y39.076 0.00000
G1 X28.572 Y38.336 0.00000
G1 X27.652 Y36.155 0.00000
G1 X25.897 Y36.483 0.00000
G1 X25.033 Y36.689 0.00000
G1 X24.444 Y36.799 0.00000
G1 X22.427 Y37.280 0.00000
G1 X22.465 Y39.252 0.00000
G1 X22.546 Y40.433 0.00000
G1 X22.558 Y40.996 0.00000
G1 X22.436 Y40.999 0.00000
G1 X22.420 Y40.448 0.00000
G1 X22.435 Y39.661 0.00000
G1 X22.366 Y37.295 0.00000
G1 X20.619 Y36.968 0.00000
G1 X17.092 Y36.442 0.00000
G1 X16.410 Y38.309 0.00000
G1 X16.059 Y39.439 0.00000
G1 X15.867 Y39.968 0.00000
G1 X15.752 Y39.927 0.00000
G1 X15.936 Y39.408 0.00000
G1 X16.234 Y38.679 0.00000
G1 X17.024 Y36.448 0.00000
G1 X15.506 Y35.508 0.00000
G1 X14.729 Y35.078 0.00000
G1 X14.219 Y34.763 0.00000
G1 X12.405 Y33.759 0.00000
G1 X11.104 Y35.242 0.00000
G1 X10.369 Y36.169 0.00000
G1 X10.000 Y36.591 0.00000
G1 X9.908 Y36.512 0.00000
G1 X10.265 Y36.096 0.00000
G1 X10.807 Y35.524 0.00000
G1 X12.350 Y33.729 0.00000
G1 X11.273 Y32.304 0.00000
G1 X10.704 Y31.623 0.00000
G1 X10.343 Y31.144 0.00000
G1 X9.014 Y29.553 0.00000
G1 X7.264 Y30.466 0.00000
G1 X6.244 Y31.065 0.00000
G1 X5.746 Y31.327 0.00000
G1 X5.689 Y31.219 0.00000
G1 X6.174 Y30.959 0.00000
G1 X6.886 Y30.622 0.00000
G1 X8.973 Y29.505 0.00000
G1 X8.484 Y27.787 0.00000
G1 X8.199 Y26.946 0.00000
G1 X8.035 Y26.369 0.00000
G1 X7.371 Y24.406 0.00000
G1 X5.410 Y24.625 0.00000
G1 X4.242 Y24.815 0.00000
G1 X3.683 Y24.879 0.00000
G1 X3.668 Y24.758 0.00000
G1 X4.215 Y24.691 0.00000
G1 X5.000 Y24.634 0.00000
G1 X7.350 Y24.346 0.00000
G1 X7.514 Y22.577 0.00000
G1 X7.712 Y19.017 0.00000
G1 X5.790 Y18.509 0.00000
G1 X4.633 Y18.264 0.00000
G1 X4.088 Y18.122 0.00000
G1 X4.118 Y18.004 0.00000
G1 X4.652 Y18.139 0.00000
G1 X5.405 Y18.369 0.00000
G1 X7.700 Y18.950 0.00000
G1 X8.496 Y17.351 0.00000
G1 X8.852 Y16.538 0.00000
G1 X9.120 Y16.001 0.00000
G1 X9.951 Y14.102 0.00000
G1 X8.354 Y12.943 0.00000
G1 X7.364 Y12.297 0.00000
G1 X6.907 Y11.967 0.00000
G1 X6.978 Y11.868 0.00000
G1 X7.427 Y12.187 0.00000
G1 X8.046 Y12.673 0.00000
G1 X9.905 Y13.993 0.00000
G1 X9.945 Y13.540 F900.000
G1 F900
G1 X11.019 Y12.561 0.00000
G1 X13.331 Y10.293 0.00000
G1 X12.432 Y8.901 0.00000
G1 X11.741 Y7.940 0.00000
G1 X11.215 Y7.141 0.00000
G1 X11.974 Y6.638 0.00000
G1 X12.497 Y7.431 0.00000
G1 X12.899 Y8.108 0.00000
G1 X14.024 Y9.811 0.00000
G1 X15.379 Y9.286 0.00000
G1 X18.354 Y8.006 0.00000
G1 X18.018 Y6.383 0.00000
G1 X17.722 Y5.238 0.00000
G1 X17.518 Y4.297 0.00000
G1 X18.408 Y4.106 0.00000
G1 X18.611 Y5.036 0.00000
G1 X18.741 Y5.813 0.00000
G1 X19.174 Y7.807 0.00000
G1 X20.628 Y7.807 0.00000
G1 X23.864 Y7.688 0.00000
G1 X24.137 Y6.053 0.00000
G1 X24.274 Y4.878 0.00000
G1 X24.424 Y3.932 0.00000
G1 X25.323 Y4.072 0.00000
G1 X25.176 Y5.011 0.00000
G1 X25.017 Y5.782 0.00000
G1 X24.701 Y7.798 0.00000
G1 X26.056 Y8.323 0.00000
G1 X29.116 Y9.382 0.00000
G1 X29.962 Y7.956 0.00000
G1 X30.514 Y6.910 0.00000
G1 X30.998 Y6.077 0.00000
G1 X31.785 Y6.536 0.00000
G1 X31.307 Y7.359 0.00000
G1 X30.880 Y8.021 0.00000
G1 X29.857 Y9.787 0.00000
G1 X30.936 Y10.771 0.00000
G1 X31.620 Y11.336 0.00000
G1 X32.064 Y11.740 0.00000
G1 X33.411 Y12.852 0.00000
G1 X34.706 Y11.834 0.00000
G1 X35.599 Y11.059 0.00000
G1 X36.351 Y10.457 0.00000
G1 X36.919 Y11.169 0.00000
G1 X36.176 Y11.764 0.00000
G1 X35.539 Y12.227 0.00000
G1 X33.947 Y13.504 0.00000
G1 X34.598 Y14.811 0.00000
G1 X35.032 Y15.585 0.00000
G1 X35.299 Y16.122 0.00000
G1 X36.154 Y17.646 0.00000
G1 X37.729 Y17.165 0.00000
G1 X38.841 Y16.764 0.00000
G1 X39.760 Y16.474 0.00000
G1 X40.032 Y17.343 0.00000
G1 X39.125 Y17.631 0.00000
G1 X38.363 Y17.832 0.00000
G1 X36.418 Y18.447 0.00000
G1 X36.552 Y19.901 0.00000
G1 X36.678 Y20.780 0.00000
G1 X36.733 Y21.377 0.00000
G1 X36.979 Y23.107 0.00000
G1 X38.622 Y23.228 0.00000
G1 X39.804 Y23.255 0.00000
G1 X40.761 Y23.317 0.00000
G1 X40.704 Y24.226 0.00000
G1 X39.755 Y24.166 0.00000
G1 X38.973 Y24.078 0.00000
G1 X36.936 Y23.950 0.00000
G1 X36.538 Y25.348 0.00000
G1 X35.767 Y28.493 0.00000
G1 X37.265 Y29.203 0.00000
G1 X38.357 Y29.656 0.00000
G1 X39.231 Y30.061 0.00000
G1 X38.847 Y30.887 0.00000
G1 X37.983 Y30.488 0.00000
G1 X37.284 Y30.123 0.00000
G1 X35.432 Y29.267 0.00000
G1 X34.552 Y30.432 0.00000
G1 X34.052 Y31.166 0.00000
G1 X33.691 Y31.645 0.00000
G1 X32.708 Y33.089 0.00000
G1 X33.840 Y34.285 0.00000
G1 X34.695 Y35.102 0.00000
G1 X35.363 Y35.794 0.00000
G1 X34.703 Y36.422 0.00000
G1 X34.046 Y35.742 0.00000
G1 X33.526 Y35.150 0.00000
G1 X32.108 Y33.683 0.00000
G1 X30.872 Y34.448 0.00000
G1 X28.183 Y36.252 0.00000
G1 X28.811 Y37.787 0.00000
G1 X29.313 Y38.857 0.00000
G1 X29.686 Y39.745 0.00000
G1 X28.846 Y40.097 0.00000
G1 X28.477 Y39.220 0.00000
G1 X28.206 Y38.480 0.00000
G1 X27.413 Y36.599 0.00000
G1 X25.978 Y36.867 0.00000
G1 X25.115 Y37.073 0.00000
G1 X24.525 Y37.183 0.00000
G1 X22.826 Y37.588 0.00000
G1 X22.857 Y39.235 0.00000
G1 X22.938 Y40.415 0.00000
G1 X22.966 Y41.377 0.00000
G1 X22.055 Y41.402 0.00000
G1 X22.027 Y40.450 0.00000
G1 X22.042 Y39.663 0.00000
G1 X21.983 Y37.623 0.00000
G1 X20.554 Y37.356 0.00000
G1 X17.351 Y36.878 0.00000
G1 X16.782 Y38.435 0.00000
G1 X16.431 Y39.564 0.00000
G1 X16.109 Y40.472 0.00000
G1 X15.251 Y40.166 0.00000
G1 X15.569 Y39.268 0.00000
G1 X15.867 Y38.539 0.00000
G1 X16.549 Y36.616 0.00000
G1 X15.307 Y35.847 0.00000
G1 X14.531 Y35.417 0.00000
G1 X14.021 Y35.102 0.00000
G1 X12.492 Y34.256 0.00000
G1 X11.406 Y35.494 0.00000
G1 X10.671 Y36.421 0.00000
G1 X10.045 Y37.147 0.00000
G1 X9.354 Y36.554 0.00000
G1 X9.974 Y35.833 0.00000
G1 X10.515 Y35.261 0.00000
G1 X11.845 Y33.713 0.00000
G1 X10.966 Y32.548 0.00000
G1 X10.397 Y31.867 0.00000
G1 X10.035 Y31.388 0.00000
G1 X8.915 Y30.048 0.00000
G1 X7.455 Y30.810 0.00000
G1 X6.435 Y31.408 0.00000
G1 X5.586 Y31.862 0.00000
G1 X5.158 Y31.058 0.00000
G1 X5.997 Y30.609 0.00000
G1 X6.709 Y30.271 0.00000
G1 X8.508 Y29.308 0.00000
G1 X8.109 Y27.904 0.00000
G1 X7.824 Y27.063 0.00000
G1 X7.660 Y26.486 0.00000
G1 X7.100 Y24.831 0.00000
G1 X5.463 Y25.015 0.00000
G1 X4.296 Y25.204 0.00000
G1 X3.340 Y25.320 0.00000
G1 X3.232 Y24.416 0.00000
G1 X4.177 Y24.300 0.00000
G1 X4.962 Y24.243 0.00000
G1 X6.988 Y23.995 0.00000
G1 X7.122 Y22.548 0.00000
G1 X7.302 Y19.314 0.00000
G1 X5.699 Y18.891 0.00000
G1 X4.542 Y18.647 0.00000
G1 X3.609 Y18.409 0.00000
G1 X3.835 Y17.527 0.00000
G1 X4.758 Y17.761 0.00000
G1 X5.511 Y17.990 0.00000
G1 X7.489 Y18.491 0.00000
G1 X8.140 Y17.184 0.00000
G1 X8.496 Y16.371 0.00000
G1 X8.764 Y15.834 0.00000
G1 X9.465 Y14.234 0.00000
G1 X8.132 Y13.267 0.00000
G1 X7.141 Y12.621 0.00000
G1 X6.357 Y12.062 0.00000
G1 X6.886 Y11.321 0.00000
G1 X7.662 Y11.872 0.00000
G1 X8.281 Y12.359 0.00000
G1 X9.874 Y13.490 0.00000
G1 X9.915 Y13.037 F900.000
G1 F900
G1 X10.750 Y12.276 0.00000
G1 X12.827 Y10.237 0.00000
G1 X12.107 Y9.122 0.00000
G1 X11.417 Y8.162 0.00000
G1 X10.972 Y7.475 0.00000
G1 X10.658 Y7.039 0.00000
G1 X12.093 Y6.091 0.00000
G1 X12.830 Y7.222 0.00000
G1 X13.232 Y7.900 0.00000
G1 X14.177 Y9.330 0.00000
G1 X15.231 Y8.922 0.00000
G1 X17.904 Y7.772 0.00000
G1 X17.636 Y6.472 0.00000
G1 X17.339 Y5.327 0.00000
G1 X17.172 Y4.526 0.00000
G1 X17.038 Y4.011 0.00000
G1 X18.718 Y3.641 0.00000
G1 X18.996 Y4.962 0.00000
G1 X19.126 Y5.738 0.00000
G1 X19.491 Y7.414 0.00000
G1 X20.620 Y7.414 0.00000
G1 X23.529 Y7.307 0.00000
G1 X23.748 Y5.998 0.00000
G1 X23.885 Y4.824 0.00000
G1 X24.018 Y4.016 0.00000
G1 X24.081 Y3.482 0.00000
G1 X25.780 Y3.749 0.00000
G1 X25.563 Y5.081 0.00000
G1 X25.403 Y5.852 0.00000
G1 X25.138 Y7.547 0.00000
G1 X26.191 Y7.955 0.00000
G1 X28.942 Y8.906 0.00000
G1 X29.619 Y7.764 0.00000
G1 X30.171 Y6.718 0.00000
G1 X30.587 Y6.014 0.00000
G1 X30.836 Y5.543 0.00000
G1 X32.276 Y6.368 0.00000
G1 X32.326 Y6.401 0.00000
G1 X31.642 Y7.565 0.00000
G1 X31.215 Y8.226 0.00000
G1 X30.356 Y9.710 0.00000
G1 X31.193 Y10.474 0.00000
G1 X31.878 Y11.039 0.00000
G1 X32.321 Y11.443 0.00000
G1 X33.417 Y12.348 0.00000
G1 X34.456 Y11.532 0.00000
G1 X35.348 Y10.756 0.00000
G1 X35.991 Y10.249 0.00000
G1 X36.393 Y9.900 0.00000
G1 X37.472 Y11.238 0.00000
G1 X36.414 Y12.077 0.00000
G1 X35.777 Y12.539 0.00000
G1 X34.439 Y13.612 0.00000
G1 X34.945 Y14.627 0.00000
G1 X35.379 Y15.401 0.00000
G1 X35.646 Y15.939 0.00000
G1 X36.341 Y17.178 0.00000
G1 X37.605 Y16.792 0.00000
G1 X38.717 Y16.391 0.00000
G1 X39.499 Y16.151 0.00000
G1 X40.000 Y15.970 0.00000
G1 X40.524 Y17.608 0.00000
G1 X39.234 Y18.008 0.00000
G1 X38.473 Y18.209 0.00000
G1 X36.838 Y18.726 0.00000
G1 X36.943 Y19.855 0.00000
G1 X37.068 Y20.734 0.00000
G1 X37.123 Y21.331 0.00000
G1 X37.323 Y22.738 0.00000
G1 X38.641 Y22.835 0.00000
G1 X39.823 Y22.863 0.00000
G1 X40.639 Y22.921 0.00000
G1 X41.178 Y22.934 0.00000
G1 X41.068 Y24.650 0.00000
G1 X39.721 Y24.557 0.00000
G1 X38.938 Y24.470 0.00000
G1 X37.227 Y24.362 0.00000
G1 X36.918 Y25.448 0.00000
G1 X36.225 Y28.275 0.00000
G1 X37.424 Y28.844 0.00000
G1 X38.516 Y29.297 0.00000
G1 X39.256 Y29.646 0.00000
G1 X39.748 Y29.850 0.00000
G1 X39.031 Y31.413 0.00000
G1 X37.809 Y30.840 0.00000
G1 X37.111 Y30.476 0.00000
G1 X35.554 Y29.757 0.00000
G1 X34.871 Y30.661 0.00000
G1 X34.371 Y31.395 0.00000
G1 X34.010 Y31.874 0.00000
G1 X33.210 Y33.049 0.00000
G1 X34.119 Y34.008 0.00000
G1 X34.973 Y34.825 0.00000
G1 X35.537 Y35.418 0.00000
G1 X35.922 Y35.786 0.00000
G1 X34.686 Y36.981 0.00000
G1 X33.757 Y36.008 0.00000
G1 X33.237 Y35.416 0.00000
G1 X32.045 Y34.183 0.00000
G1 X31.085 Y34.778 0.00000
G1 X28.668 Y36.400 0.00000
G1 X29.171 Y37.629 0.00000
G1 X29.673 Y38.699 0.00000
G1 X29.985 Y39.456 0.00000
G1 X30.211 Y39.938 0.00000
G1 X28.628 Y40.610 0.00000
G1 X28.111 Y39.363 0.00000
G1 X27.841 Y38.624 0.00000
G1 X27.174 Y37.043 0.00000
G1 X26.060 Y37.252 0.00000
G1 X25.197 Y37.457 0.00000
G1 X24.607 Y37.568 0.00000
G1 X23.224 Y37.897 0.00000
G1 X23.250 Y39.218 0.00000
G1 X23.331 Y40.397 0.00000
G1 X23.348 Y41.215 0.00000
G1 X23.385 Y41.747 0.00000
G1 X23.167 Y41.765 0.00000
G1 X21.666 Y41.802 0.00000
G1 X21.635 Y40.452 0.00000
G1 X21.650 Y39.665 0.00000
G1 X21.599 Y37.951 0.00000
G1 X20.489 Y37.743 0.00000
G1 X17.610 Y37.314 0.00000
G1 X17.154 Y38.561 0.00000
G1 X16.804 Y39.690 0.00000
G1 X16.524 Y40.459 0.00000
G1 X16.366 Y40.968 0.00000
G1 X14.744 Y40.398 0.00000
G1 X15.202 Y39.128 0.00000
G1 X15.500 Y38.399 0.00000
G1 X16.073 Y36.783 0.00000
G1 X15.109 Y36.186 0.00000
G1 X14.332 Y35.756 0.00000
G1 X13.822 Y35.440 0.00000
G1 X12.579 Y34.753 0.00000
G1 X11.707 Y35.746 0.00000
G1 X10.973 Y36.672 0.00000
G1 X10.434 Y37.288 0.00000
G1 X10.099 Y37.711 0.00000
G1 X8.838 Y36.629 0.00000
G1 X8.796 Y36.588 0.00000
G1 X9.682 Y35.570 0.00000
G1 X10.224 Y34.998 0.00000
G1 X11.341 Y33.697 0.00000
G1 X10.658 Y32.793 0.00000
G1 X10.089 Y32.111 0.00000
G1 X9.727 Y31.633 0.00000
G1 X8.817 Y30.542 0.00000
G1 X7.645 Y31.153 0.00000
G1 X6.626 Y31.752 0.00000
G1 X5.901 Y32.132 0.00000
G1 X5.442 Y32.402 0.00000
G1 X4.627 Y30.887 0.00000
G1 X5.820 Y30.258 0.00000
G1 X6.532 Y29.920 0.00000
G1 X8.044 Y29.111 0.00000
G1 X7.734 Y28.021 0.00000
G1 X7.449 Y27.180 0.00000
G1 X7.285 Y26.603 0.00000
G1 X6.830 Y25.257 0.00000
G1 X5.517 Y25.404 0.00000
G1 X4.350 Y25.593 0.00000
G1 X3.537 Y25.686 0.00000
G1 X3.011 Y25.772 0.00000
G1 X2.798 Y24.065 0.00000
G1 X4.138 Y23.909 0.00000
G1 X4.924 Y23.852 0.00000
G1 X6.626 Y23.644 0.00000
G1 X6.730 Y22.519 0.00000
G1 X6.892 Y19.612 0.00000
G1 X5.609 Y19.273 0.00000
G1 X4.452 Y19.029 0.00000
G1 X3.660 Y18.822 0.00000
G1 X3.139 Y18.711 0.00000
G1 X3.557 Y17.043 0.00000
G1 X4.863 Y17.382 0.00000
G1 X5.617 Y17.612 0.00000
G1 X7.279 Y18.033 0.00000
G1 X7.784 Y17.018 0.00000
G1 X8.141 Y16.205 0.00000
G1 X8.408 Y15.668 0.00000
G1 X8.978 Y14.366 0.00000
G1 X7.909 Y13.590 0.00000
G1 X6.919 Y12.944 0.00000
G1 X6.256 Y12.465 0.00000
G1 X5.809 Y12.174 0.00000
G1 X5.926 Y11.989 0.00000
G1 X6.801 Y10.769 0.00000
G1 X7.897 Y11.558 0.00000
G1 X8.517 Y12.044 0.00000
G1 X9.844 Y12.987 0.00000
G1 X9.884 Y12.533 F900.000
G1 F900
G1 X10.480 Y11.990 0.00000
G1 X12.324 Y10.181 0.00000
G1 X11.782 Y9.343 0.00000
G1 X11.093 Y8.384 0.00000
G1 X10.647 Y7.697 0.00000
G1 X10.113 Y6.954 0.00000
G1 X10.347 Y6.773 0.00000
G1 X11.836 Y5.786 0.00000
G1 X12.233 Y5.558 0.00000
G1 X12.512 Y6.028 0.00000
G1 X13.163 Y7.014 0.00000
G1 X13.565 Y7.691 0.00000
G1 X14.330 Y8.850 0.00000
G1 X15.082 Y8.559 0.00000
G1 X17.455 Y7.538 0.00000
G1 X17.253 Y6.561 0.00000
G1 X16.957 Y5.417 0.00000
G1 X16.789 Y4.616 0.00000
G1 X16.561 Y3.735 0.00000
G1 X17.156 Y3.571 0.00000
G1 X18.587 Y3.264 0.00000
G1 X19.041 Y3.194 0.00000
G1 X19.131 Y3.733 0.00000
G1 X19.382 Y4.887 0.00000
G1 X19.512 Y5.664 0.00000
G1 X19.807 Y7.021 0.00000
G1 X20.613 Y7.021 0.00000
G1 X23.195 Y6.927 0.00000
G1 X23.359 Y5.943 0.00000
G1 X23.496 Y4.769 0.00000
G1 X23.629 Y3.961 0.00000
G1 X23.735 Y3.052 0.00000
G1 X24.030 Y3.077 0.00000
G1 X25.795 Y3.350 0.00000
G1 X26.243 Y3.449 0.00000
G1 X26.132 Y3.984 0.00000
G1 X25.949 Y5.151 0.00000
G1 X25.790 Y5.923 0.00000
G1 X25.575 Y7.295 0.00000
G1 X26.326 Y7.586 0.00000
G1 X28.768 Y8.430 0.00000
G1 X29.277 Y7.572 0.00000
G1 X29.828 Y6.527 0.00000
G1 X30.244 Y5.822 0.00000
G1 X30.669 Y5.017 0.00000
G1 X31.219 Y5.297 0.00000
G1 X32.484 Y6.034 0.00000
G1 X32.866 Y6.288 0.00000
G1 X32.570 Y6.747 0.00000
G1 X31.977 Y7.770 0.00000
G1 X31.550 Y8.431 0.00000
G1 X30.854 Y9.633 0.00000
G1 X31.451 Y10.177 0.00000
G1 X33.423 Y11.844 0.00000
G1 X34.206 Y11.229 0.00000
G1 X35.098 Y10.454 0.00000
G1 X35.740 Y9.947 0.00000
G1 X36.427 Y9.349 0.00000
G1 X36.838 Y9.809 0.00000
G1 X37.752 Y10.954 0.00000
G1 X38.017 Y11.328 0.00000
G1 X37.574 Y11.650 0.00000
G1 X36.653 Y12.389 0.00000
G1 X36.015 Y12.851 0.00000
G1 X34.932 Y13.721 0.00000
G1 X35.292 Y14.444 0.00000
G1 X35.726 Y15.218 0.00000
G1 X35.994 Y15.755 0.00000
G1 X36.529 Y16.710 0.00000
G1 X37.481 Y16.420 0.00000
G1 X38.593 Y16.019 0.00000
G1 X39.375 Y15.778 0.00000
G1 X40.231 Y15.469 0.00000
G1 X40.449 Y16.047 0.00000
G1 X40.887 Y17.444 0.00000
G1 X40.999 Y17.889 0.00000
G1 X40.470 Y18.029 0.00000
G1 X39.344 Y18.385 0.00000
G1 X38.582 Y18.586 0.00000
G1 X37.258 Y19.005 0.00000
G1 X37.333 Y19.809 0.00000
G1 X37.668 Y22.370 0.00000
G1 X38.660 Y22.443 0.00000
G1 X39.841 Y22.471 0.00000
G1 X40.658 Y22.529 0.00000
G1 X41.572 Y22.550 0.00000
G1 X41.575 Y22.878 0.00000
G1 X41.466 Y24.629 0.00000
G1 X41.409 Y25.084 0.00000
G1 X40.866 Y25.023 0.00000
G1 X39.687 Y24.948 0.00000
G1 X38.904 Y24.861 0.00000
G1 X37.518 Y24.773 0.00000
G1 X37.298 Y25.549 0.00000
G1 X36.682 Y28.058 0.00000
G1 X37.584 Y28.485 0.00000
G1 X38.675 Y28.938 0.00000
G1 X39.415 Y29.287 0.00000
G1 X40.256 Y29.636 0.00000
G1 X40.028 Y30.209 0.00000
G1 X39.411 Y31.537 0.00000
G1 X39.193 Y31.941 0.00000
G1 X38.709 Y31.688 0.00000
G1 X37.636 Y31.193 0.00000
G1 X36.938 Y30.828 0.00000
G1 X35.677 Y30.246 0.00000
G1 X35.190 Y30.890 0.00000
G1 X33.713 Y33.008 0.00000
G1 X34.397 Y33.731 0.00000
G1 X35.251 Y34.547 0.00000
G1 X35.815 Y35.140 0.00000
G1 X36.473 Y35.769 0.00000
G1 X36.054 Y36.221 0.00000
G1 X34.653 Y37.538 0.00000
G1 X34.289 Y37.124 0.00000
G1 X33.468 Y36.274 0.00000
G1 X32.948 Y35.682 0.00000
G1 X31.983 Y34.684 0.00000
G1 X31.298 Y35.108 0.00000
G1 X29.153 Y36.548 0.00000
G1 X29.531 Y37.471 0.00000
G1 X30.032 Y38.541 0.00000
G1 X30.344 Y39.298 0.00000
G1 X30.731 Y40.122 0.00000
G1 X30.176 Y40.392 0.00000
G1 X28.825 Y40.957 0.00000
G1 X28.392 Y41.109 0.00000
G1 X28.204 Y40.596 0.00000
G1 X27.746 Y39.507 0.00000
G1 X27.475 Y38.767 0.00000
G1 X26.936 Y37.488 0.00000
G1 X26.142 Y37.636 0.00000
G1 X23.623 Y38.206 0.00000
G1 X23.642 Y39.201 0.00000
G1 X23.723 Y40.380 0.00000
G1 X23.741 Y41.198 0.00000
G1 X23.803 Y42.106 0.00000
G1 X23.188 Y42.157 0.00000
G1 X21.725 Y42.196 0.00000
G1 X21.266 Y42.182 0.00000
G1 X21.276 Y41.635 0.00000
G1 X21.242 Y40.454 0.00000
G1 X21.257 Y39.667 0.00000
G1 X21.216 Y38.279 0.00000
G1 X20.424 Y38.131 0.00000
G1 X17.869 Y37.749 0.00000
G1 X17.526 Y38.686 0.00000
G1 X17.176 Y39.815 0.00000
G1 X16.897 Y40.584 0.00000
G1 X16.627 Y41.454 0.00000
G1 X16.035 Y41.279 0.00000
G1 X14.656 Y40.787 0.00000
G1 X14.234 Y40.608 0.00000
G1 X14.441 Y40.102 0.00000
G1 X14.835 Y38.988 0.00000
G1 X15.133 Y38.259 0.00000
G1 X15.597 Y36.950 0.00000
G1 X14.910 Y36.525 0.00000
G1 X14.134 Y36.095 0.00000
G1 X13.623 Y35.779 0.00000
G1 X12.665 Y35.249 0.00000
G1 X12.009 Y35.997 0.00000
G1 X11.275 Y36.923 0.00000
G1 X10.736 Y37.540 0.00000
G1 X10.168 Y38.256 0.00000
G1 X9.905 Y38.061 0.00000
G1 X8.573 Y36.919 0.00000
G1 X8.245 Y36.600 0.00000
G1 X8.620 Y36.203 0.00000
G1 X9.390 Y35.307 0.00000
G1 X9.932 Y34.735 0.00000
G1 X10.837 Y33.682 0.00000
G1 X10.351 Y33.037 0.00000
G1 X8.718 Y31.037 0.00000
G1 X7.836 Y31.497 0.00000
G1 X6.817 Y32.095 0.00000
G1 X6.092 Y32.475 0.00000
G1 X5.307 Y32.936 0.00000
G1 X4.987 Y32.409 0.00000
G1 X4.299 Y31.116 0.00000
G1 X4.108 Y30.699 0.00000
G1 X4.602 Y30.465 0.00000
G1 X5.643 Y29.907 0.00000
G1 X6.355 Y29.570 0.00000
G1 X7.580 Y28.914 0.00000
G1 X7.359 Y28.137 0.00000
G1 X7.074 Y27.297 0.00000
G1 X6.910 Y26.720 0.00000
G1 X6.559 Y25.682 0.00000
G1 X5.570 Y25.793 0.00000
G1 X4.404 Y25.983 0.00000
G1 X3.591 Y26.075 0.00000
G1 X2.692 Y26.221 0.00000
G1 X2.584 Y25.614 0.00000
G1 X2.410 Y24.160 0.00000
G1 X2.382 Y23.702 0.00000
G1 X2.927 Y23.662 0.00000
G1 X4.100 Y23.519 0.00000
G1 X4.886 Y23.461 0.00000
G1 X6.264 Y23.292 0.00000
G1 X6.339 Y22.490 0.00000
G1 X6.482 Y19.910 0.00000
G1 X5.518 Y19.656 0.00000
G1 X4.362 Y19.411 0.00000
G1 X3.570 Y19.204 0.00000
G1 X2.679 Y19.016 0.00000
G1 X2.798 Y18.410 0.00000
G1 X3.161 Y16.992 0.00000
G1 X3.301 Y16.554 0.00000
G1 X3.824 Y16.714 0.00000
G1 X4.969 Y17.004 0.00000
G1 X5.722 Y17.234 0.00000
G1 X7.069 Y17.574 0.00000
G1 X7.429 Y16.852 0.00000
G1 X8.492 Y14.498 0.00000
G1 X7.686 Y13.914 0.00000
G1 X6.696 Y13.268 0.00000
G1 X6.033 Y12.789 0.00000
G1 X5.271 Y12.292 0.00000
G1 X5.600 Y11.770 0.00000
G1 X6.451 Y10.578 0.00000
G1 X6.739 Y10.221 0.00000
G1 X7.169 Y10.559 0.00000
G1 X8.132 Y11.243 0.00000
G1 X8.752 Y11.729 0.00000
G1 X9.813 Y12.483 0.00000
G1 X10.302 Y12.936 F900.000
G1 Z-148.500 F900.000
G1 X9.838 Y13.813 F900.000
G1 X10.542 Y14.514 F900.000
G1 X9.728 Y15.951 F900.000
G1 X8.298 Y19.413 F900.000
G1 X8.057 Y22.993 F900.000
G1 X8.221 Y25.073 F900.000
G1 X9.739 Y29.438 F900.000
G1 X12.555 Y32.894 F900.000
G1 X13.040 Y33.390 F900.000
G1 X14.124 Y34.086 F900.000
G1 X17.542 Y35.892 F900.000
G1 X22.648 Y36.588 F900.000
G1 X22.692 Y37.489 F900.000
G1 F900
G1 X22.927 Y40.896 0.00000
G1 X22.792 Y40.900 0.00000
G1 X22.694 Y37.575 0.00000
G1 X17.259 Y36.747 F900.000
G1 F900
G1 X16.247 Y40.009 0.00000
G1 X16.119 Y39.964 0.00000
G1 X17.230 Y36.829 0.00000
G1 X12.460 Y34.092 F900.000
G1 F900
G1 X10.338 Y36.768 0.00000
G1 X10.236 Y36.681 0.00000
G1 X12.404 Y34.158 0.00000
G1 X8.945 Y29.883 F900.000
G1 F900
G1 X5.999 Y31.612 0.00000
G1 X5.935 Y31.494 0.00000
G1 X8.868 Y29.924 0.00000
G1 X7.187 Y24.689 F900.000
G1 F900
G1 X3.810 Y25.238 0.00000
G1 X3.794 Y25.104 0.00000
G1 X7.101 Y24.699 0.00000
G1 X7.425 Y19.210 F900.000
G1 F900
G1 X4.083 Y18.504 0.00000
G1 X4.116 Y18.373 0.00000
G1 X7.340 Y19.189 0.00000
G1 X9.625 Y14.187 F900.000
G1 F900
G1 X6.764 Y12.322 0.00000
G1 X6.842 Y12.211 0.00000
G1 X9.554 Y14.137 0.00000
G1 X13.492 Y10.299 F900.000
G1 F900
G1 X11.499 Y7.527 0.00000
G1 X11.611 Y7.452 0.00000
G1 X13.444 Y10.226 0.00000
G1 X18.502 Y8.069 F900.000
G1 F900
G1 X17.644 Y4.763 0.00000
G1 X17.776 Y4.734 0.00000
G1 X18.483 Y7.984 0.00000
G1 X23.979 Y7.800 F900.000
G1 F900
G1 X24.374 Y4.409 0.00000
G1 X24.507 Y4.429 0.00000
G1 X23.992 Y7.714 0.00000
G1 X29.183 Y9.528 F900.000
G1 F900
G1 X30.777 Y6.507 0.00000
G1 X30.894 Y6.574 0.00000
G1 X29.227 Y9.453 0.00000
G1 X28.679 Y10.525 F900.000
G1 F900
G1 X29.005 Y10.690 0.00000
G1 X30.528 Y11.735 0.00000
G1 X31.897 Y12.974 0.00000
G1 X33.090 Y14.384 0.00000
G1 X34.084 Y15.941 0.00000
G1 X34.861 Y17.616 0.00000
G1 X35.408 Y19.380 0.00000
G1 X35.715 Y21.201 0.00000
G1 X35.777 Y23.047 0.00000
G1 X35.592 Y24.884 0.00000
G1 X35.164 Y26.681 0.00000
G1 X34.500 Y28.404 0.00000
G1 X33.613 Y30.024 0.00000
G1 X32.517 Y31.510 0.00000
G1 X31.233 Y32.838 0.00000
G1 X29.784 Y33.983 0.00000
G1 X28.195 Y34.924 0.00000
G1 X26.495 Y35.645 0.00000
G1 X24.714 Y36.133 0.00000
G1 X22.883 Y36.379 0.00000
G1 X21.036 Y36.379 0.00000
G1 X19.206 Y36.133 0.00000
G1 X17.425 Y35.645 0.00000
G1 X15.725 Y34.924 0.00000
G1 X14.136 Y33.983 0.00000
G1 X12.686 Y32.838 0.00000
G1 X11.402 Y31.510 0.00000
G1 X10.307 Y30.024 0.00000
G1 X9.419 Y28.404 0.00000
G1 X8.756 Y26.681 0.00000
G1 X8.328 Y24.884 0.00000
G1 X8.143 Y23.047 0.00000
G1 X8.204 Y21.201 0.00000
G1 X8.512 Y19.380 0.00000
G1 X9.059 Y17.616 0.00000
G1 X9.836 Y15.941 0.00000
G1 X10.830 Y14.384 0.00000
G1 X12.022 Y12.974 0.00000
G1 X13.392 Y11.735 0.00000
G1 X14.914 Y10.690 0.00000
G1 X16.563 Y9.857 0.00000
G1 X18.307 Y9.251 0.00000
G1 X20.117 Y8.883 0.00000
G1 X21.960 Y8.760 0.00000
G1 X23.802 Y8.883 0.00000
G1 X25.612 Y9.251 0.00000
G1 X27.357 Y9.857 0.00000
G1 X28.602 Y10.486 0.00000
G1 X28.502 Y10.876 F900.000
G1 F900
G1 X28.805 Y11.028 0.00000
G1 X30.284 Y12.044 0.00000
G1 X31.615 Y13.247 0.00000
G1 X32.773 Y14.618 0.00000
G1 X33.738 Y16.130 0.00000
G1 X34.494 Y17.757 0.00000
G1 X35.025 Y19.471 0.00000
G1 X35.324 Y21.240 0.00000
G1 X35.384 Y23.034 0.00000
G1 X35.204 Y24.819 0.00000
G1 X34.788 Y26.564 0.00000
G1 X34.143 Y28.238 0.00000
G1 X33.281 Y29.812 0.00000
G1 X32.217 Y31.256 0.00000
G1 X30.969 Y32.546 0.00000
G1 X29.561 Y33.658 0.00000
G1 X28.017 Y34.572 0.00000
G1 X26.366 Y35.273 0.00000
G1 X24.635 Y35.747 0.00000
G1 X22.857 Y35.986 0.00000
G1 X21.063 Y35.986 0.00000
G1 X19.284 Y35.747 0.00000
G1 X17.554 Y35.273 0.00000
G1 X15.902 Y34.572 0.00000
G1 X14.358 Y33.658 0.00000
G1 X12.950 Y32.546 0.00000
G1 X11.703 Y31.256 0.00000
G1 X10.639 Y29.812 0.00000
G1 X9.776 Y28.238 0.00000
G1 X9.132 Y26.564 0.00000
G1 X8.716 Y24.819 0.00000
G1 X8.536 Y23.034 0.00000
G1 X8.596 Y21.240 0.00000
G1 X8.894 Y19.471 0.00000
G1 X9.426 Y17.757 0.00000
G1 X10.181 Y16.130 0.00000
G1 X11.147 Y14.618 0.00000
G1 X12.305 Y13.247 0.00000
G1 X13.636 Y12.044 0.00000
G1 X15.115 Y11.028 0.00000
G1 X16.716 Y10.219 0.00000
G1 X18.411 Y9.631 0.00000
G1 X20.170 Y9.273 0.00000
G1 X21.960 Y9.153 0.00000
G1 X23.750 Y9.273 0.00000
G1 X25.508 Y9.631 0.00000
G1 X27.203 Y10.219 0.00000
G1 X28.424 Y10.836 0.00000
G1 X28.325 Y11.226 F900.000
G1 F900
G1 X28.604 Y11.367 0.00000
G1 X30.040 Y12.353 0.00000
G1 X31.332 Y13.521 0.00000
G1 X32.456 Y14.851 0.00000
G1 X33.393 Y16.319 0.00000
G1 X34.126 Y17.899 0.00000
G1 X34.642 Y19.562 0.00000
G1 X34.932 Y21.280 0.00000
G1 X34.990 Y23.020 0.00000
G1 X34.816 Y24.753 0.00000
G1 X34.412 Y26.447 0.00000
G1 X33.786 Y28.073 0.00000
G1 X32.949 Y29.600 0.00000
G1 X31.916 Y31.002 0.00000
G1 X30.705 Y32.254 0.00000
G1 X29.338 Y33.334 0.00000
G1 X27.840 Y34.221 0.00000
G1 X26.236 Y34.901 0.00000
G1 X24.557 Y35.361 0.00000
G1 X22.831 Y35.593 0.00000
G1 X21.089 Y35.593 0.00000
G1 X19.363 Y35.361 0.00000
G1 X17.683 Y34.901 0.00000
G1 X16.080 Y34.221 0.00000
G1 X14.581 Y33.334 0.00000
G1 X13.214 Y32.254 0.00000
G1 X12.004 Y31.002 0.00000
G1 X10.970 Y29.600 0.00000
G1 X10.133 Y28.073 0.00000
G1 X9.507 Y26.447 0.00000
G1 X9.104 Y24.753 0.00000
G1 X8.929 Y23.020 0.00000
G1 X8.988 Y21.280 0.00000
G1 X9.277 Y19.562 0.00000
G1 X9.793 Y17.899 0.00000
G1 X10.526 Y16.319 0.00000
G1 X11.464 Y14.851 0.00000
G1 X12.588 Y13.521 0.00000
G1 X13.880 Y12.353 0.00000
G1 X15.316 Y11.367 0.00000
G1 X16.870 Y10.582 0.00000
G1 X18.515 Y10.010 0.00000
G1 X20.222 Y9.663 0.00000
G1 X21.960 Y9.547 0.00000
G1 X23.698 Y9.663 0.00000
G1 X25.404 Y10.010 0.00000
G1 X27.050 Y10.582 0.00000
G1 X28.247 Y11.187 0.00000
G1 X28.148 Y11.577 F900.000
G1 F900
G1 X28.403 Y11.706 0.00000
G1 X29.796 Y12.662 0.00000
G1 X31.049 Y13.795 0.00000
G1 X32.139 Y15.084 0.00000
G1 X33.048 Y16.508 0.00000
G1 X33.759 Y18.040 0.00000
G1 X34.259 Y19.654 0.00000
G1 X34.540 Y21.319 0.00000
G1 X34.597 Y23.007 0.00000
G1 X34.428 Y24.688 0.00000
G1 X34.036 Y26.331 0.00000
G1 X33.429 Y27.907 0.00000
G1 X32.617 Y29.388 0.00000
G1 X31.616 Y30.748 0.00000
G1 X30.441 Y31.962 0.00000
G1 X29.116 Y33.009 0.00000
G1 X27.662 Y33.870 0.00000
G1 X26.107 Y34.529 0.00000
G1 X24.478 Y34.975 0.00000
G1 X22.804 Y35.201 0.00000
G1 X21.115 Y35.201 0.00000
G1 X19.441 Y34.975 0.00000
G1 X17.812 Y34.529 0.00000
G1 X16.257 Y33.870 0.00000
G1 X14.804 Y33.009 0.00000
G1 X13.478 Y31.962 0.00000
G1 X12.304 Y30.748 0.00000
G1 X11.302 Y29.388 0.00000
G1 X10.490 Y27.907 0.00000
G1 X9.883 Y26.331 0.00000
G1 X9.492 Y24.688 0.00000
G1 X9.323 Y23.007 0.00000
G1 X9.379 Y21.319 0.00000
G1 X9.660 Y19.654 0.00000
G1 X10.161 Y18.040 0.00000
G1 X10.872 Y16.508 0.00000
G1 X11.780 Y15.084 0.00000
G1 X12.871 Y13.795 0.00000
G1 X14.124 Y12.662 0.00000
G1 X15.516 Y11.706 0.00000
G1 X17.024 Y10.944 0.00000
G1 X18.619 Y10.390 0.00000
G1 X20.275 Y10.053 0.00000
G1 X21.960 Y9.941 0.00000
G1 X23.645 Y10.053 0.00000
G1 X25.300 Y10.390 0.00000
G1 X26.896 Y10.944 0.00000
G1 X28.070 Y11.537 0.00000
G1 X27.971 Y11.927 F900.000
G1 F900
G1 X28.203 Y12.044 0.00000
G1 X29.552 Y12.970 0.00000
G1 X30.766 Y14.068 0.00000
G1 X31.822 Y15.318 0.00000
G1 X32.703 Y16.697 0.00000
G1 X33.392 Y18.182 0.00000
G1 X33.877 Y19.745 0.00000
G1 X34.149 Y21.358 0.00000
G1 X34.204 Y22.994 0.00000
G1 X34.040 Y24.622 0.00000
G1 X33.660 Y26.214 0.00000
G1 X33.072 Y27.741 0.00000
G1 X32.286 Y29.177 0.00000
G1 X31.315 Y30.494 0.00000
G1 X30.177 Y31.670 0.00000
G1 X28.893 Y32.685 0.00000
G1 X27.485 Y33.519 0.00000
G1 X25.978 Y34.157 0.00000
G1 X24.400 Y34.590 0.00000
G1 X22.778 Y34.808 0.00000
G1 X21.142 Y34.808 0.00000
G1 X19.520 Y34.590 0.00000
G1 X17.941 Y34.157 0.00000
G1 X16.435 Y33.519 0.00000
G1 X15.027 Y32.685 0.00000
G1 X13.742 Y31.670 0.00000
G1 X12.605 Y30.494 0.00000
G1 X11.634 Y29.177 0.00000
G1 X10.847 Y27.741 0.00000
G1 X10.259 Y26.214 0.00000
G1 X9.880 Y24.622 0.00000
G1 X9.716 Y22.994 0.00000
G1 X9.771 Y21.358 0.00000
G1 X10.043 Y19.745 0.00000
G1 X10.528 Y18.182 0.00000
G1 X11.217 Y16.697 0.00000
G1 X12.097 Y15.318 0.00000
G1 X13.154 Y14.068 0.00000
G1 X14.368 Y12.970 0.00000
G1 X15.717 Y12.044 0.00000
G1 X17.177 Y11.306 0.00000
G1 X18.723 Y10.769 0.00000
G1 X20.327 Y10.443 0.00000
G1 X21.960 Y10.334 0.00000
G1 X23.593 Y10.443 0.00000
G1 X25.196 Y10.769 0.00000
G1 X26.742 Y11.306 0.00000
G1 X27.893 Y11.888 0.00000
G1 X28.185 Y11.779 F900.000
G1 X29.189 Y10.451 F900.000
G1 F900
G1 X32.859 Y13.481 0.00000
G1 X35.412 Y18.033 0.00000
G1 X36.148 Y23.200 0.00000
G1 X34.968 Y28.284 0.00000
G1 X32.031 Y32.598 0.00000
G1 X27.734 Y35.560 0.00000
G1 X22.657 Y36.769 0.00000
G1 X17.486 Y36.063 0.00000
G1 X12.919 Y33.537 0.00000
G1 X9.573 Y29.531 0.00000
G1 X7.900 Y24.587 0.00000
G1 X8.126 Y19.373 0.00000
G1 X10.220 Y14.593 0.00000
G1 X13.900 Y10.892 0.00000
G1 X18.668 Y8.770 0.00000
G1 X23.881 Y8.514 0.00000
G1 X28.835 Y10.158 0.00000
G1 X29.122 Y10.396 0.00000
G1 X29.439 Y10.148 F900.000
G1 F900
G1 X33.166 Y13.225 0.00000
G1 X35.790 Y17.905 0.00000
G1 X36.547 Y23.217 0.00000
G1 X35.334 Y28.444 0.00000
G1 X32.314 Y32.879 0.00000
G1 X27.896 Y35.925 0.00000
G1 X22.676 Y37.168 0.00000
G1 X17.360 Y36.442 0.00000
G1 X12.664 Y33.845 0.00000
G1 X9.225 Y29.726 0.00000
G1 X7.505 Y24.644 0.00000
G1 X7.737 Y19.283 0.00000
G1 X9.890 Y14.368 0.00000
G1 X13.674 Y10.563 0.00000
G1 X18.576 Y8.381 0.00000
G1 X23.935 Y8.118 0.00000
G1 X29.028 Y9.808 0.00000
G1 X29.372 Y10.093 0.00000
G1 X33.412 Y13.019 F900.000
G1 F900
G1 X35.995 Y10.774 0.00000
G1 X36.078 Y10.880 0.00000
G1 X33.480 Y12.964 0.00000
G1 X36.094 Y17.802 F900.000
G1 F900
G1 X39.307 Y16.643 0.00000
G1 X39.349 Y16.772 0.00000
G1 X36.177 Y17.776 0.00000
G1 X36.868 Y23.231 F900.000
G1 F900
G1 X40.282 Y23.311 0.00000
G1 X40.274 Y23.446 0.00000
G1 X36.954 Y23.236 0.00000
G1 X35.628 Y28.573 F900.000
G1 F900
G1 X38.782 Y29.881 0.00000
G1 X38.726 Y30.004 0.00000
G1 X35.707 Y28.609 0.00000
G1 X32.541 Y33.105 F900.000
G1 F900
G1 X35.011 Y35.465 0.00000
G1 X34.914 Y35.560 0.00000
G1 X32.602 Y33.168 0.00000
G1 X28.026 Y36.218 F900.000
G1 F900
G1 X29.476 Y39.310 0.00000
G1 X29.352 Y39.363 0.00000
G1 X28.060 Y36.298 0.00000
G1 X27.670 Y36.382 F900.000
G1 F900
G1 X23.085 Y37.475 0.00000
G1 X23.347 Y41.275 0.00000
G1 X22.411 Y41.306 0.00000
G1 X22.300 Y37.513 0.00000
G1 X17.630 Y36.875 0.00000
G1 X16.501 Y40.514 0.00000
G1 X15.618 Y40.205 0.00000
G1 X16.884 Y36.628 0.00000
G1 X12.760 Y34.346 0.00000
G1 X10.393 Y37.331 0.00000
G1 X9.681 Y36.724 0.00000
G1 X12.154 Y33.846 0.00000
G1 X9.132 Y30.229 0.00000
G1 X5.847 Y32.157 0.00000
G1 X5.402 Y31.333 0.00000
G1 X8.748 Y29.543 0.00000
G1 X7.237 Y25.079 0.00000
G1 X3.478 Y25.690 0.00000
G1 X3.362 Y24.761 0.00000
G1 X7.126 Y24.301 0.00000
G1 X7.331 Y19.592 0.00000
G1 X3.604 Y18.804 0.00000
G1 X3.830 Y17.895 0.00000
G1 X7.508 Y18.826 0.00000
G1 X9.400 Y14.509 0.00000
G1 X6.209 Y12.428 0.00000
G1 X6.748 Y11.663 0.00000
G1 X9.842 Y13.860 0.00000
G1 X13.165 Y10.517 0.00000
G1 X10.943 Y7.426 0.00000
G1 X11.721 Y6.906 0.00000
G1 X13.812 Y10.071 0.00000
G1 X18.118 Y8.155 0.00000
G1 X17.162 Y4.468 0.00000
G1 X18.076 Y4.265 0.00000
G1 X18.883 Y7.973 0.00000
G1 X23.590 Y7.742 0.00000
G1 X24.031 Y3.960 0.00000
G1 X24.956 Y4.100 0.00000
G1 X24.369 Y7.848 0.00000
G1 X28.842 Y9.333 0.00000
G1 X30.620 Y5.964 0.00000
G1 X31.432 Y6.430 0.00000
G1 X29.530 Y9.713 0.00000
G1 X33.164 Y12.714 0.00000
G1 X36.039 Y10.215 0.00000
G1 X36.626 Y10.944 0.00000
G1 X33.668 Y13.317 0.00000
G1 X35.973 Y17.428 0.00000
G1 X39.557 Y16.136 0.00000
G1 X39.843 Y17.027 0.00000
G1 X36.225 Y18.172 0.00000
G1 X36.890 Y22.839 0.00000
G1 X40.698 Y22.928 0.00000
G1 X40.643 Y23.863 0.00000
G1 X36.856 Y23.624 0.00000
G1 X35.790 Y28.215 0.00000
G1 X39.309 Y29.674 0.00000
G1 X38.920 Y30.526 0.00000
G1 X35.475 Y28.935 0.00000
G1 X32.822 Y32.831 0.00000
G1 X35.576 Y35.462 0.00000
G1 X34.906 Y36.116 0.00000
G1 X32.268 Y33.388 0.00000
G1 X28.387 Y36.063 0.00000
G1 X30.005 Y39.512 0.00000
G1 X29.143 Y39.879 0.00000
G1 X27.703 Y36.462 0.00000
G1 X27.437 Y36.841 F900.000
G1 F900
G1 X23.499 Y37.779 0.00000
G1 X23.765 Y41.630 0.00000
G1 X23.421 Y41.665 0.00000
G1 X22.030 Y41.712 0.00000
G1 X21.917 Y37.857 0.00000
G1 X17.906 Y37.310 0.00000
G1 X16.763 Y40.996 0.00000
G1 X16.430 Y40.905 0.00000
G1 X15.116 Y40.445 0.00000
G1 X16.403 Y36.810 0.00000
G1 X12.861 Y34.851 0.00000
G1 X10.463 Y37.876 0.00000
G1 X10.185 Y37.670 0.00000
G1 X9.126 Y36.767 0.00000
G1 X11.639 Y33.842 0.00000
G1 X9.044 Y30.736 0.00000
G1 X5.715 Y32.690 0.00000
G1 X5.531 Y32.398 0.00000
G1 X4.869 Y31.173 0.00000
G1 X8.269 Y29.354 0.00000
G1 X6.972 Y25.520 0.00000
G1 X3.161 Y26.140 0.00000
G1 X3.029 Y25.327 0.00000
G1 X2.929 Y24.418 0.00000
G1 X6.749 Y23.951 0.00000
G1 X6.924 Y19.907 0.00000
G1 X3.147 Y19.109 0.00000
G1 X3.208 Y18.769 0.00000
G1 X3.544 Y17.418 0.00000
G1 X7.282 Y18.364 0.00000
G1 X8.906 Y14.656 0.00000
G1 X5.673 Y12.548 0.00000
G1 X5.853 Y12.252 0.00000
G1 X6.654 Y11.114 0.00000
G1 X9.798 Y13.347 0.00000
G1 X12.652 Y10.476 0.00000
G1 X10.398 Y7.341 0.00000
G1 X10.629 Y7.163 0.00000
G1 X11.831 Y6.360 0.00000
G1 X13.956 Y9.577 0.00000
G1 X17.655 Y7.932 0.00000
G1 X16.686 Y4.195 0.00000
G1 X17.017 Y4.098 0.00000
G1 X18.376 Y3.796 0.00000
G1 X19.196 Y7.564 0.00000
G1 X23.239 Y7.366 0.00000
G1 X23.685 Y3.531 0.00000
G1 X23.976 Y3.555 0.00000
G1 X25.405 Y3.771 0.00000
G1 X24.808 Y7.580 0.00000
G1 X28.650 Y8.855 0.00000
G1 X30.451 Y5.442 0.00000
G1 X30.762 Y5.593 0.00000
G1 X31.969 Y6.286 0.00000
G1 X30.036 Y9.622 0.00000
G1 X33.158 Y12.199 0.00000
G1 X36.071 Y9.666 0.00000
G1 X36.612 Y10.287 0.00000
G1 X37.175 Y11.007 0.00000
G1 X34.173 Y13.415 0.00000
G1 X36.153 Y16.946 0.00000
G1 X39.784 Y15.636 0.00000
G1 X39.912 Y15.958 0.00000
G1 X40.337 Y17.283 0.00000
G1 X36.661 Y18.446 0.00000
G1 X37.232 Y22.454 0.00000
G1 X41.091 Y22.545 0.00000
G1 X41.094 Y22.890 0.00000
G1 X41.012 Y24.280 0.00000
G1 X37.163 Y24.036 0.00000
G1 X36.248 Y27.980 0.00000
G1 X39.813 Y29.458 0.00000
G1 X39.691 Y29.782 0.00000
G1 X39.113 Y31.048 0.00000
G1 X35.612 Y29.431 0.00000
G1 X33.334 Y32.777 0.00000
G1 X36.125 Y35.444 0.00000
G1 X35.894 Y35.701 0.00000
G1 X34.897 Y36.672 0.00000
G1 X32.217 Y33.900 0.00000
G1 X28.884 Y36.197 0.00000
G1 X30.523 Y39.692 0.00000
G1 X30.215 Y39.849 0.00000
G1 X28.935 Y40.395 0.00000
G1 X27.471 Y36.921 0.00000
G1 X27.204 Y37.300 F900.000
G1 F900
G1 X23.914 Y38.084 0.00000
G1 X24.183 Y41.983 0.00000
G1 X23.447 Y42.057 0.00000
G1 X21.649 Y42.108 0.00000
G1 X21.534 Y38.201 0.00000
G1 X18.183 Y37.744 0.00000
G1 X17.025 Y41.476 0.00000
G1 X16.313 Y41.280 0.00000
G1 X14.617 Y40.677 0.00000
G1 X15.922 Y36.993 0.00000
G1 X12.962 Y35.356 0.00000
G1 X10.534 Y38.418 0.00000
G1 X9.941 Y37.977 0.00000
G1 X8.577 Y36.803 0.00000
G1 X11.125 Y33.839 0.00000
G1 X8.956 Y31.243 0.00000
G1 X5.586 Y33.221 0.00000
G1 X5.192 Y32.596 0.00000
G1 X4.345 Y31.008 0.00000
G1 X7.791 Y29.165 0.00000
G1 X6.707 Y25.961 0.00000
G1 X2.849 Y26.588 0.00000
G1 X2.716 Y25.915 0.00000
G1 X2.639 Y25.376 0.00000
G1 X2.497 Y24.076 0.00000
G1 X6.371 Y23.602 0.00000
G1 X6.517 Y20.223 0.00000
G1 X2.694 Y19.414 0.00000
G1 X2.823 Y18.687 0.00000
G1 X3.267 Y16.943 0.00000
G1 X7.056 Y17.902 0.00000
G1 X8.413 Y14.804 0.00000
G1 X5.140 Y12.669 0.00000
G1 X5.524 Y12.037 0.00000
G1 X6.568 Y10.571 0.00000
G1 X9.754 Y12.834 0.00000
G1 X12.139 Y10.435 0.00000
G1 X9.858 Y7.262 0.00000
G1 X10.400 Y6.844 0.00000
G1 X11.947 Y5.822 0.00000
G1 X14.101 Y9.083 0.00000
G1 X17.191 Y7.708 0.00000
G1 X16.210 Y3.925 0.00000
G1 X16.919 Y3.717 0.00000
G1 X18.678 Y3.337 0.00000
G1 X19.509 Y7.156 0.00000
G1 X22.887 Y6.990 0.00000
G1 X23.339 Y3.108 0.00000
G1 X24.021 Y3.164 0.00000
G1 X25.853 Y3.451 0.00000
G1 X25.248 Y7.312 0.00000
G1 X28.458 Y8.378 0.00000
G1 X30.281 Y4.922 0.00000
G1 X30.946 Y5.246 0.00000
G1 X32.502 Y6.150 0.00000
G1 X30.543 Y9.531 0.00000
G1 X33.151 Y11.685 0.00000
G1 X36.100 Y9.121 0.00000
G1 X36.568 Y9.623 0.00000
G1 X36.917 Y10.040 0.00000
G1 X37.723 Y11.071 0.00000
G1 X34.679 Y13.513 0.00000
G1 X36.333 Y16.464 0.00000
G1 X40.009 Y15.138 0.00000
G1 X40.282 Y15.825 0.00000
G1 X40.823 Y17.541 0.00000
G1 X37.097 Y18.720 0.00000
G1 X37.574 Y22.069 0.00000
G1 X41.480 Y22.161 0.00000
G1 X41.487 Y22.900 0.00000
G1 X41.371 Y24.696 0.00000
G1 X37.470 Y24.449 0.00000
G1 X36.706 Y27.744 0.00000
G1 X40.315 Y29.241 0.00000
G1 X40.054 Y29.933 0.00000
G1 X39.297 Y31.565 0.00000
G1 X35.749 Y29.927 0.00000
G1 X33.846 Y32.723 0.00000
G1 X36.671 Y35.422 0.00000
G1 X36.178 Y35.973 0.00000
G1 X34.882 Y37.222 0.00000
G1 X32.166 Y34.412 0.00000
G1 X29.381 Y36.332 0.00000
G1 X31.040 Y39.870 0.00000
G1 X30.381 Y40.205 0.00000
G1 X28.722 Y40.902 0.00000
G1 X27.238 Y37.381 0.00000
G1 X27.027 Y36.748 F900.000
G1 Z-148.000 F900.000
G1 X26.501 Y35.642 F900.000
G1 F900
G1 X24.714 Y36.133 0.00000
G1 X22.883 Y36.379 0.00000
G1 X21.036 Y36.379 0.00000
G1 X19.206 Y36.133 0.00000
G1 X17.425 Y35.645 0.00000
G1 X15.725 Y34.924 0.00000
G1 X14.136 Y33.983 0.00000
G1 X12.686 Y32.838 0.00000
G1 X11.402 Y31.510 0.00000
G1 X10.307 Y30.024 0.00000
G1 X9.419 Y28.404 0.00000
G1 X8.756 Y26.681 0.00000
G1 X8.328 Y24.884 0.00000
G1 X8.143 Y23.047 0.00000
G1 X8.204 Y21.201 0.00000
G1 X8.512 Y19.380 0.00000
G1 X9.059 Y17.616 0.00000
G1 X9.836 Y15.941 0.00000
G1 X10.830 Y14.384 0.00000
G1 X12.022 Y12.974 0.00000
G1 X13.392 Y11.735 0.00000
G1 X14.914 Y10.690 0.00000
G1 X16.563 Y9.857 0.00000
G1 X18.307 Y9.251 0.00000
G1 X20.117 Y8.883 0.00000
G1 X21.960 Y8.760 0.00000
G1 X23.802 Y8.883 0.00000
G1 X25.612 Y9.251 0.00000
G1 X27.357 Y9.857 0.00000
G1 X29.005 Y10.690 0.00000
G1 X30.528 Y11.735 0.00000
G1 X31.897 Y12.974 0.00000
G1 X33.090 Y14.384 0.00000
G1 X34.084 Y15.941 0.00000
G1 X34.861 Y17.616 0.00000
G1 X35.408 Y19.380 0.00000
G1 X35.715 Y21.201 0.00000
G1 X35.777 Y23.047 0.00000
G1 X35.592 Y24.884 0.00000
G1 X35.164 Y26.681 0.00000
G1 X34.500 Y28.404 0.00000
G1 X33.613 Y30.024 0.00000
G1 X32.517 Y31.510 0.00000
G1 X31.233 Y32.838 0.00000
G1 X29.784 Y33.983 0.00000
G1 X28.195 Y34.924 0.00000
G1 X26.581 Y35.608 0.00000
G1 X26.366 Y35.273 F900.000
G1 F900
G1 X24.635 Y35.747 0.00000
G1 X22.857 Y35.986 0.00000
G1 X21.063 Y35.986 0.00000
G1 X19.284 Y35.747 0.00000
G1 X17.554 Y35.273 0.00000
G1 X15.902 Y34.572 0.00000
G1 X14.358 Y33.658 0.00000
G1 X12.950 Y32.546 0.00000
G1 X11.703 Y31.256 0.00000
G1 X10.639 Y29.812 0.00000
G1 X9.776 Y28.238 0.00000
G1 X9.132 Y26.564 0.00000
G1 X8.716 Y24.819 0.00000
G1 X8.536 Y23.034 0.00000
G1 X8.596 Y21.240 0.00000
G1 X8.894 Y19.471 0.00000
G1 X9.426 Y17.757 0.00000
G1 X10.181 Y16.130 0.00000
G1 X11.147 Y14.618 0.00000
G1 X12.305 Y13.247 0.00000
G1 X13.636 Y12.044 0.00000
G1 X15.115 Y11.028 0.00000
G1 X16.716 Y10.219 0.00000
G1 X18.411 Y9.631 0.00000
G1 X20.170 Y9.273 0.00000
G1 X21.960 Y9.153 0.00000
G1 X23.750 Y9.273 0.00000
G1 X25.508 Y9.631 0.00000
G1 X27.203 Y10.219 0.00000
G1 X28.805 Y11.028 0.00000
G1 X30.284 Y12.044 0.00000
G1 X31.615 Y13.247 0.00000
G1 X32.773 Y14.618 0.00000
G1 X33.738 Y16.130 0.00000
G1 X34.494 Y17.757 0.00000
G1 X35.025 Y19.471 0.00000
G1 X35.324 Y21.240 0.00000
G1 X35.384 Y23.034 0.00000
G1 X35.204 Y24.819 0.00000
G1 X34.788 Y26.564 0.00000
G1 X34.143 Y28.238 0.00000
G1 X33.281 Y29.812 0.00000
G1 X32.217 Y31.256 0.00000
G1 X30.969 Y32.546 0.00000
G1 X29.561 Y33.658 0.00000
G1 X28.017 Y34.572 0.00000
G1 X26.446 Y35.239 0.00000
G1 X26.236 Y34.901 F900.000
G1 F900
G1 X24.557 Y35.361 0.00000
G1 X22.831 Y35.593 0.00000
G1 X21.089 Y35.593 0.00000
G1 X19.363 Y35.361 0.00000
G1 X17.683 Y34.901 0.00000
G1 X16.080 Y34.221 0.00000
G1 X14.581 Y33.334 0.00000
G1 X13.214 Y32.254 0.00000
G1 X12.004 Y31.002 0.00000
G1 X10.970 Y29.600 0.00000
G1 X10.133 Y28.073 0.00000
G1 X9.507 Y26.447 0.00000
G1 X9.104 Y24.753 0.00000
G1 X8.929 Y23.020 0.00000
G1 X8.988 Y21.280 0.00000
G1 X9.277 Y19.562 0.00000
G1 X9.793 Y17.899 0.00000
G1 X10.526 Y16.319 0.00000
G1 X11.464 Y14.851 0.00000
G1 X12.588 Y13.521 0.00000
G1 X13.880 Y12.353 0.00000
G1 X15.316 Y11.367 0.00000
G1 X16.870 Y10.582 0.00000
G1 X18.515 Y10.010 0.00000
G1 X20.222 Y9.663 0.00000
G1 X21.960 Y9.547 0.00000
G1 X23.698 Y9.663 0.00000
G1 X25.404 Y10.010 0.00000
G1 X27.050 Y10.582 0.00000
G1 X28.604 Y11.367 0.00000
G1 X30.040 Y12.353 0.00000
G1 X31.332 Y13.521 0.00000
G1 X32.456 Y14.851 0.00000
G1 X33.393 Y16.319 0.00000
G1 X34.126 Y17.899 0.00000
G1 X34.642 Y19.562 0.00000
G1 X34.932 Y21.280 0.00000
G1 X34.990 Y23.020 0.00000
G1 X34.816 Y24.753 0.00000
G1 X34.412 Y26.447 0.00000
G1 X33.786 Y28.073 0.00000
G1 X32.949 Y29.600 0.00000
G1 X31.916 Y31.002 0.00000
G1 X30.705 Y32.254 0.00000
G1 X29.338 Y33.334 0.00000
G1 X27.840 Y34.221 0.00000
G1 X26.317 Y34.867 0.00000
G1 X26.107 Y34.529 F900.000
G1 F900
G1 X24.478 Y34.975 0.00000
G1 X22.804 Y35.201 0.00000
G1 X21.115 Y35.201 0.00000
G1 X19.441 Y34.975 0.00000
G1 X17.812 Y34.529 0.00000
G1 X16.257 Y33.870 0.00000
G1 X14.804 Y33.009 0.00000
G1 X13.478 Y31.962 0.00000
G1 X12.304 Y30.748 0.00000
G1 X11.302 Y29.388 0.00000
G1 X10.490 Y27.907 0.00000
G1 X9.883 Y26.331 0.00000
G1 X9.492 Y24.688 0.00000
G1 X9.323 Y23.007 0.00000
G1 X9.379 Y21.319 0.00000
G1 X9.660 Y19.654 0.00000
G1 X10.161 Y18.040 0.00000
G1 X10.872 Y16.508 0.00000
G1 X11.780 Y15.084 0.00000
G1 X12.871 Y13.795 0.00000
G1 X14.124 Y12.662 0.00000
G1 X15.516 Y11.706 0.00000
G1 X17.024 Y10.944 0.00000
G1 X18.619 Y10.390 0.00000
G1 X20.275 Y10.053 0.00000
G1 X21.960 Y9.941 0.00000
G1 X23.645 Y10.053 0.00000
G1 X25.300 Y10.390 0.00000
G1 X26.896 Y10.944 0.00000
G1 X28.403 Y11.706 0.00000
G1 X29.796 Y12.662 0.00000
G1 X31.049 Y13.795 0.00000
G1 X32.139 Y15.084 0.00000
G1 X33.048 Y16.508 0.00000
G1 X33.759 Y18.040 0.00000
G1 X34.259 Y19.654 0.00000
G1 X34.540 Y21.319 0.00000
G1 X34.597 Y23.007 0.00000
G1 X34.428 Y24.688 0.00000
G1 X34.036 Y26.331 0.00000
G1 X33.429 Y27.907 0.00000
G1 X32.617 Y29.388 0.00000
G1 X31.616 Y30.748 0.00000
G1 X30.441 Y31.962 0.00000
G1 X29.116 Y33.009 0.00000
G1 X27.662 Y33.870 0.00000
G1 X26.187 Y34.495 0.00000
G1 X25.978 Y34.157 F900.000
G1 F900
G1 X24.400 Y34.590 0.00000
G1 X22.778 Y34.808 0.00000
G1 X21.142 Y34.808 0.00000
G1 X19.520 Y34.590 0.00000
G1 X17.941 Y34.157 0.00000
G1 X16.435 Y33.519 0.00000
G1 X15.027 Y32.685 0.00000
G1 X13.742 Y31.670 0.00000
G1 X12.605 Y30.494 0.00000
G1 X11.634 Y29.177 0.00000
G1 X10.847 Y27.741 0.00000
G1 X10.259 Y26.214 0.00000
G1 X9.880 Y24.622 0.00000
G1 X9.716 Y22.994 0.00000
G1 X9.771 Y21.358 0.00000
G1 X10.043 Y19.745 0.00000
G1 X10.528 Y18.182 0.00000
G1 X11.217 Y16.697 0.00000
G1 X12.097 Y15.318 0.00000
G1 X13.154 Y14.068 0.00000
G1 X14.368 Y12.970 0.00000
G1 X15.717 Y12.044 0.00000
G1 X17.177 Y11.306 0.00000
G1 X18.723 Y10.769 0.00000
G1 X20.327 Y10.443 0.00000
G1 X21.960 Y10.334 0.00000
G1 X23.593 Y10.443 0.00000
G1 X25.196 Y10.769 0.00000
G1 X26.742 Y11.306 0.00000
G1 X28.203 Y12.044 0.00000
G1 X29.552 Y12.970 0.00000
G1 X30.766 Y14.068 0.00000
G1 X31.822 Y15.318 0.00000
G1 X32.703 Y16.697 0.00000
G1 X33.392 Y18.182 0.00000
G1 X33.877 Y19.745 0.00000
G1 X34.149 Y21.358 0.00000
G1 X34.204 Y22.994 0.00000
G1 X34.040 Y24.622 0.00000
G1 X33.660 Y26.214 0.00000
G1 X33.072 Y27.741 0.00000
G1 X32.286 Y29.177 0.00000
G1 X31.315 Y30.494 0.00000
G1 X30.177 Y31.670 0.00000
G1 X28.893 Y32.685 0.00000
G1 X27.485 Y33.519 0.00000
G1 X26.058 Y34.123 0.00000
G1 X25.978 Y34.157 F900.000
G1 X26.381 Y35.761 F900.000
G1 F900
G1 X24.553 Y36.220 0.00000
G1 X22.954 Y36.685 0.00000
G1 X20.943 Y36.410 0.00000
G1 X17.777 Y36.067 0.00000
G1 X14.690 Y34.408 0.00000
G1 X13.196 Y33.675 0.00000
G1 X11.894 Y32.117 0.00000
G1 X9.785 Y29.731 0.00000
G1 X8.622 Y26.424 0.00000
G1 X8.012 Y24.876 0.00000
G1 X8.100 Y22.848 0.00000
G1 X8.149 Y19.664 0.00000
G1 X9.516 Y16.437 0.00000
G1 X10.096 Y14.914 0.00000
G1 X12.577 Y12.357 0.00000
G1 X13.691 Y11.120 0.00000
G1 X15.546 Y10.295 0.00000
G1 X18.418 Y8.920 0.00000
G1 X21.917 Y8.705 0.00000
G1 X23.573 Y8.542 0.00000
G1 X25.500 Y9.182 0.00000
G1 X28.582 Y10.110 0.00000
G1 X30.103 Y11.366 0.00000
G1 X32.614 Y13.324 0.00000
G1 X34.365 Y16.360 0.00000
G1 X35.249 Y17.769 0.00000
G1 X35.536 Y19.779 0.00000
G1 X36.072 Y22.918 0.00000
G1 X35.321 Y26.342 0.00000
G1 X35.031 Y27.945 0.00000
G1 X33.062 Y30.915 0.00000
G1 X32.194 Y32.335 0.00000
G1 X30.522 Y33.487 0.00000
G1 X27.952 Y35.366 0.00000
G1 X26.465 Y35.740 0.00000
G1 X28.099 Y35.734 F900.000
G1 F900
G1 X24.655 Y36.599 0.00000
G1 X22.964 Y37.091 0.00000
G1 X23.127 Y39.453 0.00000
G1 X23.221 Y40.235 0.00000
G1 X23.259 Y40.797 0.00000
G1 X23.168 Y40.800 0.00000
G1 X23.123 Y40.227 0.00000
G1 X23.089 Y39.046 0.00000
G1 X22.936 Y37.079 0.00000
G1 X20.895 Y36.800 0.00000
G1 X17.664 Y36.450 0.00000
G1 X16.955 Y38.736 0.00000
G1 X16.759 Y39.499 0.00000
G1 X16.593 Y40.037 0.00000
G1 X16.506 Y40.006 0.00000
G1 X16.671 Y39.456 0.00000
G1 X17.066 Y38.343 0.00000
G1 X17.638 Y36.438 0.00000
G1 X14.510 Y34.757 0.00000
G1 X12.929 Y33.982 0.00000
G1 X11.458 Y35.837 0.00000
G1 X11.001 Y36.478 0.00000
G1 X10.650 Y36.920 0.00000
G1 X10.580 Y36.861 0.00000
G1 X10.934 Y36.407 0.00000
G1 X11.704 Y35.511 0.00000
G1 X12.916 Y33.953 0.00000
G1 X11.596 Y32.373 0.00000
G1 X9.444 Y29.937 0.00000
G1 X7.380 Y31.149 0.00000
G1 X6.722 Y31.581 0.00000
G1 X6.236 Y31.866 0.00000
G1 X6.193 Y31.785 0.00000
G1 X6.685 Y31.490 0.00000
G1 X7.727 Y30.933 0.00000
G1 X9.433 Y29.911 0.00000
G1 X8.254 Y26.562 0.00000
G1 X7.608 Y24.923 0.00000
G1 X5.271 Y25.304 0.00000
G1 X4.501 Y25.469 0.00000
G1 X3.945 Y25.559 0.00000
G1 X3.934 Y25.468 0.00000
G1 X4.500 Y25.371 0.00000
G1 X5.672 Y25.228 0.00000
G1 X7.618 Y24.894 0.00000
G1 X7.707 Y22.836 0.00000
G1 X7.757 Y19.586 0.00000
G1 X5.416 Y19.091 0.00000
G1 X4.638 Y18.967 0.00000
G1 X4.087 Y18.851 0.00000
G1 X4.109 Y18.762 0.00000
G1 X4.672 Y18.876 0.00000
G1 X5.818 Y19.165 0.00000
G1 X7.766 Y19.560 0.00000
G1 X9.152 Y16.290 0.00000
G1 X9.778 Y14.644 0.00000
G1 X7.795 Y13.351 0.00000
G1 X7.115 Y12.954 0.00000
G1 X6.643 Y12.646 0.00000
G1 X6.696 Y12.572 0.00000
G1 X7.180 Y12.881 0.00000
G1 X8.143 Y13.565 0.00000
G1 X9.818 Y14.637 0.00000
G1 X12.290 Y12.088 0.00000
G1 X13.469 Y10.780 0.00000
G1 X12.087 Y8.857 0.00000
G1 X11.596 Y8.242 0.00000
G1 X11.267 Y7.784 0.00000
G1 X11.344 Y7.734 0.00000
G1 X11.683 Y8.197 0.00000
G1 X12.334 Y9.183 0.00000
G1 X13.500 Y10.776 0.00000
G1 X15.382 Y9.938 0.00000
G1 X18.313 Y8.535 0.00000
G1 X17.713 Y6.218 0.00000
G1 X17.477 Y5.466 0.00000
G1 X17.336 Y4.921 0.00000
G1 X17.425 Y4.902 0.00000
G1 X17.574 Y5.456 0.00000
G1 X17.825 Y6.611 0.00000
G1 X18.341 Y8.531 0.00000
G1 X21.885 Y8.314 0.00000
G1 X23.638 Y8.141 0.00000
G1 X23.912 Y5.789 0.00000
G1 X23.964 Y5.003 0.00000
G1 X24.029 Y4.444 0.00000
G1 X24.119 Y4.458 0.00000
G1 X24.058 Y5.029 0.00000
G1 X23.875 Y6.196 0.00000
G1 X23.664 Y8.158 0.00000
G1 X25.618 Y8.807 0.00000
G1 X28.730 Y9.745 0.00000
G1 X29.847 Y7.628 0.00000
G1 X30.180 Y6.914 0.00000
G1 X30.443 Y6.416 0.00000
G1 X30.522 Y6.462 0.00000
G1 X30.258 Y6.972 0.00000
G1 X29.666 Y7.994 0.00000
G1 X28.760 Y9.748 0.00000
G1 X30.348 Y11.059 0.00000
G1 X32.912 Y13.058 0.00000
G1 X34.718 Y11.488 0.00000
G1 X35.285 Y10.942 0.00000
G1 X35.711 Y10.572 0.00000
G1 X35.770 Y10.642 0.00000
G1 X35.338 Y11.024 0.00000
G1 X34.416 Y11.764 0.00000
G1 X32.927 Y13.081 0.00000
G1 X34.702 Y16.157 0.00000
G1 X35.637 Y17.649 0.00000
G1 X37.865 Y16.846 0.00000
G1 X38.591 Y16.542 0.00000
G1 X39.121 Y16.351 0.00000
G1 X39.149 Y16.438 0.00000
G1 X38.611 Y16.638 0.00000
G1 X37.484 Y16.994 0.00000
G1 X35.633 Y17.680 0.00000
G1 X35.924 Y19.719 0.00000
G1 X36.472 Y22.922 0.00000
G1 X38.864 Y22.979 0.00000
G1 X39.651 Y22.958 0.00000
G1 X40.214 Y22.971 0.00000
G1 X40.209 Y23.063 0.00000
G1 X39.635 Y23.054 0.00000
G1 X38.455 Y22.980 0.00000
G1 X36.467 Y22.950 0.00000
G1 X35.706 Y26.419 0.00000
G1 X35.393 Y28.151 0.00000
G1 X37.580 Y29.059 0.00000
G1 X38.322 Y29.324 0.00000
G1 X38.842 Y29.539 0.00000
G1 X38.804 Y29.623 0.00000
G1 X38.271 Y29.407 0.00000
G1 X37.199 Y28.912 0.00000
G1 X35.356 Y28.166 0.00000
G1 X33.393 Y31.126 0.00000
G1 X32.475 Y32.628 0.00000
G1 X34.187 Y34.264 0.00000
G1 X34.783 Y34.779 0.00000
G1 X35.190 Y35.169 0.00000
G1 X35.126 Y35.234 0.00000
G1 X34.705 Y34.839 0.00000
G1 X33.884 Y33.990 0.00000
G1 X32.445 Y32.638 0.00000
G1 X30.750 Y33.807 0.00000
G1 X28.126 Y35.726 0.00000
G1 X29.142 Y37.892 0.00000
G1 X29.512 Y38.588 0.00000
G1 X29.751 Y39.098 0.00000
G1 X29.666 Y39.133 0.00000
G1 X29.418 Y38.616 0.00000
G1 X28.959 Y37.527 0.00000
G1 X28.137 Y35.813 0.00000
G1 X27.884 Y36.193 F900.000
G1 F900
G1 X24.758 Y36.978 0.00000
G1 X23.378 Y37.380 0.00000
G1 X23.518 Y39.416 0.00000
G1 X23.612 Y40.198 0.00000
G1 X23.677 Y41.151 0.00000
G1 X23.360 Y41.187 0.00000
G1 X22.797 Y41.204 0.00000
G1 X22.731 Y40.248 0.00000
G1 X22.696 Y39.067 0.00000
G1 X22.569 Y37.425 0.00000
G1 X20.847 Y37.190 0.00000
G1 X17.943 Y36.875 0.00000
G1 X17.333 Y38.843 0.00000
G1 X17.137 Y39.606 0.00000
G1 X16.855 Y40.517 0.00000
G1 X16.545 Y40.437 0.00000
G1 X16.014 Y40.249 0.00000
G1 X16.298 Y39.334 0.00000
G1 X16.692 Y38.220 0.00000
G1 X17.170 Y36.633 0.00000
G1 X14.331 Y35.107 0.00000
G1 X13.041 Y34.474 0.00000
G1 X11.772 Y36.073 0.00000
G1 X11.314 Y36.714 0.00000
G1 X10.720 Y37.464 0.00000
G1 X10.514 Y37.316 0.00000
G1 X10.028 Y36.916 0.00000
G1 X10.630 Y36.158 0.00000
G1 X11.400 Y35.262 0.00000
G1 X12.412 Y33.962 0.00000
G1 X11.298 Y32.628 0.00000
G1 X9.364 Y30.440 0.00000
G1 X7.587 Y31.482 0.00000
G1 X6.929 Y31.914 0.00000
G1 X6.106 Y32.398 0.00000
G1 X5.932 Y32.130 0.00000
G1 X5.666 Y31.633 0.00000
G1 X6.492 Y31.148 0.00000
G1 X7.533 Y30.591 0.00000
G1 X8.956 Y29.739 0.00000
G1 X7.886 Y26.699 0.00000
G1 X7.359 Y25.362 0.00000
G1 X5.344 Y25.690 0.00000
G1 X4.574 Y25.855 0.00000
G1 X3.632 Y26.008 0.00000
G1 X3.566 Y25.695 0.00000
G1 X3.497 Y25.136 0.00000
G1 X4.443 Y24.982 0.00000
G1 X5.615 Y24.839 0.00000
G1 X7.239 Y24.560 0.00000
G1 X7.314 Y22.825 0.00000
G1 X7.360 Y19.904 0.00000
G1 X5.344 Y19.478 0.00000
G1 X4.567 Y19.353 0.00000
G1 X3.633 Y19.156 0.00000
G1 X3.684 Y18.841 0.00000
G1 X3.822 Y18.295 0.00000
G1 X4.759 Y18.493 0.00000
G1 X5.905 Y18.782 0.00000
G1 X7.530 Y19.111 0.00000
G1 X8.787 Y16.144 0.00000
G1 X9.299 Y14.800 0.00000
G1 X7.589 Y13.685 0.00000
G1 X6.908 Y13.288 0.00000
G1 X6.109 Y12.767 0.00000
G1 X6.271 Y12.492 0.00000
G1 X6.597 Y12.032 0.00000
G1 X7.399 Y12.555 0.00000
G1 X8.362 Y13.239 0.00000
G1 X9.759 Y14.133 0.00000
G1 X12.004 Y11.820 0.00000
G1 X12.966 Y10.752 0.00000
G1 X11.774 Y9.095 0.00000
G1 X11.283 Y8.479 0.00000
G1 X10.723 Y7.700 0.00000
G1 X10.970 Y7.510 0.00000
G1 X11.446 Y7.195 0.00000
G1 X12.005 Y7.973 0.00000
G1 X12.657 Y8.959 0.00000
G1 X13.630 Y10.288 0.00000
G1 X15.217 Y9.582 0.00000
G1 X17.852 Y8.320 0.00000
G1 X17.335 Y6.326 0.00000
G1 X17.100 Y5.575 0.00000
G1 X16.860 Y4.651 0.00000
G1 X17.165 Y4.556 0.00000
G1 X17.716 Y4.436 0.00000
G1 X17.956 Y5.364 0.00000
G1 X18.207 Y6.518 0.00000
G1 X18.637 Y8.119 0.00000
G1 X21.854 Y7.922 0.00000
G1 X23.284 Y7.781 0.00000
G1 X23.521 Y5.753 0.00000
G1 X23.573 Y4.967 0.00000
G1 X23.684 Y4.014 0.00000
G1 X23.994 Y4.041 0.00000
G1 X24.558 Y4.129 0.00000
G1 X24.447 Y5.080 0.00000
G1 X24.265 Y6.247 0.00000
G1 X24.088 Y7.886 0.00000
G1 X25.737 Y8.433 0.00000
G1 X28.534 Y9.276 0.00000
G1 X29.495 Y7.454 0.00000
G1 X29.828 Y6.740 0.00000
G1 X30.273 Y5.896 0.00000
G1 X30.562 Y6.032 0.00000
G1 X31.050 Y6.314 0.00000
G1 X30.603 Y7.161 0.00000
G1 X30.011 Y8.183 0.00000
G1 X29.254 Y9.647 0.00000
G1 X30.594 Y10.753 0.00000
G1 X32.898 Y12.549 0.00000
G1 X34.452 Y11.198 0.00000
G1 X35.020 Y10.652 0.00000
G1 X35.742 Y10.024 0.00000
G1 X36.322 Y10.690 0.00000
G1 X35.591 Y11.325 0.00000
G1 X34.669 Y12.064 0.00000
G1 X33.428 Y13.163 0.00000
G1 X35.038 Y15.954 0.00000
G1 X35.802 Y17.172 0.00000
G1 X37.722 Y16.479 0.00000
G1 X38.449 Y16.176 0.00000
G1 X39.347 Y15.852 0.00000
G1 X39.469 Y16.147 0.00000
G1 X39.639 Y16.684 0.00000
G1 X38.738 Y17.009 0.00000
G1 X37.612 Y17.366 0.00000
G1 X36.067 Y17.938 0.00000
G1 X36.312 Y19.658 0.00000
G1 X36.804 Y22.537 0.00000
G1 X38.863 Y22.586 0.00000
G1 X39.651 Y22.565 0.00000
G1 X40.605 Y22.588 0.00000
G1 X40.612 Y22.907 0.00000
G1 X40.577 Y23.469 0.00000
G1 X39.619 Y23.447 0.00000
G1 X38.440 Y23.372 0.00000
G1 X36.782 Y23.348 0.00000
G1 X36.092 Y26.496 0.00000
G1 X35.836 Y27.910 0.00000
G1 X37.722 Y28.692 0.00000
G1 X38.463 Y28.957 0.00000
G1 X39.345 Y29.323 0.00000
G1 X39.236 Y29.623 0.00000
G1 X39.000 Y30.135 0.00000
G1 X38.115 Y29.768 0.00000
G1 X37.043 Y29.272 0.00000
G1 X35.506 Y28.651 0.00000
G1 X33.724 Y31.337 0.00000
G1 X32.975 Y32.563 0.00000
G1 X34.451 Y33.973 0.00000
G1 X35.047 Y34.488 0.00000
G1 X35.739 Y35.150 0.00000
G1 X35.129 Y35.788 0.00000
G1 X34.430 Y35.119 0.00000
G1 X33.608 Y34.269 0.00000
G1 X32.407 Y33.141 0.00000
G1 X30.977 Y34.127 0.00000
G1 X28.619 Y35.852 0.00000
G1 X29.493 Y37.717 0.00000
G1 X29.863 Y38.412 0.00000
G1 X30.268 Y39.276 0.00000
G1 X29.985 Y39.425 0.00000
G1 X29.466 Y39.644 0.00000
G1 X29.060 Y38.777 0.00000
G1 X28.601 Y37.688 0.00000
G1 X27.921 Y36.272 0.00000
G1 X27.668 Y36.652 F900.000
G1 F900
G1 X24.861 Y37.357 0.00000
G1 X23.791 Y37.668 0.00000
G1 X23.909 Y39.380 0.00000
G1 X24.003 Y40.162 0.00000
G1 X24.103 Y41.497 0.00000
G1 X23.388 Y41.579 0.00000
G1 X22.416 Y41.608 0.00000
G1 X22.400 Y41.054 0.00000
G1 X22.339 Y40.269 0.00000
G1 X22.304 Y39.088 0.00000
G1 X22.202 Y37.771 0.00000
G1 X20.800 Y37.580 0.00000
G1 X18.222 Y37.301 0.00000
G1 X17.711 Y38.950 0.00000
G1 X17.515 Y39.713 0.00000
G1 X17.126 Y40.994 0.00000
G1 X16.430 Y40.812 0.00000
G1 X15.513 Y40.488 0.00000
G1 X15.698 Y39.966 0.00000
G1 X15.925 Y39.212 0.00000
G1 X16.319 Y38.098 0.00000
G1 X16.701 Y36.827 0.00000
G1 X14.151 Y35.456 0.00000
G1 X13.152 Y34.966 0.00000
G1 X12.086 Y36.310 0.00000
G1 X11.628 Y36.950 0.00000
G1 X10.801 Y38.006 0.00000
G1 X10.274 Y37.628 0.00000
G1 X9.475 Y36.957 0.00000
G1 X9.842 Y36.530 0.00000
G1 X10.326 Y35.909 0.00000
G1 X11.096 Y35.013 0.00000
G1 X11.908 Y33.970 0.00000
G1 X11.000 Y32.884 0.00000
G1 X9.284 Y30.942 0.00000
G1 X7.795 Y31.816 0.00000
G1 X7.136 Y32.248 0.00000
G1 X5.985 Y32.933 0.00000
G1 X5.593 Y32.330 0.00000
G1 X5.134 Y31.473 0.00000
G1 X5.622 Y31.211 0.00000
G1 X6.298 Y30.807 0.00000
G1 X7.340 Y30.249 0.00000
G1 X8.479 Y29.567 0.00000
G1 X7.518 Y26.836 0.00000
G1 X7.110 Y25.800 0.00000
G1 X5.416 Y26.076 0.00000
G1 X4.646 Y26.241 0.00000
G1 X3.326 Y26.464 0.00000
G1 X3.178 Y25.760 0.00000
G1 X3.060 Y24.794 0.00000
G1 X3.609 Y24.727 0.00000
G1 X4.386 Y24.594 0.00000
G1 X5.558 Y24.450 0.00000
G1 X6.861 Y24.227 0.00000
G1 X6.922 Y22.813 0.00000
G1 X6.962 Y20.221 0.00000
G1 X5.273 Y19.864 0.00000
G1 X4.495 Y19.740 0.00000
G1 X3.183 Y19.470 0.00000
G1 X3.300 Y18.761 0.00000
G1 X3.538 Y17.817 0.00000
G1 X4.075 Y17.953 0.00000
G1 X4.847 Y18.110 0.00000
G1 X5.992 Y18.399 0.00000
G1 X7.293 Y18.663 0.00000
G1 X8.423 Y15.997 0.00000
G1 X8.819 Y14.957 0.00000
G1 X7.382 Y14.019 0.00000
G1 X6.702 Y13.623 0.00000
G1 X5.576 Y12.898 0.00000
G1 X5.941 Y12.278 0.00000
G1 X6.504 Y11.485 0.00000
G1 X6.955 Y11.805 0.00000
G1 X7.619 Y12.230 0.00000
G1 X8.582 Y12.914 0.00000
G1 X9.701 Y13.629 0.00000
G1 X11.717 Y11.552 0.00000
G1 X12.462 Y10.725 0.00000
G1 X11.461 Y9.332 0.00000
G1 X10.970 Y8.716 0.00000
G1 X10.175 Y7.625 0.00000
G1 X10.742 Y7.190 0.00000
G1 X11.557 Y6.651 0.00000
G1 X11.863 Y7.113 0.00000
G1 X12.328 Y7.748 0.00000
G1 X12.979 Y8.734 0.00000
G1 X13.760 Y9.800 0.00000
G1 X15.052 Y9.225 0.00000
G1 X17.391 Y8.106 0.00000
G1 X16.957 Y6.434 0.00000
G1 X16.722 Y5.683 0.00000
G1 X16.378 Y4.388 0.00000
G1 X17.065 Y4.176 0.00000
G1 X18.016 Y3.969 0.00000
G1 X18.134 Y4.510 0.00000
G1 X18.338 Y5.271 0.00000
G1 X18.589 Y6.425 0.00000
G1 X18.933 Y7.708 0.00000
G1 X21.823 Y7.531 0.00000
G1 X22.931 Y7.421 0.00000
G1 X23.129 Y5.718 0.00000
G1 X23.181 Y4.932 0.00000
G1 X23.329 Y3.590 0.00000
G1 X24.041 Y3.651 0.00000
G1 X25.007 Y3.801 0.00000
G1 X24.921 Y4.349 0.00000
G1 X24.837 Y5.132 0.00000
G1 X24.654 Y6.299 0.00000
G1 X24.513 Y7.613 0.00000
G1 X25.856 Y8.058 0.00000
G1 X28.338 Y8.806 0.00000
G1 X29.144 Y7.279 0.00000
G1 X29.476 Y6.565 0.00000
G1 X30.094 Y5.377 0.00000
G1 X30.745 Y5.683 0.00000
G1 X31.586 Y6.171 0.00000
G1 X31.309 Y6.650 0.00000
G1 X30.947 Y7.350 0.00000
G1 X30.355 Y8.372 0.00000
G1 X29.749 Y9.546 0.00000
G1 X30.840 Y10.447 0.00000
G1 X32.884 Y12.041 0.00000
G1 X34.187 Y10.908 0.00000
G1 X34.755 Y10.362 0.00000
G1 X35.762 Y9.476 0.00000
G1 X36.210 Y9.945 0.00000
G1 X36.872 Y10.751 0.00000
G1 X36.434 Y11.103 0.00000
G1 X35.844 Y11.625 0.00000
G1 X34.923 Y12.364 0.00000
G1 X33.928 Y13.244 0.00000
G1 X35.375 Y15.752 0.00000
G1 X35.966 Y16.695 0.00000
G1 X37.580 Y16.113 0.00000
G1 X38.307 Y15.810 0.00000
G1 X39.564 Y15.348 0.00000
G1 X39.838 Y16.013 0.00000
G1 X40.132 Y16.940 0.00000
G1 X39.604 Y17.107 0.00000
G1 X38.866 Y17.381 0.00000
G1 X37.739 Y17.737 0.00000
G1 X36.500 Y18.196 0.00000
G1 X36.700 Y19.597 0.00000
G1 X37.137 Y22.152 0.00000
G1 X38.863 Y22.193 0.00000
G1 X39.650 Y22.172 0.00000
G1 X40.989 Y22.196 0.00000
G1 X41.005 Y22.915 0.00000
G1 X40.944 Y23.886 0.00000
G1 X40.391 Y23.851 0.00000
G1 X39.604 Y23.839 0.00000
G1 X38.425 Y23.765 0.00000
G1 X37.097 Y23.745 0.00000
G1 X36.477 Y26.573 0.00000
G1 X36.278 Y27.668 0.00000
G1 X37.863 Y28.326 0.00000
G1 X38.605 Y28.591 0.00000
G1 X39.845 Y29.096 0.00000
G1 X39.600 Y29.773 0.00000
G1 X39.192 Y30.656 0.00000
G1 X38.689 Y30.424 0.00000
G1 X37.959 Y30.128 0.00000
G1 X36.887 Y29.633 0.00000
G1 X35.656 Y29.135 0.00000
G1 X34.056 Y31.548 0.00000
G1 X33.475 Y32.498 0.00000
G1 X34.715 Y33.683 0.00000
G1 X35.311 Y34.198 0.00000
G1 X36.286 Y35.118 0.00000
G1 X35.861 Y35.608 0.00000
G1 X35.119 Y36.342 0.00000
G1 X34.728 Y35.938 0.00000
G1 X34.154 Y35.399 0.00000
G1 X33.333 Y34.549 0.00000
G1 X32.369 Y33.645 0.00000
G1 X31.204 Y34.448 0.00000
G1 X29.112 Y35.978 0.00000
G1 X29.845 Y37.541 0.00000
G1 X30.214 Y38.237 0.00000
G1 X30.790 Y39.446 0.00000
G1 X30.153 Y39.780 0.00000
G1 X29.257 Y40.159 0.00000
G1 X29.042 Y39.648 0.00000
G1 X28.702 Y38.938 0.00000
G1 X28.243 Y37.850 0.00000
G1 X27.706 Y36.731 0.00000
G1 X27.453 Y37.111 F900.000
G1 F900
G1 X24.963 Y37.736 0.00000
G1 X24.205 Y37.957 0.00000
G1 X24.301 Y39.343 0.00000
G1 X24.394 Y40.125 0.00000
G1 X24.475 Y41.303 0.00000
G1 X24.539 Y41.842 0.00000
G1 X23.417 Y41.971 0.00000
G1 X22.035 Y42.012 0.00000
G1 X22.007 Y41.075 0.00000
G1 X21.946 Y40.290 0.00000
G1 X21.912 Y39.109 0.00000
G1 X21.835 Y38.117 0.00000
G1 X20.752 Y37.969 0.00000
G1 X18.502 Y37.726 0.00000
G1 X18.089 Y39.057 0.00000
G1 X17.893 Y39.820 0.00000
G1 X17.543 Y40.948 0.00000
G1 X17.409 Y41.474 0.00000
G1 X16.315 Y41.188 0.00000
G1 X15.012 Y40.728 0.00000
G1 X15.325 Y39.844 0.00000
G1 X15.551 Y39.090 0.00000
G1 X15.946 Y37.976 0.00000
G1 X16.233 Y37.021 0.00000
G1 X13.972 Y35.805 0.00000
G1 X13.263 Y35.458 0.00000
G1 X12.400 Y36.546 0.00000
G1 X11.942 Y37.187 0.00000
G1 X11.208 Y38.113 0.00000
G1 X10.892 Y38.555 0.00000
G1 X10.035 Y37.939 0.00000
G1 X8.925 Y36.995 0.00000
G1 X9.538 Y36.282 0.00000
G1 X10.022 Y35.660 0.00000
G1 X10.792 Y34.764 0.00000
G1 X11.403 Y33.979 0.00000
G1 X10.703 Y33.140 0.00000
G1 X9.204 Y31.444 0.00000
G1 X8.002 Y32.150 0.00000
G1 X7.344 Y32.582 0.00000
G1 X6.325 Y33.180 0.00000
G1 X5.871 Y33.478 0.00000
G1 X5.255 Y32.530 0.00000
G1 X4.602 Y31.312 0.00000
G1 X5.429 Y30.869 0.00000
G1 X6.104 Y30.465 0.00000
G1 X7.146 Y29.907 0.00000
G1 X8.002 Y29.395 0.00000
G1 X7.150 Y26.973 0.00000
G1 X6.860 Y26.239 0.00000
G1 X5.489 Y26.462 0.00000
G1 X4.719 Y26.627 0.00000
G1 X3.553 Y26.816 0.00000
G1 X3.023 Y26.930 0.00000
G1 X2.791 Y25.824 0.00000
G1 X2.622 Y24.452 0.00000
G1 X3.552 Y24.338 0.00000
G1 X4.329 Y24.205 0.00000
G1 X5.501 Y24.062 0.00000
G1 X6.482 Y23.893 0.00000
G1 X6.529 Y22.802 0.00000
G1 X6.564 Y20.538 0.00000
G1 X5.201 Y20.250 0.00000
G1 X4.423 Y20.126 0.00000
G1 X3.267 Y19.881 0.00000
G1 X2.732 Y19.796 0.00000
G1 X2.915 Y18.681 0.00000
G1 X3.253 Y17.340 0.00000
G1 X4.162 Y17.570 0.00000
G1 X4.934 Y17.726 0.00000
G1 X6.079 Y18.016 0.00000
G1 X7.057 Y18.214 0.00000
G1 X8.058 Y15.851 0.00000
G1 X8.339 Y15.113 0.00000
G1 X7.176 Y14.354 0.00000
G1 X6.496 Y13.957 0.00000
G1 X5.506 Y13.312 0.00000
G1 X5.037 Y13.038 0.00000
G1 X5.611 Y12.064 0.00000
G1 X6.411 Y10.937 0.00000
G1 X7.175 Y11.480 0.00000
G1 X7.838 Y11.904 0.00000
G1 X8.802 Y12.588 0.00000
G1 X9.642 Y13.126 0.00000
G1 X11.430 Y11.284 0.00000
G1 X11.958 Y10.697 0.00000
G1 X11.148 Y9.569 0.00000
G1 X10.657 Y8.953 0.00000
G1 X9.967 Y7.994 0.00000
G1 X9.625 Y7.565 0.00000
G1 X10.514 Y6.870 0.00000
G1 X11.669 Y6.107 0.00000
G1 X12.185 Y6.889 0.00000
G1 X12.650 Y7.524 0.00000
G1 X13.301 Y8.510 0.00000
G1 X13.889 Y9.313 0.00000
G1 X14.888 Y8.869 0.00000
G1 X16.929 Y7.891 0.00000
G1 X16.580 Y6.542 0.00000
G1 X16.344 Y5.791 0.00000
G1 X16.048 Y4.647 0.00000
G1 X15.886 Y4.129 0.00000
G1 X16.966 Y3.796 0.00000
G1 X18.316 Y3.502 0.00000
G1 X18.515 Y4.418 0.00000
G1 X18.720 Y5.178 0.00000
G1 X18.971 Y6.333 0.00000
G1 X19.229 Y7.296 0.00000
G1 X21.792 Y7.139 0.00000
G1 X22.578 Y7.062 0.00000
G1 X22.738 Y5.682 0.00000
G1 X22.790 Y4.896 0.00000
G1 X22.927 Y3.723 0.00000
G1 X22.963 Y3.176 0.00000
G1 X24.088 Y3.261 0.00000
G1 X25.456 Y3.474 0.00000
G1 X25.311 Y4.400 0.00000
G1 X25.226 Y5.183 0.00000
G1 X25.043 Y6.350 0.00000
G1 X24.937 Y7.340 0.00000
G1 X25.974 Y7.684 0.00000
G1 X28.141 Y8.337 0.00000
G1 X28.792 Y7.104 0.00000
G1 X29.124 Y6.391 0.00000
G1 X29.675 Y5.346 0.00000
G1 X29.904 Y4.854 0.00000
G1 X30.927 Y5.335 0.00000
G1 X32.123 Y6.027 0.00000
G1 X31.653 Y6.838 0.00000
G1 X31.292 Y7.538 0.00000
G1 X30.700 Y8.560 0.00000
G1 X30.243 Y9.445 0.00000
G1 X31.086 Y10.140 0.00000
G1 X32.871 Y11.532 0.00000
G1 X33.922 Y10.618 0.00000
G1 X34.490 Y10.072 0.00000
G1 X35.382 Y9.297 0.00000
G1 X35.773 Y8.920 0.00000
G1 X36.503 Y9.683 0.00000
G1 X37.421 Y10.815 0.00000
G1 X36.687 Y11.403 0.00000
G1 X36.097 Y11.925 0.00000
G1 X35.176 Y12.665 0.00000
G1 X34.429 Y13.326 0.00000
G1 X35.711 Y15.549 0.00000
G1 X36.131 Y16.218 0.00000
G1 X37.438 Y15.747 0.00000
G1 X38.164 Y15.444 0.00000
G1 X39.275 Y15.043 0.00000
G1 X39.776 Y14.833 0.00000
G1 X40.207 Y15.878 0.00000
G1 X40.625 Y17.196 0.00000
G1 X39.732 Y17.479 0.00000
G1 X38.993 Y17.752 0.00000
G1 X37.867 Y18.109 0.00000
G1 X36.934 Y18.454 0.00000
G1 X37.088 Y19.536 0.00000
G1 X37.469 Y21.767 0.00000
G1 X38.862 Y21.800 0.00000
G1 X39.650 Y21.779 0.00000
G1 X40.831 Y21.807 0.00000
G1 X41.373 Y21.793 0.00000
G1 X41.398 Y22.923 0.00000
G1 X41.311 Y24.302 0.00000
G1 X40.376 Y24.243 0.00000
G1 X39.589 Y24.232 0.00000
G1 X38.410 Y24.157 0.00000
G1 X37.412 Y24.142 0.00000
G1 X36.862 Y26.650 0.00000
G1 X36.721 Y27.427 0.00000
G1 X38.004 Y27.959 0.00000
G1 X38.746 Y28.224 0.00000
G1 X39.837 Y28.677 0.00000
G1 X40.348 Y28.859 0.00000
G1 X39.963 Y29.922 0.00000
G1 X39.384 Y31.177 0.00000
G1 X38.533 Y30.784 0.00000
G1 X37.803 Y30.489 0.00000
G1 X36.731 Y29.993 0.00000
G1 X35.806 Y29.619 0.00000
G1 X34.387 Y31.759 0.00000
G1 X33.975 Y32.432 0.00000
G1 X34.979 Y33.392 0.00000
G1 X35.575 Y33.907 0.00000
G1 X36.429 Y34.723 0.00000
G1 X36.840 Y35.079 0.00000
G1 X36.148 Y35.876 0.00000
G1 X35.106 Y36.894 0.00000
G1 X34.452 Y36.217 0.00000
G1 X33.878 Y35.678 0.00000
G1 X33.057 Y34.829 0.00000
G1 X32.332 Y34.148 0.00000
G1 X31.432 Y34.768 0.00000
G1 X29.605 Y36.104 0.00000
G1 X30.196 Y37.366 0.00000
G1 X30.566 Y38.061 0.00000
G1 X31.067 Y39.131 0.00000
G1 X31.322 Y39.610 0.00000
G1 X30.321 Y40.136 0.00000
G1 X29.048 Y40.673 0.00000
G1 X28.684 Y39.810 0.00000
G1 X28.343 Y39.100 0.00000
G1 X27.884 Y38.011 0.00000
G1 X27.491 Y37.190 0.00000
G1 X27.279 Y36.558 F900.000
G1 Z-147.500 F900.000
G1 X26.627 Y35.162 F900.000
G1 F900
G1 X26.366 Y35.273 0.00000
G1 X24.635 Y35.747 0.00000
G1 X22.857 Y35.986 0.00000
G1 X21.063 Y35.986 0.00000
G1 X19.284 Y35.747 0.00000
G1 X17.554 Y35.273 0.00000
G1 X15.902 Y34.572 0.00000
G1 X14.358 Y33.658 0.00000
G1 X12.950 Y32.546 0.00000
G1 X11.703 Y31.256 0.00000
G1 X10.639 Y29.812 0.00000
G1 X9.776 Y28.238 0.00000
G1 X9.132 Y26.564 0.00000
G1 X8.716 Y24.819 0.00000
G1 X8.536 Y23.034 0.00000
G1 X8.596 Y21.240 0.00000
G1 X8.894 Y19.471 0.00000
G1 X9.426 Y17.757 0.00000
G1 X10.181 Y16.130 0.00000
G1 X11.147 Y14.618 0.00000
G1 X12.305 Y13.247 0.00000
G1 X13.636 Y12.044 0.00000
G1 X15.115 Y11.028 0.00000
G1 X16.716 Y10.219 0.00000
G1 X18.411 Y9.631 0.00000
G1 X20.170 Y9.273 0.00000
G1 X21.960 Y9.153 0.00000
G1 X23.750 Y9.273 0.00000
G1 X25.508 Y9.631 0.00000
G1 X27.203 Y10.219 0.00000
G1 X28.805 Y11.028 0.00000
G1 X30.284 Y12.044 0.00000
G1 X31.615 Y13.247 0.00000
G1 X32.773 Y14.618 0.00000
G1 X33.738 Y16.130 0.00000
G1 X34.494 Y17.757 0.00000
G1 X35.025 Y19.471 0.00000
G1 X35.324 Y21.240 0.00000
G1 X35.384 Y23.034 0.00000
G1 X35.204 Y24.819 0.00000
G1 X34.788 Y26.564 0.00000
G1 X34.143 Y28.238 0.00000
G1 X33.281 Y29.812 0.00000
G1 X32.217 Y31.256 0.00000
G1 X30.969 Y32.546 0.00000
G1 X29.561 Y33.658 0.00000
G1 X28.017 Y34.572 0.00000
G1 X26.707 Y35.128 0.00000
G1 X26.473 Y34.801 F900.000
G1 F900
G1 X26.236 Y34.901 0.00000
G1 X24.557 Y35.361 0.00000
G1 X22.831 Y35.593 0.00000
G1 X21.089 Y35.593 0.00000
G1 X19.363 Y35.361 0.00000
G1 X17.683 Y34.901 0.00000
G1 X16.080 Y34.221 0.00000
G1 X14.581 Y33.334 0.00000
G1 X13.214 Y32.254 0.00000
G1 X12.004 Y31.002 0.00000
G1 X10.970 Y29.600 0.00000
G1 X10.133 Y28.073 0.00000
G1 X9.507 Y26.447 0.00000
G1 X9.162 Y24.996 0.00000
G1 X9.104 Y24.753 0.00000
G1 X8.929 Y23.020 0.00000
G1 X8.988 Y21.280 0.00000
G1 X9.277 Y19.562 0.00000
G1 X9.793 Y17.899 0.00000
G1 X10.526 Y16.319 0.00000
G1 X11.464 Y14.851 0.00000
G1 X12.588 Y13.521 0.00000
G1 X13.880 Y12.353 0.00000
G1 X15.316 Y11.367 0.00000
G1 X16.870 Y10.582 0.00000
G1 X18.515 Y10.010 0.00000
G1 X20.222 Y9.663 0.00000
G1 X21.960 Y9.547 0.00000
G1 X23.698 Y9.663 0.00000
G1 X25.404 Y10.010 0.00000
G1 X27.050 Y10.582 0.00000
G1 X28.604 Y11.367 0.00000
G1 X30.040 Y12.353 0.00000
G1 X31.332 Y13.521 0.00000
G1 X32.456 Y14.851 0.00000
G1 X33.393 Y16.319 0.00000
G1 X34.126 Y17.899 0.00000
G1 X34.642 Y19.562 0.00000
G1 X34.932 Y21.280 0.00000
G1 X34.990 Y23.020 0.00000
G1 X34.816 Y24.753 0.00000
G1 X34.412 Y26.447 0.00000
G1 X33.786 Y28.073 0.00000
G1 X32.949 Y29.600 0.00000
G1 X31.916 Y31.002 0.00000
G1 X30.705 Y32.254 0.00000
G1 X29.338 Y33.334 0.00000
G1 X27.840 Y34.221 0.00000
G1 X26.553 Y34.767 0.00000
G1 X26.320 Y34.439 F900.000
G1 F900
G1 X26.107 Y34.529 0.00000
G1 X24.478 Y34.975 0.00000
G1 X22.804 Y35.201 0.00000
G1 X21.115 Y35.201 0.00000
G1 X19.441 Y34.975 0.00000
G1 X17.812 Y34.529 0.00000
G1 X16.257 Y33.870 0.00000
G1 X14.804 Y33.009 0.00000
G1 X13.478 Y31.962 0.00000
G1 X12.304 Y30.748 0.00000
G1 X11.302 Y29.388 0.00000
G1 X10.490 Y27.907 0.00000
G1 X9.883 Y26.331 0.00000
G1 X9.544 Y24.905 0.00000
G1 X9.492 Y24.688 0.00000
G1 X9.323 Y23.007 0.00000
G1 X9.379 Y21.319 0.00000
G1 X9.660 Y19.654 0.00000
G1 X10.161 Y18.040 0.00000
G1 X10.872 Y16.508 0.00000
G1 X11.780 Y15.084 0.00000
G1 X12.871 Y13.795 0.00000
G1 X14.124 Y12.662 0.00000
G1 X15.516 Y11.706 0.00000
G1 X17.024 Y10.944 0.00000
G1 X18.619 Y10.390 0.00000
G1 X20.275 Y10.053 0.00000
G1 X21.960 Y9.941 0.00000
G1 X23.645 Y10.053 0.00000
G1 X25.300 Y10.390 0.00000
G1 X26.896 Y10.944 0.00000
G1 X28.403 Y11.706 0.00000
G1 X29.796 Y12.662 0.00000
G1 X31.049 Y13.795 0.00000
G1 X32.139 Y15.084 0.00000
G1 X33.048 Y16.508 0.00000
G1 X33.759 Y18.040 0.00000
G1 X34.259 Y19.654 0.00000
G1 X34.540 Y21.319 0.00000
G1 X34.597 Y23.007 0.00000
G1 X34.428 Y24.688 0.00000
G1 X34.036 Y26.331 0.00000
G1 X33.429 Y27.907 0.00000
G1 X32.617 Y29.388 0.00000
G1 X31.616 Y30.748 0.00000
G1 X30.441 Y31.962 0.00000
G1 X29.116 Y33.009 0.00000
G1 X27.662 Y33.870 0.00000
G1 X26.400 Y34.405 0.00000
G1 X26.167 Y34.078 F900.000
G1 F900
G1 X25.978 Y34.157 0.00000
G1 X24.400 Y34.590 0.00000
G1 X22.778 Y34.808 0.00000
G1 X21.142 Y34.808 0.00000
G1 X19.520 Y34.590 0.00000
G1 X17.941 Y34.157 0.00000
G1 X16.435 Y33.519 0.00000
G1 X15.027 Y32.685 0.00000
G1 X13.742 Y31.670 0.00000
G1 X12.605 Y30.494 0.00000
G1 X11.634 Y29.177 0.00000
G1 X10.847 Y27.741 0.00000
G1 X10.259 Y26.214 0.00000
G1 X9.926 Y24.814 0.00000
G1 X9.880 Y24.622 0.00000
G1 X9.716 Y22.994 0.00000
G1 X9.771 Y21.358 0.00000
G1 X10.010 Y19.939 0.00000
G1 X10.043 Y19.745 0.00000
G1 X10.528 Y18.182 0.00000
G1 X11.217 Y16.697 0.00000
G1 X11.991 Y15.484 0.00000
G1 X12.097 Y15.318 0.00000
G1 X13.154 Y14.068 0.00000
G1 X14.368 Y12.970 0.00000
G1 X15.717 Y12.044 0.00000
G1 X17.177 Y11.306 0.00000
G1 X18.723 Y10.769 0.00000
G1 X20.327 Y10.443 0.00000
G1 X21.960 Y10.334 0.00000
G1 X23.593 Y10.443 0.00000
G1 X25.196 Y10.769 0.00000
G1 X26.742 Y11.306 0.00000
G1 X28.203 Y12.044 0.00000
G1 X29.552 Y12.970 0.00000
G1 X30.766 Y14.068 0.00000
G1 X31.822 Y15.318 0.00000
G1 X32.703 Y16.697 0.00000
G1 X33.392 Y18.182 0.00000
G1 X33.877 Y19.745 0.00000
G1 X34.149 Y21.358 0.00000
G1 X34.204 Y22.994 0.00000
G1 X34.040 Y24.622 0.00000
G1 X33.660 Y26.214 0.00000
G1 X33.072 Y27.741 0.00000
G1 X32.286 Y29.177 0.00000
G1 X31.315 Y30.494 0.00000
G1 X30.177 Y31.670 0.00000
G1 X28.893 Y32.685 0.00000
G1 X27.485 Y33.519 0.00000
G1 X26.247 Y34.044 0.00000
G1 X26.146 Y34.281 F900.000
G1 X26.225 Y34.868 F900.000
G1 X26.542 Y35.616 F900.000
G1 X28.114 Y35.088 F900.000
G1 X29.818 Y33.936 F900.000
G1 X32.219 Y32.003 F900.000
G1 X33.712 Y29.802 F900.000
G1 X34.920 Y27.674 F900.000
G1 X35.590 Y24.738 F900.000
G1 X35.887 Y22.643 F900.000
G1 X34.977 Y17.604 F900.000
G1 X32.291 Y13.245 F900.000
G1 X30.457 Y11.709 F900.000
G1 X28.214 Y10.145 F900.000
G1 X24.645 Y9.041 F900.000
G1 X24.974 Y9.121 F900.000
G1 F900
G1 X23.802 Y8.883 0.00000
G1 X21.960 Y8.760 0.00000
G1 X21.492 Y8.791 0.00000
G1 X23.417 Y8.621 0.00000
G1 X24.890 Y9.098 0.00000
G1 X26.433 Y9.536 F900.000
G1 F900
G1 X28.250 Y10.053 0.00000
G1 X29.832 Y11.257 0.00000
G1 X29.005 Y10.690 0.00000
G1 X27.357 Y9.857 0.00000
G1 X26.515 Y9.565 0.00000
G1 X30.895 Y12.067 F900.000
G1 F900
G1 X32.360 Y13.183 0.00000
G1 X33.266 Y14.660 0.00000
G1 X33.090 Y14.384 0.00000
G1 X31.897 Y12.974 0.00000
G1 X30.959 Y12.125 0.00000
G1 X34.183 Y16.154 F900.000
G1 F900
G1 X35.054 Y17.575 0.00000
G1 X35.348 Y19.188 0.00000
G1 X34.861 Y17.616 0.00000
G1 X34.219 Y16.233 0.00000
G1 X35.705 Y21.137 F900.000
G1 F900
G1 X35.980 Y22.643 0.00000
G1 X35.638 Y24.430 0.00000
G1 X35.777 Y23.047 0.00000
G1 X35.716 Y21.223 0.00000
G1 X35.384 Y25.759 F900.000
G1 F900
G1 X35.008 Y27.723 0.00000
G1 X34.017 Y29.286 0.00000
G1 X34.500 Y28.404 0.00000
G1 X35.164 Y26.681 0.00000
G1 X35.363 Y25.844 0.00000
G1 X33.225 Y30.550 F900.000
G1 F900
G1 X32.305 Y32.055 0.00000
G1 X30.761 Y33.211 0.00000
G1 X31.233 Y32.838 0.00000
G1 X32.517 Y31.510 0.00000
G1 X33.173 Y30.620 0.00000
G1 X29.527 Y34.134 F900.000
G1 F900
G1 X28.141 Y35.173 0.00000
G1 X26.646 Y35.581 0.00000
G1 X28.195 Y34.924 0.00000
G1 X29.453 Y34.179 0.00000
G1 X24.633 Y36.143 F900.000
G1 F900
G1 X23.225 Y36.553 0.00000
G1 X21.427 Y36.379 0.00000
G1 X22.883 Y36.379 0.00000
G1 X24.547 Y36.155 0.00000
G1 X20.031 Y36.244 F900.000
G1 F900
G1 X18.047 Y36.051 0.00000
G1 X16.413 Y35.216 0.00000
G1 X17.425 Y35.645 0.00000
G1 X19.206 Y36.133 0.00000
G1 X19.945 Y36.232 0.00000
G1 X15.087 Y34.546 F900.000
G1 F900
G1 X13.484 Y33.760 0.00000
G1 X12.149 Y32.283 0.00000
G1 X12.686 Y32.838 0.00000
G1 X14.136 Y33.983 0.00000
G1 X15.012 Y34.502 0.00000
G1 X11.188 Y31.219 F900.000
G1 F900
G1 X10.009 Y29.916 0.00000
G1 X9.458 Y28.474 0.00000
G1 X10.307 Y30.024 0.00000
G1 X11.136 Y31.149 0.00000
G1 X8.729 Y26.570 F900.000
G1 F900
G1 X8.168 Y25.104 0.00000
G1 X8.175 Y23.371 0.00000
G1 X8.328 Y24.884 0.00000
G1 X8.709 Y26.486 0.00000
G1 X8.181 Y21.885 F900.000
G1 F900
G1 X8.190 Y19.931 0.00000
G1 X8.863 Y18.248 0.00000
G1 X8.512 Y19.380 0.00000
G1 X8.204 Y21.201 0.00000
G1 X8.184 Y21.798 0.00000
