DVAR $hFile

G71
G76
G91 ;G90 = absolute, G91 = relative
G68

RAMP TYPE SINE X Y
VELOCITY OFF
RAMP RATE 900

ENABLE X Y D
'HOME X Y D
G90
G0 D-80 F60
G0 X0 Y0 D0 F60
G91

;Begin Motion
'G0 X150 Y50 F60
G0 D-149.5 F60
G1 F20

FILECLOSE
$hFile = FILEOPEN "COM5", 2
COMMINIT $hFile, "baud=115200 parity=N data=8 stop=1"
COMMSETTIMEOUT $hFile, -1, -1, 1000


FILEWRITE $hFile"\x05\x02\x30\x38\x50\x53\x20\x20\x30\x33\x34\x30\x45\x45\x03"

; generated by Slic3r 1.3.0 on 2023-03-28 at 15:33:24 
; external perimeters extrusion width = 0.50mm (2.95mm^3/s) 
; perimeters extrusion width = 0.50mm (2.95mm^3/s) 
; infill extrusion width = 0.50mm (2.95mm^3/s) 
; solid infill extrusion width = 0.50mm (2.95mm^3/s) 
; top infill extrusion width = 0.50mm (2.95mm^3/s) 
; Filament gcode 
; G21 ; set units to millimeters 
G90 ; use absolute coordinates 
G1 D-149.500 ;not extruding 
G1 X46.639 Y23.262 ;not extruding 
FILEWRITE $hFile"\x05\x02\x30\x34\x44\x49\x20\x20\x43\x46\x03"
DWELL 0.15
G1 X46.722 Y23.122 ;extruding 
G1 X46.881 Y22.988 ;extruding 
G1 X47.084 Y22.923 ;extruding 
G1 X47.247 Y22.914 ;extruding 
G1 X47.413 Y22.935 ;extruding 
G1 X47.610 Y23.002 ;extruding 
G1 X47.760 Y23.090 ;extruding 
G1 X47.922 Y23.250 ;extruding 
G1 X48.055 Y23.522 ;extruding 
G1 X48.242 Y24.174 ;extruding 
G1 X48.679 Y25.283 ;extruding 
G1 X48.831 Y24.780 ;extruding 
G1 X49.164 Y23.815 ;extruding 
G1 X49.294 Y23.505 ;extruding 
G1 X49.396 Y23.322 ;extruding 
G1 X49.554 Y23.120 ;extruding 
G1 X49.735 Y22.977 ;extruding 
G1 X49.970 Y22.911 ;extruding 
G1 X50.141 Y22.934 ;extruding 
G1 X50.337 Y23.031 ;extruding 
G1 X50.549 Y23.247 ;extruding 
G1 X50.680 Y23.540 ;extruding 
G1 X50.696 Y23.751 ;extruding 
G1 X50.671 Y23.911 ;extruding 
G1 X50.591 Y24.140 ;extruding 
G1 X50.380 Y24.599 ;extruding 
G1 X49.295 Y27.686 ;extruding 
G1 X48.643 Y29.349 ;extruding 
G1 X48.518 Y29.604 ;extruding 
G1 X48.345 Y29.881 ;extruding 
G1 X48.157 Y30.092 ;extruding 
G1 X47.932 Y30.262 ;extruding 
G1 X47.655 Y30.399 ;extruding 
G1 X47.227 Y30.527 ;extruding 
G1 X46.879 Y30.555 ;extruding 
G1 X46.579 Y30.477 ;extruding 
G1 X46.347 Y30.285 ;extruding 
G1 X46.194 Y29.996 ;extruding 
G1 X46.145 Y29.682 ;extruding 
G1 X46.212 Y29.420 ;extruding 
G1 X46.317 Y29.289 ;extruding 
G1 X46.487 Y29.179 ;extruding 
G1 X46.967 Y29.041 ;extruding 
G1 X47.120 Y28.973 ;extruding 
G1 X47.317 Y28.805 ;extruding 
G1 X47.451 Y28.583 ;extruding 
G1 X47.669 Y28.013 ;extruding 
G1 X47.855 Y27.624 ;extruding 
G1 X47.913 Y27.408 ;extruding 
G1 X47.872 Y27.201 ;extruding 
G1 X47.580 Y26.531 ;extruding 
G1 X47.005 Y24.972 ;extruding 
G1 X46.670 Y24.141 ;extruding 
G1 X46.613 Y23.919 ;extruding 
G1 X46.579 Y23.641 ;extruding 
G1 X46.587 Y23.465 ;extruding 
G1 X46.618 Y23.346 ;extruding 
FILEWRITE $hFile"\x05\x02\x30\x34\x44\x49\x20\x20\x43\x46\x03"
G1 X46.542 Y23.131 ;not extruding 
G1 X46.243 Y22.560 ;not extruding 
G1 X46.400 Y19.962 ;not extruding 
G1 X47.280 Y19.970 ;not extruding 
G1 X48.485 Y20.366 ;not extruding 
G1 X48.882 Y20.303 ;not extruding 
G1 X50.527 Y20.629 ;not extruding 
G1 X51.019 Y20.948 ;not extruding 
G1 X50.834 Y22.520 ;not extruding 
G1 X51.250 Y23.717 ;not extruding 
G1 X51.170 Y24.001 ;not extruding 
FILEWRITE $hFile"\x05\x02\x30\x34\x44\x49\x20\x20\x43\x46\x03"
DWELL 0.15
G1 X51.106 Y23.777 ;extruding 
G1 X51.107 Y23.527 ;extruding 
G1 X51.209 Y23.238 ;extruding 
G1 X51.365 Y23.076 ;extruding 
G1 X51.560 Y22.979 ;extruding 
G1 X51.792 Y22.929 ;extruding 
G1 X52.019 Y22.913 ;extruding 
G1 X54.168 Y22.917 ;extruding 
G1 X54.453 Y22.988 ;extruding 
G1 X54.626 Y23.115 ;extruding 
G1 X54.721 Y23.250 ;extruding 
G1 X54.808 Y23.505 ;extruding 
G1 X54.822 Y23.768 ;extruding 
G1 X54.769 Y24.050 ;extruding 
G1 X54.661 Y24.293 ;extruding 
G1 X54.419 Y24.663 ;extruding 
G1 X53.195 Y26.383 ;extruding 
G1 X53.094 Y26.551 ;extruding 
G1 X53.856 Y26.516 ;extruding 
G1 X54.311 Y26.566 ;extruding 
G1 X54.586 Y26.670 ;extruding 
G1 X54.715 Y26.768 ;extruding 
G1 X54.835 Y26.935 ;extruding 
G1 X54.896 Y27.144 ;extruding 
G1 X54.905 Y27.312 ;extruding 
G1 X54.873 Y27.513 ;extruding 
G1 X54.812 Y27.662 ;extruding 
G1 X54.725 Y27.786 ;extruding 
G1 X54.559 Y27.910 ;extruding 
G1 X54.351 Y27.982 ;extruding 
G1 X54.076 Y28.011 ;extruding 
G1 X52.346 Y28.006 ;extruding 
G1 X51.765 Y28.035 ;extruding 
G1 X51.601 Y28.015 ;extruding 
G1 X51.400 Y27.936 ;extruding 
G1 X51.189 Y27.716 ;extruding 
G1 X51.079 Y27.415 ;extruding 
G1 X51.060 Y27.156 ;extruding 
G1 X51.103 Y26.908 ;extruding 
G1 X51.205 Y26.660 ;extruding 
G1 X51.380 Y26.374 ;extruding 
G1 X52.831 Y24.371 ;extruding 
G1 X52.497 Y24.407 ;extruding 
G1 X52.117 Y24.409 ;extruding 
G1 X51.685 Y24.362 ;extruding 
G1 X51.524 Y24.315 ;extruding 
G1 X51.331 Y24.210 ;extruding 
G1 X51.223 Y24.070 ;extruding 
FILEWRITE $hFile"\x05\x02\x30\x34\x44\x49\x20\x20\x43\x46\x03"
G1 X50.936 Y23.988 ;not extruding 
G1 X51.250 Y23.717 ;not extruding 
G1 X50.834 Y22.520 ;not extruding 
G1 X51.019 Y20.948 ;not extruding 
G1 X50.527 Y20.629 ;not extruding 
G1 X48.882 Y20.303 ;not extruding 
G1 X48.485 Y20.366 ;not extruding 
G1 X47.280 Y19.970 ;not extruding 
G1 X44.147 Y19.840 ;not extruding 
G1 X42.279 Y19.930 ;not extruding 
G1 X41.612 Y20.102 ;not extruding 
G1 X38.761 Y19.380 ;not extruding 
G1 X35.892 Y19.346 ;not extruding 
G1 X34.166 Y19.574 ;not extruding 
G1 X31.935 Y19.384 ;not extruding 
G1 X29.953 Y19.653 ;not extruding 
G1 X24.739 Y19.675 ;not extruding 
G1 X23.841 Y19.876 ;not extruding 
G1 X23.774 Y21.290 ;not extruding 
G1 X24.406 Y22.305 ;not extruding 
G1 X24.573 Y22.285 ;not extruding 
G1 X24.093 Y23.459 ;not extruding 
G1 X24.307 Y24.595 ;not extruding 
G1 X24.610 Y25.090 ;not extruding 
G1 X24.970 Y26.393 ;not extruding 
G1 X24.691 Y29.201 ;not extruding 
G1 X24.899 Y29.317 ;not extruding 
G1 X25.988 Y29.649 ;not extruding 
G1 X27.522 Y29.735 ;not extruding 
G1 X28.955 Y29.382 ;not extruding 
G1 X29.994 Y29.716 ;not extruding 
G1 X31.555 Y29.927 ;not extruding 
G1 X33.104 Y29.903 ;not extruding 
G1 X34.185 Y29.703 ;not extruding 
G1 X35.487 Y29.987 ;not extruding 
G1 X38.643 Y29.946 ;not extruding 
G1 X40.450 Y30.355 ;not extruding 
G1 X41.484 Y30.373 ;not extruding 
G1 X43.817 Y30.263 ;not extruding 
G1 X44.281 Y29.731 ;not extruding 
G1 X44.197 Y29.312 ;not extruding 
FILEWRITE $hFile"\x05\x02\x30\x34\x44\x49\x20\x20\x43\x46\x03"
DWELL 0.15
G1 X44.294 Y29.385 ;extruding 
G1 X44.577 Y29.471 ;extruding 
G1 X44.543 Y29.607 ;extruding 
G1 X44.683 Y30.499 ;extruding 
G1 X44.969 Y31.039 ;extruding 
G1 X43.946 Y31.066 ;extruding 
G1 X43.314 Y31.041 ;extruding 
G1 X20.021 Y29.600 ;extruding 
G1 X19.994 Y29.596 ;extruding 
G1 X19.991 Y29.553 ;extruding 
G1 X19.991 Y29.224 ;extruding 
G1 X20.276 Y29.336 ;extruding 
G1 X20.713 Y29.457 ;extruding 
G1 X21.146 Y29.530 ;extruding 
G1 X21.754 Y29.562 ;extruding 
G1 X22.344 Y29.524 ;extruding 
G1 X22.905 Y29.414 ;extruding 
G1 X23.433 Y29.227 ;extruding 
G1 X23.822 Y29.023 ;extruding 
G1 X24.274 Y28.699 ;extruding 
G1 X24.708 Y28.248 ;extruding 
G1 X24.760 Y28.163 ;extruding 
G1 X25.068 Y28.687 ;extruding 
G1 X25.819 Y29.234 ;extruding 
G1 X26.737 Y29.440 ;extruding 
G1 X27.610 Y29.323 ;extruding 
G1 X28.307 Y28.943 ;extruding 
G1 X28.810 Y28.374 ;extruding 
G1 X28.877 Y28.220 ;extruding 
G1 X29.329 Y28.742 ;extruding 
G1 X29.829 Y29.096 ;extruding 
G1 X30.341 Y29.324 ;extruding 
G1 X30.864 Y29.471 ;extruding 
G1 X31.424 Y29.548 ;extruding 
G1 X31.859 Y29.562 ;extruding 
G1 X32.452 Y29.529 ;extruding 
G1 X33.151 Y29.375 ;extruding 
G1 X33.741 Y29.126 ;extruding 
G1 X34.159 Y28.841 ;extruding 
G1 X34.548 Y29.157 ;extruding 
G1 X35.140 Y29.380 ;extruding 
G1 X35.711 Y29.427 ;extruding 
G1 X36.214 Y29.380 ;extruding 
G1 X36.998 Y29.388 ;extruding 
G1 X37.656 Y29.354 ;extruding 
G1 X38.412 Y29.232 ;extruding 
G1 X38.904 Y29.066 ;extruding 
G1 X39.469 Y29.501 ;extruding 
G1 X39.965 Y29.722 ;extruding 
G1 X40.447 Y29.840 ;extruding 
G1 X40.942 Y29.874 ;extruding 
G1 X41.438 Y29.820 ;extruding 
G1 X41.959 Y29.667 ;extruding 
G1 X42.351 Y29.448 ;extruding 
G1 X42.484 Y29.521 ;extruding 
G1 X43.520 Y29.622 ;extruding 
G1 X44.118 Y29.348 ;extruding 
FILEWRITE $hFile"\x05\x02\x30\x34\x44\x49\x20\x20\x43\x46\x03"
G1 X44.281 Y29.731 ;not extruding 
G1 X43.817 Y30.263 ;not extruding 
G1 X41.484 Y30.373 ;not extruding 
G1 X40.450 Y30.355 ;not extruding 
G1 X38.643 Y29.946 ;not extruding 
G1 X35.487 Y29.987 ;not extruding 
G1 X34.185 Y29.703 ;not extruding 
G1 X33.104 Y29.903 ;not extruding 
G1 X31.555 Y29.927 ;not extruding 
G1 X29.994 Y29.716 ;not extruding 
G1 X28.955 Y29.382 ;not extruding 
G1 X27.522 Y29.735 ;not extruding 
G1 X25.988 Y29.649 ;not extruding 
G1 X24.691 Y29.201 ;not extruding 
G1 X24.970 Y26.393 ;not extruding 
G1 X24.583 Y25.061 ;not extruding 
FILEWRITE $hFile"\x05\x02\x30\x34\x44\x49\x20\x20\x43\x46\x03"
DWELL 0.15
G1 X24.358 Y24.826 ;extruding 
G1 X24.031 Y24.678 ;extruding 
G1 X24.312 Y24.463 ;extruding 
G1 X24.580 Y24.511 ;extruding 
G1 X24.583 Y24.974 ;extruding 
FILEWRITE $hFile"\x05\x02\x30\x34\x44\x49\x20\x20\x43\x46\x03"
G1 X24.970 Y26.393 ;not extruding 
G1 X24.691 Y29.201 ;not extruding 
G1 X25.988 Y29.649 ;not extruding 
G1 X27.522 Y29.735 ;not extruding 
G1 X28.955 Y29.382 ;not extruding 
G1 X28.826 Y26.628 ;not extruding 
G1 X29.169 Y25.154 ;not extruding 
FILEWRITE $hFile"\x05\x02\x30\x34\x44\x49\x20\x20\x43\x46\x03"
DWELL 0.15
G1 X29.166 Y24.457 ;extruding 
G1 X29.181 Y24.456 ;extruding 
G1 X29.188 Y24.839 ;extruding 
G1 X29.275 Y25.088 ;extruding 
G1 X29.243 Y25.108 ;extruding 
FILEWRITE $hFile"\x05\x02\x30\x34\x44\x49\x20\x20\x43\x46\x03"
G1 X26.755 Y29.042 ;not extruding 
FILEWRITE $hFile"\x05\x02\x30\x34\x44\x49\x20\x20\x43\x46\x03"
DWELL 0.15
G1 X27.486 Y28.944 ;extruding 
G1 X28.058 Y28.631 ;extruding 
G1 X28.475 Y28.161 ;extruding 
G1 X28.696 Y27.650 ;extruding 
G1 X28.785 Y27.152 ;extruding 
G1 X28.772 Y24.104 ;extruding 
G1 X29.174 Y24.062 ;extruding 
G1 X29.636 Y23.917 ;extruding 
G1 X29.568 Y24.190 ;extruding 
G1 X29.579 Y24.769 ;extruding 
G1 X29.749 Y25.254 ;extruding 
G1 X29.435 Y25.451 ;extruding 
G1 X29.021 Y26.043 ;extruding 
G1 X28.870 Y26.775 ;extruding 
G1 X28.947 Y27.401 ;extruding 
G1 X29.211 Y28.006 ;extruding 
G1 X29.594 Y28.449 ;extruding 
G1 X30.025 Y28.753 ;extruding 
G1 X30.474 Y28.954 ;extruding 
G1 X30.944 Y29.086 ;extruding 
G1 X31.457 Y29.156 ;extruding 
G1 X31.855 Y29.169 ;extruding 
G1 X32.398 Y29.139 ;extruding 
G1 X33.032 Y29.000 ;extruding 
G1 X33.552 Y28.779 ;extruding 
G1 X34.122 Y28.391 ;extruding 
G1 X34.203 Y28.304 ;extruding 
G1 X34.285 Y28.438 ;extruding 
G1 X34.746 Y28.812 ;extruding 
G1 X35.227 Y28.993 ;extruding 
G1 X35.709 Y29.033 ;extruding 
G1 X36.198 Y28.987 ;extruding 
G1 X36.990 Y28.995 ;extruding 
G1 X37.615 Y28.963 ;extruding 
G1 X38.317 Y28.849 ;extruding 
G1 X38.947 Y28.637 ;extruding 
G1 X39.018 Y28.597 ;extruding 
G1 X39.207 Y28.816 ;extruding 
G1 X39.668 Y29.160 ;extruding 
G1 X40.093 Y29.349 ;extruding 
G1 X40.508 Y29.451 ;extruding 
G1 X40.934 Y29.480 ;extruding 
G1 X41.361 Y29.433 ;extruding 
G1 X41.806 Y29.302 ;extruding 
G1 X42.342 Y28.994 ;extruding 
G1 X42.603 Y29.138 ;extruding 
G1 X43.453 Y29.221 ;extruding 
G1 X44.193 Y28.882 ;extruding 
G1 X44.229 Y28.845 ;extruding 
G1 X44.475 Y29.029 ;extruding 
G1 X45.051 Y29.205 ;extruding 
G1 X44.943 Y29.625 ;extruding 
G1 X45.061 Y30.374 ;extruding 
G1 X45.415 Y31.043 ;extruding 
G1 X45.799 Y31.361 ;extruding 
G1 X44.821 Y31.445 ;extruding 
G1 X43.941 Y31.459 ;extruding 
G1 X43.294 Y31.434 ;extruding 
G1 X19.977 Y29.991 ;extruding 
G1 X19.784 Y29.960 ;extruding 
G1 X19.707 Y29.918 ;extruding 
G1 X19.638 Y29.817 ;extruding 
G1 X19.606 Y29.692 ;extruding 
G1 X19.599 Y28.571 ;extruding 
G1 X20.023 Y28.814 ;extruding 
G1 X20.401 Y28.963 ;extruding 
G1 X20.798 Y29.073 ;extruding 
G1 X21.189 Y29.139 ;extruding 
G1 X21.752 Y29.169 ;extruding 
G1 X22.294 Y29.133 ;extruding 
G1 X22.801 Y29.035 ;extruding 
G1 X23.275 Y28.866 ;extruding 
G1 X23.615 Y28.687 ;extruding 
G1 X24.016 Y28.400 ;extruding 
G1 X24.395 Y28.007 ;extruding 
G1 X24.748 Y27.429 ;extruding 
G1 X24.973 Y26.646 ;extruding 
G1 X24.693 Y25.742 ;extruding 
G1 X24.127 Y25.153 ;extruding 
G1 X23.454 Y24.848 ;extruding 
G1 X22.859 Y24.779 ;extruding 
G1 X22.321 Y24.870 ;extruding 
G1 X21.924 Y25.050 ;extruding 
G1 X21.667 Y25.241 ;extruding 
G1 X21.620 Y24.969 ;extruding 
G1 X21.605 Y24.613 ;extruding 
G1 X21.623 Y24.296 ;extruding 
G1 X21.665 Y24.063 ;extruding 
G1 X22.137 Y24.330 ;extruding 
G1 X22.635 Y24.488 ;extruding 
G1 X23.218 Y24.519 ;extruding 
G1 X23.842 Y24.328 ;extruding 
G1 X24.227 Y24.033 ;extruding 
G1 X24.260 Y24.055 ;extruding 
G1 X24.889 Y24.167 ;extruding 
G1 X24.971 Y24.158 ;extruding 
G1 X24.985 Y26.577 ;extruding 
G1 X24.938 Y27.360 ;extruding 
G1 X25.064 Y27.905 ;extruding 
G1 X25.365 Y28.418 ;extruding 
G1 X25.984 Y28.869 ;extruding 
G1 X26.670 Y29.023 ;extruding 
FILEWRITE $hFile"\x05\x02\x30\x34\x44\x49\x20\x20\x43\x46\x03"
G1 X26.047 Y28.514 ;not extruding 
G1 X25.988 Y29.649 ;not extruding 
G1 X27.522 Y29.735 ;not extruding 
G1 X28.955 Y29.382 ;not extruding 
G1 X29.994 Y29.716 ;not extruding 
G1 X31.555 Y29.927 ;not extruding 
G1 X33.104 Y29.903 ;not extruding 
G1 X34.185 Y29.703 ;not extruding 
G1 X35.487 Y29.987 ;not extruding 
G1 X38.643 Y29.946 ;not extruding 
G1 X40.450 Y30.355 ;not extruding 
G1 X43.817 Y30.263 ;not extruding 
G1 X44.653 Y30.863 ;not extruding 
G1 X46.169 Y31.470 ;not extruding 
G1 X47.370 Y31.397 ;not extruding 
G1 X48.471 Y31.025 ;not extruding 
G1 X49.748 Y30.083 ;not extruding 
G1 X50.426 Y29.370 ;not extruding 
G1 X50.235 Y29.592 ;not extruding 
FILEWRITE $hFile"\x05\x02\x30\x34\x44\x49\x20\x20\x43\x46\x03"
DWELL 0.15
G1 X50.402 Y29.165 ;extruding 
G1 X50.505 Y29.273 ;extruding 
G1 X50.695 Y29.347 ;extruding 
G1 X50.313 Y29.553 ;extruding 
FILEWRITE $hFile"\x05\x02\x30\x34\x44\x49\x20\x20\x43\x46\x03"
G1 X50.261 Y28.450 ;not extruding 
FILEWRITE $hFile"\x05\x02\x30\x34\x44\x49\x20\x20\x43\x46\x03"
DWELL 0.15
G1 X50.729 Y28.938 ;extruding 
G1 X51.308 Y29.165 ;extruding 
G1 X51.675 Y29.211 ;extruding 
G1 X50.695 Y29.800 ;extruding 
G1 X49.922 Y30.189 ;extruding 
G1 X49.404 Y30.409 ;extruding 
G1 X49.548 Y30.178 ;extruding 
G1 X49.722 Y29.825 ;extruding 
G1 X50.229 Y28.531 ;extruding 
FILEWRITE $hFile"\x05\x02\x30\x34\x44\x49\x20\x20\x43\x46\x03"
G1 X46.809 Y31.348 ;not extruding 
FILEWRITE $hFile"\x05\x02\x30\x34\x44\x49\x20\x20\x43\x46\x03"
DWELL 0.15
G1 X47.373 Y31.304 ;extruding 
G1 X47.944 Y31.132 ;extruding 
G1 X48.345 Y30.934 ;extruding 
G1 X48.693 Y30.672 ;extruding 
G1 X48.976 Y30.353 ;extruding 
G1 X49.205 Y29.986 ;extruding 
G1 X49.362 Y29.666 ;extruding 
G1 X50.031 Y27.960 ;extruding 
G1 X50.280 Y27.252 ;extruding 
G1 X50.304 Y27.582 ;extruding 
G1 X50.508 Y28.140 ;extruding 
G1 X50.953 Y28.604 ;extruding 
G1 X51.406 Y28.782 ;extruding 
G1 X51.736 Y28.823 ;extruding 
G1 X52.364 Y28.792 ;extruding 
G1 X52.922 Y28.793 ;extruding 
G1 X51.996 Y29.472 ;extruding 
G1 X51.501 Y29.788 ;extruding 
G1 X50.881 Y30.146 ;extruding 
G1 X50.087 Y30.546 ;extruding 
G1 X49.221 Y30.913 ;extruding 
G1 X48.351 Y31.215 ;extruding 
G1 X47.461 Y31.461 ;extruding 
G1 X46.548 Y31.650 ;extruding 
G1 X45.777 Y31.761 ;extruding 
G1 X44.840 Y31.838 ;extruding 
G1 X43.937 Y31.852 ;extruding 
G1 X43.274 Y31.826 ;extruding 
G1 X19.933 Y30.382 ;extruding 
G1 X19.687 Y30.342 ;extruding 
G1 X19.531 Y30.274 ;extruding 
G1 X19.410 Y30.177 ;extruding 
G1 X19.273 Y29.965 ;extruding 
G1 X19.216 Y29.741 ;extruding 
G1 X19.207 Y27.754 ;extruding 
G1 X19.669 Y28.158 ;extruding 
G1 X20.194 Y28.460 ;extruding 
G1 X20.526 Y28.591 ;extruding 
G1 X20.883 Y28.690 ;extruding 
G1 X21.232 Y28.748 ;extruding 
G1 X21.749 Y28.776 ;extruding 
G1 X22.243 Y28.743 ;extruding 
G1 X22.697 Y28.655 ;extruding 
G1 X23.117 Y28.505 ;extruding 
G1 X23.409 Y28.352 ;extruding 
G1 X23.759 Y28.102 ;extruding 
G1 X24.082 Y27.766 ;extruding 
G1 X24.385 Y27.270 ;extruding 
G1 X24.563 Y26.650 ;extruding 
G1 X24.345 Y25.947 ;extruding 
G1 X23.897 Y25.479 ;extruding 
G1 X23.348 Y25.231 ;extruding 
G1 X22.869 Y25.176 ;extruding 
G1 X22.436 Y25.249 ;extruding 
G1 X22.125 Y25.390 ;extruding 
G1 X21.871 Y25.580 ;extruding 
G1 X21.768 Y25.700 ;extruding 
G1 X21.642 Y25.707 ;extruding 
G1 X21.461 Y25.646 ;extruding 
G1 X21.361 Y25.539 ;extruding 
G1 X21.264 Y25.257 ;extruding 
G1 X21.228 Y25.005 ;extruding 
G1 X21.212 Y24.610 ;extruding 
G1 X21.232 Y24.254 ;extruding 
G1 X21.270 Y24.013 ;extruding 
G1 X21.361 Y23.757 ;extruding 
G1 X21.446 Y23.653 ;extruding 
G1 X21.555 Y23.604 ;extruding 
G1 X21.634 Y23.595 ;extruding 
G1 X22.294 Y23.968 ;extruding 
G1 X22.706 Y24.098 ;extruding 
G1 X23.170 Y24.123 ;extruding 
G1 X23.660 Y23.973 ;extruding 
G1 X24.040 Y23.682 ;extruding 
G1 X24.162 Y23.523 ;extruding 
G1 X24.407 Y23.682 ;extruding 
G1 X24.903 Y23.770 ;extruding 
G1 X25.366 Y23.722 ;extruding 
G1 X25.378 Y26.588 ;extruding 
G1 X25.333 Y27.327 ;extruding 
G1 X25.433 Y27.758 ;extruding 
G1 X25.662 Y28.149 ;extruding 
G1 X26.150 Y28.504 ;extruding 
G1 X26.772 Y28.643 ;extruding 
G1 X27.361 Y28.564 ;extruding 
G1 X27.810 Y28.319 ;extruding 
G1 X28.139 Y27.947 ;extruding 
G1 X28.318 Y27.536 ;extruding 
G1 X28.393 Y27.118 ;extruding 
G1 X28.378 Y23.720 ;extruding 
G1 X28.636 Y23.724 ;extruding 
G1 X29.094 Y23.675 ;extruding 
G1 X29.524 Y23.541 ;extruding 
G1 X29.698 Y23.408 ;extruding 
G1 X29.828 Y23.561 ;extruding 
G1 X30.098 Y23.751 ;extruding 
G1 X30.067 Y23.813 ;extruding 
G1 X29.962 Y24.234 ;extruding 
G1 X29.971 Y24.699 ;extruding 
G1 X30.151 Y25.212 ;extruding 
G1 X30.349 Y25.401 ;extruding 
G1 X30.218 Y25.424 ;extruding 
G1 X29.711 Y25.742 ;extruding 
G1 X29.389 Y26.202 ;extruding 
G1 X29.267 Y26.791 ;extruding 
G1 X29.330 Y27.297 ;extruding 
G1 X29.547 Y27.794 ;extruding 
G1 X29.860 Y28.156 ;extruding 
G1 X30.220 Y28.410 ;extruding 
G1 X30.608 Y28.584 ;extruding 
G1 X31.025 Y28.700 ;extruding 
G1 X31.490 Y28.765 ;extruding 
G1 X31.850 Y28.776 ;extruding 
G1 X32.345 Y28.749 ;extruding 
G1 X32.912 Y28.624 ;extruding 
G1 X33.363 Y28.433 ;extruding 
G1 X33.864 Y28.092 ;extruding 
G1 X34.297 Y27.617 ;extruding 
G1 X34.346 Y27.785 ;extruding 
G1 X34.585 Y28.176 ;extruding 
G1 X34.944 Y28.467 ;extruding 
G1 X35.313 Y28.606 ;extruding 
G1 X35.707 Y28.639 ;extruding 
G1 X36.181 Y28.594 ;extruding 
G1 X36.981 Y28.602 ;extruding 
G1 X37.573 Y28.571 ;extruding 
G1 X38.222 Y28.467 ;extruding 
G1 X38.787 Y28.276 ;extruding 
G1 X39.134 Y28.081 ;extruding 
G1 X39.222 Y28.232 ;extruding 
G1 X39.477 Y28.527 ;extruding 
G1 X39.868 Y28.819 ;extruding 
G1 X40.220 Y28.976 ;extruding 
G1 X40.568 Y29.061 ;extruding 
G1 X40.926 Y29.086 ;extruding 
G1 X41.283 Y29.047 ;extruding 
G1 X41.653 Y28.938 ;extruding 
G1 X42.086 Y28.697 ;extruding 
G1 X42.287 Y28.516 ;extruding 
G1 X42.721 Y28.755 ;extruding 
G1 X43.386 Y28.820 ;extruding 
G1 X43.966 Y28.554 ;extruding 
G1 X44.214 Y28.307 ;extruding 
G1 X44.272 Y28.386 ;extruding 
G1 X44.655 Y28.674 ;extruding 
G1 X45.127 Y28.818 ;extruding 
G1 X45.609 Y28.806 ;extruding 
G1 X45.730 Y28.766 ;extruding 
G1 X45.494 Y29.059 ;extruding 
G1 X45.344 Y29.644 ;extruding 
G1 X45.439 Y30.248 ;extruding 
G1 X45.726 Y30.791 ;extruding 
G1 X46.213 Y31.194 ;extruding 
G1 X46.725 Y31.326 ;extruding 
FILEWRITE $hFile"\x05\x02\x30\x34\x44\x49\x20\x20\x43\x46\x03"
G1 X46.185 Y31.219 ;not extruding 
G1 X45.919 Y31.427 ;not extruding 
G1 X44.653 Y30.863 ;not extruding 
G1 X43.817 Y30.263 ;not extruding 
G1 X40.450 Y30.355 ;not extruding 
G1 X38.643 Y29.946 ;not extruding 
G1 X35.487 Y29.987 ;not extruding 
G1 X34.185 Y29.703 ;not extruding 
G1 X33.104 Y29.903 ;not extruding 
G1 X31.555 Y29.927 ;not extruding 
G1 X29.994 Y29.716 ;not extruding 
G1 X28.955 Y29.382 ;not extruding 
G1 X27.522 Y29.735 ;not extruding 
G1 X25.988 Y29.649 ;not extruding 
G1 X24.691 Y29.201 ;not extruding 
G1 X24.970 Y26.393 ;not extruding 
G1 X24.610 Y25.090 ;not extruding 
G1 X24.307 Y24.595 ;not extruding 
G1 X24.093 Y23.459 ;not extruding 
G1 X24.573 Y22.285 ;not extruding 
G1 X24.406 Y22.305 ;not extruding 
G1 X23.774 Y21.290 ;not extruding 
G1 X23.841 Y19.876 ;not extruding 
G1 X24.739 Y19.675 ;not extruding 
G1 X29.953 Y19.653 ;not extruding 
G1 X31.935 Y19.384 ;not extruding 
G1 X34.166 Y19.574 ;not extruding 
G1 X35.892 Y19.346 ;not extruding 
G1 X39.557 Y19.488 ;not extruding 
G1 X41.612 Y20.102 ;not extruding 
G1 X41.179 Y22.007 ;not extruding 
G1 X41.205 Y22.572 ;not extruding 
FILEWRITE $hFile"\x05\x02\x30\x34\x44\x49\x20\x20\x43\x46\x03"
DWELL 0.15
G1 X41.064 Y22.214 ;extruding 
G1 X40.679 Y21.558 ;extruding 
G1 X40.217 Y21.018 ;extruding 
G1 X39.617 Y20.539 ;extruding 
G1 X38.935 Y20.206 ;extruding 
G1 X38.214 Y20.018 ;extruding 
G1 X37.593 Y19.935 ;extruding 
G1 X35.776 Y19.893 ;extruding 
G1 X35.164 Y19.958 ;extruding 
G1 X34.376 Y20.262 ;extruding 
G1 X34.209 Y20.425 ;extruding 
G1 X34.056 Y20.307 ;extruding 
G1 X33.570 Y20.046 ;extruding 
G1 X33.151 Y19.896 ;extruding 
G1 X32.598 Y19.777 ;extruding 
G1 X31.799 Y19.729 ;extruding 
G1 X31.302 Y19.762 ;extruding 
G1 X30.753 Y19.861 ;extruding 
G1 X30.213 Y20.042 ;extruding 
G1 X29.953 Y20.177 ;extruding 
G1 X29.529 Y19.988 ;extruding 
G1 X29.038 Y19.906 ;extruding 
G1 X25.656 Y19.917 ;extruding 
G1 X24.995 Y19.868 ;extruding 
G1 X24.435 Y19.921 ;extruding 
G1 X23.810 Y20.162 ;extruding 
G1 X23.728 Y20.230 ;extruding 
G1 X23.418 Y20.061 ;extruding 
G1 X22.850 Y19.864 ;extruding 
G1 X22.248 Y19.758 ;extruding 
G1 X21.689 Y19.731 ;extruding 
G1 X20.945 Y19.791 ;extruding 
G1 X20.442 Y19.903 ;extruding 
G1 X19.995 Y20.065 ;extruding 
G1 X19.995 Y19.768 ;extruding 
G1 X43.351 Y18.321 ;extruding 
G1 X44.147 Y18.297 ;extruding 
G1 X45.089 Y18.329 ;extruding 
G1 X45.831 Y18.402 ;extruding 
G1 X46.770 Y18.556 ;extruding 
G1 X47.603 Y18.751 ;extruding 
G1 X48.527 Y19.035 ;extruding 
G1 X49.289 Y19.325 ;extruding 
G1 X50.017 Y19.657 ;extruding 
G1 X50.839 Y20.097 ;extruding 
G1 X51.644 Y20.604 ;extruding 
G1 X52.318 Y21.094 ;extruding 
G1 X52.617 Y21.344 ;extruding 
G1 X51.966 Y21.342 ;extruding 
G1 X51.571 Y21.370 ;extruding 
G1 X51.039 Y21.485 ;extruding 
G1 X50.896 Y21.555 ;extruding 
G1 X50.607 Y21.412 ;extruding 
G1 X49.856 Y21.311 ;extruding 
G1 X49.008 Y21.550 ;extruding 
G1 X48.680 Y21.809 ;extruding 
G1 X48.266 Y21.565 ;extruding 
G1 X47.764 Y21.396 ;extruding 
G1 X47.302 Y21.338 ;extruding 
G1 X46.799 Y21.366 ;extruding 
G1 X46.255 Y21.539 ;extruding 
G1 X46.044 Y21.404 ;extruding 
G1 X44.982 Y21.316 ;extruding 
G1 X44.307 Y21.607 ;extruding 
G1 X43.821 Y21.399 ;extruding 
G1 X43.168 Y21.319 ;extruding 
G1 X42.414 Y21.477 ;extruding 
G1 X41.878 Y21.768 ;extruding 
G1 X41.329 Y22.284 ;extruding 
G1 X41.239 Y22.492 ;extruding 
FILEWRITE $hFile"\x05\x02\x30\x34\x44\x49\x20\x20\x43\x46\x03"
G1 X41.163 Y24.641 ;not extruding 
FILEWRITE $hFile"\x05\x02\x30\x34\x44\x49\x20\x20\x43\x46\x03"
DWELL 0.15
G1 X41.140 Y24.037 ;extruding 
G1 X41.023 Y23.296 ;extruding 
G1 X40.911 Y22.898 ;extruding 
G1 X40.710 Y22.387 ;extruding 
G1 X40.358 Y21.787 ;extruding 
G1 X39.943 Y21.302 ;extruding 
G1 X39.406 Y20.873 ;extruding 
G1 X38.798 Y20.576 ;extruding 
G1 X38.139 Y20.404 ;extruding 
G1 X37.563 Y20.328 ;extruding 
G1 X35.792 Y20.286 ;extruding 
G1 X35.257 Y20.343 ;extruding 
G1 X34.592 Y20.600 ;extruding 
G1 X34.227 Y20.956 ;extruding 
G1 X34.159 Y20.883 ;extruding 
G1 X33.841 Y20.638 ;extruding 
G1 X33.410 Y20.405 ;extruding 
G1 X33.043 Y20.275 ;extruding 
G1 X32.545 Y20.167 ;extruding 
G1 X31.801 Y20.122 ;extruding 
G1 X31.350 Y20.153 ;extruding 
G1 X30.850 Y20.242 ;extruding 
G1 X30.367 Y20.405 ;extruding 
G1 X29.945 Y20.624 ;extruding 
G1 X29.900 Y20.584 ;extruding 
G1 X29.415 Y20.367 ;extruding 
G1 X29.007 Y20.299 ;extruding 
G1 X25.642 Y20.310 ;extruding 
G1 X24.999 Y20.262 ;extruding 
G1 X24.526 Y20.307 ;extruding 
G1 X24.012 Y20.505 ;extruding 
G1 X23.766 Y20.711 ;extruding 
G1 X23.258 Y20.422 ;extruding 
G1 X22.751 Y20.246 ;extruding 
G1 X22.204 Y20.149 ;extruding 
G1 X21.695 Y20.124 ;extruding 
G1 X21.004 Y20.180 ;extruding 
G1 X20.552 Y20.281 ;extruding 
G1 X20.139 Y20.430 ;extruding 
G1 X19.796 Y20.596 ;extruding 
G1 X19.602 Y20.720 ;extruding 
G1 X19.612 Y19.636 ;extruding 
G1 X19.673 Y19.485 ;extruding 
G1 X19.721 Y19.437 ;extruding 
G1 X19.815 Y19.399 ;extruding 
G1 X19.974 Y19.374 ;extruding 
G1 X43.333 Y17.929 ;extruding 
G1 X44.147 Y17.905 ;extruding 
G1 X45.115 Y17.937 ;extruding 
G1 X45.882 Y18.012 ;extruding 
G1 X46.847 Y18.171 ;extruding 
G1 X47.705 Y18.372 ;extruding 
G1 X48.655 Y18.663 ;extruding 
G1 X49.440 Y18.963 ;extruding 
G1 X50.191 Y19.304 ;extruding 
G1 X51.036 Y19.757 ;extruding 
G1 X51.864 Y20.278 ;extruding 
G1 X52.560 Y20.784 ;extruding 
G1 X53.297 Y21.401 ;extruding 
G1 X53.650 Y21.738 ;extruding 
G1 X51.979 Y21.735 ;extruding 
G1 X51.626 Y21.760 ;extruding 
G1 X51.170 Y21.859 ;extruding 
G1 X50.896 Y21.993 ;extruding 
G1 X50.491 Y21.792 ;extruding 
G1 X49.885 Y21.711 ;extruding 
G1 X49.190 Y21.907 ;extruding 
G1 X48.713 Y22.283 ;extruding 
G1 X48.672 Y22.335 ;extruding 
G1 X48.485 Y22.150 ;extruding 
G1 X48.102 Y21.924 ;extruding 
G1 X47.676 Y21.781 ;extruding 
G1 X47.288 Y21.732 ;extruding 
G1 X46.870 Y21.755 ;extruding 
G1 X46.302 Y21.936 ;extruding 
G1 X46.235 Y21.992 ;extruding 
G1 X45.914 Y21.787 ;extruding 
G1 X45.048 Y21.716 ;extruding 
G1 X44.357 Y22.013 ;extruding 
G1 X44.304 Y22.058 ;extruding 
G1 X44.252 Y22.011 ;extruding 
G1 X43.718 Y21.782 ;extruding 
G1 X43.185 Y21.716 ;extruding 
G1 X42.550 Y21.850 ;extruding 
G1 X42.110 Y22.088 ;extruding 
G1 X41.657 Y22.514 ;extruding 
G1 X41.343 Y23.246 ;extruding 
G1 X41.383 Y23.976 ;extruding 
G1 X41.545 Y24.458 ;extruding 
G1 X41.694 Y24.758 ;extruding 
G1 X41.334 Y24.652 ;extruding 
G1 X41.250 Y24.647 ;extruding 
FILEWRITE $hFile"\x05\x02\x30\x34\x44\x49\x20\x20\x43\x46\x03"
G1 X42.687 Y22.222 ;not extruding 
FILEWRITE $hFile"\x05\x02\x30\x34\x44\x49\x20\x20\x43\x46\x03"
DWELL 0.15
G1 X42.342 Y22.409 ;extruding 
G1 X41.986 Y22.745 ;extruding 
G1 X41.740 Y23.316 ;extruding 
G1 X41.772 Y23.901 ;extruding 
G1 X41.909 Y24.307 ;extruding 
G1 X42.039 Y24.570 ;extruding 
G1 X42.532 Y25.436 ;extruding 
G1 X42.379 Y25.673 ;extruding 
G1 X42.241 Y25.526 ;extruding 
G1 X41.955 Y25.313 ;extruding 
G1 X41.633 Y25.150 ;extruding 
G1 X41.264 Y25.041 ;extruding 
G1 X40.757 Y25.013 ;extruding 
G1 X40.771 Y24.663 ;extruding 
G1 X40.748 Y24.075 ;extruding 
G1 X40.638 Y23.380 ;extruding 
G1 X40.539 Y23.023 ;extruding 
G1 X40.356 Y22.559 ;extruding 
G1 X40.037 Y22.016 ;extruding 
G1 X39.668 Y21.585 ;extruding 
G1 X39.195 Y21.207 ;extruding 
G1 X38.661 Y20.947 ;extruding 
G1 X38.063 Y20.790 ;extruding 
G1 X37.532 Y20.720 ;extruding 
G1 X35.808 Y20.680 ;extruding 
G1 X35.350 Y20.728 ;extruding 
G1 X34.809 Y20.937 ;extruding 
G1 X34.336 Y21.398 ;extruding 
G1 X34.272 Y21.628 ;extruding 
G1 X34.191 Y21.495 ;extruding 
G1 X33.893 Y21.174 ;extruding 
G1 X33.627 Y20.968 ;extruding 
G1 X33.250 Y20.765 ;extruding 
G1 X32.936 Y20.653 ;extruding 
G1 X32.491 Y20.558 ;extruding 
G1 X31.802 Y20.516 ;extruding 
G1 X31.398 Y20.543 ;extruding 
G1 X30.948 Y20.624 ;extruding 
G1 X30.521 Y20.767 ;extruding 
G1 X30.125 Y20.973 ;extruding 
G1 X29.919 Y21.129 ;extruding 
G1 X29.684 Y20.918 ;extruding 
G1 X29.300 Y20.746 ;extruding 
G1 X28.975 Y20.692 ;extruding 
G1 X25.628 Y20.703 ;extruding 
G1 X25.003 Y20.656 ;extruding 
G1 X24.617 Y20.693 ;extruding 
G1 X24.214 Y20.848 ;extruding 
G1 X23.836 Y21.165 ;extruding 
G1 X23.797 Y21.230 ;extruding 
G1 X23.492 Y20.996 ;extruding 
G1 X23.099 Y20.782 ;extruding 
G1 X22.652 Y20.627 ;extruding 
G1 X22.160 Y20.540 ;extruding 
G1 X21.701 Y20.518 ;extruding 
G1 X21.063 Y20.569 ;extruding 
G1 X20.662 Y20.659 ;extruding 
G1 X20.292 Y20.793 ;extruding 
G1 X19.988 Y20.939 ;extruding 
G1 X19.603 Y21.186 ;extruding 
G1 X19.334 Y21.410 ;extruding 
G1 X19.209 Y21.543 ;extruding 
G1 X19.210 Y19.688 ;extruding 
G1 X19.249 Y19.469 ;extruding 
G1 X19.328 Y19.292 ;extruding 
G1 X19.427 Y19.170 ;extruding 
G1 X19.557 Y19.077 ;extruding 
G1 X19.713 Y19.018 ;extruding 
G1 X19.931 Y18.983 ;extruding 
G1 X43.315 Y17.536 ;extruding 
G1 X44.148 Y17.512 ;extruding 
G1 X45.141 Y17.545 ;extruding 
G1 X45.933 Y17.623 ;extruding 
G1 X46.923 Y17.786 ;extruding 
G1 X47.808 Y17.993 ;extruding 
G1 X48.782 Y18.292 ;extruding 
G1 X49.591 Y18.600 ;extruding 
G1 X50.365 Y18.952 ;extruding 
G1 X51.234 Y19.417 ;extruding 
G1 X52.085 Y19.953 ;extruding 
G1 X52.802 Y20.475 ;extruding 
G1 X53.559 Y21.108 ;extruding 
G1 X54.210 Y21.731 ;extruding 
G1 X54.673 Y22.233 ;extruding 
G1 X54.264 Y22.132 ;extruding 
G1 X51.993 Y22.128 ;extruding 
G1 X51.682 Y22.150 ;extruding 
G1 X51.300 Y22.232 ;extruding 
G1 X50.872 Y22.455 ;extruding 
G1 X50.805 Y22.386 ;extruding 
G1 X50.374 Y22.173 ;extruding 
G1 X49.913 Y22.111 ;extruding 
G1 X49.371 Y22.264 ;extruding 
G1 X48.994 Y22.562 ;extruding 
G1 X48.741 Y22.886 ;extruding 
G1 X48.675 Y23.003 ;extruding 
G1 X48.569 Y22.786 ;extruding 
G1 X48.243 Y22.463 ;extruding 
G1 X47.938 Y22.283 ;extruding 
G1 X47.589 Y22.166 ;extruding 
G1 X47.274 Y22.126 ;extruding 
G1 X46.941 Y22.145 ;extruding 
G1 X46.495 Y22.287 ;extruding 
G1 X46.267 Y22.478 ;extruding 
G1 X45.785 Y22.170 ;extruding 
G1 X45.113 Y22.115 ;extruding 
G1 X44.565 Y22.352 ;extruding 
G1 X44.293 Y22.578 ;extruding 
G1 X44.037 Y22.346 ;extruding 
G1 X43.615 Y22.165 ;extruding 
G1 X43.202 Y22.114 ;extruding 
G1 X42.772 Y22.204 ;extruding 
FILEWRITE $hFile"\x05\x02\x30\x34\x44\x49\x20\x20\x43\x46\x03"
G1 X43.286 Y22.036 ;not extruding 
G1 X42.279 Y19.930 ;not extruding 
G1 X41.612 Y20.102 ;not extruding 
G1 X38.761 Y19.380 ;not extruding 
G1 X35.892 Y19.346 ;not extruding 
G1 X34.166 Y19.574 ;not extruding 
G1 X31.935 Y19.384 ;not extruding 
G1 X29.953 Y19.653 ;not extruding 
G1 X24.739 Y19.675 ;not extruding 
G1 X23.841 Y19.876 ;not extruding 
G1 X23.774 Y21.290 ;not extruding 
G1 X24.406 Y22.305 ;not extruding 
G1 X24.573 Y22.285 ;not extruding 
G1 X24.093 Y23.459 ;not extruding 
G1 X24.307 Y24.595 ;not extruding 
G1 X24.610 Y25.090 ;not extruding 
G1 X24.970 Y26.393 ;not extruding 
G1 X24.691 Y29.201 ;not extruding 
G1 X25.988 Y29.649 ;not extruding 
G1 X27.522 Y29.735 ;not extruding 
G1 X28.955 Y29.382 ;not extruding 
G1 X29.994 Y29.716 ;not extruding 
G1 X31.555 Y29.927 ;not extruding 
G1 X33.104 Y29.903 ;not extruding 
G1 X34.185 Y29.703 ;not extruding 
G1 X35.487 Y29.987 ;not extruding 
G1 X38.643 Y29.946 ;not extruding 
G1 X40.450 Y30.355 ;not extruding 
G1 X43.817 Y30.263 ;not extruding 
G1 X45.211 Y28.927 ;not extruding 
G1 X45.772 Y28.758 ;not extruding 
G1 X45.726 Y28.093 ;not extruding 
G1 X46.225 Y28.515 ;not extruding 
G1 X46.834 Y27.873 ;not extruding 
G1 X46.932 Y27.392 ;not extruding 
G1 X46.824 Y26.848 ;not extruding 
G1 X46.181 Y25.378 ;not extruding 
G1 X45.983 Y25.383 ;not extruding 
FILEWRITE $hFile"\x05\x02\x30\x34\x44\x49\x20\x20\x43\x46\x03"
DWELL 0.15
G1 X46.185 Y25.041 ;extruding 
G1 X46.851 Y26.824 ;extruding 
G1 X47.097 Y27.389 ;extruding 
G1 X46.947 Y27.702 ;extruding 
G1 X46.706 Y28.297 ;extruding 
G1 X46.419 Y28.381 ;extruding 
G1 X46.549 Y28.277 ;extruding 
G1 X46.793 Y27.788 ;extruding 
G1 X46.854 Y27.302 ;extruding 
G1 X46.783 Y26.827 ;extruding 
G1 X46.581 Y26.378 ;extruding 
G1 X46.028 Y25.457 ;extruding 
FILEWRITE $hFile"\x05\x02\x30\x34\x44\x49\x20\x20\x43\x46\x03"
G1 X46.181 Y25.378 ;not extruding 
G1 X46.824 Y26.848 ;not extruding 
G1 X46.932 Y27.392 ;not extruding 
G1 X46.834 Y27.873 ;not extruding 
G1 X46.225 Y28.515 ;not extruding 
G1 X45.726 Y28.093 ;not extruding 
G1 X45.772 Y28.758 ;not extruding 
G1 X45.211 Y28.927 ;not extruding 
G1 X43.817 Y30.263 ;not extruding 
G1 X40.450 Y30.355 ;not extruding 
G1 X38.643 Y29.946 ;not extruding 
G1 X35.487 Y29.987 ;not extruding 
G1 X34.185 Y29.703 ;not extruding 
G1 X33.104 Y29.903 ;not extruding 
G1 X31.555 Y29.927 ;not extruding 
G1 X29.994 Y29.716 ;not extruding 
G1 X28.955 Y29.382 ;not extruding 
G1 X27.522 Y29.735 ;not extruding 
G1 X25.988 Y29.649 ;not extruding 
G1 X24.691 Y29.201 ;not extruding 
G1 X24.970 Y26.393 ;not extruding 
G1 X24.610 Y25.090 ;not extruding 
G1 X24.307 Y24.595 ;not extruding 
G1 X24.093 Y23.459 ;not extruding 
G1 X24.573 Y22.285 ;not extruding 
G1 X24.406 Y22.305 ;not extruding 
G1 X23.774 Y21.290 ;not extruding 
G1 X23.841 Y19.876 ;not extruding 
G1 X24.739 Y19.675 ;not extruding 
G1 X29.953 Y19.653 ;not extruding 
G1 X31.935 Y19.384 ;not extruding 
G1 X34.166 Y19.574 ;not extruding 
G1 X35.892 Y19.346 ;not extruding 
G1 X38.761 Y19.380 ;not extruding 
G1 X41.612 Y20.102 ;not extruding 
G1 X42.279 Y19.930 ;not extruding 
G1 X45.648 Y19.842 ;not extruding 
G1 X47.280 Y19.970 ;not extruding 
G1 X48.485 Y20.366 ;not extruding 
G1 X48.882 Y20.303 ;not extruding 
G1 X50.527 Y20.629 ;not extruding 
G1 X51.019 Y20.948 ;not extruding 
G1 X50.834 Y22.520 ;not extruding 
G1 X51.250 Y23.717 ;not extruding 
G1 X51.076 Y24.974 ;not extruding 
G1 X51.173 Y25.133 ;not extruding 
G1 X50.628 Y26.173 ;not extruding 
G1 X50.757 Y25.894 ;not extruding 
FILEWRITE $hFile"\x05\x02\x30\x34\x44\x49\x20\x20\x43\x46\x03"
DWELL 0.15
G1 X51.082 Y24.969 ;extruding 
G1 X51.221 Y25.044 ;extruding 
G1 X51.347 Y25.081 ;extruding 
G1 X50.808 Y25.824 ;extruding 
FILEWRITE $hFile"\x05\x02\x30\x34\x44\x49\x20\x20\x43\x46\x03"
G1 X50.628 Y26.173 ;not extruding 
G1 X55.173 Y25.637 ;not extruding 
FILEWRITE $hFile"\x05\x02\x30\x34\x44\x49\x20\x20\x43\x46\x03"
DWELL 0.15
G1 X55.699 Y24.858 ;extruding 
G1 X55.856 Y24.504 ;extruding 
G1 X55.965 Y24.684 ;extruding 
G1 X55.751 Y25.047 ;extruding 
G1 X55.356 Y25.644 ;extruding 
G1 X55.294 Y25.728 ;extruding 
G1 X55.242 Y25.689 ;extruding 
FILEWRITE $hFile"\x05\x02\x30\x34\x44\x49\x20\x20\x43\x46\x03"
G1 X54.560 Y25.821 ;not extruding 
FILEWRITE $hFile"\x05\x02\x30\x34\x44\x49\x20\x20\x43\x46\x03"
DWELL 0.15
G1 X55.068 Y25.106 ;extruding 
G1 X55.353 Y24.670 ;extruding 
G1 X55.524 Y24.285 ;extruding 
G1 X55.612 Y23.819 ;extruding 
G1 X55.587 Y23.377 ;extruding 
G1 X55.937 Y23.879 ;extruding 
G1 X56.342 Y24.548 ;extruding 
G1 X56.376 Y24.675 ;extruding 
G1 X56.336 Y24.828 ;extruding 
G1 X56.085 Y25.255 ;extruding 
G1 X55.678 Y25.869 ;extruding 
G1 X55.353 Y26.309 ;extruding 
G1 X55.284 Y26.214 ;extruding 
G1 X54.969 Y25.975 ;extruding 
G1 X54.641 Y25.852 ;extruding 
FILEWRITE $hFile"\x05\x02\x30\x34\x44\x49\x20\x20\x43\x46\x03"
G1 X54.624 Y22.625 ;not extruding 
FILEWRITE $hFile"\x05\x02\x30\x34\x44\x49\x20\x20\x43\x46\x03"
DWELL 0.15
G1 X54.216 Y22.525 ;extruding 
G1 X52.006 Y22.521 ;extruding 
G1 X51.737 Y22.539 ;extruding 
G1 X51.430 Y22.606 ;extruding 
G1 X51.129 Y22.754 ;extruding 
G1 X50.875 Y23.019 ;extruding 
G1 X50.571 Y22.709 ;extruding 
G1 X50.258 Y22.554 ;extruding 
G1 X49.941 Y22.511 ;extruding 
G1 X49.553 Y22.621 ;extruding 
G1 X49.274 Y22.841 ;extruding 
G1 X49.068 Y23.104 ;extruding 
G1 X48.940 Y23.332 ;extruding 
G1 X48.797 Y23.676 ;extruding 
G1 X48.643 Y24.121 ;extruding 
G1 X48.423 Y23.380 ;extruding 
G1 X48.245 Y23.018 ;extruding 
G1 X48.001 Y22.776 ;extruding 
G1 X47.774 Y22.643 ;extruding 
G1 X47.501 Y22.551 ;extruding 
G1 X47.260 Y22.520 ;extruding 
G1 X47.013 Y22.534 ;extruding 
G1 X46.688 Y22.637 ;extruding 
G1 X46.418 Y22.864 ;extruding 
G1 X46.273 Y23.112 ;extruding 
G1 X46.050 Y22.806 ;extruding 
G1 X45.656 Y22.554 ;extruding 
G1 X45.179 Y22.515 ;extruding 
G1 X44.772 Y22.690 ;extruding 
G1 X44.507 Y22.910 ;extruding 
G1 X44.283 Y23.180 ;extruding 
G1 X44.133 Y22.963 ;extruding 
G1 X43.822 Y22.681 ;extruding 
G1 X43.511 Y22.548 ;extruding 
G1 X43.219 Y22.512 ;extruding 
G1 X42.824 Y22.595 ;extruding 
G1 X42.574 Y22.730 ;extruding 
G1 X42.314 Y22.975 ;extruding 
G1 X42.137 Y23.387 ;extruding 
G1 X42.161 Y23.826 ;extruding 
G1 X42.273 Y24.157 ;extruding 
G1 X42.863 Y25.224 ;extruding 
G1 X43.008 Y25.443 ;extruding 
G1 X42.772 Y25.777 ;extruding 
G1 X42.400 Y26.429 ;extruding 
G1 X42.336 Y26.278 ;extruding 
G1 X42.178 Y26.033 ;extruding 
G1 X41.978 Y25.820 ;extruding 
G1 X41.747 Y25.648 ;extruding 
G1 X41.488 Y25.516 ;extruding 
G1 X41.194 Y25.430 ;extruding 
G1 X40.807 Y25.403 ;extruding 
G1 X40.493 Y25.448 ;extruding 
G1 X40.297 Y25.514 ;extruding 
G1 X40.362 Y25.077 ;extruding 
G1 X40.378 Y24.663 ;extruding 
G1 X40.357 Y24.113 ;extruding 
G1 X40.254 Y23.463 ;extruding 
G1 X40.166 Y23.148 ;extruding 
G1 X40.001 Y22.731 ;extruding 
G1 X39.716 Y22.245 ;extruding 
G1 X39.394 Y21.869 ;extruding 
G1 X38.983 Y21.541 ;extruding 
G1 X38.524 Y21.317 ;extruding 
G1 X37.987 Y21.176 ;extruding 
G1 X37.501 Y21.112 ;extruding 
G1 X35.824 Y21.073 ;extruding 
G1 X35.443 Y21.113 ;extruding 
G1 X35.025 Y21.274 ;extruding 
G1 X34.686 Y21.605 ;extruding 
G1 X34.559 Y22.063 ;extruding 
G1 X34.606 Y22.747 ;extruding 
G1 X34.601 Y26.341 ;extruding 
G1 X34.583 Y26.962 ;extruding 
G1 X34.613 Y27.303 ;extruding 
G1 X34.708 Y27.624 ;extruding 
G1 X34.885 Y27.914 ;extruding 
G1 X35.142 Y28.122 ;extruding 
G1 X35.400 Y28.219 ;extruding 
G1 X35.704 Y28.245 ;extruding 
G1 X36.165 Y28.201 ;extruding 
G1 X36.973 Y28.209 ;extruding 
G1 X37.532 Y28.180 ;extruding 
G1 X38.128 Y28.084 ;extruding 
G1 X38.626 Y27.916 ;extruding 
G1 X38.988 Y27.712 ;extruding 
G1 X39.294 Y27.470 ;extruding 
G1 X39.395 Y27.751 ;extruding 
G1 X39.543 Y28.003 ;extruding 
G1 X39.746 Y28.238 ;extruding 
G1 X40.068 Y28.478 ;extruding 
G1 X40.348 Y28.603 ;extruding 
G1 X40.629 Y28.672 ;extruding 
G1 X40.918 Y28.691 ;extruding 
G1 X41.206 Y28.660 ;extruding 
G1 X41.500 Y28.574 ;extruding 
G1 X41.856 Y28.375 ;extruding 
G1 X42.084 Y28.171 ;extruding 
G1 X42.262 Y27.943 ;extruding 
G1 X42.441 Y28.153 ;extruding 
G1 X42.840 Y28.372 ;extruding 
G1 X43.318 Y28.419 ;extruding 
G1 X43.739 Y28.226 ;extruding 
G1 X43.984 Y27.982 ;extruding 
G1 X44.232 Y27.628 ;extruding 
G1 X44.313 Y27.774 ;extruding 
G1 X44.555 Y28.108 ;extruding 
G1 X44.836 Y28.318 ;extruding 
G1 X45.181 Y28.423 ;extruding 
G1 X45.542 Y28.415 ;extruding 
G1 X45.895 Y28.300 ;extruding 
G1 X46.236 Y28.025 ;extruding 
G1 X46.412 Y27.673 ;extruding 
G1 X46.457 Y27.307 ;extruding 
G1 X46.402 Y26.939 ;extruding 
G1 X46.232 Y26.560 ;extruding 
G1 X45.544 Y25.402 ;extruding 
G1 X45.592 Y25.273 ;extruding 
G1 X46.263 Y24.137 ;extruding 
G1 X46.296 Y24.264 ;extruding 
G1 X46.638 Y25.114 ;extruding 
G1 X47.215 Y26.677 ;extruding 
G1 X47.516 Y27.395 ;extruding 
G1 X47.308 Y27.857 ;extruding 
G1 X47.097 Y28.410 ;extruding 
G1 X47.003 Y28.567 ;extruding 
G1 X46.921 Y28.632 ;extruding 
G1 X46.832 Y28.671 ;extruding 
G1 X46.322 Y28.818 ;extruding 
G1 X46.051 Y28.994 ;extruding 
G1 X45.853 Y29.239 ;extruding 
G1 X45.744 Y29.663 ;extruding 
G1 X45.817 Y30.122 ;extruding 
G1 X46.036 Y30.538 ;extruding 
G1 X46.396 Y30.836 ;extruding 
G1 X46.844 Y30.951 ;extruding 
G1 X47.300 Y30.916 ;extruding 
G1 X47.799 Y30.765 ;extruding 
G1 X48.138 Y30.598 ;extruding 
G1 X48.425 Y30.382 ;extruding 
G1 X48.660 Y30.117 ;extruding 
G1 X48.861 Y29.795 ;extruding 
G1 X49.002 Y29.508 ;extruding 
G1 X49.663 Y27.823 ;extruding 
G1 X50.744 Y24.747 ;extruding 
G1 X50.933 Y24.337 ;extruding 
G1 X51.071 Y24.515 ;extruding 
G1 X51.372 Y24.679 ;extruding 
G1 X51.608 Y24.749 ;extruding 
G1 X52.038 Y24.796 ;extruding 
G1 X51.052 Y26.156 ;extruding 
G1 X50.854 Y26.482 ;extruding 
G1 X50.724 Y26.798 ;extruding 
G1 X50.665 Y27.136 ;extruding 
G1 X50.691 Y27.499 ;extruding 
G1 X50.849 Y27.928 ;extruding 
G1 X51.177 Y28.270 ;extruding 
G1 X51.503 Y28.398 ;extruding 
G1 X51.751 Y28.429 ;extruding 
G1 X52.355 Y28.399 ;extruding 
G1 X53.977 Y28.404 ;extruding 
G1 X53.283 Y29.010 ;extruding 
G1 X52.810 Y29.378 ;extruding 
G1 X52.215 Y29.798 ;extruding 
G1 X51.705 Y30.124 ;extruding 
G1 X51.068 Y30.492 ;extruding 
G1 X50.252 Y30.902 ;extruding 
G1 X49.362 Y31.280 ;extruding 
G1 X48.468 Y31.590 ;extruding 
G1 X47.553 Y31.843 ;extruding 
G1 X46.616 Y32.037 ;extruding 
G1 X45.821 Y32.151 ;extruding 
G1 X44.859 Y32.230 ;extruding 
G1 X43.932 Y32.245 ;extruding 
G1 X43.254 Y32.218 ;extruding 
G1 X19.889 Y30.773 ;extruding 
G1 X19.591 Y30.724 ;extruding 
G1 X19.464 Y30.680 ;extruding 
G1 X19.209 Y30.528 ;extruding 
G1 X19.113 Y30.437 ;extruding 
G1 X18.970 Y30.241 ;extruding 
G1 X18.857 Y29.958 ;extruding 
G1 X18.813 Y29.589 ;extruding 
G1 X18.814 Y26.388 ;extruding 
G1 X18.960 Y26.748 ;extruding 
G1 X19.183 Y27.117 ;extruding 
G1 X19.364 Y27.349 ;extruding 
G1 X19.564 Y27.561 ;extruding 
G1 X19.894 Y27.834 ;extruding 
G1 X20.365 Y28.105 ;extruding 
G1 X20.650 Y28.218 ;extruding 
G1 X20.968 Y28.306 ;extruding 
G1 X21.275 Y28.357 ;extruding 
G1 X21.747 Y28.382 ;extruding 
G1 X22.193 Y28.353 ;extruding 
G1 X22.593 Y28.275 ;extruding 
G1 X22.959 Y28.145 ;extruding 
G1 X23.203 Y28.017 ;extruding 
G1 X23.501 Y27.804 ;extruding 
G1 X23.770 Y27.524 ;extruding 
G1 X24.023 Y27.110 ;extruding 
G1 X24.154 Y26.654 ;extruding 
G1 X23.998 Y26.152 ;extruding 
G1 X23.666 Y25.806 ;extruding 
G1 X23.242 Y25.614 ;extruding 
G1 X22.879 Y25.572 ;extruding 
G1 X22.552 Y25.627 ;extruding 
G1 X22.326 Y25.730 ;extruding 
G1 X22.141 Y25.868 ;extruding 
G1 X21.976 Y26.054 ;extruding 
G1 X21.689 Y26.103 ;extruding 
G1 X21.443 Y26.066 ;extruding 
G1 X21.258 Y25.986 ;extruding 
G1 X21.131 Y25.887 ;extruding 
G1 X21.022 Y25.742 ;extruding 
G1 X20.945 Y25.575 ;extruding 
G1 X20.879 Y25.338 ;extruding 
G1 X20.837 Y25.041 ;extruding 
G1 X20.819 Y24.607 ;extruding 
G1 X20.841 Y24.212 ;extruding 
G1 X20.886 Y23.927 ;extruding 
G1 X20.950 Y23.709 ;extruding 
G1 X21.021 Y23.555 ;extruding 
G1 X21.136 Y23.401 ;extruding 
G1 X21.341 Y23.262 ;extruding 
G1 X21.470 Y23.218 ;extruding 
G1 X21.665 Y23.196 ;extruding 
G1 X21.765 Y23.218 ;extruding 
G1 X22.452 Y23.606 ;extruding 
G1 X22.777 Y23.709 ;extruding 
G1 X23.121 Y23.727 ;extruding 
G1 X23.477 Y23.618 ;extruding 
G1 X23.760 Y23.402 ;extruding 
G1 X23.931 Y23.179 ;extruding 
G1 X24.061 Y22.879 ;extruding 
G1 X24.192 Y23.074 ;extruding 
G1 X24.554 Y23.309 ;extruding 
G1 X24.917 Y23.374 ;extruding 
G1 X25.786 Y23.296 ;extruding 
G1 X25.754 Y23.815 ;extruding 
G1 X25.771 Y26.599 ;extruding 
G1 X25.729 Y27.294 ;extruding 
G1 X25.802 Y27.611 ;extruding 
G1 X25.959 Y27.879 ;extruding 
G1 X26.315 Y28.138 ;extruding 
G1 X26.789 Y28.245 ;extruding 
G1 X27.237 Y28.184 ;extruding 
G1 X27.561 Y28.008 ;extruding 
G1 X27.804 Y27.734 ;extruding 
G1 X27.939 Y27.421 ;extruding 
G1 X28.000 Y27.084 ;extruding 
G1 X27.983 Y23.321 ;extruding 
G1 X28.619 Y23.331 ;extruding 
G1 X29.015 Y23.289 ;extruding 
G1 X29.341 Y23.187 ;extruding 
G1 X29.677 Y22.930 ;extruding 
G1 X29.759 Y22.777 ;extruding 
G1 X29.879 Y23.013 ;extruding 
G1 X30.095 Y23.269 ;extruding 
G1 X30.347 Y23.447 ;extruding 
G1 X30.689 Y23.555 ;extruding 
G1 X30.559 Y23.705 ;extruding 
G1 X30.438 Y23.949 ;extruding 
G1 X30.356 Y24.279 ;extruding 
G1 X30.362 Y24.628 ;extruding 
G1 X30.490 Y24.993 ;extruding 
G1 X30.809 Y25.295 ;extruding 
G1 X31.128 Y25.417 ;extruding 
G1 X31.633 Y25.510 ;extruding 
G1 X31.826 Y25.594 ;extruding 
G1 X32.005 Y25.765 ;extruding 
G1 X32.075 Y25.893 ;extruding 
G1 X32.092 Y25.975 ;extruding 
G1 X32.084 Y26.061 ;extruding 
G1 X32.043 Y26.137 ;extruding 
G1 X31.935 Y26.200 ;extruding 
G1 X31.474 Y25.871 ;extruding 
G1 X31.168 Y25.759 ;extruding 
G1 X30.808 Y25.718 ;extruding 
G1 X30.361 Y25.797 ;extruding 
G1 X29.987 Y26.032 ;extruding 
G1 X29.757 Y26.361 ;extruding 
G1 X29.665 Y26.807 ;extruding 
G1 X29.712 Y27.192 ;extruding 
G1 X29.883 Y27.582 ;extruding 
G1 X30.126 Y27.863 ;extruding 
G1 X30.415 Y28.067 ;extruding 
G1 X30.742 Y28.213 ;extruding 
G1 X31.105 Y28.315 ;extruding 
G1 X31.523 Y28.373 ;extruding 
G1 X31.845 Y28.383 ;extruding 
G1 X32.292 Y28.358 ;extruding 
G1 X32.792 Y28.248 ;extruding 
G1 X33.174 Y28.086 ;extruding 
G1 X33.606 Y27.792 ;extruding 
G1 X33.968 Y27.400 ;extruding 
G1 X34.246 Y26.925 ;extruding 
G1 X34.417 Y26.414 ;extruding 
G1 X34.472 Y25.919 ;extruding 
G1 X34.435 Y25.532 ;extruding 
G1 X34.338 Y25.123 ;extruding 
G1 X34.191 Y24.662 ;extruding 
G1 X33.992 Y24.288 ;extruding 
G1 X33.877 Y24.169 ;extruding 
G1 X34.070 Y23.859 ;extruding 
G1 X34.185 Y23.432 ;extruding 
G1 X34.227 Y22.870 ;extruding 
G1 X34.204 Y22.496 ;extruding 
G1 X34.077 Y22.061 ;extruding 
G1 X33.877 Y21.733 ;extruding 
G1 X33.628 Y21.465 ;extruding 
G1 X33.412 Y21.299 ;extruding 
G1 X33.091 Y21.125 ;extruding 
G1 X32.828 Y21.032 ;extruding 
G1 X32.437 Y20.948 ;extruding 
G1 X31.804 Y20.909 ;extruding 
G1 X31.446 Y20.934 ;extruding 
G1 X31.046 Y21.005 ;extruding 
G1 X30.675 Y21.130 ;extruding 
G1 X30.336 Y21.306 ;extruding 
G1 X30.048 Y21.523 ;extruding 
G1 X29.855 Y21.771 ;extruding 
G1 X29.682 Y21.444 ;extruding 
G1 X29.467 Y21.251 ;extruding 
G1 X29.186 Y21.125 ;extruding 
G1 X28.943 Y21.084 ;extruding 
G1 X25.614 Y21.096 ;extruding 
G1 X25.007 Y21.051 ;extruding 
G1 X24.707 Y21.079 ;extruding 
G1 X24.416 Y21.191 ;extruding 
G1 X24.139 Y21.423 ;extruding 
G1 X23.954 Y21.735 ;extruding 
G1 X23.908 Y21.922 ;extruding 
G1 X23.601 Y21.574 ;extruding 
G1 X23.278 Y21.327 ;extruding 
G1 X22.940 Y21.143 ;extruding 
G1 X22.553 Y21.008 ;extruding 
G1 X22.117 Y20.931 ;extruding 
G1 X21.708 Y20.911 ;extruding 
G1 X21.122 Y20.959 ;extruding 
G1 X20.772 Y21.037 ;extruding 
G1 X20.444 Y21.155 ;extruding 
G1 X20.181 Y21.282 ;extruding 
G1 X19.836 Y21.504 ;extruding 
G1 X19.603 Y21.696 ;extruding 
G1 X19.321 Y21.998 ;extruding 
G1 X19.140 Y22.243 ;extruding 
G1 X18.921 Y22.629 ;extruding 
G1 X18.816 Y22.914 ;extruding 
G1 X18.817 Y19.664 ;extruding 
G1 X18.839 Y19.489 ;extruding 
G1 X18.877 Y19.339 ;extruding 
G1 X18.984 Y19.100 ;extruding 
G1 X19.058 Y18.992 ;extruding 
G1 X19.268 Y18.793 ;extruding 
G1 X19.385 Y18.723 ;extruding 
G1 X19.611 Y18.636 ;extruding 
G1 X19.888 Y18.592 ;extruding 
G1 X43.297 Y17.144 ;extruding 
G1 X44.149 Y17.119 ;extruding 
G1 X45.167 Y17.153 ;extruding 
G1 X45.984 Y17.233 ;extruding 
G1 X47.000 Y17.400 ;extruding 
G1 X47.910 Y17.613 ;extruding 
G1 X48.910 Y17.920 ;extruding 
G1 X49.743 Y18.238 ;extruding 
G1 X50.540 Y18.600 ;extruding 
G1 X51.432 Y19.078 ;extruding 
G1 X52.305 Y19.628 ;extruding 
G1 X53.044 Y20.165 ;extruding 
G1 X53.821 Y20.815 ;extruding 
G1 X54.490 Y21.455 ;extruding 
G1 X55.085 Y22.101 ;extruding 
G1 X55.761 Y22.941 ;extruding 
G1 X56.266 Y23.665 ;extruding 
G1 X56.697 Y24.376 ;extruding 
G1 X56.749 Y24.515 ;extruding 
G1 X56.771 Y24.664 ;extruding 
G1 X56.758 Y24.805 ;extruding 
G1 X56.695 Y24.992 ;extruding 
G1 X56.418 Y25.463 ;extruding 
G1 X56.000 Y26.094 ;extruding 
G1 X55.587 Y26.654 ;extruding 
G1 X55.274 Y27.039 ;extruding 
G1 X55.193 Y26.761 ;extruding 
G1 X55.000 Y26.491 ;extruding 
G1 X54.778 Y26.323 ;extruding 
G1 X54.403 Y26.182 ;extruding 
G1 X53.863 Y26.122 ;extruding 
G1 X54.744 Y24.885 ;extruding 
G1 X55.007 Y24.482 ;extruding 
G1 X55.147 Y24.168 ;extruding 
G1 X55.217 Y23.793 ;extruding 
G1 X55.197 Y23.430 ;extruding 
G1 X55.074 Y23.069 ;extruding 
G1 X54.910 Y22.837 ;extruding 
G1 X54.694 Y22.677 ;extruding 
FILEWRITE $hFile"\x05\x02\x30\x34\x44\x49\x20\x20\x43\x46\x03"
G1 X54.835 Y22.410 ;not extruding 
G1 X54.396 Y22.061 ;not extruding 
G1 X52.235 Y21.206 ;not extruding 
G1 X51.019 Y20.948 ;not extruding 
G1 X50.527 Y20.629 ;not extruding 
G1 X48.882 Y20.303 ;not extruding 
G1 X48.485 Y20.366 ;not extruding 
G1 X47.280 Y19.970 ;not extruding 
G1 X46.400 Y19.962 ;not extruding 
G1 X46.243 Y22.560 ;not extruding 
G1 X45.941 Y23.323 ;not extruding 
FILEWRITE $hFile"\x05\x02\x30\x34\x44\x49\x20\x20\x43\x46\x03"
DWELL 0.15
G1 X46.009 Y23.614 ;extruding 
G1 X45.929 Y23.930 ;extruding 
G1 X45.241 Y25.096 ;extruding 
G1 X45.171 Y25.262 ;extruding 
G1 X45.149 Y25.382 ;extruding 
G1 X45.158 Y25.491 ;extruding 
G1 X45.202 Y25.607 ;extruding 
G1 X45.884 Y26.742 ;extruding 
G1 X46.022 Y27.050 ;extruding 
G1 X46.061 Y27.312 ;extruding 
G1 X46.031 Y27.558 ;extruding 
G1 X45.923 Y27.773 ;extruding 
G1 X45.705 Y27.949 ;extruding 
G1 X45.475 Y28.023 ;extruding 
G1 X45.235 Y28.029 ;extruding 
G1 X45.016 Y27.963 ;extruding 
G1 X44.838 Y27.830 ;extruding 
G1 X44.645 Y27.563 ;extruding 
G1 X44.223 Y26.800 ;extruding 
G1 X44.086 Y27.102 ;extruding 
G1 X43.892 Y27.432 ;extruding 
G1 X43.683 Y27.727 ;extruding 
G1 X43.511 Y27.898 ;extruding 
G1 X43.251 Y28.018 ;extruding 
G1 X42.958 Y27.989 ;extruding 
G1 X42.693 Y27.843 ;extruding 
G1 X42.537 Y27.660 ;extruding 
G1 X42.468 Y27.462 ;extruding 
G1 X42.463 Y27.304 ;extruding 
G1 X42.506 Y27.088 ;extruding 
G1 X42.574 Y26.917 ;extruding 
G1 X43.104 Y25.988 ;extruding 
G1 X43.428 Y25.530 ;extruding 
G1 X43.456 Y25.450 ;extruding 
G1 X43.430 Y25.368 ;extruding 
G1 X43.198 Y25.018 ;extruding 
G1 X42.636 Y24.006 ;extruding 
G1 X42.550 Y23.751 ;extruding 
G1 X42.534 Y23.457 ;extruding 
G1 X42.643 Y23.205 ;extruding 
G1 X42.806 Y23.051 ;extruding 
G1 X42.961 Y22.967 ;extruding 
G1 X43.236 Y22.909 ;extruding 
G1 X43.408 Y22.931 ;extruding 
G1 X43.607 Y23.016 ;extruding 
G1 X43.836 Y23.223 ;extruding 
G1 X44.069 Y23.561 ;extruding 
G1 X44.303 Y24.015 ;extruding 
G1 X44.446 Y23.691 ;extruding 
G1 X44.597 Y23.417 ;extruding 
G1 X44.786 Y23.189 ;extruding 
G1 X44.980 Y23.028 ;extruding 
G1 X45.244 Y22.914 ;extruding 
G1 X45.526 Y22.937 ;extruding 
G1 X45.776 Y23.097 ;extruding 
G1 X45.889 Y23.253 ;extruding 
FILEWRITE $hFile"\x05\x02\x30\x34\x44\x49\x20\x20\x43\x46\x03"
G1 X46.239 Y23.352 ;not extruding 
G1 X46.243 Y22.560 ;not extruding 
G1 X46.400 Y19.962 ;not extruding 
G1 X44.147 Y19.840 ;not extruding 
G1 X42.279 Y19.930 ;not extruding 
G1 X41.612 Y20.102 ;not extruding 
G1 X41.158 Y22.557 ;not extruding 
G1 X41.348 Y24.485 ;not extruding 
G1 X42.328 Y25.340 ;not extruding 
G1 X41.790 Y26.033 ;not extruding 
G1 X41.868 Y26.276 ;not extruding 
FILEWRITE $hFile"\x05\x02\x30\x34\x44\x49\x20\x20\x43\x46\x03"
DWELL 0.15
G1 X41.988 Y26.462 ;extruding 
G1 X42.076 Y26.670 ;extruding 
G1 X42.133 Y26.986 ;extruding 
G1 X42.123 Y27.213 ;extruding 
G1 X42.073 Y27.433 ;extruding 
G1 X41.936 Y27.722 ;extruding 
G1 X41.796 Y27.902 ;extruding 
G1 X41.627 Y28.053 ;extruding 
G1 X41.347 Y28.209 ;extruding 
G1 X41.129 Y28.273 ;extruding 
G1 X40.910 Y28.297 ;extruding 
G1 X40.689 Y28.282 ;extruding 
G1 X40.476 Y28.230 ;extruding 
G1 X40.268 Y28.137 ;extruding 
G1 X40.015 Y27.949 ;extruding 
G1 X39.864 Y27.773 ;extruding 
G1 X39.752 Y27.582 ;extruding 
G1 X39.676 Y27.376 ;extruding 
G1 X39.636 Y27.158 ;extruding 
G1 X39.636 Y26.936 ;extruding 
G1 X39.677 Y26.713 ;extruding 
G1 X39.800 Y26.418 ;extruding 
G1 X39.936 Y26.228 ;extruding 
G1 X40.174 Y26.016 ;extruding 
G1 X40.379 Y25.900 ;extruding 
G1 X40.584 Y25.832 ;extruding 
G1 X40.821 Y25.798 ;extruding 
G1 X41.124 Y25.819 ;extruding 
G1 X41.342 Y25.883 ;extruding 
G1 X41.540 Y25.983 ;extruding 
G1 X41.716 Y26.114 ;extruding 
G1 X41.808 Y26.212 ;extruding 
FILEWRITE $hFile"\x05\x02\x30\x34\x44\x49\x20\x20\x43\x46\x03"
G1 X41.868 Y26.276 ;not extruding 
G1 X39.878 Y25.660 ;not extruding 
FILEWRITE $hFile"\x05\x02\x30\x34\x44\x49\x20\x20\x43\x46\x03"
DWELL 0.15
G1 X39.708 Y26.208 ;extruding 
G1 X39.590 Y26.460 ;extruding 
G1 X39.389 Y26.785 ;extruding 
G1 X39.153 Y27.065 ;extruding 
G1 X38.967 Y27.237 ;extruding 
G1 X38.773 Y27.383 ;extruding 
G1 X38.466 Y27.556 ;extruding 
G1 X38.033 Y27.702 ;extruding 
G1 X37.490 Y27.789 ;extruding 
G1 X36.965 Y27.816 ;extruding 
G1 X36.148 Y27.808 ;extruding 
G1 X35.702 Y27.850 ;extruding 
G1 X35.487 Y27.833 ;extruding 
G1 X35.340 Y27.777 ;extruding 
G1 X35.185 Y27.651 ;extruding 
G1 X35.070 Y27.464 ;extruding 
G1 X35.001 Y27.229 ;extruding 
G1 X34.976 Y26.951 ;extruding 
G1 X34.994 Y26.347 ;extruding 
G1 X34.999 Y22.734 ;extruding 
G1 X34.955 Y22.103 ;extruding 
G1 X35.036 Y21.812 ;extruding 
G1 X35.242 Y21.612 ;extruding 
G1 X35.536 Y21.498 ;extruding 
G1 X35.841 Y21.466 ;extruding 
G1 X37.471 Y21.504 ;extruding 
G1 X37.911 Y21.563 ;extruding 
G1 X38.387 Y21.687 ;extruding 
G1 X38.772 Y21.875 ;extruding 
G1 X39.120 Y22.153 ;extruding 
G1 X39.395 Y22.474 ;extruding 
G1 X39.647 Y22.904 ;extruding 
G1 X39.793 Y23.274 ;extruding 
G1 X39.869 Y23.547 ;extruding 
G1 X39.965 Y24.152 ;extruding 
G1 X39.985 Y24.662 ;extruding 
G1 X39.970 Y25.040 ;extruding 
G1 X39.891 Y25.574 ;extruding 
FILEWRITE $hFile"\x05\x02\x30\x34\x44\x49\x20\x20\x43\x46\x03"
G1 X39.878 Y25.660 ;not extruding 
G1 X40.783 Y25.246 ;not extruding 
G1 X40.810 Y24.844 ;not extruding 
G1 X41.348 Y24.485 ;not extruding 
G1 X41.179 Y22.007 ;not extruding 
G1 X41.612 Y20.102 ;not extruding 
G1 X40.789 Y19.807 ;not extruding 
G1 X38.761 Y19.380 ;not extruding 
G1 X35.892 Y19.346 ;not extruding 
G1 X34.166 Y19.574 ;not extruding 
G1 X31.935 Y19.384 ;not extruding 
G1 X29.953 Y19.653 ;not extruding 
G1 X24.739 Y19.675 ;not extruding 
G1 X23.841 Y19.876 ;not extruding 
G1 X23.774 Y21.290 ;not extruding 
G1 X24.406 Y22.305 ;not extruding 
G1 X24.573 Y22.285 ;not extruding 
G1 X24.093 Y23.459 ;not extruding 
G1 X24.307 Y24.595 ;not extruding 
G1 X24.610 Y25.090 ;not extruding 
G1 X24.970 Y26.393 ;not extruding 
G1 X24.691 Y29.201 ;not extruding 
G1 X25.988 Y29.649 ;not extruding 
G1 X27.522 Y29.735 ;not extruding 
G1 X28.955 Y29.382 ;not extruding 
G1 X28.826 Y26.628 ;not extruding 
G1 X29.184 Y25.065 ;not extruding 
G1 X29.892 Y24.661 ;not extruding 
G1 X30.754 Y24.558 ;not extruding 
FILEWRITE $hFile"\x05\x02\x30\x34\x44\x49\x20\x20\x43\x46\x03"
DWELL 0.15
G1 X30.749 Y24.324 ;extruding 
G1 X30.809 Y24.086 ;extruding 
G1 X30.889 Y23.924 ;extruding 
G1 X31.045 Y23.743 ;extruding 
G1 X31.300 Y23.618 ;extruding 
G1 X31.758 Y23.540 ;extruding 
G1 X31.900 Y23.492 ;extruding 
G1 X32.016 Y23.418 ;extruding 
G1 X32.110 Y23.319 ;extruding 
G1 X32.171 Y23.212 ;extruding 
G1 X32.193 Y23.116 ;extruding 
G1 X32.179 Y22.965 ;extruding 
G1 X32.138 Y22.868 ;extruding 
G1 X32.075 Y22.790 ;extruding 
G1 X32.005 Y22.743 ;extruding 
G1 X31.915 Y22.715 ;extruding 
G1 X31.798 Y22.712 ;extruding 
G1 X31.587 Y22.766 ;extruding 
G1 X31.084 Y23.078 ;extruding 
G1 X30.930 Y23.138 ;extruding 
G1 X30.727 Y23.157 ;extruding 
G1 X30.525 Y23.091 ;extruding 
G1 X30.363 Y22.977 ;extruding 
G1 X30.208 Y22.794 ;extruding 
G1 X30.087 Y22.556 ;extruding 
G1 X30.061 Y22.293 ;extruding 
G1 X30.138 Y22.046 ;extruding 
G1 X30.326 Y21.806 ;extruding 
G1 X30.546 Y21.639 ;extruding 
G1 X30.829 Y21.493 ;extruding 
G1 X31.144 Y21.386 ;extruding 
G1 X31.494 Y21.324 ;extruding 
G1 X31.805 Y21.303 ;extruding 
G1 X32.384 Y21.338 ;extruding 
G1 X32.720 Y21.410 ;extruding 
G1 X32.931 Y21.485 ;extruding 
G1 X33.197 Y21.629 ;extruding 
G1 X33.362 Y21.756 ;extruding 
G1 X33.562 Y21.972 ;extruding 
G1 X33.714 Y22.221 ;extruding 
G1 X33.815 Y22.564 ;extruding 
G1 X33.833 Y22.868 ;extruding 
G1 X33.796 Y23.366 ;extruding 
G1 X33.706 Y23.701 ;extruding 
G1 X33.574 Y23.914 ;extruding 
G1 X33.391 Y24.080 ;extruding 
G1 X33.202 Y24.187 ;extruding 
G1 X33.363 Y24.255 ;extruding 
G1 X33.506 Y24.349 ;extruding 
G1 X33.671 Y24.521 ;extruding 
G1 X33.828 Y24.816 ;extruding 
G1 X33.960 Y25.228 ;extruding 
G1 X34.047 Y25.596 ;extruding 
G1 X34.077 Y25.915 ;extruding 
G1 X34.031 Y26.329 ;extruding 
G1 X33.887 Y26.762 ;extruding 
G1 X33.651 Y27.165 ;extruding 
G1 X33.348 Y27.493 ;extruding 
G1 X32.985 Y27.740 ;extruding 
G1 X32.672 Y27.873 ;extruding 
G1 X32.239 Y27.968 ;extruding 
G1 X31.841 Y27.990 ;extruding 
G1 X31.556 Y27.981 ;extruding 
G1 X31.185 Y27.930 ;extruding 
G1 X30.876 Y27.843 ;extruding 
G1 X30.610 Y27.725 ;extruding 
G1 X30.392 Y27.570 ;extruding 
G1 X30.219 Y27.370 ;extruding 
G1 X30.095 Y27.087 ;extruding 
G1 X30.063 Y26.823 ;extruding 
G1 X30.125 Y26.519 ;extruding 
G1 X30.263 Y26.322 ;extruding 
G1 X30.505 Y26.171 ;extruding 
G1 X30.820 Y26.115 ;extruding 
G1 X31.078 Y26.144 ;extruding 
G1 X31.289 Y26.221 ;extruding 
G1 X31.721 Y26.532 ;extruding 
G1 X31.817 Y26.582 ;extruding 
G1 X31.942 Y26.599 ;extruding 
G1 X32.050 Y26.581 ;extruding 
G1 X32.234 Y26.492 ;extruding 
G1 X32.338 Y26.400 ;extruding 
G1 X32.418 Y26.285 ;extruding 
G1 X32.469 Y26.153 ;extruding 
G1 X32.489 Y25.953 ;extruding 
G1 X32.447 Y25.756 ;extruding 
G1 X32.331 Y25.540 ;extruding 
G1 X32.199 Y25.389 ;extruding 
G1 X32.039 Y25.262 ;extruding 
G1 X31.858 Y25.170 ;extruding 
G1 X31.729 Y25.128 ;extruding 
G1 X31.234 Y25.037 ;extruding 
G1 X31.022 Y24.956 ;extruding 
G1 X30.829 Y24.773 ;extruding 
G1 X30.782 Y24.640 ;extruding 
FILEWRITE $hFile"\x05\x02\x30\x34\x44\x49\x20\x20\x43\x46\x03"
G1 X30.531 Y24.486 ;not extruding 
G1 X29.475 Y21.881 ;not extruding 
FILEWRITE $hFile"\x05\x02\x30\x34\x44\x49\x20\x20\x43\x46\x03"
DWELL 0.15
G1 X29.524 Y22.186 ;extruding 
G1 X29.480 Y22.465 ;extruding 
G1 X29.371 Y22.670 ;extruding 
G1 X29.157 Y22.833 ;extruding 
G1 X28.935 Y22.902 ;extruding 
G1 X28.601 Y22.938 ;extruding 
G1 X27.677 Y22.923 ;extruding 
G1 X27.612 Y22.944 ;extruding 
G1 X27.590 Y23.135 ;extruding 
G1 X27.607 Y27.050 ;extruding 
G1 X27.561 Y27.307 ;extruding 
G1 X27.468 Y27.520 ;extruding 
G1 X27.313 Y27.696 ;extruding 
G1 X27.113 Y27.805 ;extruding 
G1 X26.807 Y27.846 ;extruding 
G1 X26.481 Y27.773 ;extruding 
G1 X26.257 Y27.610 ;extruding 
G1 X26.171 Y27.464 ;extruding 
G1 X26.124 Y27.261 ;extruding 
G1 X26.164 Y26.609 ;extruding 
G1 X26.147 Y23.826 ;extruding 
G1 X26.182 Y23.265 ;extruding 
G1 X26.158 Y23.097 ;extruding 
G1 X26.092 Y23.004 ;extruding 
G1 X25.944 Y22.923 ;extruding 
G1 X25.666 Y22.901 ;extruding 
G1 X24.932 Y22.978 ;extruding 
G1 X24.701 Y22.937 ;extruding 
G1 X24.473 Y22.789 ;extruding 
G1 X24.343 Y22.594 ;extruding 
G1 X24.271 Y22.367 ;extruding 
G1 X24.263 Y22.121 ;extruding 
G1 X24.321 Y21.885 ;extruding 
G1 X24.443 Y21.681 ;extruding 
G1 X24.618 Y21.534 ;extruding 
G1 X24.798 Y21.465 ;extruding 
G1 X25.011 Y21.445 ;extruding 
G1 X25.601 Y21.488 ;extruding 
G1 X28.911 Y21.477 ;extruding 
G1 X29.072 Y21.504 ;extruding 
G1 X29.251 Y21.584 ;extruding 
G1 X29.370 Y21.692 ;extruding 
G1 X29.433 Y21.804 ;extruding 
FILEWRITE $hFile"\x05\x02\x30\x34\x44\x49\x20\x20\x43\x46\x03"
G1 X29.778 Y21.942 ;not extruding 
G1 X29.905 Y21.211 ;not extruding 
G1 X29.953 Y19.653 ;not extruding 
G1 X24.739 Y19.675 ;not extruding 
G1 X23.841 Y19.876 ;not extruding 
G1 X23.774 Y21.290 ;not extruding 
G1 X24.406 Y22.305 ;not extruding 
G1 X23.694 Y22.415 ;not extruding 
FILEWRITE $hFile"\x05\x02\x30\x34\x44\x49\x20\x20\x43\x46\x03"
DWELL 0.15
G1 X23.708 Y22.611 ;extruding 
G1 X23.681 Y22.772 ;extruding 
G1 X23.591 Y22.978 ;extruding 
G1 X23.480 Y23.122 ;extruding 
G1 X23.295 Y23.263 ;extruding 
G1 X23.073 Y23.331 ;extruding 
G1 X22.848 Y23.319 ;extruding 
G1 X22.609 Y23.244 ;extruding 
G1 X21.920 Y22.854 ;extruding 
G1 X21.778 Y22.812 ;extruding 
G1 X21.661 Y22.802 ;extruding 
G1 X21.384 Y22.833 ;extruding 
G1 X21.181 Y22.901 ;extruding 
G1 X20.997 Y23.004 ;extruding 
G1 X20.847 Y23.130 ;extruding 
G1 X20.682 Y23.354 ;extruding 
G1 X20.581 Y23.571 ;extruding 
G1 X20.502 Y23.840 ;extruding 
G1 X20.450 Y24.171 ;extruding 
G1 X20.426 Y24.604 ;extruding 
G1 X20.445 Y25.077 ;extruding 
G1 X20.494 Y25.419 ;extruding 
G1 X20.575 Y25.711 ;extruding 
G1 X20.683 Y25.944 ;extruding 
G1 X20.849 Y26.164 ;extruding 
G1 X21.056 Y26.326 ;extruding 
G1 X21.323 Y26.443 ;extruding 
G1 X21.541 Y26.488 ;extruding 
G1 X21.843 Y26.487 ;extruding 
G1 X22.150 Y26.409 ;extruding 
G1 X22.249 Y26.348 ;extruding 
G1 X22.412 Y26.156 ;extruding 
G1 X22.527 Y26.070 ;extruding 
G1 X22.667 Y26.006 ;extruding 
G1 X22.889 Y25.969 ;extruding 
G1 X23.136 Y25.997 ;extruding 
G1 X23.435 Y26.132 ;extruding 
G1 X23.650 Y26.357 ;extruding 
G1 X23.744 Y26.659 ;extruding 
G1 X23.660 Y26.951 ;extruding 
G1 X23.457 Y27.283 ;extruding 
G1 X23.243 Y27.505 ;extruding 
G1 X22.996 Y27.682 ;extruding 
G1 X22.801 Y27.784 ;extruding 
G1 X22.489 Y27.895 ;extruding 
G1 X22.142 Y27.963 ;extruding 
G1 X21.744 Y27.989 ;extruding 
G1 X21.318 Y27.966 ;extruding 
G1 X21.054 Y27.922 ;extruding 
G1 X20.775 Y27.845 ;extruding 
G1 X20.536 Y27.750 ;extruding 
G1 X20.119 Y27.510 ;extruding 
G1 X19.834 Y27.274 ;extruding 
G1 X19.662 Y27.092 ;extruding 
G1 X19.508 Y26.894 ;extruding 
G1 X19.313 Y26.572 ;extruding 
G1 X19.120 Y26.098 ;extruding 
G1 X19.018 Y25.683 ;extruding 
G1 X18.968 Y25.368 ;extruding 
G1 X18.925 Y24.673 ;extruding 
G1 X18.964 Y23.961 ;extruding 
G1 X19.085 Y23.320 ;extruding 
G1 X19.278 Y22.795 ;extruding 
G1 X19.470 Y22.457 ;extruding 
G1 X19.623 Y22.250 ;extruding 
G1 X19.873 Y21.983 ;extruding 
G1 X20.068 Y21.821 ;extruding 
G1 X20.373 Y21.626 ;extruding 
G1 X20.597 Y21.518 ;extruding 
G1 X20.882 Y21.414 ;extruding 
G1 X21.180 Y21.348 ;extruding 
G1 X21.714 Y21.305 ;extruding 
G1 X22.073 Y21.322 ;extruding 
G1 X22.454 Y21.390 ;extruding 
G1 X22.780 Y21.503 ;extruding 
G1 X23.063 Y21.657 ;extruding 
G1 X23.332 Y21.863 ;extruding 
G1 X23.575 Y22.138 ;extruding 
G1 X23.660 Y22.335 ;extruding 
FILEWRITE $hFile"\x05\x02\x30\x34\x44\x49\x20\x20\x43\x46\x03"
G1 X23.883 Y22.470 ;not extruding 
G1 X23.420 Y17.980 ;not extruding 
FILEWRITE $hFile"\x05\x02\x30\x34\x44\x49\x20\x20\x43\x46\x03"
DWELL 0.15
G1 X43.279 Y16.751 ;extruding 
G1 X44.150 Y16.726 ;extruding 
G1 X45.193 Y16.761 ;extruding 
G1 X46.035 Y16.844 ;extruding 
G1 X47.077 Y17.015 ;extruding 
G1 X48.013 Y17.234 ;extruding 
G1 X49.038 Y17.548 ;extruding 
G1 X49.894 Y17.875 ;extruding 
G1 X50.714 Y18.248 ;extruding 
G1 X51.629 Y18.738 ;extruding 
G1 X52.525 Y19.303 ;extruding 
G1 X53.285 Y19.855 ;extruding 
G1 X54.083 Y20.522 ;extruding 
G1 X54.771 Y21.180 ;extruding 
G1 X55.383 Y21.844 ;extruding 
G1 X56.076 Y22.705 ;extruding 
G1 X56.596 Y23.450 ;extruding 
G1 X57.052 Y24.204 ;extruding 
G1 X57.131 Y24.416 ;extruding 
G1 X57.166 Y24.653 ;extruding 
G1 X57.145 Y24.887 ;extruding 
G1 X57.053 Y25.157 ;extruding 
G1 X56.751 Y25.671 ;extruding 
G1 X56.322 Y26.320 ;extruding 
G1 X55.897 Y26.894 ;extruding 
G1 X55.489 Y27.398 ;extruding 
G1 X55.077 Y27.862 ;extruding 
G1 X54.574 Y28.381 ;extruding 
G1 X54.104 Y28.824 ;extruding 
G1 X53.532 Y29.314 ;extruding 
G1 X53.044 Y29.693 ;extruding 
G1 X52.435 Y30.124 ;extruding 
G1 X51.909 Y30.460 ;extruding 
G1 X51.254 Y30.837 ;extruding 
G1 X50.417 Y31.259 ;extruding 
G1 X49.503 Y31.647 ;extruding 
G1 X48.585 Y31.966 ;extruding 
G1 X47.645 Y32.225 ;extruding 
G1 X46.683 Y32.424 ;extruding 
G1 X45.865 Y32.541 ;extruding 
G1 X44.879 Y32.622 ;extruding 
G1 X43.928 Y32.638 ;extruding 
G1 X43.235 Y32.610 ;extruding 
G1 X19.845 Y31.163 ;extruding 
G1 X19.495 Y31.106 ;extruding 
G1 X19.311 Y31.043 ;extruding 
G1 X19.126 Y30.949 ;extruding 
G1 X18.960 Y30.833 ;extruding 
G1 X18.817 Y30.697 ;extruding 
G1 X18.632 Y30.444 ;extruding 
G1 X18.543 Y30.260 ;extruding 
G1 X18.476 Y30.056 ;extruding 
G1 X18.435 Y29.838 ;extruding 
G1 X18.420 Y29.601 ;extruding 
G1 X18.425 Y19.640 ;extruding 
G1 X18.452 Y19.416 ;extruding 
G1 X18.505 Y19.209 ;extruding 
G1 X18.640 Y18.907 ;extruding 
G1 X18.749 Y18.748 ;extruding 
G1 X18.885 Y18.599 ;extruding 
G1 X19.041 Y18.471 ;extruding 
G1 X19.212 Y18.368 ;extruding 
G1 X19.509 Y18.255 ;extruding 
G1 X19.845 Y18.201 ;extruding 
G1 X23.333 Y17.985 ;extruding 
FILEWRITE $hFile"\x05\x02\x30\x34\x44\x49\x20\x20\x43\x46\x03"
G1 X23.742 Y18.463 ;not extruding 
G1 X19.497 Y15.968 ;not extruding 
G1 X37.426 Y23.801 ;not extruding 
FILEWRITE $hFile"\x05\x02\x30\x34\x44\x49\x20\x20\x43\x46\x03"
DWELL 0.15
G1 X37.546 Y23.824 ;extruding 
G1 X37.629 Y24.025 ;extruding 
G1 X37.683 Y24.326 ;extruding 
G1 X37.695 Y24.755 ;extruding 
G1 X37.671 Y25.016 ;extruding 
G1 X37.565 Y25.390 ;extruding 
G1 X37.507 Y25.466 ;extruding 
G1 X37.280 Y25.509 ;extruding 
G1 X37.279 Y23.793 ;extruding 
G1 X37.339 Y23.796 ;extruding 
FILEWRITE $hFile"\x05\x02\x30\x34\x44\x49\x20\x20\x43\x46\x03"
G1 X36.886 Y23.377 ;not extruding 
FILEWRITE $hFile"\x05\x02\x30\x34\x44\x49\x20\x20\x43\x46\x03"
DWELL 0.15
G1 X37.475 Y23.410 ;extruding 
G1 X37.737 Y23.472 ;extruding 
G1 X37.870 Y23.597 ;extruding 
G1 X37.942 Y23.732 ;extruding 
G1 X38.010 Y23.924 ;extruding 
G1 X38.075 Y24.286 ;extruding 
G1 X38.088 Y24.767 ;extruding 
G1 X38.060 Y25.080 ;extruding 
G1 X37.976 Y25.429 ;extruding 
G1 X37.908 Y25.586 ;extruding 
G1 X37.800 Y25.736 ;extruding 
G1 X37.706 Y25.810 ;extruding 
G1 X37.577 Y25.861 ;extruding 
G1 X37.248 Y25.911 ;extruding 
G1 X36.886 Y25.921 ;extruding 
G1 X36.886 Y23.464 ;extruding 
FILEWRITE $hFile"\x05\x02\x30\x34\x44\x49\x20\x20\x43\x46\x03"
G1 X36.493 Y22.999 ;not extruding 
FILEWRITE $hFile"\x05\x02\x30\x34\x44\x49\x20\x20\x43\x46\x03"
DWELL 0.15
G1 X36.779 Y22.977 ;extruding 
G1 X37.525 Y23.020 ;extruding 
G1 X37.793 Y23.072 ;extruding 
G1 X37.931 Y23.127 ;extruding 
G1 X38.097 Y23.252 ;extruding 
G1 X38.200 Y23.381 ;extruding 
G1 X38.302 Y23.574 ;extruding 
G1 X38.390 Y23.824 ;extruding 
G1 X38.466 Y24.245 ;extruding 
G1 X38.481 Y24.780 ;extruding 
G1 X38.448 Y25.144 ;extruding 
G1 X38.350 Y25.554 ;extruding 
G1 X38.251 Y25.781 ;extruding 
G1 X38.086 Y26.011 ;extruding 
G1 X37.904 Y26.154 ;extruding 
G1 X37.681 Y26.242 ;extruding 
G1 X37.283 Y26.303 ;extruding 
G1 X36.548 Y26.324 ;extruding 
G1 X36.503 Y26.292 ;extruding 
G1 X36.478 Y26.163 ;extruding 
G1 X36.495 Y25.888 ;extruding 
G1 X36.493 Y23.086 ;extruding 
FILEWRITE $hFile"\x05\x02\x30\x34\x44\x49\x20\x20\x43\x46\x03"
G1 X36.529 Y23.012 ;not extruding 
G1 X44.152 Y14.472 ;not extruding 
G1 X32.563 Y19.382 ;not extruding 
FILEWRITE $hFile"\x05\x02\x30\x34\x44\x49\x20\x20\x43\x46\x03"
DWELL 0.15
G1 X33.043 Y19.471 ;extruding 
G1 X33.171 Y19.344 ;extruding 
G1 X33.779 Y19.306 ;extruding 
G1 X33.486 Y19.599 ;extruding 
G1 X33.730 Y19.686 ;extruding 
G1 X33.886 Y19.770 ;extruding 
G1 X34.387 Y19.269 ;extruding 
G1 X34.995 Y19.231 ;extruding 
G1 X34.391 Y19.835 ;extruding 
G1 X35.071 Y19.573 ;extruding 
G1 X35.242 Y19.555 ;extruding 
G1 X35.603 Y19.194 ;extruding 
G1 X36.211 Y19.156 ;extruding 
G1 X35.865 Y19.503 ;extruding 
G1 X36.422 Y19.516 ;extruding 
G1 X36.820 Y19.118 ;extruding 
G1 X37.428 Y19.081 ;extruding 
G1 X36.980 Y19.528 ;extruding 
G1 X37.538 Y19.541 ;extruding 
G1 X38.036 Y19.043 ;extruding 
G1 X38.644 Y19.005 ;extruding 
G1 X38.049 Y19.600 ;extruding 
G1 X38.290 Y19.632 ;extruding 
G1 X38.526 Y19.694 ;extruding 
G1 X39.252 Y18.968 ;extruding 
G1 X39.860 Y18.930 ;extruding 
G1 X38.979 Y19.812 ;extruding 
G1 X39.072 Y19.836 ;extruding 
G1 X39.376 Y19.985 ;extruding 
G1 X40.468 Y18.893 ;extruding 
G1 X41.076 Y18.855 ;extruding 
G1 X39.760 Y20.172 ;extruding 
G1 X39.828 Y20.205 ;extruding 
G1 X40.089 Y20.413 ;extruding 
G1 X41.685 Y18.817 ;extruding 
G1 X42.293 Y18.780 ;extruding 
G1 X40.406 Y20.667 ;extruding 
G1 X40.491 Y20.734 ;extruding 
G1 X40.683 Y20.959 ;extruding 
G1 X42.901 Y18.742 ;extruding 
G1 X43.504 Y18.709 ;extruding 
G1 X40.947 Y21.267 ;extruding 
G1 X41.168 Y21.616 ;extruding 
G1 X44.092 Y18.692 ;extruding 
G1 X44.647 Y18.707 ;extruding 
G1 X42.218 Y21.136 ;extruding 
G1 X42.277 Y21.104 ;extruding 
G1 X42.965 Y20.960 ;extruding 
G1 X45.191 Y18.734 ;extruding 
G1 X45.711 Y18.785 ;extruding 
G1 X43.528 Y20.967 ;extruding 
G1 X43.925 Y21.016 ;extruding 
G1 X44.013 Y21.053 ;extruding 
G1 X46.205 Y18.861 ;extruding 
G1 X46.695 Y18.942 ;extruding 
G1 X44.570 Y21.067 ;extruding 
G1 X44.917 Y20.917 ;extruding 
G1 X45.262 Y20.945 ;extruding 
G1 X47.157 Y19.050 ;extruding 
G1 X47.613 Y19.165 ;extruding 
G1 X45.789 Y20.989 ;extruding 
G1 X46.173 Y21.020 ;extruding 
G1 X46.267 Y21.081 ;extruding 
G1 X48.049 Y19.299 ;extruding 
G1 X48.481 Y19.438 ;extruding 
G1 X46.954 Y20.964 ;extruding 
G1 X47.315 Y20.944 ;extruding 
G1 X47.519 Y20.970 ;extruding 
G1 X48.894 Y19.595 ;extruding 
G1 X49.298 Y19.761 ;extruding 
G1 X47.999 Y21.061 ;extruding 
G1 X48.426 Y21.204 ;extruding 
G1 X49.691 Y19.939 ;extruding 
G1 X50.070 Y20.130 ;extruding 
G1 X49.078 Y21.123 ;extruding 
G1 X49.857 Y20.915 ;extruding 
G1 X50.442 Y20.329 ;extruding 
G1 X50.803 Y20.538 ;extruding 
G1 X50.359 Y20.982 ;extruding 
G1 X50.724 Y21.031 ;extruding 
G1 X50.829 Y21.083 ;extruding 
G1 X51.153 Y20.759 ;extruding 
G1 X51.499 Y20.984 ;extruding 
FILEWRITE $hFile"\x05\x02\x30\x34\x44\x49\x20\x20\x43\x46\x03"
G1 X30.580 Y19.504 ;not extruding 
FILEWRITE $hFile"\x05\x02\x30\x34\x44\x49\x20\x20\x43\x46\x03"
DWELL 0.15
G1 X29.870 Y19.548 ;extruding 
G1 X29.758 Y19.660 ;extruding 
G1 X29.643 Y19.609 ;extruding 
G1 X29.440 Y19.575 ;extruding 
G1 X29.870 Y19.548 ;extruding 
FILEWRITE $hFile"\x05\x02\x30\x34\x44\x49\x20\x20\x43\x46\x03"
G1 X27.768 Y29.684 ;not extruding 
FILEWRITE $hFile"\x05\x02\x30\x34\x44\x49\x20\x20\x43\x46\x03"
DWELL 0.15
G1 X28.303 Y29.718 ;extruding 
G1 X29.027 Y28.994 ;extruding 
G1 X29.351 Y29.239 ;extruding 
G1 X28.839 Y29.751 ;extruding 
G1 X29.374 Y29.784 ;extruding 
G1 X29.693 Y29.465 ;extruding 
G1 X30.086 Y29.641 ;extruding 
G1 X29.910 Y29.817 ;extruding 
G1 X30.446 Y29.850 ;extruding 
G1 X30.515 Y29.781 ;extruding 
G1 X30.784 Y29.856 ;extruding 
G1 X30.981 Y29.884 ;extruding 
FILEWRITE $hFile"\x05\x02\x30\x34\x44\x49\x20\x20\x43\x46\x03"
G1 X32.004 Y29.947 ;not extruding 
FILEWRITE $hFile"\x05\x02\x30\x34\x44\x49\x20\x20\x43\x46\x03"
DWELL 0.15
G1 X32.505 Y29.920 ;extruding 
G1 X32.625 Y29.893 ;extruding 
G1 X32.538 Y29.980 ;extruding 
G1 X33.072 Y30.013 ;extruding 
G1 X33.380 Y29.705 ;extruding 
G1 X33.929 Y29.472 ;extruding 
G1 X34.138 Y29.330 ;extruding 
G1 X34.239 Y29.412 ;extruding 
G1 X33.605 Y30.046 ;extruding 
G1 X34.139 Y30.079 ;extruding 
G1 X34.616 Y29.603 ;extruding 
G1 X35.028 Y29.758 ;extruding 
G1 X34.673 Y30.112 ;extruding 
G1 X35.207 Y30.146 ;extruding 
G1 X35.545 Y29.807 ;extruding 
G1 X35.714 Y29.821 ;extruding 
G1 X36.138 Y29.782 ;extruding 
G1 X35.740 Y30.179 ;extruding 
G1 X36.274 Y30.212 ;extruding 
G1 X36.709 Y29.777 ;extruding 
G1 X37.287 Y29.766 ;extruding 
G1 X36.808 Y30.245 ;extruding 
G1 X37.342 Y30.278 ;extruding 
G1 X37.909 Y29.711 ;extruding 
G1 X38.506 Y29.614 ;extruding 
G1 X38.606 Y29.581 ;extruding 
G1 X37.876 Y30.311 ;extruding 
G1 X38.409 Y30.344 ;extruding 
G1 X39.067 Y29.687 ;extruding 
G1 X39.266 Y29.841 ;extruding 
G1 X39.414 Y29.907 ;extruding 
G1 X38.943 Y30.377 ;extruding 
G1 X39.477 Y30.410 ;extruding 
G1 X39.806 Y30.081 ;extruding 
G1 X40.256 Y30.198 ;extruding 
G1 X40.011 Y30.443 ;extruding 
G1 X40.545 Y30.476 ;extruding 
G1 X40.766 Y30.255 ;extruding 
G1 X40.950 Y30.268 ;extruding 
G1 X41.365 Y30.223 ;extruding 
G1 X41.078 Y30.509 ;extruding 
G1 X41.612 Y30.543 ;extruding 
G1 X42.138 Y30.016 ;extruding 
G1 X42.352 Y29.897 ;extruding 
G1 X42.777 Y29.944 ;extruding 
G1 X42.146 Y30.576 ;extruding 
G1 X42.680 Y30.609 ;extruding 
G1 X43.294 Y29.995 ;extruding 
G1 X43.588 Y30.023 ;extruding 
G1 X44.039 Y29.816 ;extruding 
G1 X43.213 Y30.642 ;extruding 
G1 X43.756 Y30.666 ;extruding 
G1 X44.236 Y30.186 ;extruding 
G1 X44.306 Y30.625 ;extruding 
G1 X44.326 Y30.663 ;extruding 
FILEWRITE $hFile"\x05\x02\x30\x34\x44\x49\x20\x20\x43\x46\x03"
G1 X25.584 Y29.549 ;not extruding 
FILEWRITE $hFile"\x05\x02\x30\x34\x44\x49\x20\x20\x43\x46\x03"
DWELL 0.15
G1 X25.232 Y29.293 ;extruding 
G1 X25.011 Y29.514 ;extruding 
G1 X24.439 Y29.478 ;extruding 
G1 X24.880 Y29.036 ;extruding 
G1 X24.771 Y28.957 ;extruding 
G1 X24.695 Y28.828 ;extruding 
G1 X24.532 Y28.997 ;extruding 
G1 X24.028 Y29.358 ;extruding 
G1 X23.866 Y29.442 ;extruding 
FILEWRITE $hFile"\x05\x02\x30\x34\x44\x49\x20\x20\x43\x46\x03"
G1 D-149.000 ;not extruding 
G1 X25.111 Y22.337 ;not extruding 
FILEWRITE $hFile"\x05\x02\x30\x34\x44\x49\x20\x20\x43\x46\x03"
DWELL 0.15
G1 X19.754 Y22.335 ;extruding 
G1 X19.756 Y19.506 ;extruding 
G1 X43.161 Y17.969 ;extruding 
G1 X44.047 Y17.936 ;extruding 
G1 X44.865 Y17.954 ;extruding 
G1 X45.817 Y18.037 ;extruding 
G1 X46.722 Y18.176 ;extruding 
G1 X47.733 Y18.404 ;extruding 
G1 X48.702 Y18.698 ;extruding 
G1 X49.505 Y19.001 ;extruding 
G1 X50.402 Y19.409 ;extruding 
G1 X51.137 Y19.802 ;extruding 
G1 X51.949 Y20.306 ;extruding 
G1 X52.719 Y20.859 ;extruding 
G1 X53.444 Y21.459 ;extruding 
G1 X54.128 Y22.107 ;extruding 
G1 X54.856 Y22.904 ;extruding 
G1 X55.370 Y23.551 ;extruding 
G1 X55.855 Y24.242 ;extruding 
G1 X56.128 Y24.689 ;extruding 
G1 X55.730 Y25.310 ;extruding 
G1 X55.382 Y25.799 ;extruding 
G1 X55.015 Y26.270 ;extruding 
G1 X54.634 Y26.717 ;extruding 
G1 X54.144 Y27.241 ;extruding 
G1 X53.632 Y27.737 ;extruding 
G1 X52.732 Y28.496 ;extruding 
G1 X52.262 Y28.845 ;extruding 
G1 X51.663 Y29.245 ;extruding 
G1 X51.162 Y29.548 ;extruding 
G1 X50.414 Y29.950 ;extruding 
G1 X49.524 Y30.356 ;extruding 
G1 X48.594 Y30.704 ;extruding 
G1 X47.750 Y30.956 ;extruding 
G1 X46.868 Y31.160 ;extruding 
G1 X45.960 Y31.310 ;extruding 
G1 X45.025 Y31.401 ;extruding 
G1 X44.049 Y31.429 ;extruding 
G1 X43.179 Y31.397 ;extruding 
G1 X19.758 Y29.859 ;extruding 
G1 X19.755 Y27.030 ;extruding 
G1 X25.111 Y27.028 ;extruding 
G1 X25.111 Y22.424 ;extruding 
FILEWRITE $hFile"\x05\x02\x30\x34\x44\x49\x20\x20\x43\x46\x03"
G1 X24.718 Y22.729 ;not extruding 
FILEWRITE $hFile"\x05\x02\x30\x34\x44\x49\x20\x20\x43\x46\x03"
DWELL 0.15
G1 X19.361 Y22.728 ;extruding 
G1 X19.361 Y19.538 ;extruding 
G1 X19.367 Y19.433 ;extruding 
G1 X19.416 Y19.253 ;extruding 
G1 X19.528 Y19.150 ;extruding 
G1 X19.736 Y19.111 ;extruding 
G1 X43.141 Y17.577 ;extruding 
G1 X44.044 Y17.543 ;extruding 
G1 X44.887 Y17.562 ;extruding 
G1 X45.864 Y17.647 ;extruding 
G1 X46.795 Y17.790 ;extruding 
G1 X47.833 Y18.024 ;extruding 
G1 X48.829 Y18.326 ;extruding 
G1 X49.656 Y18.638 ;extruding 
G1 X50.577 Y19.056 ;extruding 
G1 X51.333 Y19.462 ;extruding 
G1 X52.168 Y19.979 ;extruding 
G1 X52.959 Y20.548 ;extruding 
G1 X53.705 Y21.165 ;extruding 
G1 X54.408 Y21.832 ;extruding 
G1 X55.155 Y22.649 ;extruding 
G1 X55.685 Y23.315 ;extruding 
G1 X56.183 Y24.026 ;extruding 
G1 X56.584 Y24.681 ;extruding 
G1 X56.056 Y25.530 ;extruding 
G1 X55.697 Y26.033 ;extruding 
G1 X55.319 Y26.518 ;extruding 
G1 X54.928 Y26.978 ;extruding 
G1 X54.424 Y27.517 ;extruding 
G1 X53.898 Y28.026 ;extruding 
G1 X53.442 Y28.427 ;extruding 
G1 X52.973 Y28.806 ;extruding 
G1 X52.488 Y29.166 ;extruding 
G1 X51.874 Y29.576 ;extruding 
G1 X51.357 Y29.889 ;extruding 
G1 X50.589 Y30.302 ;extruding 
G1 X49.674 Y30.719 ;extruding 
G1 X48.719 Y31.076 ;extruding 
G1 X47.850 Y31.336 ;extruding 
G1 X46.945 Y31.545 ;extruding 
G1 X46.011 Y31.700 ;extruding 
G1 X45.049 Y31.793 ;extruding 
G1 X44.047 Y31.821 ;extruding 
G1 X43.159 Y31.789 ;extruding 
G1 X19.702 Y30.249 ;extruding 
G1 X19.472 Y30.181 ;extruding 
G1 X19.385 Y30.030 ;extruding 
G1 X19.365 Y29.912 ;extruding 
G1 X19.362 Y26.637 ;extruding 
G1 X24.718 Y26.635 ;extruding 
G1 X24.718 Y22.816 ;extruding 
FILEWRITE $hFile"\x05\x02\x30\x34\x44\x49\x20\x20\x43\x46\x03"
G1 X24.325 Y23.122 ;not extruding 
FILEWRITE $hFile"\x05\x02\x30\x34\x44\x49\x20\x20\x43\x46\x03"
DWELL 0.15
G1 X18.968 Y23.120 ;extruding 
G1 X18.968 Y19.526 ;extruding 
G1 X18.977 Y19.379 ;extruding 
G1 X19.022 Y19.174 ;extruding 
G1 X19.093 Y19.027 ;extruding 
G1 X19.191 Y18.911 ;extruding 
G1 X19.309 Y18.821 ;extruding 
G1 X19.456 Y18.760 ;extruding 
G1 X19.691 Y18.721 ;extruding 
G1 X43.121 Y17.185 ;extruding 
G1 X44.041 Y17.150 ;extruding 
G1 X44.908 Y17.170 ;extruding 
G1 X45.910 Y17.256 ;extruding 
G1 X46.868 Y17.404 ;extruding 
G1 X47.934 Y17.644 ;extruding 
G1 X48.955 Y17.954 ;extruding 
G1 X49.807 Y18.275 ;extruding 
G1 X50.751 Y18.704 ;extruding 
G1 X51.529 Y19.122 ;extruding 
G1 X52.386 Y19.652 ;extruding 
G1 X53.199 Y20.237 ;extruding 
G1 X53.965 Y20.871 ;extruding 
G1 X54.689 Y21.556 ;extruding 
G1 X55.454 Y22.394 ;extruding 
G1 X56.000 Y23.080 ;extruding 
G1 X56.512 Y23.811 ;extruding 
G1 X56.950 Y24.528 ;extruding 
G1 X56.993 Y24.675 ;extruding 
G1 X56.963 Y24.809 ;extruding 
G1 X56.796 Y25.104 ;extruding 
G1 X56.381 Y25.750 ;extruding 
G1 X56.012 Y26.268 ;extruding 
G1 X55.624 Y26.766 ;extruding 
G1 X55.221 Y27.240 ;extruding 
G1 X54.705 Y27.792 ;extruding 
G1 X54.165 Y28.315 ;extruding 
G1 X53.696 Y28.727 ;extruding 
G1 X53.213 Y29.117 ;extruding 
G1 X52.714 Y29.487 ;extruding 
G1 X52.085 Y29.908 ;extruding 
G1 X51.552 Y30.230 ;extruding 
G1 X50.763 Y30.654 ;extruding 
G1 X49.825 Y31.082 ;extruding 
G1 X48.844 Y31.448 ;extruding 
G1 X47.951 Y31.715 ;extruding 
G1 X47.021 Y31.931 ;extruding 
G1 X46.062 Y32.090 ;extruding 
G1 X45.074 Y32.185 ;extruding 
G1 X44.046 Y32.214 ;extruding 
G1 X43.139 Y32.181 ;extruding 
G1 X19.647 Y30.639 ;extruding 
G1 X19.416 Y30.589 ;extruding 
G1 X19.278 Y30.525 ;extruding 
G1 X19.171 Y30.437 ;extruding 
G1 X19.080 Y30.312 ;extruding 
G1 X19.012 Y30.158 ;extruding 
G1 X18.972 Y29.936 ;extruding 
G1 X18.969 Y26.245 ;extruding 
G1 X24.325 Y26.243 ;extruding 
G1 X24.325 Y23.209 ;extruding 
FILEWRITE $hFile"\x05\x02\x30\x34\x44\x49\x20\x20\x43\x46\x03"
G1 X23.933 Y23.514 ;not extruding 
FILEWRITE $hFile"\x05\x02\x30\x34\x44\x49\x20\x20\x43\x46\x03"
DWELL 0.15
G1 X18.575 Y23.513 ;extruding 
G1 X18.587 Y19.325 ;extruding 
G1 X18.646 Y19.058 ;extruding 
G1 X18.701 Y18.921 ;extruding 
G1 X18.770 Y18.801 ;extruding 
G1 X18.918 Y18.625 ;extruding 
G1 X19.099 Y18.487 ;extruding 
G1 X19.221 Y18.425 ;extruding 
G1 X19.359 Y18.377 ;extruding 
G1 X19.647 Y18.330 ;extruding 
G1 X43.101 Y16.792 ;extruding 
G1 X44.038 Y16.757 ;extruding 
G1 X44.930 Y16.777 ;extruding 
G1 X45.957 Y16.866 ;extruding 
G1 X46.941 Y17.018 ;extruding 
G1 X48.034 Y17.265 ;extruding 
G1 X49.081 Y17.582 ;extruding 
G1 X49.958 Y17.912 ;extruding 
G1 X50.925 Y18.352 ;extruding 
G1 X51.726 Y18.781 ;extruding 
G1 X52.604 Y19.326 ;extruding 
G1 X53.439 Y19.926 ;extruding 
G1 X54.226 Y20.577 ;extruding 
G1 X54.969 Y21.281 ;extruding 
G1 X55.753 Y22.139 ;extruding 
G1 X56.314 Y22.845 ;extruding 
G1 X56.840 Y23.595 ;extruding 
G1 X57.304 Y24.353 ;extruding 
G1 X57.367 Y24.517 ;extruding 
G1 X57.389 Y24.664 ;extruding 
G1 X57.376 Y24.810 ;extruding 
G1 X57.324 Y24.967 ;extruding 
G1 X57.132 Y25.307 ;extruding 
G1 X56.706 Y25.970 ;extruding 
G1 X56.327 Y26.503 ;extruding 
G1 X55.928 Y27.014 ;extruding 
G1 X55.514 Y27.501 ;extruding 
G1 X54.985 Y28.067 ;extruding 
G1 X54.431 Y28.603 ;extruding 
G1 X53.949 Y29.027 ;extruding 
G1 X53.454 Y29.428 ;extruding 
G1 X52.940 Y29.808 ;extruding 
G1 X52.296 Y30.239 ;extruding 
G1 X51.746 Y30.572 ;extruding 
G1 X50.938 Y31.006 ;extruding 
G1 X49.975 Y31.445 ;extruding 
G1 X48.970 Y31.821 ;extruding 
G1 X48.052 Y32.095 ;extruding 
G1 X47.098 Y32.316 ;extruding 
G1 X46.113 Y32.479 ;extruding 
G1 X45.098 Y32.577 ;extruding 
G1 X44.044 Y32.607 ;extruding 
G1 X43.119 Y32.574 ;extruding 
G1 X19.593 Y31.029 ;extruding 
G1 X19.290 Y30.964 ;extruding 
G1 X19.080 Y30.866 ;extruding 
G1 X18.874 Y30.697 ;extruding 
G1 X18.738 Y30.509 ;extruding 
G1 X18.640 Y30.287 ;extruding 
G1 X18.580 Y29.961 ;extruding 
G1 X18.576 Y25.852 ;extruding 
G1 X23.933 Y25.850 ;extruding 
G1 X23.933 Y23.601 ;extruding 
FILEWRITE $hFile"\x05\x02\x30\x34\x44\x49\x20\x20\x43\x46\x03"
G1 X23.540 Y23.907 ;not extruding 
FILEWRITE $hFile"\x05\x02\x30\x34\x44\x49\x20\x20\x43\x46\x03"
DWELL 0.15
G1 X18.183 Y23.906 ;extruding 
G1 X18.183 Y19.503 ;extruding 
G1 X18.197 Y19.270 ;extruding 
G1 X18.269 Y18.941 ;extruding 
G1 X18.347 Y18.749 ;extruding 
G1 X18.447 Y18.574 ;extruding 
G1 X18.646 Y18.339 ;extruding 
G1 X18.889 Y18.153 ;extruding 
G1 X19.068 Y18.063 ;extruding 
G1 X19.263 Y17.995 ;extruding 
G1 X19.602 Y17.940 ;extruding 
G1 X43.080 Y16.400 ;extruding 
G1 X44.035 Y16.365 ;extruding 
G1 X44.951 Y16.385 ;extruding 
G1 X46.004 Y16.476 ;extruding 
G1 X47.014 Y16.632 ;extruding 
G1 X48.134 Y16.885 ;extruding 
G1 X49.208 Y17.210 ;extruding 
G1 X50.108 Y17.549 ;extruding 
G1 X51.099 Y18.000 ;extruding 
G1 X51.922 Y18.441 ;extruding 
G1 X52.823 Y18.999 ;extruding 
G1 X53.679 Y19.615 ;extruding 
G1 X54.486 Y20.282 ;extruding 
G1 X55.250 Y21.006 ;extruding 
G1 X56.052 Y21.884 ;extruding 
G1 X56.629 Y22.610 ;extruding 
G1 X57.169 Y23.380 ;extruding 
G1 X57.657 Y24.179 ;extruding 
G1 X57.749 Y24.416 ;extruding 
G1 X57.784 Y24.653 ;extruding 
G1 X57.763 Y24.889 ;extruding 
G1 X57.686 Y25.126 ;extruding 
G1 X57.469 Y25.510 ;extruding 
G1 X57.031 Y26.191 ;extruding 
G1 X56.642 Y26.737 ;extruding 
G1 X56.233 Y27.262 ;extruding 
G1 X55.807 Y27.763 ;extruding 
G1 X55.265 Y28.343 ;extruding 
G1 X54.697 Y28.892 ;extruding 
G1 X54.202 Y29.328 ;extruding 
G1 X53.694 Y29.738 ;extruding 
G1 X53.166 Y30.129 ;extruding 
G1 X52.507 Y30.570 ;extruding 
G1 X51.941 Y30.913 ;extruding 
G1 X51.112 Y31.358 ;extruding 
G1 X50.126 Y31.808 ;extruding 
G1 X49.095 Y32.193 ;extruding 
G1 X48.152 Y32.475 ;extruding 
G1 X47.174 Y32.702 ;extruding 
G1 X46.164 Y32.869 ;extruding 
G1 X45.123 Y32.969 ;extruding 
G1 X44.043 Y33.000 ;extruding 
G1 X43.099 Y32.966 ;extruding 
G1 X19.538 Y31.419 ;extruding 
G1 X19.165 Y31.338 ;extruding 
G1 X18.882 Y31.207 ;extruding 
G1 X18.721 Y31.093 ;extruding 
G1 X18.578 Y30.957 ;extruding 
G1 X18.396 Y30.707 ;extruding 
G1 X18.267 Y30.416 ;extruding 
G1 X18.215 Y30.209 ;extruding 
G1 X18.187 Y29.985 ;extruding 
G1 X18.183 Y25.460 ;extruding 
G1 X23.540 Y25.458 ;extruding 
G1 X23.540 Y23.994 ;extruding 
FILEWRITE $hFile"\x05\x02\x30\x34\x44\x49\x20\x20\x43\x46\x03"
G1 X23.781 Y23.380 ;not extruding 
G1 X25.622 Y23.909 ;not extruding 
FILEWRITE $hFile"\x05\x02\x30\x34\x44\x49\x20\x20\x43\x46\x03"
DWELL 0.15
G1 X27.337 Y23.908 ;extruding 
G1 X27.211 Y23.637 ;extruding 
G1 X27.117 Y23.272 ;extruding 
G1 X25.622 Y23.272 ;extruding 
G1 X25.622 Y22.885 ;extruding 
G1 X26.191 Y23.072 ;extruding 
G1 X26.370 Y22.636 ;extruding 
G1 X27.007 Y22.636 ;extruding 
FILEWRITE $hFile"\x05\x02\x30\x34\x44\x49\x20\x20\x43\x46\x03"
G1 X25.622 Y22.636 ;not extruding 
FILEWRITE $hFile"\x05\x02\x30\x34\x44\x49\x20\x20\x43\x46\x03"
DWELL 0.15
G1 X25.622 Y22.884 ;extruding 
G1 X25.691 Y22.636 ;extruding 
G1 X25.622 Y22.636 ;extruding 
G1 X25.622 Y21.999 ;extruding 
G1 X27.017 Y21.999 ;extruding 
G1 X27.028 Y21.842 ;extruding 
G1 X27.129 Y21.363 ;extruding 
G1 X20.266 Y21.363 ;extruding 
G1 X20.267 Y20.726 ;extruding 
G1 X27.374 Y20.726 ;extruding 
G1 X27.585 Y20.343 ;extruding 
G1 X27.763 Y20.090 ;extruding 
G1 X20.267 Y20.090 ;extruding 
G1 X20.267 Y19.985 ;extruding 
G1 X28.363 Y19.453 ;extruding 
FILEWRITE $hFile"\x05\x02\x30\x34\x44\x49\x20\x20\x43\x46\x03"
G1 X28.118 Y20.679 ;not extruding 
FILEWRITE $hFile"\x05\x02\x30\x34\x44\x49\x20\x20\x43\x46\x03"
DWELL 0.15
G1 X27.962 Y20.955 ;extruding 
G1 X27.840 Y21.230 ;extruding 
G1 X27.734 Y21.541 ;extruding 
G1 X27.653 Y21.928 ;extruding 
G1 X27.630 Y22.279 ;extruding 
G1 X27.637 Y22.597 ;extruding 
G1 X27.662 Y22.781 ;extruding 
G1 X29.631 Y19.370 ;extruding 
G1 X30.417 Y19.318 ;extruding 
G1 X27.914 Y23.654 ;extruding 
G1 X28.012 Y23.866 ;extruding 
G1 X28.295 Y24.304 ;extruding 
G1 X31.204 Y19.267 ;extruding 
G1 X31.990 Y19.215 ;extruding 
G1 X27.631 Y26.765 ;extruding 
G1 X27.638 Y27.108 ;extruding 
G1 X27.675 Y27.398 ;extruding 
G1 X27.777 Y27.823 ;extruding 
G1 X32.776 Y19.163 ;extruding 
G1 X33.556 Y19.123 ;extruding 
G1 X28.102 Y28.570 ;extruding 
G1 X28.353 Y28.940 ;extruding 
G1 X28.526 Y29.146 ;extruding 
G1 X34.191 Y19.334 ;extruding 
G1 X34.825 Y19.546 ;extruding 
G1 X29.025 Y29.592 ;extruding 
G1 X29.404 Y29.840 ;extruding 
G1 X29.583 Y29.935 ;extruding 
G1 X35.444 Y19.785 ;extruding 
G1 X35.444 Y20.420 ;extruding 
G1 X35.660 Y20.721 ;extruding 
G1 X30.280 Y30.038 ;extruding 
G1 X31.009 Y30.086 ;extruding 
G1 X36.014 Y21.418 ;extruding 
G1 X36.114 Y21.706 ;extruding 
G1 X36.177 Y21.962 ;extruding 
G1 X36.239 Y22.338 ;extruding 
G1 X31.738 Y30.133 ;extruding 
G1 X32.467 Y30.181 ;extruding 
G1 X36.207 Y23.703 ;extruding 
G1 X36.146 Y24.057 ;extruding 
G1 X36.356 Y24.757 ;extruding 
G1 X33.196 Y30.229 ;extruding 
G1 X33.272 Y30.234 ;extruding 
G1 X33.669 Y30.101 ;extruding 
G1 X34.159 Y29.872 ;extruding 
G1 X36.509 Y25.802 ;extruding 
G1 X36.485 Y26.394 ;extruding 
G1 X36.408 Y26.857 ;extruding 
G1 X36.350 Y27.088 ;extruding 
G1 X36.281 Y27.315 ;extruding 
G1 X36.107 Y27.761 ;extruding 
G1 X35.877 Y28.206 ;extruding 
FILEWRITE $hFile"\x05\x02\x30\x34\x44\x49\x20\x20\x43\x46\x03"
G1 X34.903 Y30.155 ;not extruding 
FILEWRITE $hFile"\x05\x02\x30\x34\x44\x49\x20\x20\x43\x46\x03"
DWELL 0.15
G1 X34.903 Y30.199 ;extruding 
G1 X35.224 Y30.257 ;extruding 
G1 X35.660 Y30.284 ;extruding 
G1 X35.652 Y29.528 ;extruding 
G1 X35.948 Y29.203 ;extruding 
G1 X36.121 Y28.979 ;extruding 
G1 X36.396 Y28.564 ;extruding 
G1 X36.416 Y30.243 ;extruding 
G1 X37.172 Y30.247 ;extruding 
G1 X37.160 Y29.237 ;extruding 
G1 X37.368 Y29.557 ;extruding 
G1 X37.605 Y29.859 ;extruding 
G1 X37.928 Y30.191 ;extruding 
FILEWRITE $hFile"\x05\x02\x30\x34\x44\x49\x20\x20\x43\x46\x03"
G1 X40.989 Y20.585 ;not extruding 
FILEWRITE $hFile"\x05\x02\x30\x34\x44\x49\x20\x20\x43\x46\x03"
DWELL 0.15
G1 X40.654 Y20.254 ;extruding 
G1 X40.281 Y19.957 ;extruding 
G1 X40.296 Y21.240 ;extruding 
G1 X40.183 Y21.382 ;extruding 
G1 X39.592 Y20.985 ;extruding 
G1 X39.575 Y19.547 ;extruding 
G1 X39.220 Y19.399 ;extruding 
G1 X38.871 Y19.288 ;extruding 
G1 X38.885 Y20.511 ;extruding 
G1 X38.365 Y20.162 ;extruding 
G1 X38.181 Y20.253 ;extruding 
G1 X38.168 Y19.137 ;extruding 
G1 X37.466 Y19.063 ;extruding 
G1 X37.528 Y24.333 ;extruding 
G1 X37.368 Y24.536 ;extruding 
G1 X37.061 Y25.044 ;extruding 
G1 X36.964 Y24.592 ;extruding 
G1 X36.825 Y24.114 ;extruding 
G1 X36.822 Y23.852 ;extruding 
G1 X36.894 Y23.115 ;extruding 
G1 X36.896 Y22.659 ;extruding 
G1 X36.880 Y22.385 ;extruding 
G1 X36.798 Y21.855 ;extruding 
G1 X36.765 Y19.045 ;extruding 
G1 X36.064 Y19.034 ;extruding 
G1 X36.067 Y19.295 ;extruding 
G1 X35.363 Y19.061 ;extruding 
FILEWRITE $hFile"\x05\x02\x30\x34\x44\x49\x20\x20\x43\x46\x03"
G1 X36.067 Y19.295 ;not extruding 
FILEWRITE $hFile"\x05\x02\x30\x34\x44\x49\x20\x20\x43\x46\x03"
DWELL 0.15
G1 X36.078 Y20.222 ;extruding 
FILEWRITE $hFile"\x05\x02\x30\x34\x44\x49\x20\x20\x43\x46\x03"
G1 X38.472 Y18.670 ;not extruding 
FILEWRITE $hFile"\x05\x02\x30\x34\x44\x49\x20\x20\x43\x46\x03"
DWELL 0.15
G1 X39.012 Y18.635 ;extruding 
G1 X39.244 Y18.868 ;extruding 
G1 X39.870 Y19.119 ;extruding 
G1 X40.321 Y19.370 ;extruding 
G1 X39.551 Y18.600 ;extruding 
G1 X40.091 Y18.564 ;extruding 
G1 X41.788 Y20.261 ;extruding 
G1 X42.214 Y20.112 ;extruding 
G1 X40.631 Y18.529 ;extruding 
G1 X41.170 Y18.493 ;extruding 
G1 X42.687 Y20.010 ;extruding 
G1 X42.902 Y19.978 ;extruding 
G1 X43.217 Y19.965 ;extruding 
G1 X41.710 Y18.458 ;extruding 
G1 X42.250 Y18.422 ;extruding 
G1 X43.841 Y20.014 ;extruding 
G1 X44.293 Y20.123 ;extruding 
G1 X44.478 Y20.076 ;extruding 
G1 X42.789 Y18.387 ;extruding 
G1 X43.333 Y18.356 ;extruding 
G1 X44.966 Y19.988 ;extruding 
G1 X45.162 Y19.968 ;extruding 
G1 X45.521 Y19.968 ;extruding 
G1 X43.888 Y18.335 ;extruding 
G1 X44.466 Y18.338 ;extruding 
G1 X46.202 Y20.074 ;extruding 
G1 X46.259 Y20.090 ;extruding 
G1 X46.706 Y20.003 ;extruding 
G1 X45.069 Y18.366 ;extruding 
G1 X45.699 Y18.421 ;extruding 
G1 X47.247 Y19.969 ;extruding 
G1 X47.695 Y19.996 ;extruding 
G1 X47.880 Y20.027 ;extruding 
G1 X46.373 Y18.520 ;extruding 
G1 X47.090 Y18.662 ;extruding 
G1 X48.661 Y20.233 ;extruding 
G1 X49.083 Y20.080 ;extruding 
G1 X47.855 Y18.852 ;extruding 
G1 X48.693 Y19.114 ;extruding 
G1 X49.568 Y19.990 ;extruding 
G1 X50.123 Y19.969 ;extruding 
G1 X49.653 Y19.499 ;extruding 
G1 X50.228 Y19.761 ;extruding 
G1 X50.792 Y20.063 ;extruding 
FILEWRITE $hFile"\x05\x02\x30\x34\x44\x49\x20\x20\x43\x46\x03"
G1 X53.433 Y22.153 ;not extruding 
FILEWRITE $hFile"\x05\x02\x30\x34\x44\x49\x20\x20\x43\x46\x03"
DWELL 0.15
G1 X53.941 Y22.660 ;extruding 
G1 X53.679 Y22.922 ;extruding 
G1 X53.726 Y23.174 ;extruding 
G1 X53.764 Y23.558 ;extruding 
G1 X53.758 Y23.858 ;extruding 
G1 X54.426 Y23.191 ;extruding 
G1 X54.878 Y23.753 ;extruding 
G1 X53.493 Y25.138 ;extruding 
G1 X53.232 Y25.723 ;extruding 
G1 X52.873 Y26.774 ;extruding 
G1 X55.302 Y24.345 ;extruding 
G1 X55.525 Y24.683 ;extruding 
G1 X54.972 Y25.493 ;extruding 
G1 X54.618 Y25.947 ;extruding 
G1 X54.253 Y26.376 ;extruding 
G1 X53.775 Y26.887 ;extruding 
FILEWRITE $hFile"\x05\x02\x30\x34\x44\x49\x20\x20\x43\x46\x03"
G1 X51.503 Y28.737 ;not extruding 
FILEWRITE $hFile"\x05\x02\x30\x34\x44\x49\x20\x20\x43\x46\x03"
DWELL 0.15
G1 X52.425 Y26.159 ;extruding 
G1 X52.636 Y25.518 ;extruding 
G1 X52.896 Y24.939 ;extruding 
G1 X53.045 Y24.454 ;extruding 
G1 X53.127 Y23.922 ;extruding 
G1 X53.133 Y23.583 ;extruding 
G1 X53.101 Y23.263 ;extruding 
G1 X53.017 Y22.870 ;extruding 
G1 X50.631 Y29.253 ;extruding 
G1 X50.187 Y29.492 ;extruding 
G1 X49.796 Y29.670 ;extruding 
G1 X52.653 Y22.027 ;extruding 
G1 X52.371 Y21.626 ;extruding 
G1 X52.195 Y21.433 ;extruding 
G1 X48.989 Y30.010 ;extruding 
G1 X48.207 Y30.286 ;extruding 
G1 X51.677 Y21.002 ;extruding 
G1 X51.458 Y20.863 ;extruding 
G1 X51.112 Y20.699 ;extruding 
G1 X47.739 Y29.721 ;extruding 
G1 X47.305 Y29.965 ;extruding 
G1 X47.506 Y30.344 ;extruding 
G1 X47.447 Y30.501 ;extruding 
G1 X46.705 Y30.669 ;extruding 
G1 X50.498 Y20.523 ;extruding 
G1 X50.015 Y20.473 ;extruding 
G1 X49.833 Y20.485 ;extruding 
G1 X45.981 Y30.789 ;extruding 
G1 X45.274 Y30.863 ;extruding 
G1 X49.105 Y20.615 ;extruding 
G1 X48.651 Y20.801 ;extruding 
G1 X48.396 Y20.695 ;extruding 
G1 X44.580 Y30.902 ;extruding 
G1 X43.941 Y30.913 ;extruding 
G1 X43.919 Y30.854 ;extruding 
G1 X47.779 Y20.529 ;extruding 
G1 X47.351 Y20.480 ;extruding 
G1 X47.118 Y20.480 ;extruding 
G1 X44.921 Y26.358 ;extruding 
G1 X44.574 Y25.467 ;extruding 
G1 X46.400 Y20.582 ;extruding 
G1 X46.080 Y20.681 ;extruding 
G1 X45.726 Y20.843 ;extruding 
G1 X45.592 Y20.927 ;extruding 
G1 X44.251 Y24.514 ;extruding 
G1 X44.158 Y23.942 ;extruding 
G1 X44.147 Y23.434 ;extruding 
G1 X44.218 Y22.875 ;extruding 
G1 X44.404 Y22.288 ;extruding 
FILEWRITE $hFile"\x05\x02\x30\x34\x44\x49\x20\x20\x43\x46\x03"
G1 X44.921 Y26.358 ;not extruding 
FILEWRITE $hFile"\x05\x02\x30\x34\x44\x49\x20\x20\x43\x46\x03"
DWELL 0.15
G1 X45.203 Y27.103 ;extruding 
G1 X44.918 Y27.291 ;extruding 
G1 X44.638 Y27.522 ;extruding 
G1 X44.382 Y27.799 ;extruding 
G1 X43.712 Y29.590 ;extruding 
FILEWRITE $hFile"\x05\x02\x30\x34\x44\x49\x20\x20\x43\x46\x03"
G1 X43.409 Y30.953 ;not extruding 
FILEWRITE $hFile"\x05\x02\x30\x34\x44\x49\x20\x20\x43\x46\x03"
DWELL 0.15
G1 X43.249 Y30.965 ;extruding 
G1 X42.727 Y30.937 ;extruding 
G1 X42.766 Y30.976 ;extruding 
G1 X42.426 Y30.954 ;extruding 
G1 X42.530 Y30.906 ;extruding 
G1 X42.727 Y30.937 ;extruding 
FILEWRITE $hFile"\x05\x02\x30\x34\x44\x49\x20\x20\x43\x46\x03"
G1 X39.381 Y30.414 ;not extruding 
FILEWRITE $hFile"\x05\x02\x30\x34\x44\x49\x20\x20\x43\x46\x03"
DWELL 0.15
G1 X39.680 Y30.533 ;extruding 
G1 X40.001 Y30.628 ;extruding 
G1 X40.315 Y30.690 ;extruding 
G1 X40.966 Y30.733 ;extruding 
G1 X41.539 Y30.674 ;extruding 
G1 X37.681 Y28.874 ;extruding 
G1 X37.545 Y28.617 ;extruding 
G1 X37.422 Y28.320 ;extruding 
G1 X37.311 Y27.955 ;extruding 
G1 X42.482 Y30.366 ;extruding 
G1 X42.822 Y30.182 ;extruding 
G1 X43.086 Y30.004 ;extruding 
G1 X43.088 Y29.902 ;extruding 
G1 X37.200 Y27.157 ;extruding 
G1 X37.207 Y26.731 ;extruding 
G1 X37.248 Y26.432 ;extruding 
G1 X43.120 Y29.171 ;extruding 
G1 X43.208 Y28.717 ;extruding 
G1 X43.286 Y28.501 ;extruding 
G1 X37.425 Y25.768 ;extruding 
G1 X37.545 Y25.477 ;extruding 
G1 X37.716 Y25.158 ;extruding 
G1 X43.555 Y27.880 ;extruding 
G1 X43.876 Y27.418 ;extruding 
G1 X43.963 Y27.324 ;extruding 
G1 X41.657 Y26.249 ;extruding 
G1 X41.657 Y26.702 ;extruding 
G1 X40.915 Y26.277 ;extruding 
G1 X41.068 Y25.974 ;extruding 
G1 X38.125 Y24.602 ;extruding 
G1 X38.305 Y24.410 ;extruding 
G1 X38.651 Y24.100 ;extruding 
G1 X44.409 Y26.785 ;extruding 
G1 X44.066 Y25.879 ;extruding 
G1 X38.657 Y23.356 ;extruding 
G1 X38.657 Y22.610 ;extruding 
G1 X43.719 Y24.970 ;extruding 
G1 X43.619 Y24.578 ;extruding 
G1 X43.574 Y24.525 ;extruding 
G1 X43.339 Y24.298 ;extruding 
G1 X43.086 Y24.089 ;extruding 
G1 X42.301 Y23.562 ;extruding 
G1 X38.657 Y21.863 ;extruding 
G1 X38.658 Y21.116 ;extruding 
FILEWRITE $hFile"\x05\x02\x30\x34\x44\x49\x20\x20\x43\x46\x03"
G1 X40.706 Y21.733 ;not extruding 
FILEWRITE $hFile"\x05\x02\x30\x34\x44\x49\x20\x20\x43\x46\x03"
DWELL 0.15
G1 X40.917 Y21.482 ;extruding 
G1 X41.156 Y21.250 ;extruding 
G1 X41.916 Y22.545 ;extruding 
G1 X43.126 Y23.357 ;extruding 
G1 X41.678 Y20.891 ;extruding 
G1 X41.983 Y20.735 ;extruding 
G1 X42.260 Y20.634 ;extruding 
G1 X43.579 Y22.879 ;extruding 
G1 X43.692 Y22.408 ;extruding 
G1 X43.822 Y22.045 ;extruding 
G1 X42.911 Y20.493 ;extruding 
G1 X43.295 Y20.474 ;extruding 
G1 X43.647 Y20.498 ;extruding 
G1 X44.182 Y21.410 ;extruding 
G1 X44.289 Y21.249 ;extruding 
G1 X44.610 Y20.891 ;extruding 
G1 X44.446 Y20.611 ;extruding 
G1 X44.821 Y20.517 ;extruding 
G1 X45.107 Y20.488 ;extruding 
FILEWRITE $hFile"\x05\x02\x30\x34\x44\x49\x20\x20\x43\x46\x03"
G1 X38.844 Y30.719 ;not extruding 
FILEWRITE $hFile"\x05\x02\x30\x34\x44\x49\x20\x20\x43\x46\x03"
DWELL 0.15
G1 X38.844 Y30.719 ;extruding 
FILEWRITE $hFile"\x05\x02\x30\x34\x44\x49\x20\x20\x43\x46\x03"
G1 X38.161 Y30.674 ;not extruding 
FILEWRITE $hFile"\x05\x02\x30\x34\x44\x49\x20\x20\x43\x46\x03"
DWELL 0.15
G1 X38.161 Y30.674 ;extruding 
FILEWRITE $hFile"\x05\x02\x30\x34\x44\x49\x20\x20\x43\x46\x03"
G1 X28.347 Y29.911 ;not extruding 
FILEWRITE $hFile"\x05\x02\x30\x34\x44\x49\x20\x20\x43\x46\x03"
DWELL 0.15
G1 X25.366 Y29.715 ;extruding 
G1 X25.839 Y29.232 ;extruding 
G1 X27.786 Y29.232 ;extruding 
G1 X27.499 Y28.791 ;extruding 
G1 X27.382 Y28.553 ;extruding 
G1 X26.485 Y28.553 ;extruding 
G1 X27.132 Y27.875 ;extruding 
FILEWRITE $hFile"\x05\x02\x30\x34\x44\x49\x20\x20\x43\x46\x03"
G1 X24.433 Y29.654 ;not extruding 
FILEWRITE $hFile"\x05\x02\x30\x34\x44\x49\x20\x20\x43\x46\x03"
DWELL 0.15
G1 X24.834 Y29.349 ;extruding 
G1 X25.194 Y28.996 ;extruding 
G1 X20.268 Y29.147 ;extruding 
G1 X20.268 Y28.512 ;extruding 
G1 X25.817 Y28.342 ;extruding 
G1 X26.440 Y27.688 ;extruding 
G1 X20.267 Y27.878 ;extruding 
G1 X20.267 Y27.541 ;extruding 
G1 X25.622 Y27.539 ;extruding 
G1 X25.622 Y27.078 ;extruding 
G1 X27.006 Y27.036 ;extruding 
G1 X26.998 Y26.803 ;extruding 
G1 X27.021 Y26.400 ;extruding 
G1 X25.622 Y26.443 ;extruding 
G1 X25.622 Y25.809 ;extruding 
G1 X27.153 Y25.761 ;extruding 
G1 X27.328 Y25.264 ;extruding 
G1 X27.404 Y25.119 ;extruding 
G1 X25.622 Y25.174 ;extruding 
G1 X25.625 Y24.539 ;extruding 
FILEWRITE $hFile"\x05\x02\x30\x34\x44\x49\x20\x20\x43\x46\x03"
G1 D-148.500 ;not extruding 
G1 X25.111 Y21.926 ;not extruding 
FILEWRITE $hFile"\x05\x02\x30\x34\x44\x49\x20\x20\x43\x46\x03"
DWELL 0.15
G1 X19.517 Y21.925 ;extruding 
G1 X19.520 Y19.246 ;extruding 
G1 X43.186 Y17.604 ;extruding 
G1 X44.259 Y17.576 ;extruding 
G1 X45.226 Y17.617 ;extruding 
G1 X46.081 Y17.706 ;extruding 
G1 X47.000 Y17.859 ;extruding 
G1 X47.944 Y18.079 ;extruding 
G1 X48.936 Y18.381 ;extruding 
G1 X49.782 Y18.701 ;extruding 
G1 X50.726 Y19.131 ;extruding 
G1 X51.505 Y19.549 ;extruding 
G1 X52.367 Y20.085 ;extruding 
G1 X53.184 Y20.674 ;extruding 
G1 X53.918 Y21.284 ;extruding 
G1 X54.591 Y21.919 ;extruding 
G1 X55.244 Y22.620 ;extruding 
G1 X55.886 Y23.409 ;extruding 
G1 X56.429 Y24.175 ;extruding 
G1 X56.744 Y24.688 ;extruding 
G1 X56.295 Y25.389 ;extruding 
G1 X55.925 Y25.905 ;extruding 
G1 X55.533 Y26.404 ;extruding 
G1 X55.122 Y26.883 ;extruding 
G1 X54.695 Y27.341 ;extruding 
G1 X54.149 Y27.872 ;extruding 
G1 X53.682 Y28.286 ;extruding 
G1 X53.197 Y28.681 ;extruding 
G1 X52.627 Y29.102 ;extruding 
G1 X52.174 Y29.407 ;extruding 
G1 X51.529 Y29.803 ;extruding 
G1 X50.621 Y30.285 ;extruding 
G1 X49.678 Y30.706 ;extruding 
G1 X48.692 Y31.065 ;extruding 
G1 X47.804 Y31.322 ;extruding 
G1 X46.880 Y31.529 ;extruding 
G1 X45.930 Y31.678 ;extruding 
G1 X44.955 Y31.765 ;extruding 
G1 X43.952 Y31.788 ;extruding 
G1 X42.885 Y31.740 ;extruding 
G1 X19.521 Y30.123 ;extruding 
G1 X19.518 Y27.439 ;extruding 
G1 X25.111 Y27.439 ;extruding 
G1 X25.111 Y22.013 ;extruding 
FILEWRITE $hFile"\x05\x02\x30\x34\x44\x49\x20\x20\x43\x46\x03"
G1 X24.718 Y22.319 ;not extruding 
FILEWRITE $hFile"\x05\x02\x30\x34\x44\x49\x20\x20\x43\x46\x03"
DWELL 0.15
G1 X19.124 Y22.318 ;extruding 
G1 X19.124 Y19.279 ;extruding 
G1 X19.145 Y19.081 ;extruding 
G1 X19.195 Y18.975 ;extruding 
G1 X19.296 Y18.887 ;extruding 
G1 X19.507 Y18.849 ;extruding 
G1 X43.167 Y17.212 ;extruding 
G1 X44.263 Y17.183 ;extruding 
G1 X45.254 Y17.225 ;extruding 
G1 X46.133 Y17.317 ;extruding 
G1 X47.077 Y17.474 ;extruding 
G1 X48.046 Y17.699 ;extruding 
G1 X49.063 Y18.009 ;extruding 
G1 X49.933 Y18.338 ;extruding 
G1 X50.901 Y18.779 ;extruding 
G1 X51.702 Y19.209 ;extruding 
G1 X52.586 Y19.759 ;extruding 
G1 X53.424 Y20.363 ;extruding 
G1 X54.179 Y20.990 ;extruding 
G1 X54.870 Y21.642 ;extruding 
G1 X55.541 Y22.362 ;extruding 
G1 X56.199 Y23.171 ;extruding 
G1 X56.757 Y23.959 ;extruding 
G1 X57.200 Y24.681 ;extruding 
G1 X56.619 Y25.610 ;extruding 
G1 X56.239 Y26.141 ;extruding 
G1 X55.837 Y26.653 ;extruding 
G1 X55.415 Y27.145 ;extruding 
G1 X54.975 Y27.616 ;extruding 
G1 X54.416 Y28.160 ;extruding 
G1 X53.936 Y28.585 ;extruding 
G1 X53.438 Y28.991 ;extruding 
G1 X52.853 Y29.423 ;extruding 
G1 X52.387 Y29.738 ;extruding 
G1 X51.724 Y30.144 ;extruding 
G1 X50.793 Y30.639 ;extruding 
G1 X49.826 Y31.070 ;extruding 
G1 X48.814 Y31.438 ;extruding 
G1 X47.901 Y31.703 ;extruding 
G1 X46.954 Y31.915 ;extruding 
G1 X45.978 Y32.068 ;extruding 
G1 X44.976 Y32.158 ;extruding 
G1 X43.948 Y32.181 ;extruding 
G1 X42.862 Y32.132 ;extruding 
G1 X19.477 Y30.513 ;extruding 
G1 X19.339 Y30.491 ;extruding 
G1 X19.239 Y30.444 ;extruding 
G1 X19.162 Y30.337 ;extruding 
G1 X19.128 Y30.151 ;extruding 
G1 X19.125 Y27.047 ;extruding 
G1 X24.718 Y27.046 ;extruding 
G1 X24.718 Y22.406 ;extruding 
FILEWRITE $hFile"\x05\x02\x30\x34\x44\x49\x20\x20\x43\x46\x03"
G1 X24.325 Y22.711 ;not extruding 
FILEWRITE $hFile"\x05\x02\x30\x34\x44\x49\x20\x20\x43\x46\x03"
DWELL 0.15
