DVAR $hFile
DVAR $cCheck
DVAR $press
DVAR $length
DVAR $lame
DVAR $comport
DVAR $COM5
DVAR $linepressure5


G71
G76
G91 ;G90 = absolute, G91 = relative
G68

RAMP TYPE SINE X Y
VELOCITY OFF
RAMP RATE 900

$linepressure5 = 20.0000
CALL setPress5 P$COM5 Q$linepressure5

ENABLE X Y D
'HOME X Y D
G90
G0 D-80 F60
G0 X0 Y0 D0 F60
G91

;Begin Motion
'G0 X150 Y50 F60
G0 D-149.5 F60
G1 F20

FILECLOSE
$hFile = FILEOPEN "COM5", 2
COMMINIT $hFile, "baud=115200 parity=N data=8 stop=1"
COMMSETTIMEOUT $hFile, -1, -1, 1000

;
FILEWRITE $hFile"\x05\x02\x30\x38\x50\x53\x20\x20\x30\x33\x34\x30\x45\x45\x03"

; Postprocessed by [ArcWelder](https://github.com/FormerLurker/ArcWelderLib) 
; Copyright(C) 2021 - Brad Hochgesang 
; Version: 1.2.0, Branch: master, BuildDate: 2021-11-22T09:56:32D 
; resolution=0.05mm 
; path_tolerance=5.0% 
; max_radius=9999.00mm 
; default_xyz_precision=3 
; default_e_precision=5 
; extrusion_rate_variance_percent=5.0% 
; generated by Slic3r 1.3.0 on 2023-07-27 at 16:45:12 
; external perimeters extrusion width = 0.35mm (1.44mm^3/s) 
; perimeters extrusion width = 0.35mm (1.44mm^3/s) 
; infill extrusion width = 0.35mm (1.44mm^3/s) 
; solid infill extrusion width = 0.35mm (1.44mm^3/s) 
; top infill extrusion width = 0.35mm (1.44mm^3/s) 
; Filament gcode 
; CW1 ; set units to millimeters 
G90 ; use absolute coordinates 
G1 D-149.650 ;not extruding 
G1 X100.182 Y130.045 ;not extruding 
FILEWRITE $hFile"\x05\x02\x30\x34\x44\x49\x20\x20\x43\x46\x03"
DWELL 0.15
G1 X100.188 Y129.123 ;extruding 
CW X101.444 Y126.325 I-31.981 J-16.037 
G1 X101.448 Y126.192 ;extruding 
G1 X101.160 Y124.959 ;extruding 
G1 X103.351 Y121.518 ;extruding 
G1 X105.619 Y118.819 ;extruding 
G1 X108.134 Y116.526 ;extruding 
G1 X111.211 Y114.447 ;extruding 
G1 X112.238 Y113.894 ;extruding 
G1 X116.768 Y111.878 ;extruding 
G1 X121.507 Y110.236 ;extruding 
G1 X128.855 Y108.216 ;extruding 
G1 X130.617 Y107.773 ;extruding 
G1 X134.385 Y106.567 ;extruding 
G1 X137.415 Y105.118 ;extruding 
G1 X140.304 Y103.163 ;extruding 
G1 X142.740 Y100.858 ;extruding 
G1 X144.774 Y98.193 ;extruding 
G1 X147.733 Y92.790 ;extruding 
G1 X149.437 Y90.322 ;extruding 
CCW X155.246 Y84.163 I57.083 J48.021 
G1 X155.772 Y84.517 ;extruding 
G1 X155.283 Y86.954 ;extruding 
G1 X158.015 Y85.754 ;extruding 
G1 X157.145 Y88.126 ;extruding 
G1 X157.230 Y88.188 ;extruding 
G1 X159.745 Y86.729 ;extruding 
G1 X159.514 Y88.788 ;extruding 
G1 X162.222 Y86.709 ;extruding 
G1 X162.831 Y86.287 ;extruding 
G1 X162.722 Y87.106 ;extruding 
G1 X162.072 Y88.933 ;extruding 
G1 X162.128 Y88.980 ;extruding 
G1 X165.027 Y86.619 ;extruding 
G1 X165.303 Y86.800 ;extruding 
G1 X164.546 Y89.450 ;extruding 
G1 X166.716 Y87.113 ;extruding 
G1 X167.370 Y87.497 ;extruding 
CCW X164.618 Y94.035 I-158.785 J-62.988 
G1 X162.571 Y97.797 ;extruding 
G1 X160.138 Y101.251 ;extruding 
G1 X157.224 Y104.570 ;extruding 
G1 X153.770 Y107.812 ;extruding 
G1 X143.794 Y115.743 ;extruding 
G1 X138.022 Y120.997 ;extruding 
G1 X132.657 Y126.589 ;extruding 
G1 X127.679 Y132.534 ;extruding 
G1 X123.071 Y138.850 ;extruding 
CCW X116.680 Y148.569 I-236.885 J-148.809 
G1 X112.403 Y153.965 ;extruding 
G1 X109.790 Y157.004 ;extruding 
G1 X106.738 Y160.198 ;extruding 
G1 X103.929 Y162.569 ;extruding 
G1 X101.157 Y164.371 ;extruding 
G1 X99.347 Y165.297 ;extruding 
G1 X99.087 Y164.884 ;extruding 
G1 X99.556 Y164.387 ;extruding 
G1 X102.150 Y161.333 ;extruding 
G1 X104.153 Y158.150 ;extruding 
G1 X105.522 Y154.956 ;extruding 
G1 X106.324 Y151.719 ;extruding 
G1 X106.597 Y148.396 ;extruding 
G1 X106.349 Y144.933 ;extruding 
CW X105.456 Y141.511 I-12.419 J1.413 
CW X103.937 Y138.751 I-43.451 J22.116 
G1 X103.857 Y138.552 ;extruding 
G1 X102.777 Y139.828 ;extruding 
G1 X102.547 Y135.519 ;extruding 
G1 X101.676 Y136.520 ;extruding 
G1 X101.027 Y136.265 ;extruding 
G1 X102.234 Y131.704 ;extruding 
G1 X100.661 Y132.966 ;extruding 
G1 X100.126 Y132.716 ;extruding 
G1 X101.764 Y129.086 ;extruding 
G1 X100.742 Y129.566 ;extruding 
G1 X100.222 Y130.011 ;extruding 
FILEWRITE $hFile"\x05\x02\x30\x34\x44\x49\x20\x20\x43\x46\x03"
G1 X99.279 Y131.334 ;not extruding 
G1 X99.289 Y131.091 ;not extruding 
G1 X98.821 Y130.731 ;not extruding 
G1 X98.971 Y128.770 ;not extruding 
G1 X99.458 Y127.036 ;not extruding 
G1 X99.878 Y124.529 ;not extruding 
G1 X101.422 Y121.585 ;not extruding 
G1 X101.613 Y120.547 ;not extruding 
G1 X101.614 Y118.560 ;not extruding 
G1 X102.676 Y116.537 ;not extruding 
G1 X106.626 Y112.049 ;not extruding 
G1 X108.765 Y108.376 ;not extruding 
G1 X109.762 Y105.254 ;not extruding 
G1 X115.010 Y106.914 ;not extruding 
G1 X119.231 Y107.592 ;not extruding 
G1 X120.397 Y107.362 ;not extruding 
G1 X122.063 Y107.522 ;not extruding 
G1 X126.605 Y106.949 ;not extruding 
G1 X130.123 Y106.106 ;not extruding 
G1 X133.686 Y104.805 ;not extruding 
G1 X136.407 Y103.360 ;not extruding 
G1 X138.983 Y101.517 ;not extruding 
G1 X140.915 Y99.695 ;not extruding 
G1 X142.555 Y97.618 ;not extruding 
G1 X144.449 Y94.217 ;not extruding 
G1 X145.605 Y93.163 ;not extruding 
G1 X145.262 Y92.372 ;not extruding 
G1 X145.591 Y91.411 ;not extruding 
G1 X143.991 Y91.839 ;not extruding 
G1 X143.808 Y90.654 ;not extruding 
CCW X142.560 Y89.876 I1.730 J-4.166 
CCW X142.024 Y86.756 I1.754 J-1.907 
CCW X143.635 Y84.967 I3.654 J1.671 
CCW X146.300 Y85.222 I1.122 J2.323 
CCW X147.532 Y86.395 I-3.394 J4.798 
FILEWRITE $hFile"\x05\x02\x30\x34\x44\x49\x20\x20\x43\x46\x03"
DWELL 0.15
G1 X143.842 Y90.614 ;extruding 
FILEWRITE $hFile"\x05\x02\x30\x34\x44\x49\x20\x20\x43\x46\x03"
G1 X142.672 Y92.358 ;not extruding 
FILEWRITE $hFile"\x05\x02\x30\x34\x44\x49\x20\x20\x43\x46\x03"
DWELL 0.15
G1 X142.665 Y92.687 ;extruding 
CCW X139.717 Y92.803 I-1.654 J-4.504 
G1 X138.803 Y92.493 ;extruding 
G1 X137.717 Y91.925 ;extruding 
G1 X136.666 Y91.146 ;extruding 
G1 X135.626 Y90.091 ;extruding 
G1 X134.700 Y88.787 ;extruding 
G1 X134.405 Y88.252 ;extruding 
G1 X133.766 Y86.700 ;extruding 
G1 X133.393 Y85.089 ;extruding 
G1 X133.284 Y83.421 ;extruding 
G1 X133.449 Y81.735 ;extruding 
G1 X133.890 Y80.088 ;extruding 
G1 X134.597 Y78.540 ;extruding 
G1 X135.541 Y77.157 ;extruding 
G1 X136.680 Y75.983 ;extruding 
CCW X139.968 Y74.194 I5.564 J6.310 
G1 X141.283 Y73.943 ;extruding 
G1 X142.382 Y73.921 ;extruding 
CCW X145.002 Y75.192 I-0.154 J3.654 
G1 X142.005 Y75.344 ;extruding 
G1 X140.338 Y75.708 ;extruding 
G1 X139.039 Y76.212 ;extruding 
G1 X137.925 Y76.868 ;extruding 
CW X135.717 Y79.453 I4.056 J5.700 
CW X135.107 Y81.099 I7.535 J3.729 
G1 X134.726 Y83.284 ;extruding 
G1 X134.714 Y84.749 ;extruding 
G1 X134.894 Y85.952 ;extruding 
CW X136.403 Y88.905 I6.652 J-1.537 
G1 X137.253 Y89.744 ;extruding 
G1 X138.369 Y90.560 ;extruding 
G1 X140.238 Y91.525 ;extruding 
G1 X142.622 Y92.341 ;extruding 
FILEWRITE $hFile"\x05\x02\x30\x34\x44\x49\x20\x20\x43\x46\x03"
G1 X141.852 Y94.542 ;not extruding 
FILEWRITE $hFile"\x05\x02\x30\x34\x44\x49\x20\x20\x43\x46\x03"
DWELL 0.15
G1 X140.849 Y96.370 ;extruding 
G1 X139.302 Y98.351 ;extruding 
G1 X136.905 Y100.576 ;extruding 
G1 X133.977 Y102.568 ;extruding 
G1 X130.839 Y104.073 ;extruding 
G1 X128.297 Y104.844 ;extruding 
G1 X126.407 Y105.116 ;extruding 
G1 X124.360 Y105.084 ;extruding 
G1 X125.704 Y103.986 ;extruding 
G1 X119.884 Y104.307 ;extruding 
G1 X119.855 Y103.655 ;extruding 
G1 X122.738 Y102.443 ;extruding 
G1 X118.202 Y101.984 ;extruding 
G1 X118.155 Y101.402 ;extruding 
G1 X120.048 Y100.516 ;extruding 
CCW X118.704 Y100.361 I0.890 J-13.621 
CCW X116.506 Y99.172 I0.775 J-4.059 
CCW X115.963 Y95.937 I2.598 J-2.099 
G1 X116.034 Y95.724 ;extruding 
G1 X116.594 Y94.485 ;extruding 
CCW X117.859 Y92.895 I4.911 J2.609 
CCW X124.003 Y88.657 I40.450 J52.070 
G1 X124.560 Y88.359 ;extruding 
G1 X124.525 Y88.266 ;extruding 
G1 X120.412 Y89.287 ;extruding 
G1 X117.459 Y89.753 ;extruding 
G1 X115.228 Y89.793 ;extruding 
G1 X113.343 Y89.537 ;extruding 
G1 X111.603 Y89.014 ;extruding 
G1 X110.975 Y88.758 ;extruding 
G1 X111.451 Y88.261 ;extruding 
G1 X108.493 Y87.566 ;extruding 
G1 X108.541 Y87.049 ;extruding 
G1 X110.354 Y86.598 ;extruding 
G1 X106.572 Y85.406 ;extruding 
G1 X106.762 Y84.928 ;extruding 
G1 X108.900 Y84.778 ;extruding 
CCW X107.667 Y78.768 I2.764 J-3.698 
CCW X108.647 Y77.499 I4.630 J2.563 
CCW X111.607 Y75.044 I14.359 J14.301 
G1 X115.611 Y72.800 ;extruding 
G1 X119.762 Y71.088 ;extruding 
G1 X123.971 Y69.939 ;extruding 
G1 X127.971 Y69.352 ;extruding 
G1 X128.843 Y69.286 ;extruding 
CCW X135.992 Y69.261 I3.975 J114.633 
G1 X136.293 Y69.914 ;extruding 
G1 X134.059 Y71.085 ;extruding 
G1 X132.790 Y72.025 ;extruding 
G1 X131.791 Y73.038 ;extruding 
G1 X130.875 Y74.343 ;extruding 
G1 X130.700 Y74.681 ;extruding 
G1 X134.233 Y72.756 ;extruding 
G1 X135.793 Y72.141 ;extruding 
CCW X137.862 Y71.832 I1.984 J6.200 
CCW X140.758 Y72.289 I-0.722 J13.978 
G1 X137.325 Y74.179 ;extruding 
G1 X135.417 Y75.658 ;extruding 
G1 X134.106 Y77.049 ;extruding 
G1 X133.117 Y78.514 ;extruding 
G1 X132.487 Y79.889 ;extruding 
G1 X132.066 Y81.431 ;extruding 
G1 X131.896 Y83.059 ;extruding 
G1 X131.999 Y84.950 ;extruding 
G1 X132.419 Y86.908 ;extruding 
G1 X133.060 Y88.538 ;extruding 
G1 X134.013 Y90.139 ;extruding 
G1 X134.911 Y91.247 ;extruding 
G1 X136.221 Y92.465 ;extruding 
G1 X137.481 Y93.301 ;extruding 
G1 X138.928 Y93.952 ;extruding 
G1 X140.481 Y94.363 ;extruding 
G1 X141.800 Y94.535 ;extruding 
FILEWRITE $hFile"\x05\x02\x30\x34\x44\x49\x20\x20\x43\x46\x03"
G1 X141.656 Y94.645 ;not extruding 
G1 X143.101 Y93.979 ;not extruding 
G1 X143.170 Y93.648 ;not extruding 
G1 X144.449 Y94.217 ;not extruding 
G1 X145.605 Y93.163 ;not extruding 
G1 X146.141 Y91.869 ;not extruding 
G1 X146.106 Y91.324 ;not extruding 
G1 X149.971 Y86.521 ;not extruding 
G1 X150.340 Y84.363 ;not extruding 
G1 X150.230 Y82.074 ;not extruding 
G1 X146.727 Y79.992 ;not extruding 
G1 X146.964 Y77.313 ;not extruding 
G1 X146.540 Y74.731 ;not extruding 
G1 X146.189 Y73.971 ;not extruding 
G1 X143.403 Y70.947 ;not extruding 
G1 X142.477 Y68.772 ;not extruding 
G1 X143.750 Y64.602 ;not extruding 
G1 X144.533 Y62.838 ;not extruding 
G1 X145.429 Y61.313 ;not extruding 
G1 X148.418 Y59.214 ;not extruding 
CCW X149.272 Y58.968 I0.956 J1.715 
G1 X151.480 Y60.327 ;not extruding 
G1 X152.170 Y61.297 ;not extruding 
G1 X153.636 Y62.849 ;not extruding 
G1 X153.222 Y64.296 ;not extruding 
G1 X152.970 Y66.221 ;not extruding 
G1 X153.014 Y67.008 ;not extruding 
G1 X153.434 Y67.729 ;not extruding 
G1 X154.505 Y68.679 ;not extruding 
G1 X156.138 Y69.216 ;not extruding 
G1 X160.044 Y69.685 ;not extruding 
G1 X159.513 Y72.165 ;not extruding 
G1 X158.826 Y72.859 ;not extruding 
CW X159.300 Y75.101 I9.797 J-0.900 
FILEWRITE $hFile"\x05\x02\x30\x34\x44\x49\x20\x20\x43\x46\x03"
DWELL 0.15
G1 X160.438 Y77.066 ;extruding 
G1 X161.395 Y78.228 ;extruding 
G1 X162.355 Y79.080 ;extruding 
G1 X162.940 Y79.480 ;extruding 
G1 X164.054 Y80.038 ;extruding 
G1 X165.232 Y80.395 ;extruding 
CW X167.424 Y80.569 I1.790 J-8.655 
G1 X170.052 Y80.244 ;extruding 
CW X175.622 Y79.060 I-15.947 J-88.717 
G1 X175.792 Y79.342 ;extruding 
G1 X174.481 Y80.820 ;extruding 
G1 X173.005 Y82.009 ;extruding 
G1 X171.422 Y82.899 ;extruding 
G1 X169.752 Y83.503 ;extruding 
G1 X168.021 Y83.822 ;extruding 
G1 X166.276 Y83.852 ;extruding 
G1 X164.556 Y83.593 ;extruding 
G1 X162.921 Y83.056 ;extruding 
G1 X161.415 Y82.258 ;extruding 
G1 X160.072 Y81.223 ;extruding 
CCW X158.150 Y78.954 I10.281 J-10.657 
CW X156.713 Y78.342 I-1.385 J1.259 
G1 X154.717 Y78.218 ;extruding 
G1 X153.040 Y77.814 ;extruding 
G1 X151.514 Y77.161 ;extruding 
G1 X150.159 Y76.290 ;extruding 
G1 X148.968 Y75.209 ;extruding 
G1 X147.970 Y73.942 ;extruding 
G1 X147.185 Y72.509 ;extruding 
G1 X146.833 Y71.604 ;extruding 
G1 X146.430 Y69.974 ;extruding 
G1 X146.312 Y68.355 ;extruding 
G1 X146.464 Y66.844 ;extruding 
G1 X146.829 Y65.531 ;extruding 
G1 X147.402 Y64.318 ;extruding 
G1 X148.145 Y63.265 ;extruding 
CCW X149.337 Y62.118 I7.299 J6.392 
CCW X149.434 Y63.597 I-9.229 J1.348 
G1 X148.985 Y65.672 ;extruding 
CW X148.993 Y67.638 I6.493 J0.957 
CW X150.802 Y70.443 I4.164 J-0.700 
G1 X151.812 Y71.044 ;extruding 
G1 X153.585 Y71.740 ;extruding 
CW X158.774 Y72.849 I13.870 J-52.204 
FILEWRITE $hFile"\x05\x02\x30\x34\x44\x49\x20\x20\x43\x46\x03"
G1 X159.513 Y72.165 ;not extruding 
G1 X160.044 Y69.685 ;not extruding 
G1 X156.138 Y69.216 ;not extruding 
G1 X154.505 Y68.679 ;not extruding 
G1 X153.434 Y67.729 ;not extruding 
G1 X153.014 Y67.008 ;not extruding 
G1 X152.970 Y66.221 ;not extruding 
G1 X153.222 Y64.296 ;not extruding 
G1 X153.636 Y62.849 ;not extruding 
G1 X152.170 Y61.297 ;not extruding 
G1 X151.480 Y60.327 ;not extruding 
G1 X149.272 Y58.968 ;not extruding 
G1 X148.418 Y59.214 ;not extruding 
G1 X145.429 Y61.313 ;not extruding 
G1 X143.903 Y64.225 ;not extruding 
G1 X142.736 Y67.895 ;not extruding 
G1 X140.190 Y66.783 ;not extruding 
G1 X139.681 Y65.886 ;not extruding 
FILEWRITE $hFile"\x05\x02\x30\x34\x44\x49\x20\x20\x43\x46\x03"
DWELL 0.15
G1 X133.249 Y65.064 ;extruding 
G1 X128.374 Y64.068 ;extruding 
G1 X124.116 Y62.784 ;extruding 
G1 X120.327 Y61.192 ;extruding 
G1 X117.717 Y59.776 ;extruding 
G1 X116.388 Y58.815 ;extruding 
CCW X111.997 Y54.430 I102.301 J-106.832 
G1 X113.629 Y54.273 ;extruding 
G1 X110.791 Y51.255 ;extruding 
G1 X110.948 Y50.969 ;extruding 
G1 X112.823 Y51.320 ;extruding 
G1 X110.671 Y48.640 ;extruding 
G1 X110.145 Y47.799 ;extruding 
G1 X112.422 Y48.503 ;extruding 
G1 X109.963 Y44.433 ;extruding 
G1 X110.456 Y44.098 ;extruding 
G1 X111.915 Y44.879 ;extruding 
G1 X110.229 Y40.237 ;extruding 
G1 X110.831 Y40.027 ;extruding 
G1 X112.107 Y41.160 ;extruding 
CCW X111.761 Y37.008 I70.329 J-7.951 
G1 X111.890 Y35.005 ;extruding 
G1 X112.236 Y33.408 ;extruding 
G1 X112.763 Y32.041 ;extruding 
G1 X113.479 Y30.808 ;extruding 
G1 X113.588 Y30.653 ;extruding 
G1 X115.717 Y28.127 ;extruding 
G1 X118.177 Y25.935 ;extruding 
G1 X121.148 Y23.868 ;extruding 
G1 X125.260 Y21.558 ;extruding 
G1 X125.232 Y27.923 ;extruding 
G1 X125.660 Y32.897 ;extruding 
G1 X126.486 Y37.382 ;extruding 
G1 X127.686 Y41.452 ;extruding 
G1 X129.152 Y44.964 ;extruding 
G1 X131.255 Y48.690 ;extruding 
G1 X133.782 Y52.067 ;extruding 
G1 X136.754 Y55.138 ;extruding 
G1 X140.208 Y57.939 ;extruding 
G1 X142.482 Y59.471 ;extruding 
G1 X139.702 Y65.838 ;extruding 
FILEWRITE $hFile"\x05\x02\x30\x34\x44\x49\x20\x20\x43\x46\x03"
G1 X133.104 Y66.891 ;not extruding 
FILEWRITE $hFile"\x05\x02\x30\x34\x44\x49\x20\x20\x43\x46\x03"
DWELL 0.15
G1 X133.087 Y67.288 ;extruding 
G1 X126.338 Y67.908 ;extruding 
G1 X121.831 Y68.492 ;extruding 
G1 X121.017 Y68.646 ;extruding 
G1 X116.443 Y69.836 ;extruding 
G1 X112.637 Y71.300 ;extruding 
G1 X108.872 Y73.307 ;extruding 
G1 X105.548 Y75.698 ;extruding 
G1 X102.615 Y78.475 ;extruding 
G1 X100.580 Y80.915 ;extruding 
G1 X98.622 Y83.946 ;extruding 
G1 X97.118 Y87.201 ;extruding 
G1 X96.078 Y90.656 ;extruding 
G1 X95.554 Y94.190 ;extruding 
G1 X95.565 Y97.596 ;extruding 
G1 X96.105 Y100.876 ;extruding 
G1 X97.010 Y103.566 ;extruding 
G1 X98.233 Y105.908 ;extruding 
G1 X99.937 Y108.163 ;extruding 
G1 X101.802 Y109.925 ;extruding 
G1 X102.331 Y110.339 ;extruding 
CW X100.739 Y113.183 I16.375 J11.034 
CCW X98.865 Y114.230 I-1.904 J-1.208 
G1 X98.594 Y114.246 ;extruding 
G1 X94.061 Y114.147 ;extruding 
G1 X89.728 Y113.540 ;extruding 
G1 X85.555 Y112.443 ;extruding 
G1 X81.503 Y110.856 ;extruding 
G1 X77.537 Y108.765 ;extruding 
G1 X73.624 Y106.139 ;extruding 
G1 X69.999 Y103.174 ;extruding 
CCW X69.401 Y101.308 I1.747 J-1.589 
G1 X70.820 Y93.828 ;extruding 
G1 X72.727 Y86.554 ;extruding 
G1 X75.145 Y79.358 ;extruding 
G1 X78.081 Y72.229 ;extruding 
G1 X80.215 Y67.740 ;extruding 
G1 X83.983 Y60.743 ;extruding 
G1 X89.004 Y51.948 ;extruding 
G1 X90.753 Y54.446 ;extruding 
G1 X92.551 Y56.274 ;extruding 
G1 X94.581 Y57.780 ;extruding 
G1 X97.092 Y59.151 ;extruding 
G1 X101.041 Y60.733 ;extruding 
G1 X103.317 Y61.507 ;extruding 
G1 X100.911 Y57.825 ;extruding 
G1 X99.206 Y54.686 ;extruding 
G1 X97.984 Y51.631 ;extruding 
G1 X97.609 Y50.353 ;extruding 
G1 X97.899 Y50.172 ;extruding 
CW X102.217 Y54.013 I58.412 J-61.318 
CW X106.176 Y56.673 I37.592 J-51.674 
G1 X104.969 Y52.308 ;extruding 
G1 X104.299 Y48.476 ;extruding 
G1 X104.113 Y45.023 ;extruding 
G1 X104.377 Y41.800 ;extruding 
G1 X104.825 Y39.647 ;extruding 
G1 X105.199 Y39.655 ;extruding 
G1 X106.123 Y45.212 ;extruding 
G1 X107.245 Y49.326 ;extruding 
G1 X108.617 Y52.745 ;extruding 
G1 X110.248 Y55.632 ;extruding 
G1 X112.362 Y58.326 ;extruding 
G1 X113.674 Y59.620 ;extruding 
G1 X116.334 Y61.664 ;extruding 
G1 X119.443 Y63.388 ;extruding 
G1 X123.111 Y64.827 ;extruding 
G1 X127.483 Y65.989 ;extruding 
G1 X133.052 Y66.882 ;extruding 
FILEWRITE $hFile"\x05\x02\x30\x34\x44\x49\x20\x20\x43\x46\x03"
G1 X132.919 Y67.128 ;not extruding 
G1 X133.881 Y68.043 ;not extruding 
G1 X134.255 Y68.059 ;not extruding 
G1 X135.062 Y67.285 ;not extruding 
G1 X136.522 Y67.379 ;not extruding 
G1 X137.770 Y67.861 ;not extruding 
G1 X139.221 Y68.926 ;not extruding 
G1 X141.490 Y68.967 ;not extruding 
G1 X142.477 Y68.772 ;not extruding 
G1 X143.750 Y64.602 ;not extruding 
G1 X144.533 Y62.838 ;not extruding 
G1 X145.429 Y61.313 ;not extruding 
G1 X148.418 Y59.214 ;not extruding 
G1 X149.272 Y58.968 ;not extruding 
G1 X151.480 Y60.327 ;not extruding 
G1 X152.170 Y61.297 ;not extruding 
G1 X153.636 Y62.849 ;not extruding 
G1 X153.040 Y65.362 ;not extruding 
G1 X153.014 Y67.008 ;not extruding 
G1 X153.434 Y67.729 ;not extruding 
G1 X154.505 Y68.679 ;not extruding 
G1 X156.138 Y69.216 ;not extruding 
G1 X160.044 Y69.685 ;not extruding 
G1 X162.679 Y70.591 ;not extruding 
G1 X164.620 Y69.749 ;not extruding 
G1 X166.648 Y69.224 ;not extruding 
G1 X174.241 Y69.011 ;not extruding 
G1 X180.490 Y67.404 ;not extruding 
G1 X185.084 Y65.826 ;not extruding 
G1 X190.110 Y63.682 ;not extruding 
G1 X194.485 Y61.468 ;not extruding 
G1 X200.371 Y57.895 ;not extruding 
G1 X206.640 Y53.637 ;not extruding 
G1 X207.104 Y53.435 ;not extruding 
G1 X207.301 Y54.198 ;not extruding 
FILEWRITE $hFile"\x05\x02\x30\x34\x44\x49\x20\x20\x43\x46\x03"
DWELL 0.15
G1 X207.588 Y54.411 ;extruding 
CCW X207.089 Y55.475 I-9.294 J-3.710 
G1 X204.966 Y58.365 ;extruding 
G1 X202.830 Y60.936 ;extruding 
G1 X199.216 Y64.363 ;extruding 
G1 X195.324 Y67.370 ;extruding 
G1 X191.028 Y70.079 ;extruding 
G1 X186.279 Y72.511 ;extruding 
G1 X181.007 Y74.687 ;extruding 
G1 X178.622 Y75.528 ;extruding 
G1 X175.195 Y76.415 ;extruding 
G1 X170.865 Y77.043 ;extruding 
CCW X168.356 Y76.820 I-0.875 J-4.385 
CCW X166.521 Y75.786 I3.426 J-8.225 
CCW X165.960 Y73.483 I1.946 J-1.694 
CCW X167.701 Y72.262 I2.078 J1.112 
G1 X169.048 Y72.340 ;extruding 
CW X173.408 Y72.941 I11.260 J-65.572 
CW X175.079 Y72.873 I0.634 J-4.993 
G1 X180.926 Y71.141 ;extruding 
G1 X186.491 Y68.931 ;extruding 
G1 X191.613 Y66.309 ;extruding 
G1 X195.961 Y63.546 ;extruding 
G1 X197.225 Y62.634 ;extruding 
G1 X201.783 Y58.963 ;extruding 
G1 X207.261 Y54.232 ;extruding 
FILEWRITE $hFile"\x05\x02\x30\x34\x44\x49\x20\x20\x43\x46\x03"
G1 X207.104 Y53.435 ;not extruding 
G1 X206.650 Y53.632 ;not extruding 
G1 X200.371 Y57.895 ;not extruding 
G1 X194.485 Y61.468 ;not extruding 
G1 X190.110 Y63.682 ;not extruding 
G1 X185.084 Y65.826 ;not extruding 
G1 X180.490 Y67.404 ;not extruding 
G1 X174.241 Y69.011 ;not extruding 
G1 X166.648 Y69.224 ;not extruding 
G1 X164.620 Y69.749 ;not extruding 
G1 X162.679 Y70.591 ;not extruding 
G1 X160.044 Y69.685 ;not extruding 
G1 X156.138 Y69.216 ;not extruding 
G1 X156.204 Y67.040 ;not extruding 
G1 X157.154 Y66.069 ;not extruding 
G1 X156.968 Y65.822 ;not extruding 
FILEWRITE $hFile"\x05\x02\x30\x34\x44\x49\x20\x20\x43\x46\x03"
DWELL 0.15
G1 X156.987 Y66.239 ;extruding 
G1 X159.886 Y66.326 ;extruding 
G1 X166.303 Y66.099 ;extruding 
G1 X172.821 Y65.304 ;extruding 
G1 X179.503 Y63.907 ;extruding 
G1 X185.668 Y62.108 ;extruding 
G1 X192.569 Y59.541 ;extruding 
G1 X199.644 Y56.344 ;extruding 
G1 X206.676 Y52.655 ;extruding 
G1 X211.313 Y49.973 ;extruding 
G1 X211.209 Y50.915 ;extruding 
G1 X210.347 Y53.971 ;extruding 
G1 X209.062 Y56.776 ;extruding 
G1 X207.317 Y59.491 ;extruding 
G1 X205.059 Y62.192 ;extruding 
G1 X202.394 Y64.801 ;extruding 
G1 X198.429 Y68.038 ;extruding 
G1 X194.190 Y70.891 ;extruding 
G1 X189.400 Y73.578 ;extruding 
G1 X183.916 Y76.170 ;extruding 
CW X178.889 Y78.295 I38.078 J97.089 
CW X178.481 Y78.605 I1.025 J1.772 
G1 X177.166 Y80.219 ;extruding 
G1 X175.379 Y81.801 ;extruding 
G1 X172.213 Y83.903 ;extruding 
CW X170.963 Y85.530 I1.530 J2.469 
G1 X169.896 Y89.822 ;extruding 
G1 X168.389 Y93.823 ;extruding 
G1 X166.382 Y97.776 ;extruding 
G1 X164.575 Y100.670 ;extruding 
G1 X162.054 Y103.951 ;extruding 
G1 X159.191 Y106.949 ;extruding 
G1 X155.012 Y110.594 ;extruding 
G1 X151.261 Y113.510 ;extruding 
G1 X145.309 Y118.344 ;extruding 
G1 X139.757 Y123.531 ;extruding 
G1 X134.611 Y129.056 ;extruding 
G1 X129.851 Y134.937 ;extruding 
G1 X125.462 Y141.192 ;extruding 
G1 X123.726 Y143.936 ;extruding 
G1 X120.429 Y148.831 ;extruding 
G1 X115.927 Y154.595 ;extruding 
G1 X115.043 Y155.662 ;extruding 
G1 X111.664 Y159.307 ;extruding 
G1 X108.410 Y162.140 ;extruding 
G1 X104.632 Y164.733 ;extruding 
G1 X101.193 Y166.540 ;extruding 
G1 X97.869 Y167.778 ;extruding 
G1 X94.955 Y168.381 ;extruding 
G1 X92.111 Y168.519 ;extruding 
G1 X89.667 Y168.248 ;extruding 
CW X95.541 Y164.339 I-44.350 J-73.012 
G1 X98.378 Y161.786 ;extruding 
G1 X100.633 Y159.040 ;extruding 
G1 X102.270 Y156.192 ;extruding 
G1 X103.311 Y153.379 ;extruding 
G1 X103.894 Y150.349 ;extruding 
G1 X103.991 Y147.096 ;extruding 
G1 X103.589 Y143.684 ;extruding 
G1 X103.394 Y142.730 ;extruding 
G1 X103.300 Y142.629 ;extruding 
G1 X102.867 Y142.415 ;extruding 
G1 X102.549 Y143.103 ;extruding 
G1 X100.796 Y138.667 ;extruding 
G1 X99.460 Y141.117 ;extruding 
G1 X99.250 Y137.101 ;extruding 
G1 X97.896 Y138.298 ;extruding 
G1 X98.273 Y132.900 ;extruding 
G1 X97.053 Y133.870 ;extruding 
G1 X97.693 Y128.857 ;extruding 
G1 X96.092 Y130.130 ;extruding 
G1 X99.762 Y121.426 ;extruding 
CCW X98.608 Y119.910 I6.394 J-6.065 
CCW X98.370 Y117.929 I2.005 J-1.246 
G1 X98.676 Y117.200 ;extruding 
G1 X97.723 Y117.017 ;extruding 
CCW X89.952 Y116.376 I3.505 J-89.921 
G1 X89.356 Y116.268 ;extruding 
G1 X85.031 Y115.157 ;extruding 
G1 X80.928 Y113.597 ;extruding 
G1 X76.891 Y111.551 ;extruding 
G1 X72.870 Y108.985 ;extruding 
G1 X68.804 Y105.845 ;extruding 
G1 X66.367 Y103.690 ;extruding 
CCW X66.107 Y102.404 I1.544 J-0.981 
G1 X68.022 Y93.689 ;extruding 
G1 X70.429 Y85.238 ;extruding 
G1 X73.267 Y77.254 ;extruding 
G1 X76.528 Y69.692 ;extruding 
G1 X80.213 Y62.510 ;extruding 
G1 X84.022 Y56.142 ;extruding 
G1 X84.912 Y54.775 ;extruding 
CCW X90.491 Y46.888 I245.238 J167.556 
G1 X90.866 Y49.221 ;extruding 
G1 X91.581 Y51.373 ;extruding 
G1 X92.501 Y53.140 ;extruding 
G1 X93.433 Y54.393 ;extruding 
G1 X94.357 Y55.301 ;extruding 
CW X97.016 Y56.676 I4.390 J-5.231 
G1 X95.887 Y52.044 ;extruding 
G1 X95.126 Y48.219 ;extruding 
CCW X95.506 Y43.700 I9.190 J-1.503 
G1 X96.336 Y41.836 ;extruding 
G1 X97.832 Y39.531 ;extruding 
G1 X97.817 Y42.289 ;extruding 
G1 X98.188 Y44.665 ;extruding 
G1 X98.823 Y46.642 ;extruding 
G1 X99.712 Y48.397 ;extruding 
G1 X100.967 Y50.116 ;extruding 
G1 X102.828 Y52.005 ;extruding 
G1 X102.846 Y51.042 ;extruding 
CCW X101.808 Y46.067 I65.317 J-16.224 
G1 X101.674 Y43.594 ;extruding 
G1 X101.937 Y41.290 ;extruding 
G1 X102.548 Y39.124 ;extruding 
G1 X103.551 Y36.895 ;extruding 
G1 X105.118 Y34.381 ;extruding 
G1 X107.668 Y31.214 ;extruding 
G1 X107.668 Y37.656 ;extruding 
G1 X107.973 Y37.760 ;extruding 
CW X108.673 Y36.156 I-2.184 J-1.908 
G1 X109.654 Y32.527 ;extruding 
G1 X110.814 Y29.885 ;extruding 
G1 X112.128 Y27.829 ;extruding 
G1 X113.646 Y26.118 ;extruding 
G1 X115.467 Y24.626 ;extruding 
CW X122.327 Y20.104 I-183.677 J-286.107 
G1 X123.473 Y19.411 ;extruding 
CCW X126.302 Y18.936 I2.144 J4.108 
CCW X128.740 Y20.238 I-1.121 J5.033 
G1 X128.661 Y21.221 ;extruding 
G1 X128.401 Y26.619 ;extruding 
G1 X128.640 Y31.316 ;extruding 
G1 X129.420 Y36.231 ;extruding 
G1 X130.574 Y40.439 ;extruding 
G1 X131.002 Y41.661 ;extruding 
G1 X132.745 Y45.646 ;extruding 
G1 X134.651 Y48.847 ;extruding 
G1 X137.072 Y51.886 ;extruding 
G1 X139.804 Y54.427 ;extruding 
G1 X142.858 Y56.519 ;extruding 
G1 X145.263 Y57.767 ;extruding 
G1 X147.239 Y56.655 ;extruding 
CCW X149.368 Y56.313 I1.605 J3.194 
CCW X150.415 Y56.730 I-0.761 J3.433 
CCW X152.468 Y58.306 I-6.911 J11.128 
CW X153.740 Y58.595 I0.985 J-1.392 
G1 X160.438 Y56.729 ;extruding 
G1 X167.153 Y55.337 ;extruding 
G1 X174.564 Y54.239 ;extruding 
G1 X184.581 Y53.269 ;extruding 
G1 X190.166 Y52.885 ;extruding 
G1 X195.257 Y52.321 ;extruding 
G1 X203.054 Y51.037 ;extruding 
CW X205.926 Y50.361 I-6.043 J-32.112 
CCW X202.574 Y52.992 I-26.066 J-29.759 
G1 X197.757 Y55.780 ;extruding 
G1 X192.719 Y58.137 ;extruding 
CCW X190.448 Y59.042 I-28.361 J-67.868 
G1 X184.795 Y60.940 ;extruding 
G1 X178.466 Y62.574 ;extruding 
G1 X170.281 Y64.115 ;extruding 
CCW X157.020 Y65.816 I-63.275 J-440.753 
FILEWRITE $hFile"\x05\x02\x30\x34\x44\x49\x20\x20\x43\x46\x03"
G1 X157.154 Y66.069 ;not extruding 
G1 X156.108 Y65.201 ;not extruding 
G1 X155.691 Y62.128 ;not extruding 
G1 X153.636 Y62.849 ;not extruding 
G1 X152.170 Y61.297 ;not extruding 
G1 X151.480 Y60.327 ;not extruding 
G1 X149.272 Y58.968 ;not extruding 
G1 X148.418 Y59.214 ;not extruding 
G1 X145.429 Y61.313 ;not extruding 
G1 X144.533 Y62.838 ;not extruding 
G1 X143.246 Y66.023 ;not extruding 
G1 X142.477 Y68.772 ;not extruding 
G1 X143.403 Y70.947 ;not extruding 
G1 X146.189 Y73.971 ;not extruding 
G1 X146.540 Y74.731 ;not extruding 
G1 X146.964 Y77.313 ;not extruding 
G1 X146.727 Y79.992 ;not extruding 
G1 X150.230 Y82.074 ;not extruding 
G1 X150.340 Y84.363 ;not extruding 
G1 X149.971 Y86.521 ;not extruding 
G1 X146.106 Y91.324 ;not extruding 
G1 X146.141 Y91.869 ;not extruding 
G1 X145.605 Y93.163 ;not extruding 
G1 X144.449 Y94.217 ;not extruding 
G1 X142.959 Y97.013 ;not extruding 
G1 X141.154 Y99.432 ;not extruding 
G1 X138.983 Y101.517 ;not extruding 
G1 X136.407 Y103.360 ;not extruding 
G1 X133.686 Y104.805 ;not extruding 
G1 X130.123 Y106.106 ;not extruding 
G1 X126.444 Y106.976 ;not extruding 
G1 X122.063 Y107.522 ;not extruding 
G1 X120.397 Y107.362 ;not extruding 
G1 X119.231 Y107.592 ;not extruding 
G1 X115.010 Y106.914 ;not extruding 
G1 X109.762 Y105.254 ;not extruding 
G1 X108.765 Y108.376 ;not extruding 
G1 X106.626 Y112.049 ;not extruding 
G1 X102.676 Y116.537 ;not extruding 
G1 X101.614 Y118.560 ;not extruding 
G1 X101.613 Y120.547 ;not extruding 
G1 X101.422 Y121.585 ;not extruding 
G1 X99.878 Y124.529 ;not extruding 
G1 X99.458 Y127.036 ;not extruding 
G1 X98.941 Y128.943 ;not extruding 
G1 X98.821 Y130.731 ;not extruding 
G1 X99.289 Y131.091 ;not extruding 
G1 X99.453 Y131.572 ;not extruding 
G1 X99.093 Y132.998 ;not extruding 
G1 X99.217 Y133.054 ;not extruding 
G1 X99.083 Y133.141 ;not extruding 
G1 X100.198 Y135.339 ;not extruding 
G1 X100.059 Y136.770 ;not extruding 
G1 X100.354 Y137.181 ;not extruding 
G1 X100.131 Y138.162 ;not extruding 
G1 X100.804 Y138.529 ;not extruding 
G1 X100.283 Y139.917 ;not extruding 
G1 X99.365 Y141.402 ;not extruding 
G1 X101.784 Y140.446 ;not extruding 
G1 X102.688 Y141.210 ;not extruding 
G1 X103.557 Y141.137 ;not extruding 
G1 X104.306 Y141.931 ;not extruding 
G1 X104.664 Y142.895 ;not extruding 
G1 X105.241 Y146.993 ;not extruding 
G1 X105.151 Y150.523 ;not extruding 
G1 X104.519 Y153.754 ;not extruding 
G1 X102.997 Y157.543 ;not extruding 
G1 X101.092 Y160.550 ;not extruding 
G1 X97.605 Y164.414 ;not extruding 
G1 X97.175 Y165.457 ;not extruding 
FILEWRITE $hFile"\x05\x02\x30\x34\x44\x49\x20\x20\x43\x46\x03"
DWELL 0.15
G1 X97.452 Y165.899 ;extruding 
G1 X96.849 Y166.024 ;extruding 
G1 X96.754 Y165.836 ;extruding 
G1 X97.136 Y165.492 ;extruding 
FILEWRITE $hFile"\x05\x02\x30\x34\x44\x49\x20\x20\x43\x46\x03"
G1 X97.234 Y165.034 ;not extruding 
FILEWRITE $hFile"\x05\x02\x30\x34\x44\x49\x20\x20\x43\x46\x03"
DWELL 0.15
G1 X97.855 Y166.023 ;extruding 
G1 X97.412 Y166.188 ;extruding 
G1 X95.622 Y166.558 ;extruding 
G1 X95.534 Y166.352 ;extruding 
CW X97.195 Y165.069 I-4.203 J-7.158 
FILEWRITE $hFile"\x05\x02\x30\x34\x44\x49\x20\x20\x43\x46\x03"
G1 X97.293 Y164.611 ;not extruding 
FILEWRITE $hFile"\x05\x02\x30\x34\x44\x49\x20\x20\x43\x46\x03"
DWELL 0.15
G1 X98.267 Y166.163 ;extruding 
G1 X97.488 Y166.453 ;extruding 
G1 X94.782 Y167.013 ;extruding 
G1 X94.424 Y167.030 ;extruding 
G1 X94.357 Y166.834 ;extruding 
G1 X96.396 Y165.419 ;extruding 
G1 X97.254 Y164.646 ;extruding 
FILEWRITE $hFile"\x05\x02\x30\x34\x44\x49\x20\x20\x43\x46\x03"
G1 X97.704 Y164.748 ;not extruding 
FILEWRITE $hFile"\x05\x02\x30\x34\x44\x49\x20\x20\x43\x46\x03"
DWELL 0.15
G1 X98.679 Y166.303 ;extruding 
G1 X97.564 Y166.718 ;extruding 
G1 X94.817 Y167.286 ;extruding 
G1 X93.479 Y167.351 ;extruding 
G1 X93.413 Y167.155 ;extruding 
G1 X96.225 Y165.203 ;extruding 
G1 X99.175 Y162.548 ;extruding 
G1 X101.541 Y159.667 ;extruding 
G1 X103.270 Y156.660 ;extruding 
G1 X104.374 Y153.676 ;extruding 
G1 X104.990 Y150.470 ;extruding 
G1 X105.093 Y147.047 ;extruding 
G1 X104.676 Y143.510 ;extruding 
G1 X104.617 Y143.226 ;extruding 
G1 X104.879 Y143.165 ;extruding 
CCW X105.256 Y145.067 I-11.654 J3.298 
G1 X105.494 Y148.390 ;extruding 
G1 X105.235 Y151.541 ;extruding 
G1 X104.476 Y154.605 ;extruding 
G1 X103.177 Y157.637 ;extruding 
G1 X101.261 Y160.681 ;extruding 
G1 X98.737 Y163.653 ;extruding 
G1 X97.740 Y164.710 ;extruding 
FILEWRITE $hFile"\x05\x02\x30\x34\x44\x49\x20\x20\x43\x46\x03"
G1 X97.605 Y164.414 ;not extruding 
G1 X99.329 Y162.648 ;not extruding 
G1 X101.684 Y159.723 ;not extruding 
G1 X103.390 Y156.756 ;not extruding 
G1 X104.519 Y153.754 ;not extruding 
G1 X105.151 Y150.523 ;not extruding 
G1 X105.246 Y147.063 ;not extruding 
G1 X104.664 Y142.895 ;not extruding 
G1 X104.436 Y142.153 ;not extruding 
G1 X104.181 Y141.961 ;not extruding 
FILEWRITE $hFile"\x05\x02\x30\x34\x44\x49\x20\x20\x43\x46\x03"
DWELL 0.15
G1 X103.965 Y141.732 ;extruding 
G1 X103.008 Y141.257 ;extruding 
G1 X103.661 Y140.486 ;extruding 
G1 X104.376 Y141.821 ;extruding 
G1 X104.223 Y141.931 ;extruding 
FILEWRITE $hFile"\x05\x02\x30\x34\x44\x49\x20\x20\x43\x46\x03"
G1 X104.155 Y142.335 ;not extruding 
FILEWRITE $hFile"\x05\x02\x30\x34\x44\x49\x20\x20\x43\x46\x03"
DWELL 0.15
G1 X103.799 Y141.957 ;extruding 
G1 X102.784 Y141.453 ;extruding 
G1 X102.688 Y141.210 ;extruding 
G1 X103.705 Y140.008 ;extruding 
CCW X104.706 Y141.856 I-28.836 J16.815 
CCW X105.530 Y145.033 I-10.813 J4.500 
G1 X105.770 Y148.392 ;extruding 
G1 X105.508 Y151.585 ;extruding 
G1 X104.738 Y154.692 ;extruding 
G1 X103.421 Y157.765 ;extruding 
G1 X101.484 Y160.844 ;extruding 
G1 X98.942 Y163.837 ;extruding 
G1 X98.049 Y164.782 ;extruding 
G1 X99.092 Y166.443 ;extruding 
G1 X97.640 Y166.983 ;extruding 
G1 X94.851 Y167.560 ;extruding 
G1 X92.493 Y167.674 ;extruding 
G1 X92.429 Y167.473 ;extruding 
G1 X92.947 Y167.144 ;extruding 
G1 X96.054 Y164.987 ;extruding 
G1 X98.976 Y162.358 ;extruding 
G1 X101.314 Y159.510 ;extruding 
G1 X103.020 Y156.543 ;extruding 
G1 X104.108 Y153.602 ;extruding 
G1 X104.716 Y150.439 ;extruding 
G1 X104.817 Y147.060 ;extruding 
G1 X104.404 Y143.553 ;extruding 
G1 X104.165 Y142.387 ;extruding 
FILEWRITE $hFile"\x05\x02\x30\x34\x44\x49\x20\x20\x43\x46\x03"
G1 X101.883 Y138.545 ;not extruding 
FILEWRITE $hFile"\x05\x02\x30\x34\x44\x49\x20\x20\x43\x46\x03"
DWELL 0.15
G1 X101.654 Y138.595 ;extruding 
G1 X101.094 Y137.178 ;extruding 
G1 X101.825 Y137.465 ;extruding 
G1 X101.880 Y138.493 ;extruding 
FILEWRITE $hFile"\x05\x02\x30\x34\x44\x49\x20\x20\x43\x46\x03"
G1 X100.314 Y137.828 ;not extruding 
FILEWRITE $hFile"\x05\x02\x30\x34\x44\x49\x20\x20\x43\x46\x03"
DWELL 0.15
G1 X100.111 Y137.782 ;extruding 
G1 X100.058 Y136.770 ;extruding 
G1 X100.744 Y137.040 ;extruding 
G1 X100.339 Y137.782 ;extruding 
FILEWRITE $hFile"\x05\x02\x30\x34\x44\x49\x20\x20\x43\x46\x03"
G1 X99.501 Y135.044 ;not extruding 
FILEWRITE $hFile"\x05\x02\x30\x34\x44\x49\x20\x20\x43\x46\x03"
DWELL 0.15
G1 X99.576 Y133.977 ;extruding 
G1 X100.141 Y134.240 ;extruding 
G1 X100.059 Y134.551 ;extruding 
G1 X99.541 Y135.009 ;extruding 
FILEWRITE $hFile"\x05\x02\x30\x34\x44\x49\x20\x20\x43\x46\x03"
G1 X99.180 Y135.695 ;not extruding 
FILEWRITE $hFile"\x05\x02\x30\x34\x44\x49\x20\x20\x43\x46\x03"
DWELL 0.15
G1 X99.330 Y133.559 ;extruding 
G1 X100.466 Y134.088 ;extruding 
G1 X100.303 Y134.702 ;extruding 
G1 X99.220 Y135.660 ;extruding 
FILEWRITE $hFile"\x05\x02\x30\x34\x44\x49\x20\x20\x43\x46\x03"
G1 X98.859 Y136.345 ;not extruding 
FILEWRITE $hFile"\x05\x02\x30\x34\x44\x49\x20\x20\x43\x46\x03"
DWELL 0.15
G1 X99.083 Y133.141 ;extruding 
G1 X100.790 Y133.936 ;extruding 
G1 X100.250 Y135.978 ;extruding 
G1 X100.016 Y135.953 ;extruding 
G1 X99.984 Y135.351 ;extruding 
G1 X98.899 Y136.311 ;extruding 
FILEWRITE $hFile"\x05\x02\x30\x34\x44\x49\x20\x20\x43\x46\x03"
G1 X99.362 Y132.404 ;not extruding 
FILEWRITE $hFile"\x05\x02\x30\x34\x44\x49\x20\x20\x43\x46\x03"
DWELL 0.15
G1 X99.139 Y132.348 ;extruding 
G1 X99.163 Y132.003 ;extruding 
G1 X99.398 Y131.802 ;extruding 
G1 X99.574 Y131.934 ;extruding 
CW X99.093 Y132.998 I717.111 J324.823 
FILEWRITE $hFile"\x05\x02\x30\x34\x44\x49\x20\x20\x43\x46\x03"
G1 X99.453 Y131.572 ;not extruding 
G1 X99.289 Y131.091 ;not extruding 
G1 X98.821 Y130.731 ;not extruding 
G1 X98.941 Y128.943 ;not extruding 
G1 X99.458 Y127.036 ;not extruding 
G1 X99.878 Y124.529 ;not extruding 
G1 X101.422 Y121.585 ;not extruding 
G1 X101.613 Y120.547 ;not extruding 
G1 X101.614 Y118.560 ;not extruding 
G1 X102.676 Y116.537 ;not extruding 
G1 X106.626 Y112.049 ;not extruding 
G1 X108.765 Y108.376 ;not extruding 
G1 X109.762 Y105.254 ;not extruding 
G1 X114.353 Y106.621 ;not extruding 
G1 X116.288 Y105.304 ;not extruding 
G1 X119.097 Y105.177 ;not extruding 
G1 X119.622 Y104.597 ;not extruding 
FILEWRITE $hFile"\x05\x02\x30\x34\x44\x49\x20\x20\x43\x46\x03"
DWELL 0.15
G1 X119.571 Y103.476 ;extruding 
G1 X121.636 Y102.608 ;extruding 
G1 X117.947 Y102.235 ;extruding 
G1 X117.866 Y101.234 ;extruding 
G1 X119.042 Y100.683 ;extruding 
CCW X116.298 Y99.354 I0.406 J-4.335 
CCW X115.698 Y95.861 I2.803 J-2.279 
G1 X115.778 Y95.623 ;extruding 
G1 X116.352 Y94.353 ;extruding 
CCW X117.685 Y92.682 I5.147 J2.739 
CCW X123.045 Y88.917 I42.818 J55.259 
G1 X120.467 Y89.556 ;extruding 
G1 X117.483 Y90.027 ;extruding 
G1 X115.212 Y90.068 ;extruding 
G1 X113.285 Y89.807 ;extruding 
G1 X111.511 Y89.274 ;extruding 
G1 X110.497 Y88.859 ;extruding 
G1 X110.919 Y88.418 ;extruding 
G1 X108.198 Y87.779 ;extruding 
G1 X108.285 Y86.829 ;extruding 
G1 X109.340 Y86.567 ;extruding 
G1 X106.208 Y85.579 ;extruding 
G1 X106.570 Y84.665 ;extruding 
G1 X108.211 Y84.551 ;extruding 
CCW X107.426 Y78.634 I3.462 J-3.470 
CCW X108.452 Y77.305 I4.794 J2.640 
CCW X111.457 Y74.814 I14.539 J14.481 
G1 X115.491 Y72.552 ;extruding 
G1 X119.673 Y70.827 ;extruding 
G1 X123.915 Y69.669 ;extruding 
G1 X127.941 Y69.078 ;extruding 
G1 X128.830 Y69.011 ;extruding 
CCW X136.169 Y68.989 I4.020 J117.048 
G1 X136.652 Y70.037 ;extruding 
G1 X134.205 Y71.319 ;extruding 
G1 X132.971 Y72.233 ;extruding 
G1 X132.002 Y73.215 ;extruding 
G1 X131.498 Y73.933 ;extruding 
G1 X134.116 Y72.506 ;extruding 
G1 X135.712 Y71.877 ;extruding 
CCW X137.867 Y71.556 I2.068 J6.488 
G1 X139.257 Y71.696 ;extruding 
G1 X141.542 Y72.171 ;extruding 
G1 X137.476 Y74.409 ;extruding 
G1 X135.602 Y75.862 ;extruding 
G1 X134.321 Y77.221 ;extruding 
G1 X133.358 Y78.649 ;extruding 
G1 X132.746 Y79.983 ;extruding 
G1 X132.337 Y81.481 ;extruding 
G1 X132.171 Y83.066 ;extruding 
G1 X132.272 Y84.914 ;extruding 
G1 X132.683 Y86.828 ;extruding 
G1 X133.308 Y88.417 ;extruding 
G1 X134.239 Y89.981 ;extruding 
G1 X135.112 Y91.059 ;extruding 
G1 X136.392 Y92.249 ;extruding 
G1 X137.614 Y93.060 ;extruding 
G1 X139.021 Y93.692 ;extruding 
G1 X140.534 Y94.092 ;extruding 
G1 X142.286 Y94.321 ;extruding 
G1 X141.080 Y96.522 ;extruding 
G1 X139.505 Y98.537 ;extruding 
G1 X137.077 Y100.792 ;extruding 
G1 X134.114 Y102.807 ;extruding 
G1 X130.939 Y104.330 ;extruding 
G1 X128.357 Y105.113 ;extruding 
G1 X126.425 Y105.391 ;extruding 
G1 X123.603 Y105.347 ;extruding 
G1 X124.876 Y104.307 ;extruding 
G1 X119.674 Y104.594 ;extruding 
FILEWRITE $hFile"\x05\x02\x30\x34\x44\x49\x20\x20\x43\x46\x03"
G1 X119.097 Y105.177 ;not extruding 
G1 X119.231 Y107.592 ;not extruding 
G1 X120.397 Y107.362 ;not extruding 
G1 X122.063 Y107.522 ;not extruding 
G1 X126.605 Y106.949 ;not extruding 
G1 X130.123 Y106.106 ;not extruding 
G1 X133.686 Y104.805 ;not extruding 
G1 X136.407 Y103.360 ;not extruding 
G1 X138.095 Y102.214 ;not extruding 
G1 X140.774 Y99.839 ;not extruding 
G1 X142.676 Y97.448 ;not extruding 
G1 X144.449 Y94.217 ;not extruding 
G1 X145.605 Y93.163 ;not extruding 
G1 X145.262 Y92.372 ;not extruding 
G1 X145.591 Y91.411 ;not extruding 
G1 X143.883 Y91.831 ;not extruding 
G1 X141.081 Y90.342 ;not extruding 
G1 X139.628 Y88.799 ;not extruding 
G1 X139.090 Y87.719 ;not extruding 
G1 X138.664 Y86.348 ;not extruding 
G1 X138.632 Y84.916 ;not extruding 
G1 X138.973 Y83.668 ;not extruding 
G1 X135.550 Y83.359 ;not extruding 
G1 X132.470 Y83.490 ;not extruding 
FILEWRITE $hFile"\x05\x02\x30\x34\x44\x49\x20\x20\x43\x46\x03"
DWELL 0.15
G1 X132.447 Y83.073 ;extruding 
G1 X132.608 Y81.532 ;extruding 
G1 X133.006 Y80.077 ;extruding 
G1 X133.142 Y79.779 ;extruding 
G1 X133.380 Y79.864 ;extruding 
G1 X132.906 Y81.636 ;extruding 
G1 X132.725 Y83.495 ;extruding 
G1 X132.522 Y83.491 ;extruding 
FILEWRITE $hFile"\x05\x02\x30\x34\x44\x49\x20\x20\x43\x46\x03"
G1 X132.501 Y84.063 ;not extruding 
FILEWRITE $hFile"\x05\x02\x30\x34\x44\x49\x20\x20\x43\x46\x03"
DWELL 0.15
G1 X132.774 Y84.046 ;extruding 
G1 X132.838 Y85.025 ;extruding 
G1 X132.585 Y85.060 ;extruding 
CCW X132.504 Y84.115 I2.985 J-0.732 
FILEWRITE $hFile"\x05\x02\x30\x34\x44\x49\x20\x20\x43\x46\x03"
G1 X133.008 Y83.417 ;not extruding 
FILEWRITE $hFile"\x05\x02\x30\x34\x44\x49\x20\x20\x43\x46\x03"
DWELL 0.15
G1 X133.177 Y81.686 ;extruding 
G1 X133.630 Y79.994 ;extruding 
G1 X134.357 Y78.404 ;extruding 
G1 X135.327 Y76.982 ;extruding 
G1 X136.497 Y75.776 ;extruding 
CCW X138.644 Y74.383 I5.796 J6.582 
G1 X139.895 Y73.928 ;extruding 
G1 X141.254 Y73.668 ;extruding 
G1 X142.399 Y73.646 ;extruding 
CCW X144.564 Y74.397 I-0.186 J4.031 
G1 X145.656 Y75.434 ;extruding 
G1 X142.041 Y75.617 ;extruding 
G1 X140.418 Y75.972 ;extruding 
G1 X139.160 Y76.460 ;extruding 
G1 X138.084 Y77.094 ;extruding 
CW X135.964 Y79.576 I3.884 J5.464 
CW X135.375 Y81.160 I7.282 J3.609 
G1 X135.000 Y83.309 ;extruding 
G1 X134.989 Y84.730 ;extruding 
CW X135.478 Y86.886 I7.036 J-0.462 
CW X137.432 Y89.534 I6.394 J-2.673 
G1 X138.514 Y90.326 ;extruding 
G1 X140.346 Y91.272 ;extruding 
G1 X142.951 Y92.163 ;extruding 
G1 X142.936 Y92.893 ;extruding 
CCW X138.694 Y92.746 I-1.938 J-5.366 
G1 X137.570 Y92.158 ;extruding 
G1 X136.485 Y91.354 ;extruding 
G1 X135.414 Y90.268 ;extruding 
G1 X134.467 Y88.934 ;extruding 
G1 X134.157 Y88.372 ;extruding 
G1 X133.503 Y86.784 ;extruding 
G1 X133.120 Y85.129 ;extruding 
G1 X133.012 Y83.469 ;extruding 
FILEWRITE $hFile"\x05\x02\x30\x34\x44\x49\x20\x20\x43\x46\x03"
G1 X135.550 Y83.359 ;not extruding 
G1 X135.275 Y83.334 ;not extruding 
FILEWRITE $hFile"\x05\x02\x30\x34\x44\x49\x20\x20\x43\x46\x03"
DWELL 0.15
G1 X135.265 Y84.710 ;extruding 
CW X137.610 Y89.324 I6.532 J-0.417 
G1 X138.659 Y90.091 ;extruding 
G1 X140.454 Y91.018 ;extruding 
G1 X143.230 Y91.968 ;extruding 
G1 X143.207 Y93.100 ;extruding 
G1 X142.117 Y93.423 ;extruding 
CCW X140.218 Y93.452 I-1.025 J-4.913 
G1 X140.161 Y93.709 ;extruding 
G1 X140.587 Y93.822 ;extruding 
G1 X142.720 Y94.101 ;extruding 
G1 X141.310 Y96.673 ;extruding 
G1 X139.708 Y98.724 ;extruding 
G1 X137.249 Y101.007 ;extruding 
G1 X134.252 Y103.046 ;extruding 
G1 X131.039 Y104.587 ;extruding 
G1 X128.416 Y105.382 ;extruding 
G1 X126.442 Y105.667 ;extruding 
G1 X122.846 Y105.610 ;extruding 
G1 X123.799 Y104.832 ;extruding 
G1 X123.727 Y104.646 ;extruding 
G1 X119.360 Y104.887 ;extruding 
G1 X119.288 Y103.297 ;extruding 
G1 X120.136 Y102.941 ;extruding 
G1 X120.104 Y102.729 ;extruding 
G1 X117.691 Y102.485 ;extruding 
G1 X117.576 Y101.066 ;extruding 
G1 X118.187 Y100.780 ;extruding 
CCW X115.259 Y97.760 I0.809 J-3.714 
CCW X115.522 Y95.523 I4.480 J-0.607 
G1 X116.110 Y94.220 ;extruding 
CCW X117.512 Y92.468 I5.398 J2.882 
G1 X120.228 Y90.466 ;extruding 
G1 X121.020 Y89.937 ;extruding 
G1 X120.927 Y89.725 ;extruding 
G1 X120.522 Y89.826 ;extruding 
G1 X117.507 Y90.302 ;extruding 
G1 X115.196 Y90.343 ;extruding 
G1 X113.226 Y90.076 ;extruding 
G1 X111.419 Y89.533 ;extruding 
G1 X110.019 Y88.961 ;extruding 
G1 X110.388 Y88.576 ;extruding 
G1 X107.902 Y87.992 ;extruding 
G1 X108.044 Y86.446 ;extruding 
G1 X105.843 Y85.752 ;extruding 
G1 X106.378 Y84.403 ;extruding 
G1 X107.647 Y84.314 ;extruding 
G1 X107.450 Y84.085 ;extruding 
CCW X107.185 Y78.500 I4.231 J-3.000 
CCW X108.258 Y77.110 I5.054 J2.792 
CCW X111.306 Y74.583 I14.731 J14.666 
G1 X115.371 Y72.304 ;extruding 
G1 X119.584 Y70.567 ;extruding 
G1 X123.858 Y69.400 ;extruding 
G1 X127.911 Y68.805 ;extruding 
G1 X128.817 Y68.736 ;extruding 
CCW X136.346 Y68.716 I4.085 J120.475 
G1 X137.011 Y70.159 ;extruding 
G1 X134.352 Y71.552 ;extruding 
G1 X133.221 Y72.390 ;extruding 
G1 X133.359 Y72.606 ;extruding 
G1 X134.000 Y72.257 ;extruding 
G1 X135.630 Y71.614 ;extruding 
CCW X137.872 Y71.280 I2.150 J6.740 
G1 X139.299 Y71.424 ;extruding 
G1 X142.326 Y72.054 ;extruding 
G1 X139.837 Y73.423 ;extruding 
G1 X139.917 Y73.644 ;extruding 
G1 X141.226 Y73.394 ;extruding 
G1 X142.416 Y73.371 ;extruding 
CCW X144.738 Y74.183 I-0.202 J4.303 
G1 X146.310 Y75.676 ;extruding 
G1 X142.078 Y75.891 ;extruding 
G1 X140.497 Y76.236 ;extruding 
G1 X139.280 Y76.708 ;extruding 
G1 X138.243 Y77.319 ;extruding 
CW X136.210 Y79.700 I3.729 J5.243 
CW X135.643 Y81.222 I7.020 J3.482 
G1 X135.284 Y83.282 ;extruding 
FILEWRITE $hFile"\x05\x02\x30\x34\x44\x49\x20\x20\x43\x46\x03"
G1 X138.973 Y83.668 ;not extruding 
G1 X139.571 Y82.311 ;not extruding 
G1 X140.097 Y81.564 ;not extruding 
G1 X141.196 Y80.662 ;not extruding 
G1 X139.400 Y76.957 ;not extruding 
G1 X137.848 Y74.323 ;not extruding 
G1 X137.675 Y74.259 ;not extruding 
G1 X137.859 Y73.971 ;not extruding 
G1 X137.945 Y70.412 ;not extruding 
G1 X139.221 Y68.926 ;not extruding 
G1 X137.770 Y67.861 ;not extruding 
G1 X136.522 Y67.379 ;not extruding 
G1 X135.062 Y67.285 ;not extruding 
G1 X133.981 Y66.144 ;not extruding 
G1 X130.926 Y65.706 ;not extruding 
FILEWRITE $hFile"\x05\x02\x30\x34\x44\x49\x20\x20\x43\x46\x03"
DWELL 0.15
G1 X127.655 Y65.181 ;extruding 
G1 X123.369 Y64.042 ;extruding 
G1 X119.795 Y62.640 ;extruding 
G1 X116.788 Y60.972 ;extruding 
G1 X114.217 Y58.997 ;extruding 
G1 X112.979 Y57.776 ;extruding 
G1 X110.935 Y55.172 ;extruding 
G1 X110.528 Y54.451 ;extruding 
G1 X110.721 Y54.306 ;extruding 
CW X115.856 Y59.447 I123.545 J-118.266 
G1 X117.277 Y60.475 ;extruding 
G1 X119.970 Y61.936 ;extruding 
G1 X123.836 Y63.561 ;extruding 
G1 X128.171 Y64.869 ;extruding 
G1 X130.974 Y65.441 ;extruding 
G1 X130.935 Y65.654 ;extruding 
FILEWRITE $hFile"\x05\x02\x30\x34\x44\x49\x20\x20\x43\x46\x03"
G1 X133.087 Y66.008 ;not extruding 
G1 X127.711 Y64.964 ;not extruding 
G1 X123.466 Y63.745 ;not extruding 
G1 X119.948 Y62.316 ;not extruding 
G1 X116.977 Y60.684 ;not extruding 
G1 X115.624 Y59.672 ;not extruding 
G1 X113.295 Y57.493 ;not extruding 
G1 X110.162 Y53.784 ;not extruding 
G1 X110.505 Y53.097 ;not extruding 
G1 X109.499 Y51.664 ;not extruding 
G1 X109.377 Y51.176 ;not extruding 
G1 X109.442 Y49.928 ;not extruding 
G1 X108.699 Y48.613 ;not extruding 
G1 X108.566 Y47.633 ;not extruding 
G1 X108.743 Y46.597 ;not extruding 
G1 X107.949 Y44.735 ;not extruding 
G1 X108.047 Y43.002 ;not extruding 
G1 X108.283 Y42.450 ;not extruding 
G1 X107.673 Y40.108 ;not extruding 
G1 X106.499 Y38.779 ;not extruding 
G1 X105.906 Y38.877 ;not extruding 
G1 X105.050 Y39.827 ;not extruding 
G1 X104.317 Y38.780 ;not extruding 
G1 X104.005 Y38.687 ;not extruding 
G1 X103.207 Y41.540 ;not extruding 
G1 X102.970 Y43.633 ;not extruding 
G1 X102.980 Y45.912 ;not extruding 
G1 X103.780 Y50.943 ;not extruding 
G1 X104.056 Y53.729 ;not extruding 
G1 X104.337 Y54.150 ;not extruding 
FILEWRITE $hFile"\x05\x02\x30\x34\x44\x49\x20\x20\x43\x46\x03"
DWELL 0.15
G1 X103.895 Y53.842 ;extruding 
G1 X103.902 Y53.458 ;extruding 
G1 X104.138 Y53.429 ;extruding 
G1 X104.323 Y54.099 ;extruding 
FILEWRITE $hFile"\x05\x02\x30\x34\x44\x49\x20\x20\x43\x46\x03"
G1 X103.617 Y53.984 ;not extruding 
FILEWRITE $hFile"\x05\x02\x30\x34\x44\x49\x20\x20\x43\x46\x03"
DWELL 0.15
G1 X103.669 Y51.108 ;extruding 
G1 X103.918 Y51.089 ;extruding 
G1 X104.163 Y52.489 ;extruding 
G1 X104.805 Y54.811 ;extruding 
G1 X103.660 Y54.014 ;extruding 
FILEWRITE $hFile"\x05\x02\x30\x34\x44\x49\x20\x20\x43\x46\x03"
G1 X100.164 Y50.822 ;not extruding 
G1 X98.275 Y48.714 ;not extruding 
G1 X97.883 Y49.167 ;not extruding 
G1 X97.814 Y50.431 ;not extruding 
G1 X96.502 Y50.090 ;not extruding 
G1 X98.008 Y55.190 ;not extruding 
G1 X98.640 Y56.524 ;not extruding 
FILEWRITE $hFile"\x05\x02\x30\x34\x44\x49\x20\x20\x43\x46\x03"
DWELL 0.15
G1 X99.867 Y58.782 ;extruding 
G1 X98.844 Y58.372 ;extruding 
G1 X98.415 Y56.611 ;extruding 
G1 X98.591 Y56.543 ;extruding 
FILEWRITE $hFile"\x05\x02\x30\x34\x44\x49\x20\x20\x43\x46\x03"
G1 X98.209 Y55.154 ;not extruding 
FILEWRITE $hFile"\x05\x02\x30\x34\x44\x49\x20\x20\x43\x46\x03"
DWELL 0.15
G1 X99.966 Y58.389 ;extruding 
G1 X100.428 Y59.096 ;extruding 
G1 X100.300 Y59.252 ;extruding 
G1 X98.611 Y58.575 ;extruding 
G1 X97.532 Y54.149 ;extruding 
G1 X97.776 Y54.071 ;extruding 
G1 X98.189 Y55.105 ;extruding 
FILEWRITE $hFile"\x05\x02\x30\x34\x44\x49\x20\x20\x43\x46\x03"
G1 X97.122 Y48.389 ;not extruding 
FILEWRITE $hFile"\x05\x02\x30\x34\x44\x49\x20\x20\x43\x46\x03"
DWELL 0.15
G1 X97.018 Y47.863 ;extruding 
G1 X97.244 Y47.785 ;extruding 
G1 X97.448 Y48.186 ;extruding 
G1 X97.167 Y48.361 ;extruding 
FILEWRITE $hFile"\x05\x02\x30\x34\x44\x49\x20\x20\x43\x46\x03"
G1 X96.930 Y48.832 ;not extruding 
CCW X96.685 Y46.092 I7.979 J-2.094 
FILEWRITE $hFile"\x05\x02\x30\x34\x44\x49\x20\x20\x43\x46\x03"
DWELL 0.15
G1 X96.906 Y46.070 ;extruding 
G1 X97.292 Y47.271 ;extruding 
G1 X97.807 Y48.286 ;extruding 
G1 X96.975 Y48.804 ;extruding 
FILEWRITE $hFile"\x05\x02\x30\x34\x44\x49\x20\x20\x43\x46\x03"
G1 X96.738 Y49.276 ;not extruding 
CCW X96.372 Y46.426 I10.366 J-2.780 
FILEWRITE $hFile"\x05\x02\x30\x34\x44\x49\x20\x20\x43\x46\x03"
DWELL 0.15
G1 X96.496 Y45.308 ;extruding 
G1 X96.609 Y44.888 ;extruding 
G1 X96.814 Y44.884 ;extruding 
G1 X97.547 Y47.166 ;extruding 
G1 X98.166 Y48.387 ;extruding 
G1 X96.782 Y49.248 ;extruding 
FILEWRITE $hFile"\x05\x02\x30\x34\x44\x49\x20\x20\x43\x46\x03"
G1 X96.546 Y49.719 ;not extruding 
CCW X96.145 Y47.526 I16.114 J-4.080 
CCW X96.721 Y43.674 I7.291 J-0.879 
FILEWRITE $hFile"\x05\x02\x30\x34\x44\x49\x20\x20\x43\x46\x03"
DWELL 0.15
G1 X96.925 Y43.701 ;extruding 
G1 X97.114 Y44.919 ;extruding 
G1 X97.803 Y47.061 ;extruding 
G1 X98.771 Y48.974 ;extruding 
G1 X99.146 Y49.487 ;extruding 
G1 X98.960 Y49.653 ;extruding 
G1 X98.028 Y48.797 ;extruding 
G1 X96.590 Y49.691 ;extruding 
FILEWRITE $hFile"\x05\x02\x30\x34\x44\x49\x20\x20\x43\x46\x03"
G1 X96.641 Y49.984 ;not extruding 
FILEWRITE $hFile"\x05\x02\x30\x34\x44\x49\x20\x20\x43\x46\x03"
DWELL 0.15
G1 X97.204 Y51.901 ;extruding 
G1 X98.458 Y55.037 ;extruding 
G1 X100.202 Y58.248 ;extruding 
G1 X101.135 Y59.675 ;extruding 
G1 X101.007 Y59.831 ;extruding 
G1 X97.445 Y58.404 ;extruding 
G1 X95.026 Y57.083 ;extruding 
G1 X94.809 Y56.922 ;extruding 
G1 X94.941 Y56.707 ;extruding 
G1 X95.783 Y57.129 ;extruding 
G1 X98.173 Y57.940 ;extruding 
G1 X96.692 Y51.866 ;extruding 
G1 X95.941 Y48.085 ;extruding 
CCW X96.285 Y43.977 I8.371 J-1.367 
G1 X96.849 Y42.711 ;extruding 
G1 X97.053 Y42.738 ;extruding 
G1 X97.383 Y44.856 ;extruding 
G1 X98.058 Y46.956 ;extruding 
G1 X99.006 Y48.830 ;extruding 
G1 X100.336 Y50.652 ;extruding 
G1 X102.342 Y52.687 ;extruding 
G1 X102.162 Y52.880 ;extruding 
CCW X97.996 Y49.140 I53.240 J-63.495 
G1 X96.686 Y49.956 ;extruding 
FILEWRITE $hFile"\x05\x02\x30\x34\x44\x49\x20\x20\x43\x46\x03"
G1 X97.286 Y50.230 ;not extruding 
FILEWRITE $hFile"\x05\x02\x30\x34\x44\x49\x20\x20\x43\x46\x03"
DWELL 0.15
G1 X97.931 Y49.828 ;extruding 
CW X102.385 Y53.795 I61.029 J-64.037 
CW X105.719 Y56.053 I32.041 J-43.719 
G1 X104.700 Y52.368 ;extruding 
G1 X104.025 Y48.508 ;extruding 
G1 X103.837 Y45.019 ;extruding 
G1 X104.104 Y41.761 ;extruding 
G1 X104.603 Y39.368 ;extruding 
G1 X105.432 Y39.384 ;extruding 
G1 X106.392 Y45.153 ;extruding 
G1 X107.506 Y49.238 ;extruding 
G1 X108.866 Y52.626 ;extruding 
G1 X110.477 Y55.479 ;extruding 
G1 X112.568 Y58.143 ;extruding 
G1 X113.855 Y59.413 ;extruding 
G1 X116.486 Y61.433 ;extruding 
G1 X119.560 Y63.139 ;extruding 
G1 X123.197 Y64.566 ;extruding 
G1 X127.540 Y65.720 ;extruding 
G1 X133.388 Y66.658 ;extruding 
G1 X133.352 Y67.539 ;extruding 
G1 X126.368 Y68.181 ;extruding 
G1 X121.874 Y68.764 ;extruding 
G1 X121.077 Y68.915 ;extruding 
G1 X116.527 Y70.098 ;extruding 
G1 X112.751 Y71.551 ;extruding 
G1 X109.017 Y73.541 ;extruding 
G1 X105.723 Y75.910 ;extruding 
G1 X102.816 Y78.663 ;extruding 
G1 X100.802 Y81.078 ;extruding 
G1 X98.864 Y84.079 ;extruding 
G1 X97.376 Y87.299 ;extruding 
G1 X96.347 Y90.716 ;extruding 
G1 X95.829 Y94.209 ;extruding 
G1 X95.840 Y97.573 ;extruding 
G1 X96.372 Y100.809 ;extruding 
G1 X97.263 Y103.458 ;extruding 
G1 X98.466 Y105.760 ;extruding 
G1 X100.143 Y107.979 ;extruding 
G1 X101.982 Y109.716 ;extruding 
G1 X102.695 Y110.274 ;extruding 
CW X100.974 Y113.327 I17.580 J11.922 
CCW X98.895 Y114.503 I-2.132 J-1.343 
G1 X98.599 Y114.521 ;extruding 
G1 X94.039 Y114.421 ;extruding 
G1 X89.674 Y113.810 ;extruding 
G1 X85.470 Y112.705 ;extruding 
G1 X81.389 Y111.107 ;extruding 
G1 X77.396 Y109.001 ;extruding 
G1 X73.460 Y106.360 ;extruding 
G1 X69.812 Y103.376 ;extruding 
CCW X69.127 Y101.278 I1.934 J-1.792 
G1 X70.551 Y93.768 ;extruding 
G1 X72.464 Y86.476 ;extruding 
G1 X74.888 Y79.262 ;extruding 
G1 X77.830 Y72.117 ;extruding 
G1 X79.970 Y67.616 ;extruding 
G1 X83.743 Y60.610 ;extruding 
G1 X88.980 Y51.435 ;extruding 
G1 X90.965 Y54.270 ;extruding 
G1 X92.732 Y56.066 ;extruding 
G1 X94.730 Y57.547 ;extruding 
G1 X97.210 Y58.902 ;extruding 
G1 X101.136 Y60.475 ;extruding 
G1 X102.651 Y60.990 ;extruding 
G1 X100.675 Y57.966 ;extruding 
G1 X98.957 Y54.803 ;extruding 
G1 X97.724 Y51.721 ;extruding 
G1 X97.301 Y50.280 ;extruding 
FILEWRITE $hFile"\x05\x02\x30\x34\x44\x49\x20\x20\x43\x46\x03"
G1 X96.964 Y50.107 ;not extruding 
FILEWRITE $hFile"\x05\x02\x30\x34\x44\x49\x20\x20\x43\x46\x03"
DWELL 0.15
G1 X97.963 Y49.484 ;extruding 
CW X102.554 Y53.578 I62.969 J-65.992 
CW X105.262 Y55.432 I25.656 J-34.569 
G1 X104.432 Y52.428 ;extruding 
G1 X103.752 Y48.539 ;extruding 
G1 X103.561 Y45.015 ;extruding 
G1 X103.832 Y41.722 ;extruding 
G1 X104.380 Y39.088 ;extruding 
G1 X105.666 Y39.114 ;extruding 
G1 X106.661 Y45.094 ;extruding 
G1 X107.767 Y49.151 ;extruding 
G1 X109.114 Y52.506 ;extruding 
G1 X110.706 Y55.325 ;extruding 
G1 X112.773 Y57.959 ;extruding 
G1 X114.036 Y59.205 ;extruding 
G1 X116.637 Y61.203 ;extruding 
G1 X119.678 Y62.890 ;extruding 
G1 X123.283 Y64.304 ;extruding 
G1 X127.598 Y65.450 ;extruding 
G1 X133.673 Y66.425 ;extruding 
G1 X133.617 Y67.791 ;extruding 
G1 X126.399 Y68.455 ;extruding 
G1 X121.918 Y69.035 ;extruding 
G1 X121.137 Y69.183 ;extruding 
G1 X116.611 Y70.360 ;extruding 
G1 X112.865 Y71.801 ;extruding 
G1 X109.163 Y73.775 ;extruding 
G1 X105.899 Y76.122 ;extruding 
G1 X103.016 Y78.852 ;extruding 
G1 X101.024 Y81.241 ;extruding 
G1 X99.105 Y84.212 ;extruding 
G1 X97.634 Y87.397 ;extruding 
G1 X96.616 Y90.776 ;extruding 
G1 X96.104 Y94.229 ;extruding 
G1 X96.115 Y97.550 ;extruding 
G1 X96.640 Y100.742 ;extruding 
G1 X97.517 Y103.350 ;extruding 
G1 X98.699 Y105.613 ;extruding 
G1 X100.348 Y107.794 ;extruding 
G1 X102.161 Y109.508 ;extruding 
G1 X103.059 Y110.210 ;extruding 
CW X101.209 Y113.471 I18.805 J12.823 
CCW X98.924 Y114.777 I-2.360 J-1.478 
G1 X98.604 Y114.796 ;extruding 
G1 X94.017 Y114.695 ;extruding 
G1 X89.620 Y114.080 ;extruding 
G1 X85.384 Y112.967 ;extruding 
G1 X81.274 Y111.357 ;extruding 
G1 X77.255 Y109.238 ;extruding 
G1 X73.296 Y106.581 ;extruding 
G1 X69.624 Y103.579 ;extruding 
CCW X68.853 Y101.247 I2.122 J-1.995 
G1 X70.283 Y93.707 ;extruding 
G1 X72.200 Y86.397 ;extruding 
G1 X74.630 Y79.166 ;extruding 
G1 X77.578 Y72.006 ;extruding 
G1 X79.725 Y67.491 ;extruding 
G1 X83.502 Y60.476 ;extruding 
G1 X88.956 Y50.921 ;extruding 
G1 X91.177 Y54.093 ;extruding 
G1 X92.913 Y55.858 ;extruding 
G1 X94.878 Y57.315 ;extruding 
G1 X97.327 Y58.653 ;extruding 
G1 X101.231 Y60.217 ;extruding 
G1 X101.700 Y60.377 ;extruding 
G1 X101.821 Y60.222 ;extruding 
G1 X100.439 Y58.107 ;extruding 
G1 X98.707 Y54.920 ;extruding 
G1 X97.464 Y51.811 ;extruding 
G1 X96.978 Y50.157 ;extruding 
FILEWRITE $hFile"\x05\x02\x30\x34\x44\x49\x20\x20\x43\x46\x03"
G1 X96.502 Y50.090 ;not extruding 
G1 X98.008 Y55.190 ;not extruding 
G1 X99.026 Y57.915 ;not extruding 
G1 X98.173 Y58.105 ;not extruding 
G1 X98.067 Y58.350 ;not extruding 
G1 X94.799 Y56.770 ;not extruding 
G1 X93.195 Y55.533 ;not extruding 
G1 X91.587 Y53.737 ;not extruding 
G1 X90.460 Y51.883 ;not extruding 
G1 X90.595 Y51.893 ;not extruding 
FILEWRITE $hFile"\x05\x02\x30\x34\x44\x49\x20\x20\x43\x46\x03"
DWELL 0.15
G1 X90.383 Y52.000 ;extruding 
G1 X89.290 Y50.439 ;extruding 
G1 X89.852 Y49.657 ;extruding 
G1 X90.578 Y51.843 ;extruding 
FILEWRITE $hFile"\x05\x02\x30\x34\x44\x49\x20\x20\x43\x46\x03"
G1 X90.819 Y51.695 ;not extruding 
FILEWRITE $hFile"\x05\x02\x30\x34\x44\x49\x20\x20\x43\x46\x03"
DWELL 0.15
G1 X91.800 Y53.579 ;extruding 
G1 X92.809 Y54.937 ;extruding 
G1 X93.572 Y55.686 ;extruding 
G1 X93.405 Y55.881 ;extruding 
G1 X93.094 Y55.650 ;extruding 
G1 X91.389 Y53.917 ;extruding 
G1 X88.953 Y50.437 ;extruding 
G1 X89.994 Y48.990 ;extruding 
G1 X90.062 Y49.417 ;extruding 
G1 X90.803 Y51.646 ;extruding 
FILEWRITE $hFile"\x05\x02\x30\x34\x44\x49\x20\x20\x43\x46\x03"
G1 X90.460 Y51.883 ;not extruding 
G1 X91.564 Y53.702 ;not extruding 
G1 X93.195 Y55.533 ;not extruding 
G1 X94.799 Y56.770 ;not extruding 
G1 X98.067 Y58.350 ;not extruding 
G1 X98.173 Y58.105 ;not extruding 
G1 X99.026 Y57.915 ;not extruding 
G1 X98.008 Y55.190 ;not extruding 
G1 X96.502 Y50.090 ;not extruding 
G1 X97.814 Y50.431 ;not extruding 
G1 X97.883 Y49.167 ;not extruding 
G1 X98.275 Y48.714 ;not extruding 
G1 X100.138 Y50.797 ;not extruding 
G1 X102.779 Y53.274 ;not extruding 
G1 X103.569 Y53.957 ;not extruding 
G1 X104.056 Y53.729 ;not extruding 
G1 X102.931 Y44.956 ;not extruding 
G1 X103.207 Y41.540 ;not extruding 
G1 X104.005 Y38.687 ;not extruding 
G1 X104.317 Y38.780 ;not extruding 
G1 X105.050 Y39.827 ;not extruding 
G1 X105.906 Y38.877 ;not extruding 
G1 X106.499 Y38.779 ;not extruding 
G1 X107.673 Y40.108 ;not extruding 
G1 X108.283 Y42.450 ;not extruding 
G1 X108.047 Y43.002 ;not extruding 
G1 X107.949 Y44.735 ;not extruding 
G1 X108.743 Y46.597 ;not extruding 
G1 X109.692 Y46.626 ;not extruding 
G1 X109.520 Y47.318 ;not extruding 
FILEWRITE $hFile"\x05\x02\x30\x34\x44\x49\x20\x20\x43\x46\x03"
DWELL 0.15
G1 X111.813 Y48.027 ;extruding 
G1 X109.593 Y44.352 ;extruding 
G1 X110.439 Y43.778 ;extruding 
G1 X111.411 Y44.298 ;extruding 
G1 X109.875 Y40.069 ;extruding 
G1 X110.893 Y39.714 ;extruding 
G1 X111.760 Y40.484 ;extruding 
G1 X111.486 Y37.009 ;extruding 
G1 X111.617 Y34.967 ;extruding 
G1 X111.972 Y33.329 ;extruding 
G1 X112.514 Y31.922 ;extruding 
G1 X113.247 Y30.659 ;extruding 
G1 X113.371 Y30.485 ;extruding 
G1 X115.520 Y27.935 ;extruding 
G1 X118.006 Y25.719 ;extruding 
G1 X121.001 Y23.635 ;extruding 
G1 X125.537 Y21.087 ;extruding 
G1 X125.507 Y27.912 ;extruding 
G1 X125.933 Y32.860 ;extruding 
G1 X126.753 Y37.318 ;extruding 
G1 X127.946 Y41.360 ;extruding 
G1 X129.400 Y44.843 ;extruding 
G1 X131.485 Y48.539 ;extruding 
G1 X133.992 Y51.888 ;extruding 
G1 X136.940 Y54.935 ;extruding 
G1 X140.372 Y57.718 ;extruding 
G1 X142.826 Y59.371 ;extruding 
G1 X139.851 Y66.185 ;extruding 
G1 X133.204 Y65.335 ;extruding 
G1 X128.306 Y64.335 ;extruding 
G1 X124.023 Y63.043 ;extruding 
G1 X120.208 Y61.440 ;extruding 
G1 X117.570 Y60.009 ;extruding 
G1 X116.211 Y59.025 ;extruding 
CCW X111.398 Y54.212 I112.486 J-117.299 
G1 X113.045 Y54.053 ;extruding 
G1 X110.454 Y51.298 ;extruding 
G1 X110.802 Y50.662 ;extruding 
G1 X112.144 Y50.913 ;extruding 
G1 X110.447 Y48.800 ;extruding 
G1 X109.548 Y47.362 ;extruding 
FILEWRITE $hFile"\x05\x02\x30\x34\x44\x49\x20\x20\x43\x46\x03"
G1 X108.895 Y46.837 ;not extruding 
FILEWRITE $hFile"\x05\x02\x30\x34\x44\x49\x20\x20\x43\x46\x03"
DWELL 0.15
G1 X111.204 Y47.551 ;extruding 
G1 X109.223 Y44.271 ;extruding 
G1 X110.422 Y43.457 ;extruding 
G1 X110.908 Y43.717 ;extruding 
G1 X109.522 Y39.902 ;extruding 
G1 X110.955 Y39.401 ;extruding 
G1 X111.423 Y39.818 ;extruding 
G1 X111.210 Y37.011 ;extruding 
G1 X111.344 Y34.929 ;extruding 
G1 X111.707 Y33.249 ;extruding 
G1 X112.266 Y31.803 ;extruding 
G1 X113.016 Y30.511 ;extruding 
G1 X113.153 Y30.316 ;extruding 
G1 X115.322 Y27.743 ;extruding 
G1 X117.836 Y25.503 ;extruding 
G1 X120.855 Y23.402 ;extruding 
G1 X125.814 Y20.616 ;extruding 
G1 X125.782 Y27.901 ;extruding 
G1 X126.206 Y32.824 ;extruding 
G1 X127.021 Y37.254 ;extruding 
G1 X128.205 Y41.268 ;extruding 
G1 X129.647 Y44.722 ;extruding 
G1 X131.716 Y48.389 ;extruding 
G1 X134.202 Y51.709 ;extruding 
G1 X137.126 Y54.732 ;extruding 
G1 X140.536 Y57.497 ;extruding 
G1 X143.170 Y59.272 ;extruding 
G1 X140.020 Y66.484 ;extruding 
G1 X133.159 Y65.607 ;extruding 
G1 X128.239 Y64.602 ;extruding 
G1 X123.929 Y63.302 ;extruding 
G1 X120.089 Y61.688 ;extruding 
G1 X117.423 Y60.242 ;extruding 
G1 X116.033 Y59.236 ;extruding 
CCW X110.799 Y53.993 I121.866 J-126.891 
G1 X112.461 Y53.833 ;extruding 
G1 X110.117 Y51.341 ;extruding 
G1 X110.657 Y50.355 ;extruding 
G1 X111.464 Y50.506 ;extruding 
G1 X110.222 Y48.959 ;extruding 
CW X108.743 Y46.597 I-190.652 J117.735 
FILEWRITE $hFile"\x05\x02\x30\x34\x44\x49\x20\x20\x43\x46\x03"
G1 X108.566 Y47.633 ;not extruding 
G1 X108.699 Y48.613 ;not extruding 
G1 X109.442 Y49.928 ;not extruding 
G1 X109.377 Y51.176 ;not extruding 
G1 X109.499 Y51.664 ;not extruding 
G1 X110.505 Y53.097 ;not extruding 
G1 X110.162 Y53.784 ;not extruding 
G1 X113.295 Y57.493 ;not extruding 
G1 X115.624 Y59.672 ;not extruding 
G1 X116.977 Y60.684 ;not extruding 
G1 X119.948 Y62.316 ;not extruding 
G1 X123.722 Y63.832 ;not extruding 
G1 X128.114 Y65.060 ;not extruding 
G1 X133.981 Y66.144 ;not extruding 
G1 X135.062 Y67.285 ;not extruding 
G1 X136.522 Y67.379 ;not extruding 
G1 X137.770 Y67.861 ;not extruding 
G1 X139.221 Y68.926 ;not extruding 
G1 X141.490 Y68.967 ;not extruding 
G1 X142.477 Y68.772 ;not extruding 
G1 X143.403 Y70.947 ;not extruding 
G1 X146.189 Y73.971 ;not extruding 
G1 X146.540 Y74.731 ;not extruding 
G1 X146.964 Y77.313 ;not extruding 
G1 X146.727 Y79.992 ;not extruding 
G1 X150.230 Y82.074 ;not extruding 
G1 X154.380 Y81.140 ;not extruding 
G1 X156.299 Y81.323 ;not extruding 
G1 X157.997 Y82.871 ;not extruding 
G1 X158.935 Y83.030 ;not extruding 
G1 X161.735 Y84.641 ;not extruding 
G1 X163.031 Y84.780 ;not extruding 
G1 X163.943 Y85.239 ;not extruding 
G1 X165.281 Y85.118 ;not extruding 
G1 X166.127 Y85.437 ;not extruding 
G1 X166.944 Y85.418 ;not extruding 
G1 X168.724 Y85.841 ;not extruding 
G1 X168.915 Y86.296 ;not extruding 
G1 X169.000 Y87.400 ;not extruding 
G1 X168.351 Y89.337 ;not extruding 
G1 X166.108 Y94.707 ;not extruding 
G1 X163.915 Y98.686 ;not extruding 
G1 X160.830 Y102.902 ;not extruding 
G1 X158.126 Y105.835 ;not extruding 
G1 X154.742 Y108.897 ;not extruding 
G1 X144.759 Y116.877 ;not extruding 
G1 X137.823 Y123.190 ;not extruding 
FILEWRITE $hFile"\x05\x02\x30\x34\x44\x49\x20\x20\x43\x46\x03"
DWELL 0.15
G1 X138.021 Y123.378 ;extruding 
G1 X133.573 Y128.154 ;extruding 
G1 X128.753 Y134.109 ;extruding 
G1 X124.318 Y140.429 ;extruding 
G1 X122.575 Y143.185 ;extruding 
G1 X119.316 Y148.022 ;extruding 
G1 X114.856 Y153.733 ;extruding 
CCW X112.404 Y156.486 I-25.954 J-20.648 
G1 X112.203 Y156.307 ;extruding 
G1 X113.463 Y154.840 ;extruding 
G1 X117.790 Y149.381 ;extruding 
CW X124.205 Y139.628 I-231.058 J-158.964 
G1 X128.762 Y133.381 ;extruding 
G1 X133.681 Y127.507 ;extruding 
G1 X137.786 Y123.228 ;extruding 
FILEWRITE $hFile"\x05\x02\x30\x34\x44\x49\x20\x20\x43\x46\x03"
G1 X138.744 Y122.230 ;not extruding 
CCW X139.732 Y121.299 I7.401 J6.864 
FILEWRITE $hFile"\x05\x02\x30\x34\x44\x49\x20\x20\x43\x46\x03"
DWELL 0.15
G1 X139.917 Y121.500 ;extruding 
G1 X138.932 Y122.420 ;extruding 
G1 X138.781 Y122.267 ;extruding 
FILEWRITE $hFile"\x05\x02\x30\x34\x44\x49\x20\x20\x43\x46\x03"
G1 X156.807 Y106.847 ;not extruding 
FILEWRITE $hFile"\x05\x02\x30\x34\x44\x49\x20\x20\x43\x46\x03"
DWELL 0.15
G1 X158.213 Y105.527 ;extruding 
G1 X161.219 Y102.103 ;extruding 
G1 X163.741 Y98.524 ;extruding 
G1 X165.855 Y94.638 ;extruding 
CW X168.702 Y87.872 I-161.228 J-71.824 
G1 X168.945 Y87.951 ;extruding 
G1 X168.582 Y89.412 ;extruding 
G1 X167.129 Y93.268 ;extruding 
G1 X165.184 Y97.100 ;extruding 
G1 X163.444 Y99.885 ;extruding 
G1 X161.009 Y103.055 ;extruding 
G1 X158.240 Y105.954 ;extruding 
G1 X156.988 Y107.047 ;extruding 
G1 X156.842 Y106.886 ;extruding 
FILEWRITE $hFile"\x05\x02\x30\x34\x44\x49\x20\x20\x43\x46\x03"
G1 X158.302 Y105.660 ;not extruding 
G1 X161.356 Y102.262 ;not extruding 
G1 X163.221 Y99.731 ;not extruding 
G1 X164.928 Y96.955 ;not extruding 
G1 X166.835 Y93.138 ;not extruding 
G1 X168.351 Y89.337 ;not extruding 
G1 X169.000 Y87.400 ;not extruding 
G1 X168.832 Y86.124 ;not extruding 
FILEWRITE $hFile"\x05\x02\x30\x34\x44\x49\x20\x20\x43\x46\x03"
DWELL 0.15
G1 X168.191 Y85.747 ;extruding 
G1 X168.961 Y85.605 ;extruding 
G1 X168.845 Y86.073 ;extruding 
FILEWRITE $hFile"\x05\x02\x30\x34\x44\x49\x20\x20\x43\x46\x03"
G1 X169.010 Y86.547 ;not extruding 
FILEWRITE $hFile"\x05\x02\x30\x34\x44\x49\x20\x20\x43\x46\x03"
DWELL 0.15
G1 X167.534 Y85.680 ;extruding 
G1 X167.587 Y85.479 ;extruding 
G1 X168.186 Y85.469 ;extruding 
G1 X169.331 Y85.258 ;extruding 
G1 X169.023 Y86.496 ;extruding 
FILEWRITE $hFile"\x05\x02\x30\x34\x44\x49\x20\x20\x43\x46\x03"
G1 X169.188 Y86.971 ;not extruding 
FILEWRITE $hFile"\x05\x02\x30\x34\x44\x49\x20\x20\x43\x46\x03"
DWELL 0.15
G1 X166.552 Y85.422 ;extruding 
G1 X166.605 Y85.221 ;extruding 
G1 X168.159 Y85.194 ;extruding 
G1 X169.722 Y84.906 ;extruding 
G1 X169.642 Y85.145 ;extruding 
G1 X169.201 Y86.920 ;extruding 
FILEWRITE $hFile"\x05\x02\x30\x34\x44\x49\x20\x20\x43\x46\x03"
G1 X166.597 Y85.221 ;not extruding 
FILEWRITE $hFile"\x05\x02\x30\x34\x44\x49\x20\x20\x43\x46\x03"
DWELL 0.15
G1 X166.144 Y85.709 ;extruding 
G1 X165.617 Y85.361 ;extruding 
G1 X165.697 Y85.155 ;extruding 
CW X166.545 Y85.222 I0.625 J-2.510 
FILEWRITE $hFile"\x05\x02\x30\x34\x44\x49\x20\x20\x43\x46\x03"
G1 X166.203 Y84.953 ;not extruding 
FILEWRITE $hFile"\x05\x02\x30\x34\x44\x49\x20\x20\x43\x46\x03"
DWELL 0.15
G1 X168.131 Y84.920 ;extruding 
G1 X170.186 Y84.541 ;extruding 
CW X169.906 Y85.222 I2.126 J1.272 
G1 X168.845 Y89.494 ;extruding 
G1 X167.381 Y93.379 ;extruding 
G1 X165.423 Y97.235 ;extruding 
G1 X163.670 Y100.042 ;extruding 
G1 X161.218 Y103.234 ;extruding 
G1 X158.431 Y106.153 ;extruding 
G1 X154.313 Y109.745 ;extruding 
G1 X150.577 Y112.649 ;extruding 
G1 X144.586 Y117.515 ;extruding 
G1 X138.978 Y122.753 ;extruding 
G1 X133.780 Y128.335 ;extruding 
G1 X128.973 Y134.274 ;extruding 
G1 X124.547 Y140.582 ;extruding 
G1 X122.805 Y143.335 ;extruding 
G1 X119.539 Y148.184 ;extruding 
G1 X115.070 Y153.905 ;extruding 
G1 X114.215 Y154.937 ;extruding 
G1 X110.897 Y158.516 ;extruding 
G1 X107.736 Y161.269 ;extruding 
G1 X106.893 Y161.847 ;extruding 
G1 X106.735 Y161.639 ;extruding 
G1 X107.492 Y161.000 ;extruding 
G1 X110.605 Y157.743 ;extruding 
G1 X113.251 Y154.665 ;extruding 
G1 X117.568 Y149.219 ;extruding 
CW X123.979 Y139.473 I-230.866 J-158.847 
G1 X128.546 Y133.212 ;extruding 
G1 X133.476 Y127.323 ;extruding 
G1 X138.790 Y121.785 ;extruding 
G1 X144.507 Y116.581 ;extruding 
G1 X154.489 Y108.644 ;extruding 
G1 X158.015 Y105.335 ;extruding 
G1 X161.003 Y101.933 ;extruding 
G1 X163.507 Y98.378 ;extruding 
G1 X165.607 Y94.518 ;extruding 
CW X168.748 Y87.031 I-178.874 J-79.445 
G1 X166.512 Y85.717 ;extruding 
G1 X166.187 Y86.066 ;extruding 
G1 X164.959 Y85.256 ;extruding 
G1 X163.970 Y86.061 ;extruding 
G1 X164.158 Y84.645 ;extruding 
G1 X166.151 Y84.945 ;extruding 
FILEWRITE $hFile"\x05\x02\x30\x34\x44\x49\x20\x20\x43\x46\x03"
G1 X166.221 Y84.678 ;not extruding 
G1 X166.108 Y85.430 ;not extruding 
G1 X165.281 Y85.118 ;not extruding 
G1 X163.943 Y85.239 ;not extruding 
G1 X163.031 Y84.780 ;not extruding 
G1 X161.735 Y84.641 ;not extruding 
G1 X158.935 Y83.030 ;not extruding 
G1 X157.997 Y82.871 ;not extruding 
G1 X156.299 Y81.323 ;not extruding 
G1 X154.380 Y81.140 ;not extruding 
G1 X150.230 Y82.074 ;not extruding 
G1 X150.340 Y84.363 ;not extruding 
G1 X148.720 Y86.289 ;not extruding 
G1 X147.902 Y86.389 ;not extruding 
FILEWRITE $hFile"\x05\x02\x30\x34\x44\x49\x20\x20\x43\x46\x03"
DWELL 0.15
G1 X143.870 Y91.000 ;extruding 
G1 X142.843 Y90.444 ;extruding 
CCW X141.773 Y86.641 I1.483 J-2.469 
CCW X143.521 Y84.716 I3.902 J1.787 
CCW X146.455 Y84.995 I1.236 J2.569 
G1 X147.058 Y85.480 ;extruding 
G1 X147.866 Y86.351 ;extruding 
FILEWRITE $hFile"\x05\x02\x30\x34\x44\x49\x20\x20\x43\x46\x03"
G1 X148.272 Y86.384 ;not extruding 
FILEWRITE $hFile"\x05\x02\x30\x34\x44\x49\x20\x20\x43\x46\x03"
DWELL 0.15
G1 X143.932 Y91.346 ;extruding 
G1 X142.692 Y90.675 ;extruding 
CCW X141.523 Y86.525 I1.636 J-2.701 
CCW X143.407 Y84.465 I4.125 J1.881 
CCW X146.611 Y84.767 I1.350 J2.821 
G1 X147.246 Y85.278 ;extruding 
G1 X148.236 Y86.345 ;extruding 
FILEWRITE $hFile"\x05\x02\x30\x34\x44\x49\x20\x20\x43\x46\x03"
G1 X148.642 Y86.378 ;not extruding 
FILEWRITE $hFile"\x05\x02\x30\x34\x44\x49\x20\x20\x43\x46\x03"
DWELL 0.15
G1 X143.995 Y91.693 ;extruding 
G1 X142.541 Y90.906 ;extruding 
CCW X141.273 Y86.410 I1.784 J-2.930 
CCW X143.293 Y84.215 I4.368 J1.992 
CCW X146.767 Y84.539 I1.466 J3.070 
G1 X147.434 Y85.076 ;extruding 
G1 X148.606 Y86.340 ;extruding 
FILEWRITE $hFile"\x05\x02\x30\x34\x44\x49\x20\x20\x43\x46\x03"
G1 X150.340 Y84.363 ;not extruding 
G1 X150.230 Y82.074 ;not extruding 
G1 X146.727 Y79.992 ;not extruding 
G1 X146.964 Y77.313 ;not extruding 
G1 X146.540 Y74.731 ;not extruding 
G1 X146.189 Y73.971 ;not extruding 
G1 X143.403 Y70.947 ;not extruding 
G1 X142.477 Y68.772 ;not extruding 
G1 X141.490 Y68.967 ;not extruding 
G1 X139.221 Y68.926 ;not extruding 
G1 X137.770 Y67.861 ;not extruding 
G1 X136.522 Y67.379 ;not extruding 
G1 X135.062 Y67.285 ;not extruding 
G1 X133.981 Y66.144 ;not extruding 
G1 X127.711 Y64.964 ;not extruding 
G1 X123.466 Y63.745 ;not extruding 
G1 X119.834 Y62.260 ;not extruding 
G1 X116.977 Y60.684 ;not extruding 
G1 X115.624 Y59.672 ;not extruding 
G1 X113.295 Y57.493 ;not extruding 
G1 X110.162 Y53.784 ;not extruding 
G1 X110.505 Y53.097 ;not extruding 
G1 X111.876 Y53.613 ;not extruding 
G1 X111.292 Y53.393 ;not extruding 
FILEWRITE $hFile"\x05\x02\x30\x34\x44\x49\x20\x20\x43\x46\x03"
DWELL 0.15
G1 X110.300 Y53.489 ;extruding 
G1 X109.611 Y52.268 ;extruding 
G1 X109.376 Y51.683 ;extruding 
G1 X109.568 Y51.560 ;extruding 
G1 X111.256 Y53.355 ;extruding 
FILEWRITE $hFile"\x05\x02\x30\x34\x44\x49\x20\x20\x43\x46\x03"
G1 X109.422 Y50.321 ;not extruding 
FILEWRITE $hFile"\x05\x02\x30\x34\x44\x49\x20\x20\x43\x46\x03"
DWELL 0.15
G1 X109.239 Y49.866 ;extruding 
G1 X109.444 Y49.746 ;extruding 
G1 X109.618 Y49.963 ;extruding 
G1 X109.447 Y50.275 ;extruding 
FILEWRITE $hFile"\x05\x02\x30\x34\x44\x49\x20\x20\x43\x46\x03"
G1 X109.383 Y50.964 ;not extruding 
FILEWRITE $hFile"\x05\x02\x30\x34\x44\x49\x20\x20\x43\x46\x03"
DWELL 0.15
G1 X108.550 Y48.888 ;extruding 
G1 X108.257 Y47.815 ;extruding 
G1 X108.475 Y47.720 ;extruding 
G1 X109.548 Y49.438 ;extruding 
G1 X109.947 Y49.934 ;extruding 
G1 X109.409 Y50.918 ;extruding 
FILEWRITE $hFile"\x05\x02\x30\x34\x44\x49\x20\x20\x43\x46\x03"
G1 X109.345 Y51.606 ;not extruding 
FILEWRITE $hFile"\x05\x02\x30\x34\x44\x49\x20\x20\x43\x46\x03"
DWELL 0.15
G1 X108.289 Y48.975 ;extruding 
G1 X107.501 Y46.086 ;extruding 
G1 X107.719 Y45.991 ;extruding 
G1 X109.773 Y49.278 ;extruding 
G1 X110.276 Y49.905 ;extruding 
G1 X109.370 Y51.560 ;extruding 
FILEWRITE $hFile"\x05\x02\x30\x34\x44\x49\x20\x20\x43\x46\x03"
G1 X109.499 Y51.664 ;not extruding 
G1 X109.377 Y51.176 ;not extruding 
G1 X109.442 Y49.928 ;not extruding 
G1 X108.699 Y48.613 ;not extruding 
G1 X108.566 Y47.633 ;not extruding 
G1 X108.743 Y46.597 ;not extruding 
G1 X107.949 Y44.735 ;not extruding 
G1 X108.047 Y43.002 ;not extruding 
G1 X108.283 Y42.450 ;not extruding 
G1 X107.673 Y40.108 ;not extruding 
G1 X106.499 Y38.779 ;not extruding 
G1 X105.906 Y38.877 ;not extruding 
G1 X105.050 Y39.827 ;not extruding 
G1 X104.317 Y38.780 ;not extruding 
G1 X104.005 Y38.687 ;not extruding 
G1 X103.207 Y41.540 ;not extruding 
G1 X102.970 Y43.633 ;not extruding 
G1 X103.069 Y44.287 ;not extruding 
FILEWRITE $hFile"\x05\x02\x30\x34\x44\x49\x20\x20\x43\x46\x03"
DWELL 0.15
G1 X102.813 Y44.284 ;extruding 
G1 X102.777 Y43.627 ;extruding 
G1 X103.019 Y41.503 ;extruding 
G1 X103.115 Y41.164 ;extruding 
G1 X103.373 Y41.227 ;extruding 
G1 X103.286 Y41.643 ;extruding 
G1 X103.074 Y44.235 ;extruding 
FILEWRITE $hFile"\x05\x02\x30\x34\x44\x49\x20\x20\x43\x46\x03"
G1 X102.970 Y43.633 ;not extruding 
G1 X102.980 Y45.912 ;not extruding 
G1 X103.780 Y50.943 ;not extruding 
G1 X104.056 Y53.729 ;not extruding 
G1 X103.569 Y53.957 ;not extruding 
G1 X102.779 Y53.274 ;not extruding 
G1 X100.138 Y50.797 ;not extruding 
G1 X98.275 Y48.714 ;not extruding 
G1 X97.883 Y49.167 ;not extruding 
G1 X97.814 Y50.431 ;not extruding 
G1 X96.502 Y50.090 ;not extruding 
G1 X98.008 Y55.190 ;not extruding 
G1 X99.026 Y57.915 ;not extruding 
G1 X98.173 Y58.105 ;not extruding 
G1 X98.067 Y58.350 ;not extruding 
G1 X94.799 Y56.770 ;not extruding 
G1 X93.195 Y55.533 ;not extruding 
G1 X91.587 Y53.737 ;not extruding 
G1 X89.754 Y50.485 ;not extruding 
G1 X88.987 Y50.486 ;not extruding 
G1 X88.580 Y50.771 ;not extruding 
G1 X88.986 Y51.556 ;not extruding 
G1 X88.451 Y51.251 ;not extruding 
G1 X84.964 Y56.756 ;not extruding 
G1 X81.298 Y63.113 ;not extruding 
G1 X77.655 Y70.224 ;not extruding 
G1 X74.448 Y77.718 ;not extruding 
G1 X71.491 Y86.201 ;not extruding 
G1 X69.370 Y94.023 ;not extruding 
G1 X67.903 Y101.401 ;not extruding 
G1 X67.875 Y102.741 ;not extruding 
G1 X68.870 Y104.028 ;not extruding 
G1 X69.704 Y104.757 ;not extruding 
G1 X72.836 Y107.244 ;not extruding 
G1 X76.823 Y109.908 ;not extruding 
G1 X80.967 Y112.100 ;not extruding 
G1 X85.162 Y113.749 ;not extruding 
G1 X89.588 Y114.909 ;not extruding 
G1 X94.006 Y115.431 ;not extruding 
G1 X99.856 Y115.703 ;not extruding 
G1 X99.782 Y116.459 ;not extruding 
G1 X102.314 Y117.315 ;not extruding 
G1 X101.614 Y118.560 ;not extruding 
G1 X101.613 Y120.547 ;not extruding 
G1 X101.422 Y121.585 ;not extruding 
G1 X99.878 Y124.529 ;not extruding 
G1 X99.629 Y125.280 ;not extruding 
FILEWRITE $hFile"\x05\x02\x30\x34\x44\x49\x20\x20\x43\x46\x03"
DWELL 0.15
G1 X99.828 Y125.297 ;extruding 
G1 X100.026 Y126.148 ;extruding 
G1 X99.504 Y127.357 ;extruding 
G1 X99.279 Y127.291 ;extruding 
G1 X99.496 Y125.594 ;extruding 
CW X99.878 Y124.529 I-7.126 J-3.157 
FILEWRITE $hFile"\x05\x02\x30\x34\x44\x49\x20\x20\x43\x46\x03"
G1 X101.422 Y121.585 ;not extruding 
G1 X101.613 Y120.547 ;not extruding 
G1 X101.614 Y118.560 ;not extruding 
G1 X102.314 Y117.315 ;not extruding 
G1 X99.782 Y116.459 ;not extruding 
G1 X99.856 Y115.703 ;not extruding 
G1 X94.006 Y115.431 ;not extruding 
G1 X89.588 Y114.909 ;not extruding 
G1 X85.448 Y113.841 ;not extruding 
G1 X81.487 Y112.333 ;not extruding 
G1 X77.577 Y110.349 ;not extruding 
G1 X73.671 Y107.846 ;not extruding 
G1 X69.704 Y104.757 ;not extruding 
G1 X68.158 Y103.193 ;not extruding 
G1 X68.495 Y103.444 ;not extruding 
FILEWRITE $hFile"\x05\x02\x30\x34\x44\x49\x20\x20\x43\x46\x03"
DWELL 0.15
G1 X68.316 Y103.579 ;extruding 
G1 X67.475 Y102.835 ;extruding 
G1 X67.471 Y102.598 ;extruding 
G1 X67.779 Y101.198 ;extruding 
G1 X68.028 Y101.229 ;extruding 
CW X68.473 Y103.397 I3.894 J0.330 
FILEWRITE $hFile"\x05\x02\x30\x34\x44\x49\x20\x20\x43\x46\x03"
G1 X68.158 Y103.193 ;not extruding 
G1 X69.000 Y104.158 ;not extruding 
G1 X72.795 Y107.214 ;not extruding 
G1 X76.823 Y109.908 ;not extruding 
G1 X80.967 Y112.100 ;not extruding 
G1 X85.103 Y113.728 ;not extruding 
G1 X89.588 Y114.909 ;not extruding 
G1 X94.006 Y115.431 ;not extruding 
G1 X100.081 Y115.684 ;not extruding 
G1 X102.676 Y116.537 ;not extruding 
G1 X106.626 Y112.049 ;not extruding 
G1 X108.765 Y108.376 ;not extruding 
G1 X109.762 Y105.254 ;not extruding 
G1 X107.037 Y101.701 ;not extruding 
G1 X106.496 Y100.677 ;not extruding 
G1 X105.867 Y98.552 ;not extruding 
G1 X105.717 Y97.448 ;not extruding 
G1 X105.536 Y97.227 ;not extruding 
FILEWRITE $hFile"\x05\x02\x30\x34\x44\x49\x20\x20\x43\x46\x03"
DWELL 0.15
G1 X105.854 Y97.357 ;extruding 
G1 X105.880 Y97.701 ;extruding 
G1 X105.619 Y97.732 ;extruding 
G1 X105.544 Y97.279 ;extruding 
FILEWRITE $hFile"\x05\x02\x30\x34\x44\x49\x20\x20\x43\x46\x03"
G1 X105.184 Y96.787 ;not extruding 
FILEWRITE $hFile"\x05\x02\x30\x34\x44\x49\x20\x20\x43\x46\x03"
DWELL 0.15
G1 X106.115 Y97.167 ;extruding 
G1 X106.267 Y99.173 ;extruding 
G1 X106.628 Y100.675 ;extruding 
G1 X106.401 Y100.760 ;extruding 
G1 X105.889 Y99.781 ;extruding 
G1 X105.474 Y98.545 ;extruding 
G1 X105.193 Y96.839 ;extruding 
FILEWRITE $hFile"\x05\x02\x30\x34\x44\x49\x20\x20\x43\x46\x03"
G1 X104.911 Y96.817 ;not extruding 
FILEWRITE $hFile"\x05\x02\x30\x34\x44\x49\x20\x20\x43\x46\x03"
DWELL 0.15
G1 X104.909 Y96.377 ;extruding 
G1 X106.401 Y96.987 ;extruding 
G1 X106.389 Y97.138 ;extruding 
G1 X106.540 Y99.130 ;extruding 
G1 X107.009 Y101.083 ;extruding 
G1 X107.432 Y102.083 ;extruding 
G1 X107.249 Y102.210 ;extruding 
G1 X106.925 Y101.904 ;extruding 
G1 X106.159 Y100.891 ;extruding 
G1 X105.636 Y99.889 ;extruding 
G1 X105.206 Y98.612 ;extruding 
G1 X104.919 Y96.869 ;extruding 
FILEWRITE $hFile"\x05\x02\x30\x34\x44\x49\x20\x20\x43\x46\x03"
G1 X104.636 Y96.840 ;not extruding 
FILEWRITE $hFile"\x05\x02\x30\x34\x44\x49\x20\x20\x43\x46\x03"
DWELL 0.15
G1 X104.633 Y95.968 ;extruding 
G1 X106.691 Y96.808 ;extruding 
G1 X106.664 Y97.138 ;extruding 
G1 X106.812 Y99.087 ;extruding 
G1 X107.271 Y100.997 ;extruding 
G1 X107.952 Y102.606 ;extruding 
G1 X108.287 Y103.197 ;extruding 
G1 X108.116 Y103.344 ;extruding 
CCW X105.382 Y99.997 I5.132 J-6.982 
G1 X104.938 Y98.679 ;extruding 
G1 X104.644 Y96.891 ;extruding 
FILEWRITE $hFile"\x05\x02\x30\x34\x44\x49\x20\x20\x43\x46\x03"
G1 X104.361 Y96.863 ;not extruding 
FILEWRITE $hFile"\x05\x02\x30\x34\x44\x49\x20\x20\x43\x46\x03"
DWELL 0.15
G1 X104.357 Y95.632 ;extruding 
G1 X104.787 Y95.733 ;extruding 
G1 X106.981 Y96.630 ;extruding 
G1 X106.940 Y97.139 ;extruding 
G1 X107.085 Y99.044 ;extruding 
G1 X107.533 Y100.910 ;extruding 
G1 X108.199 Y102.484 ;extruding 
CW X109.460 Y104.442 I8.716 J-4.228 
G1 X109.288 Y104.609 ;extruding 
G1 X107.545 Y103.247 ;extruding 
G1 X106.514 Y102.272 ;extruding 
G1 X105.693 Y101.186 ;extruding 
G1 X105.128 Y100.105 ;extruding 
G1 X104.671 Y98.745 ;extruding 
G1 X104.370 Y96.914 ;extruding 
FILEWRITE $hFile"\x05\x02\x30\x34\x44\x49\x20\x20\x43\x46\x03"
G1 X104.086 Y96.886 ;not extruding 
FILEWRITE $hFile"\x05\x02\x30\x34\x44\x49\x20\x20\x43\x46\x03"
DWELL 0.15
G1 X104.081 Y95.285 ;extruding 
G1 X104.871 Y95.471 ;extruding 
G1 X107.271 Y96.451 ;extruding 
G1 X107.216 Y97.139 ;extruding 
G1 X107.357 Y99.001 ;extruding 
G1 X107.795 Y100.824 ;extruding 
G1 X108.446 Y102.363 ;extruding 
CW X109.856 Y104.515 I9.605 J-4.756 
G1 X109.932 Y105.462 ;extruding 
G1 X107.366 Y103.456 ;extruding 
G1 X106.308 Y102.456 ;extruding 
G1 X105.460 Y101.334 ;extruding 
G1 X104.874 Y100.213 ;extruding 
G1 X104.403 Y98.812 ;extruding 
G1 X104.095 Y96.937 ;extruding 
FILEWRITE $hFile"\x05\x02\x30\x34\x44\x49\x20\x20\x43\x46\x03"
G1 X103.811 Y96.908 ;not extruding 
FILEWRITE $hFile"\x05\x02\x30\x34\x44\x49\x20\x20\x43\x46\x03"
DWELL 0.15
G1 X103.805 Y94.938 ;extruding 
G1 X104.955 Y95.208 ;extruding 
G1 X107.561 Y96.273 ;extruding 
G1 X107.492 Y97.140 ;extruding 
G1 X107.630 Y98.959 ;extruding 
G1 X108.057 Y100.738 ;extruding 
G1 X108.693 Y102.241 ;extruding 
CW X110.123 Y104.414 I9.608 J-4.766 
G1 X110.232 Y105.759 ;extruding 
G1 X109.999 Y105.863 ;extruding 
G1 X107.186 Y103.665 ;extruding 
G1 X106.103 Y102.640 ;extruding 
G1 X105.226 Y101.481 ;extruding 
G1 X104.621 Y100.322 ;extruding 
G1 X104.135 Y98.878 ;extruding 
G1 X103.820 Y96.960 ;extruding 
FILEWRITE $hFile"\x05\x02\x30\x34\x44\x49\x20\x20\x43\x46\x03"
G1 X103.536 Y96.931 ;not extruding 
FILEWRITE $hFile"\x05\x02\x30\x34\x44\x49\x20\x20\x43\x46\x03"
DWELL 0.15
G1 X103.529 Y94.765 ;extruding 
G1 X103.554 Y94.597 ;extruding 
G1 X105.039 Y94.945 ;extruding 
G1 X107.851 Y96.094 ;extruding 
G1 X107.767 Y97.140 ;extruding 
G1 X107.902 Y98.916 ;extruding 
G1 X108.320 Y100.652 ;extruding 
G1 X108.940 Y102.119 ;extruding 
G1 X109.504 Y103.115 ;extruding 
G1 X110.391 Y104.314 ;extruding 
G1 X110.522 Y105.931 ;extruding 
G1 X109.960 Y106.181 ;extruding 
G1 X107.007 Y103.873 ;extruding 
G1 X105.897 Y102.824 ;extruding 
G1 X104.993 Y101.629 ;extruding 
G1 X104.367 Y100.430 ;extruding 
G1 X103.867 Y98.945 ;extruding 
G1 X103.545 Y96.983 ;extruding 
FILEWRITE $hFile"\x05\x02\x30\x34\x44\x49\x20\x20\x43\x46\x03"
G1 X103.262 Y96.954 ;not extruding 
FILEWRITE $hFile"\x05\x02\x30\x34\x44\x49\x20\x20\x43\x46\x03"
DWELL 0.15
G1 X103.254 Y94.745 ;extruding 
G1 X103.326 Y94.261 ;extruding 
G1 X105.123 Y94.683 ;extruding 
G1 X108.141 Y95.916 ;extruding 
G1 X108.043 Y97.141 ;extruding 
G1 X108.175 Y98.873 ;extruding 
G1 X108.582 Y100.565 ;extruding 
G1 X109.187 Y101.997 ;extruding 
G1 X109.735 Y102.964 ;extruding 
G1 X110.659 Y104.214 ;extruding 
G1 X110.811 Y106.103 ;extruding 
G1 X109.920 Y106.499 ;extruding 
G1 X106.827 Y104.082 ;extruding 
G1 X105.692 Y103.009 ;extruding 
G1 X104.760 Y101.776 ;extruding 
G1 X104.113 Y100.538 ;extruding 
G1 X103.600 Y99.011 ;extruding 
G1 X103.270 Y97.006 ;extruding 
FILEWRITE $hFile"\x05\x02\x30\x34\x44\x49\x20\x20\x43\x46\x03"
G1 X102.987 Y96.977 ;not extruding 
FILEWRITE $hFile"\x05\x02\x30\x34\x44\x49\x20\x20\x43\x46\x03"
DWELL 0.15
G1 X102.979 Y94.725 ;extruding 
G1 X103.098 Y93.925 ;extruding 
G1 X105.207 Y94.420 ;extruding 
G1 X108.431 Y95.738 ;extruding 
G1 X108.319 Y97.141 ;extruding 
G1 X108.447 Y98.830 ;extruding 
G1 X108.844 Y100.479 ;extruding 
G1 X109.434 Y101.876 ;extruding 
G1 X109.966 Y102.814 ;extruding 
G1 X110.927 Y104.113 ;extruding 
G1 X111.101 Y106.275 ;extruding 
G1 X109.881 Y106.818 ;extruding 
G1 X106.648 Y104.291 ;extruding 
G1 X105.486 Y103.193 ;extruding 
G1 X104.527 Y101.924 ;extruding 
G1 X103.860 Y100.646 ;extruding 
G1 X103.332 Y99.078 ;extruding 
G1 X102.995 Y97.029 ;extruding 
FILEWRITE $hFile"\x05\x02\x30\x34\x44\x49\x20\x20\x43\x46\x03"
G1 X102.712 Y97.000 ;not extruding 
FILEWRITE $hFile"\x05\x02\x30\x34\x44\x49\x20\x20\x43\x46\x03"
DWELL 0.15
G1 X102.704 Y94.706 ;extruding 
G1 X102.870 Y93.589 ;extruding 
G1 X105.290 Y94.157 ;extruding 
G1 X108.721 Y95.559 ;extruding 
G1 X108.595 Y97.142 ;extruding 
G1 X108.720 Y98.787 ;extruding 
G1 X109.106 Y100.393 ;extruding 
G1 X109.681 Y101.754 ;extruding 
G1 X110.197 Y102.664 ;extruding 
G1 X111.110 Y103.899 ;extruding 
G1 X111.191 Y103.978 ;extruding 
G1 X111.391 Y106.447 ;extruding 
G1 X109.842 Y107.136 ;extruding 
G1 X106.468 Y104.499 ;extruding 
G1 X105.281 Y103.377 ;extruding 
G1 X104.294 Y102.071 ;extruding 
G1 X103.606 Y100.754 ;extruding 
G1 X103.064 Y99.145 ;extruding 
G1 X102.720 Y97.052 ;extruding 
FILEWRITE $hFile"\x05\x02\x30\x34\x44\x49\x20\x20\x43\x46\x03"
G1 X102.437 Y97.023 ;not extruding 
FILEWRITE $hFile"\x05\x02\x30\x34\x44\x49\x20\x20\x43\x46\x03"
DWELL 0.15
G1 X102.429 Y94.686 ;extruding 
G1 X102.642 Y93.253 ;extruding 
G1 X105.374 Y93.894 ;extruding 
G1 X109.030 Y95.388 ;extruding 
G1 X109.001 Y95.514 ;extruding 
G1 X108.871 Y97.142 ;extruding 
G1 X108.992 Y98.744 ;extruding 
G1 X109.368 Y100.307 ;extruding 
CW X110.428 Y102.514 I10.013 J-3.451 
G1 X111.318 Y103.717 ;extruding 
G1 X111.457 Y103.852 ;extruding 
G1 X111.676 Y106.566 ;extruding 
G1 X111.530 Y106.686 ;extruding 
G1 X109.803 Y107.455 ;extruding 
G1 X106.289 Y104.708 ;extruding 
G1 X105.075 Y103.561 ;extruding 
G1 X104.061 Y102.219 ;extruding 
G1 X103.352 Y100.862 ;extruding 
G1 X102.797 Y99.211 ;extruding 
G1 X102.445 Y97.075 ;extruding 
FILEWRITE $hFile"\x05\x02\x30\x34\x44\x49\x20\x20\x43\x46\x03"
G1 X102.162 Y97.046 ;not extruding 
FILEWRITE $hFile"\x05\x02\x30\x34\x44\x49\x20\x20\x43\x46\x03"
DWELL 0.15
G1 X102.154 Y94.666 ;extruding 
G1 X102.414 Y92.917 ;extruding 
G1 X105.458 Y93.632 ;extruding 
G1 X109.352 Y95.223 ;extruding 
G1 X109.273 Y95.556 ;extruding 
G1 X109.146 Y97.143 ;extruding 
G1 X109.265 Y98.702 ;extruding 
G1 X109.630 Y100.220 ;extruding 
CW X110.659 Y102.364 I9.725 J-3.348 
G1 X111.525 Y103.535 ;extruding 
G1 X111.723 Y103.727 ;extruding 
G1 X111.962 Y106.688 ;extruding 
G1 X111.675 Y106.922 ;extruding 
G1 X109.764 Y107.773 ;extruding 
G1 X106.110 Y104.917 ;extruding 
G1 X104.870 Y103.745 ;extruding 
G1 X103.828 Y102.366 ;extruding 
G1 X103.099 Y100.970 ;extruding 
G1 X102.529 Y99.278 ;extruding 
G1 X102.171 Y97.098 ;extruding 
FILEWRITE $hFile"\x05\x02\x30\x34\x44\x49\x20\x20\x43\x46\x03"
G1 X101.887 Y97.069 ;not extruding 
FILEWRITE $hFile"\x05\x02\x30\x34\x44\x49\x20\x20\x43\x46\x03"
DWELL 0.15
G1 X101.879 Y94.646 ;extruding 
G1 X102.186 Y92.581 ;extruding 
G1 X105.542 Y93.369 ;extruding 
G1 X109.492 Y94.983 ;extruding 
G1 X109.677 Y95.039 ;extruding 
G1 X109.546 Y95.599 ;extruding 
G1 X109.422 Y97.143 ;extruding 
G1 X109.537 Y98.659 ;extruding 
G1 X109.892 Y100.134 ;extruding 
CW X110.890 Y102.214 I9.392 J-3.227 
G1 X111.733 Y103.354 ;extruding 
G1 X111.988 Y103.601 ;extruding 
G1 X112.248 Y106.810 ;extruding 
G1 X111.821 Y107.158 ;extruding 
G1 X109.725 Y108.091 ;extruding 
G1 X105.930 Y105.125 ;extruding 
G1 X104.664 Y103.929 ;extruding 
G1 X103.595 Y102.514 ;extruding 
G1 X102.845 Y101.079 ;extruding 
G1 X102.261 Y99.344 ;extruding 
G1 X101.896 Y97.121 ;extruding 
FILEWRITE $hFile"\x05\x02\x30\x34\x44\x49\x20\x20\x43\x46\x03"
G1 X101.612 Y97.092 ;not extruding 
FILEWRITE $hFile"\x05\x02\x30\x34\x44\x49\x20\x20\x43\x46\x03"
DWELL 0.15
G1 X101.604 Y94.626 ;extruding 
G1 X101.958 Y92.245 ;extruding 
G1 X105.626 Y93.106 ;extruding 
G1 X109.584 Y94.724 ;extruding 
G1 X110.004 Y94.850 ;extruding 
G1 X109.818 Y95.642 ;extruding 
G1 X109.698 Y97.144 ;extruding 
G1 X109.810 Y98.616 ;extruding 
G1 X110.154 Y100.048 ;extruding 
CW X112.254 Y103.475 I8.611 J-2.920 
G1 X112.533 Y106.931 ;extruding 
G1 X111.966 Y107.395 ;extruding 
G1 X109.686 Y108.410 ;extruding 
G1 X105.751 Y105.334 ;extruding 
G1 X104.459 Y104.113 ;extruding 
G1 X103.361 Y102.662 ;extruding 
G1 X102.591 Y101.187 ;extruding 
G1 X101.994 Y99.411 ;extruding 
G1 X101.621 Y97.143 ;extruding 
FILEWRITE $hFile"\x05\x02\x30\x34\x44\x49\x20\x20\x43\x46\x03"
G1 X101.337 Y97.115 ;not extruding 
FILEWRITE $hFile"\x05\x02\x30\x34\x44\x49\x20\x20\x43\x46\x03"
DWELL 0.15
G1 X101.329 Y94.606 ;extruding 
G1 X101.728 Y91.919 ;extruding 
G1 X102.186 Y90.398 ;extruding 
G1 X102.430 Y90.445 ;extruding 
G1 X102.283 Y92.039 ;extruding 
G1 X105.710 Y92.844 ;extruding 
G1 X109.676 Y94.464 ;extruding 
G1 X110.331 Y94.661 ;extruding 
G1 X110.090 Y95.685 ;extruding 
G1 X109.974 Y97.145 ;extruding 
G1 X110.082 Y98.573 ;extruding 
G1 X110.416 Y99.962 ;extruding 
CW X112.520 Y103.350 I8.319 J-2.819 
G1 X112.819 Y107.053 ;extruding 
G1 X112.112 Y107.631 ;extruding 
G1 X109.646 Y108.728 ;extruding 
G1 X105.571 Y105.543 ;extruding 
G1 X104.253 Y104.297 ;extruding 
G1 X103.128 Y102.809 ;extruding 
G1 X102.337 Y101.295 ;extruding 
G1 X101.726 Y99.477 ;extruding 
G1 X101.346 Y97.166 ;extruding 
FILEWRITE $hFile"\x05\x02\x30\x34\x44\x49\x20\x20\x43\x46\x03"
G1 X101.063 Y97.138 ;not extruding 
FILEWRITE $hFile"\x05\x02\x30\x34\x44\x49\x20\x20\x43\x46\x03"
DWELL 0.15
G1 X101.054 Y94.586 ;extruding 
G1 X101.459 Y91.859 ;extruding 
G1 X102.091 Y89.758 ;extruding 
G1 X102.750 Y89.966 ;extruding 
G1 X102.579 Y91.826 ;extruding 
G1 X105.794 Y92.581 ;extruding 
G1 X109.768 Y94.205 ;extruding 
G1 X110.658 Y94.472 ;extruding 
G1 X110.363 Y95.727 ;extruding 
G1 X110.249 Y97.145 ;extruding 
G1 X110.355 Y98.530 ;extruding 
G1 X110.678 Y99.875 ;extruding 
CW X112.786 Y103.224 I8.028 J-2.715 
G1 X113.105 Y107.175 ;extruding 
G1 X112.257 Y107.867 ;extruding 
G1 X109.814 Y108.954 ;extruding 
G1 X109.622 Y109.058 ;extruding 
G1 X105.392 Y105.751 ;extruding 
G1 X104.047 Y104.481 ;extruding 
G1 X102.895 Y102.957 ;extruding 
G1 X102.084 Y101.403 ;extruding 
G1 X101.458 Y99.544 ;extruding 
G1 X101.071 Y97.189 ;extruding 
FILEWRITE $hFile"\x05\x02\x30\x34\x44\x49\x20\x20\x43\x46\x03"
G1 X100.788 Y97.160 ;not extruding 
FILEWRITE $hFile"\x05\x02\x30\x34\x44\x49\x20\x20\x43\x46\x03"
DWELL 0.15
G1 X100.779 Y94.567 ;extruding 
G1 X101.190 Y91.798 ;extruding 
G1 X101.908 Y89.412 ;extruding 
G1 X103.044 Y89.771 ;extruding 
G1 X102.875 Y91.613 ;extruding 
G1 X105.878 Y92.318 ;extruding 
G1 X109.859 Y93.945 ;extruding 
G1 X111.005 Y94.289 ;extruding 
G1 X110.934 Y94.501 ;extruding 
G1 X110.635 Y95.770 ;extruding 
G1 X110.525 Y97.146 ;extruding 
G1 X110.627 Y98.488 ;extruding 
G1 X110.940 Y99.789 ;extruding 
CW X113.051 Y103.099 I7.761 J-2.622 
G1 X113.346 Y106.744 ;extruding 
G1 X113.988 Y106.809 ;extruding 
G1 X112.402 Y108.103 ;extruding 
G1 X109.935 Y109.201 ;extruding 
G1 X109.183 Y109.606 ;extruding 
G1 X109.039 Y109.452 ;extruding 
G1 X109.248 Y109.115 ;extruding 
G1 X105.212 Y105.960 ;extruding 
G1 X103.842 Y104.665 ;extruding 
G1 X102.662 Y103.104 ;extruding 
G1 X101.830 Y101.511 ;extruding 
G1 X101.191 Y99.611 ;extruding 
G1 X100.796 Y97.212 ;extruding 
FILEWRITE $hFile"\x05\x02\x30\x34\x44\x49\x20\x20\x43\x46\x03"
G1 X100.513 Y97.183 ;not extruding 
FILEWRITE $hFile"\x05\x02\x30\x34\x44\x49\x20\x20\x43\x46\x03"
DWELL 0.15
G1 X100.504 Y94.547 ;extruding 
G1 X100.921 Y91.738 ;extruding 
G1 X101.725 Y89.066 ;extruding 
G1 X103.338 Y89.575 ;extruding 
G1 X103.170 Y91.400 ;extruding 
G1 X105.962 Y92.055 ;extruding 
G1 X109.951 Y93.685 ;extruding 
G1 X111.357 Y94.108 ;extruding 
CW X111.202 Y99.703 I8.210 J3.027 
CW X113.317 Y102.973 I7.358 J-2.440 
G1 X113.601 Y106.493 ;extruding 
G1 X114.676 Y106.602 ;extruding 
G1 X112.548 Y108.340 ;extruding 
G1 X110.056 Y109.448 ;extruding 
G1 X108.646 Y110.207 ;extruding 
G1 X108.395 Y110.377 ;extruding 
G1 X108.235 Y110.223 ;extruding 
G1 X108.884 Y109.179 ;extruding 
G1 X105.033 Y106.169 ;extruding 
G1 X103.636 Y104.849 ;extruding 
G1 X102.429 Y103.252 ;extruding 
G1 X101.576 Y101.619 ;extruding 
G1 X100.923 Y99.677 ;extruding 
G1 X100.521 Y97.235 ;extruding 
FILEWRITE $hFile"\x05\x02\x30\x34\x44\x49\x20\x20\x43\x46\x03"
G1 X100.238 Y97.206 ;not extruding 
FILEWRITE $hFile"\x05\x02\x30\x34\x44\x49\x20\x20\x43\x46\x03"
DWELL 0.15
G1 X100.229 Y94.527 ;extruding 
G1 X100.652 Y91.678 ;extruding 
G1 X101.499 Y88.863 ;extruding 
G1 X101.562 Y88.727 ;extruding 
G1 X103.633 Y89.379 ;extruding 
G1 X103.466 Y91.187 ;extruding 
G1 X106.046 Y91.793 ;extruding 
G1 X110.043 Y93.426 ;extruding 
G1 X111.708 Y93.926 ;extruding 
CW X111.172 Y98.402 I8.586 J3.298 
G1 X111.464 Y99.617 ;extruding 
CW X113.583 Y102.848 I7.148 J-2.377 
G1 X113.857 Y106.243 ;extruding 
G1 X115.364 Y106.395 ;extruding 
G1 X112.854 Y108.445 ;extruding 
G1 X112.865 Y108.499 ;extruding 
G1 X110.178 Y109.695 ;extruding 
CW X107.478 Y111.328 I6.804 J14.298 
G1 X107.318 Y111.174 ;extruding 
G1 X108.520 Y109.244 ;extruding 
G1 X104.853 Y106.377 ;extruding 
G1 X103.431 Y105.033 ;extruding 
G1 X102.196 Y103.399 ;extruding 
G1 X101.323 Y101.728 ;extruding 
G1 X100.655 Y99.744 ;extruding 
G1 X100.246 Y97.258 ;extruding 
FILEWRITE $hFile"\x05\x02\x30\x34\x44\x49\x20\x20\x43\x46\x03"
G1 X99.963 Y97.229 ;not extruding 
FILEWRITE $hFile"\x05\x02\x30\x34\x44\x49\x20\x20\x43\x46\x03"
DWELL 0.15
G1 X99.954 Y94.507 ;extruding 
G1 X100.383 Y91.618 ;extruding 
G1 X101.242 Y88.765 ;extruding 
G1 X101.414 Y88.392 ;extruding 
G1 X103.927 Y89.184 ;extruding 
G1 X103.762 Y90.974 ;extruding 
G1 X106.130 Y91.530 ;extruding 
G1 X110.135 Y93.166 ;extruding 
G1 X112.096 Y93.756 ;extruding 
CW X111.726 Y99.531 I7.451 J3.377 
CW X113.848 Y102.722 I6.950 J-2.321 
G1 X114.113 Y105.992 ;extruding 
G1 X115.563 Y106.139 ;extruding 
G1 X115.582 Y106.572 ;extruding 
G1 X113.156 Y108.553 ;extruding 
G1 X113.178 Y108.661 ;extruding 
G1 X110.299 Y109.942 ;extruding 
G1 X108.931 Y110.678 ;extruding 
G1 X106.562 Y112.280 ;extruding 
G1 X106.401 Y112.125 ;extruding 
G1 X108.156 Y109.308 ;extruding 
G1 X104.674 Y106.586 ;extruding 
G1 X103.225 Y105.217 ;extruding 
G1 X101.963 Y103.547 ;extruding 
G1 X101.069 Y101.836 ;extruding 
G1 X100.388 Y99.810 ;extruding 
G1 X99.972 Y97.281 ;extruding 
FILEWRITE $hFile"\x05\x02\x30\x34\x44\x49\x20\x20\x43\x46\x03"
G1 X99.688 Y97.252 ;not extruding 
FILEWRITE $hFile"\x05\x02\x30\x34\x44\x49\x20\x20\x43\x46\x03"
DWELL 0.15
G1 X99.679 Y94.487 ;extruding 
G1 X100.114 Y91.558 ;extruding 
G1 X100.984 Y88.668 ;extruding 
G1 X101.266 Y88.057 ;extruding 
G1 X104.221 Y88.988 ;extruding 
G1 X104.058 Y90.761 ;extruding 
G1 X106.214 Y91.267 ;extruding 
G1 X110.226 Y92.907 ;extruding 
G1 X112.476 Y93.583 ;extruding 
CW X111.988 Y99.444 I7.188 J3.549 
CW X114.114 Y102.597 I6.761 J-2.266 
G1 X114.368 Y105.742 ;extruding 
G1 X115.827 Y105.889 ;extruding 
G1 X115.863 Y106.697 ;extruding 
G1 X113.459 Y108.660 ;extruding 
G1 X113.492 Y108.822 ;extruding 
G1 X110.420 Y110.189 ;extruding 
G1 X109.074 Y110.914 ;extruding 
G1 X105.645 Y113.231 ;extruding 
G1 X105.485 Y113.076 ;extruding 
G1 X107.792 Y109.373 ;extruding 
G1 X104.494 Y106.795 ;extruding 
G1 X103.020 Y105.401 ;extruding 
G1 X101.730 Y103.694 ;extruding 
G1 X100.815 Y101.944 ;extruding 
G1 X100.120 Y99.877 ;extruding 
G1 X99.697 Y97.304 ;extruding 
FILEWRITE $hFile"\x05\x02\x30\x34\x44\x49\x20\x20\x43\x46\x03"
G1 X99.413 Y97.275 ;not extruding 
FILEWRITE $hFile"\x05\x02\x30\x34\x44\x49\x20\x20\x43\x46\x03"
DWELL 0.15
G1 X99.404 Y94.467 ;extruding 
G1 X99.845 Y91.498 ;extruding 
G1 X100.726 Y88.570 ;extruding 
G1 X101.871 Y86.092 ;extruding 
G1 X102.117 Y86.197 ;extruding 
G1 X101.468 Y87.832 ;extruding 
G1 X104.515 Y88.793 ;extruding 
G1 X104.353 Y90.548 ;extruding 
G1 X106.298 Y91.005 ;extruding 
G1 X110.318 Y92.647 ;extruding 
G1 X112.526 Y93.311 ;extruding 
G1 X112.879 Y93.359 ;extruding 
CW X111.990 Y98.274 I7.241 J3.848 
CW X114.380 Y102.471 I6.792 J-1.089 
G1 X114.624 Y105.491 ;extruding 
G1 X116.091 Y105.640 ;extruding 
G1 X116.144 Y106.823 ;extruding 
G1 X113.761 Y108.768 ;extruding 
G1 X113.805 Y108.984 ;extruding 
G1 X110.541 Y110.436 ;extruding 
G1 X109.216 Y111.149 ;extruding 
G1 X105.748 Y113.493 ;extruding 
G1 X104.644 Y114.499 ;extruding 
G1 X104.462 Y114.360 ;extruding 
G1 X104.931 Y113.445 ;extruding 
G1 X107.428 Y109.437 ;extruding 
G1 X104.315 Y107.004 ;extruding 
G1 X102.814 Y105.586 ;extruding 
G1 X101.497 Y103.842 ;extruding 
G1 X100.562 Y102.052 ;extruding 
G1 X99.852 Y99.943 ;extruding 
G1 X99.422 Y97.327 ;extruding 
FILEWRITE $hFile"\x05\x02\x30\x34\x44\x49\x20\x20\x43\x46\x03"
G1 X99.138 Y97.298 ;not extruding 
FILEWRITE $hFile"\x05\x02\x30\x34\x44\x49\x20\x20\x43\x46\x03"
DWELL 0.15
G1 X99.129 Y94.448 ;extruding 
G1 X99.576 Y91.438 ;extruding 
G1 X100.468 Y88.472 ;extruding 
G1 X101.761 Y85.674 ;extruding 
G1 X103.297 Y83.296 ;extruding 
G1 X103.519 Y83.410 ;extruding 
G1 X101.833 Y87.659 ;extruding 
G1 X104.809 Y88.597 ;extruding 
G1 X104.649 Y90.335 ;extruding 
G1 X106.382 Y90.742 ;extruding 
G1 X110.410 Y92.388 ;extruding 
G1 X112.584 Y93.041 ;extruding 
G1 X113.281 Y93.136 ;extruding 
CW X112.522 Y94.955 I8.804 J4.741 
CW X113.200 Y100.713 I6.667 J2.134 
G1 X113.808 Y101.536 ;extruding 
G1 X114.644 Y102.327 ;extruding 
G1 X114.879 Y105.241 ;extruding 
G1 X116.355 Y105.390 ;extruding 
G1 X116.425 Y106.948 ;extruding 
G1 X114.520 Y108.504 ;extruding 
G1 X115.011 Y108.512 ;extruding 
G1 X115.055 Y108.728 ;extruding 
G1 X110.662 Y110.683 ;extruding 
G1 X109.359 Y111.385 ;extruding 
G1 X105.918 Y113.710 ;extruding 
G1 X103.438 Y115.970 ;extruding 
G1 X103.253 Y115.805 ;extruding 
G1 X103.794 Y115.058 ;extruding 
G1 X104.692 Y113.309 ;extruding 
G1 X107.064 Y109.501 ;extruding 
G1 X104.135 Y107.212 ;extruding 
G1 X102.609 Y105.770 ;extruding 
G1 X101.263 Y103.989 ;extruding 
G1 X100.308 Y102.160 ;extruding 
G1 X99.584 Y100.010 ;extruding 
G1 X99.147 Y97.350 ;extruding 
FILEWRITE $hFile"\x05\x02\x30\x34\x44\x49\x20\x20\x43\x46\x03"
G1 X98.864 Y97.321 ;not extruding 
FILEWRITE $hFile"\x05\x02\x30\x34\x44\x49\x20\x20\x43\x46\x03"
DWELL 0.15
G1 X98.854 Y94.428 ;extruding 
G1 X99.307 Y91.378 ;extruding 
G1 X100.211 Y88.374 ;extruding 
G1 X101.520 Y85.541 ;extruding 
G1 X103.243 Y82.873 ;extruding 
G1 X103.803 Y82.201 ;extruding 
G1 X103.973 Y83.011 ;extruding 
G1 X102.197 Y87.485 ;extruding 
G1 X105.103 Y88.402 ;extruding 
G1 X104.945 Y90.122 ;extruding 
G1 X106.466 Y90.479 ;extruding 
G1 X110.502 Y92.128 ;extruding 
G1 X112.642 Y92.772 ;extruding 
G1 X113.683 Y92.913 ;extruding 
G1 X112.960 Y94.516 ;extruding 
CW X112.774 Y99.186 I6.567 J2.600 
CW X114.908 Y102.176 I6.011 J-2.034 
G1 X115.135 Y104.990 ;extruding 
G1 X116.619 Y105.140 ;extruding 
G1 X116.706 Y107.074 ;extruding 
G1 X115.277 Y108.241 ;extruding 
G1 X116.441 Y108.259 ;extruding 
G1 X116.478 Y108.487 ;extruding 
G1 X115.554 Y108.807 ;extruding 
G1 X110.784 Y110.930 ;extruding 
G1 X109.501 Y111.620 ;extruding 
G1 X106.089 Y113.927 ;extruding 
G1 X103.234 Y116.529 ;extruding 
G1 X102.344 Y117.588 ;extruding 
G1 X102.142 Y117.465 ;extruding 
G1 X102.818 Y115.852 ;extruding 
G1 X103.045 Y115.624 ;extruding 
G1 X103.559 Y114.914 ;extruding 
G1 X104.453 Y113.174 ;extruding 
G1 X106.700 Y109.566 ;extruding 
G1 X103.956 Y107.421 ;extruding 
G1 X102.403 Y105.954 ;extruding 
G1 X101.030 Y104.137 ;extruding 
G1 X100.054 Y102.268 ;extruding 
G1 X99.317 Y100.077 ;extruding 
G1 X98.872 Y97.373 ;extruding 
FILEWRITE $hFile"\x05\x02\x30\x34\x44\x49\x20\x20\x43\x46\x03"
G1 X98.589 Y97.344 ;not extruding 
FILEWRITE $hFile"\x05\x02\x30\x34\x44\x49\x20\x20\x43\x46\x03"
DWELL 0.15
G1 X98.579 Y94.408 ;extruding 
G1 X99.038 Y91.317 ;extruding 
G1 X99.953 Y88.276 ;extruding 
G1 X101.278 Y85.408 ;extruding 
G1 X103.021 Y82.710 ;extruding 
G1 X104.033 Y81.496 ;extruding 
G1 X104.058 Y82.078 ;extruding 
G1 X104.259 Y83.036 ;extruding 
G1 X102.562 Y87.312 ;extruding 
G1 X105.397 Y88.206 ;extruding 
G1 X105.240 Y89.909 ;extruding 
G1 X106.550 Y90.216 ;extruding 
G1 X110.593 Y91.869 ;extruding 
G1 X112.701 Y92.502 ;extruding 
G1 X114.148 Y92.698 ;extruding 
G1 X113.933 Y93.029 ;extruding 
G1 X113.216 Y94.617 ;extruding 
CW X113.387 Y99.928 I6.167 J2.460 
CW X115.171 Y102.026 I5.073 J-2.506 
G1 X115.391 Y104.740 ;extruding 
G1 X116.883 Y104.891 ;extruding 
G1 X116.987 Y107.200 ;extruding 
G1 X116.034 Y107.978 ;extruding 
G1 X118.003 Y108.009 ;extruding 
G1 X118.040 Y108.237 ;extruding 
G1 X115.655 Y109.063 ;extruding 
G1 X110.905 Y111.177 ;extruding 
G1 X109.644 Y111.856 ;extruding 
G1 X106.259 Y114.143 ;extruding 
G1 X103.433 Y116.719 ;extruding 
G1 X101.600 Y118.901 ;extruding 
G1 X101.367 Y118.602 ;extruding 
G1 X102.585 Y115.696 ;extruding 
CW X103.324 Y114.769 I-2.555 J-2.795 
G1 X104.213 Y113.038 ;extruding 
G1 X106.336 Y109.630 ;extruding 
G1 X103.776 Y107.630 ;extruding 
G1 X102.198 Y106.138 ;extruding 
G1 X100.797 Y104.285 ;extruding 
G1 X99.800 Y102.376 ;extruding 
G1 X99.049 Y100.143 ;extruding 
G1 X98.597 Y97.395 ;extruding 
FILEWRITE $hFile"\x05\x02\x30\x34\x44\x49\x20\x20\x43\x46\x03"
G1 X98.314 Y97.367 ;not extruding 
FILEWRITE $hFile"\x05\x02\x30\x34\x44\x49\x20\x20\x43\x46\x03"
DWELL 0.15
G1 X98.304 Y94.388 ;extruding 
G1 X98.769 Y91.257 ;extruding 
G1 X99.695 Y88.179 ;extruding 
G1 X101.037 Y85.275 ;extruding 
G1 X102.799 Y82.547 ;extruding 
G1 X104.277 Y80.774 ;extruding 
G1 X104.332 Y82.043 ;extruding 
G1 X104.545 Y83.060 ;extruding 
G1 X102.927 Y87.139 ;extruding 
G1 X105.691 Y88.011 ;extruding 
G1 X105.536 Y89.696 ;extruding 
G1 X106.634 Y89.954 ;extruding 
G1 X110.685 Y91.609 ;extruding 
G1 X112.759 Y92.232 ;extruding 
G1 X114.615 Y92.484 ;extruding 
G1 X114.174 Y93.162 ;extruding 
G1 X113.472 Y94.717 ;extruding 
CW X113.634 Y99.806 I5.928 J2.358 
CW X115.435 Y101.875 I4.838 J-2.393 
G1 X115.646 Y104.489 ;extruding 
G1 X117.147 Y104.641 ;extruding 
G1 X117.268 Y107.325 ;extruding 
G1 X116.791 Y107.715 ;extruding 
G1 X119.565 Y107.758 ;extruding 
G1 X119.602 Y107.986 ;extruding 
G1 X115.756 Y109.319 ;extruding 
G1 X111.026 Y111.424 ;extruding 
G1 X109.786 Y112.092 ;extruding 
G1 X106.429 Y114.360 ;extruding 
G1 X103.631 Y116.910 ;extruding 
G1 X101.598 Y119.331 ;extruding 
CCW X101.057 Y118.631 I3.002 J-2.879 
