DVAR $hFile
DVAR $cCheck
DVAR $press
DVAR $length
DVAR $lame
DVAR $comport
DVAR $COM5
DVAR $linepressure5


G71
G76
G91 ;G90 = absolute, G91 = relative
G68

RAMP TYPE SINE X Y
VELOCITY OFF
RAMP RATE 900

$linepressure5 = 20.0000
CALL setPress5 P$COM5 Q$linepressure5

ENABLE X Y D
'HOME X Y D
G90
G0 D-80 F60
G0 X0 Y0 D0 F60
G91

;Begin Motion
'G0 X150 Y50 F60
G0 D-149.5 F60
G1 F20

FILECLOSE
$hFile = FILEOPEN "COM5", 2
COMMINIT $hFile, "baud=115200 parity=N data=8 stop=1"
COMMSETTIMEOUT $hFile, -1, -1, 1000

;
FILEWRITE $hFile"\x05\x02\x30\x38\x50\x53\x20\x20\x30\x33\x34\x30\x45\x45\x03"

; Postprocessed by [ArcWelder](https://github.com/FormerLurker/ArcWelderLib) 
; Copyright(C) 2021 - Brad Hochgesang 
; Version: 1.2.0, Branch: master, BuildDate: 2021-11-22T09:56:32D 
; resolution=0.05mm 
; path_tolerance=5.0% 
; max_radius=9999.00mm 
; default_xyz_precision=3 
; default_e_precision=5 
; extrusion_rate_variance_percent=5.0% 
; generated by Slic3r 1.3.0 on 2023-07-04 at 12:45:54 
; external perimeters extrusion width = 0.49mm (2.83mm^3/s) 
; perimeters extrusion width = 0.49mm (2.83mm^3/s) 
; infill extrusion width = 0.49mm (2.83mm^3/s) 
; solid infill extrusion width = 0.49mm (2.83mm^3/s) 
; top infill extrusion width = 0.49mm (2.83mm^3/s) 
; Filament gcode 
; CW1 ; set units to millimeters 
G90 ; use absolute coordinates 
G1 D-149.510 ;not extruding 
G1 X5.550 Y20.419 ;not extruding 
CCW X6.294 Y21.356 I-1.066 J1.610 
CCW X6.290 Y21.927 I-1.225 J0.277 
FILEWRITE $hFile"\x05\x02\x30\x34\x44\x49\x20\x20\x43\x46\x03"
DWELL 0.15
G1 X6.009 Y22.876 ;extruding 
CW X6.823 Y25.315 I3.210 J0.284 
G1 X7.239 Y25.752 ;extruding 
CW X9.890 Y30.535 I3.447 J1.216 
CW X10.817 Y32.173 I1.800 J0.063 
CCW X12.497 Y33.365 I-3.382 J6.546 
CCW X12.993 Y35.061 I-1.680 J1.412 
G1 X11.364 Y35.076 ;extruding 
G1 X10.002 Y34.880 ;extruding 
G1 X8.610 Y34.469 ;extruding 
CCW X4.841 Y31.941 I3.518 J-9.318 
G1 X4.120 Y30.966 ;extruding 
CCW X3.102 Y27.783 I5.977 J-3.666 
G1 X3.127 Y26.527 ;extruding 
CCW X3.716 Y24.191 I9.194 J1.076 
CCW X5.509 Y20.496 I31.609 J13.056 
FILEWRITE $hFile"\x05\x02\x30\x34\x44\x49\x20\x20\x43\x46\x03"
G1 X7.258 Y22.229 ;not extruding 
FILEWRITE $hFile"\x05\x02\x30\x34\x44\x49\x20\x20\x43\x46\x03"
DWELL 0.15
G1 X7.491 Y22.177 ;extruding 
G1 X16.865 Y27.171 ;extruding 
G1 X18.355 Y30.093 ;extruding 
G1 X7.322 Y25.708 ;extruding 
CW X7.281 Y25.178 I-0.673 J-0.215 
CCW X6.628 Y23.288 I7.022 J-3.484 
CCW X7.178 Y22.264 I0.884 J-0.185 
FILEWRITE $hFile"\x05\x02\x30\x34\x44\x49\x20\x20\x43\x46\x03"
G1 X18.739 Y28.045 ;not extruding 
FILEWRITE $hFile"\x05\x02\x30\x34\x44\x49\x20\x20\x43\x46\x03"
DWELL 0.15
G1 X7.630 Y22.126 ;extruding 
CCW X6.778 Y19.980 I0.412 J-1.406 
CCW X8.908 Y18.962 I1.753 J0.930 
CCW X10.488 Y19.484 I-1.588 J7.458 
G1 X12.001 Y19.893 ;extruding 
CCW X12.678 Y20.261 I-0.811 J2.298 
G1 X19.960 Y26.667 ;extruding 
G1 X18.797 Y27.980 ;extruding 
FILEWRITE $hFile"\x05\x02\x30\x34\x44\x49\x20\x20\x43\x46\x03"
G1 X25.790 Y25.121 ;not extruding 
FILEWRITE $hFile"\x05\x02\x30\x34\x44\x49\x20\x20\x43\x46\x03"
DWELL 0.15
G1 X19.859 Y26.432 ;extruding 
G1 X12.620 Y20.063 ;extruding 
CCW X13.186 Y17.816 I2.958 J-0.450 
CCW X14.777 Y16.725 I2.084 J1.334 
CCW X16.027 Y17.030 I0.131 J2.176 
CCW X17.837 Y18.497 I-3.523 J6.197 
G1 X19.727 Y20.542 ;extruding 
G1 X21.228 Y21.930 ;extruding 
G1 X22.759 Y23.095 ;extruding 
G1 X24.136 Y23.929 ;extruding 
G1 X25.833 Y24.698 ;extruding 
G1 X25.798 Y25.035 ;extruding 
FILEWRITE $hFile"\x05\x02\x30\x34\x44\x49\x20\x20\x43\x46\x03"
G1 X28.685 Y23.294 ;not extruding 
CCW X23.690 Y21.470 I5.024 J-21.510 
CCW X21.205 Y19.613 I5.582 J-10.061 
CCW X20.284 Y17.358 I2.203 J-2.215 
CW X20.313 Y15.379 I-10.714 J-1.147 
FILEWRITE $hFile"\x05\x02\x30\x34\x44\x49\x20\x20\x43\x46\x03"
DWELL 0.15
G1 X19.932 Y13.333 ;extruding 
G1 X28.685 Y18.662 ;extruding 
G1 X28.685 Y23.207 ;extruding 
FILEWRITE $hFile"\x05\x02\x30\x34\x44\x49\x20\x20\x43\x46\x03"
G1 X33.323 Y18.579 ;not extruding 
FILEWRITE $hFile"\x05\x02\x30\x34\x44\x49\x20\x20\x43\x46\x03"
DWELL 0.15
G1 X28.761 Y18.579 ;extruding 
G1 X19.955 Y13.219 ;extruding 
CCW X20.161 Y11.342 I5.842 J-0.309 
CCW X22.179 Y8.987 I3.897 J1.297 
G1 X23.355 Y8.449 ;extruding 
G1 X25.101 Y7.906 ;extruding 
G1 X33.270 Y18.510 ;extruding 
FILEWRITE $hFile"\x05\x02\x30\x34\x44\x49\x20\x20\x43\x46\x03"
G1 X38.548 Y20.444 ;not extruding 
FILEWRITE $hFile"\x05\x02\x30\x34\x44\x49\x20\x20\x43\x46\x03"
DWELL 0.15
G1 X33.443 Y18.555 ;extruding 
G1 X25.216 Y7.874 ;extruding 
CCW X29.320 Y6.970 I11.678 J43.250 
G1 X30.912 Y6.823 ;extruding 
G1 X32.535 Y6.894 ;extruding 
G1 X38.513 Y20.365 ;extruding 
FILEWRITE $hFile"\x05\x02\x30\x34\x44\x49\x20\x20\x43\x46\x03"
G1 X43.632 Y25.024 ;not extruding 
FILEWRITE $hFile"\x05\x02\x30\x34\x44\x49\x20\x20\x43\x46\x03"
DWELL 0.15
G1 X38.558 Y20.194 ;extruding 
G1 X32.644 Y6.869 ;extruding 
G1 X34.419 Y7.370 ;extruding 
G1 X35.892 Y8.027 ;extruding 
G1 X37.306 Y8.935 ;extruding 
G1 X38.658 Y10.113 ;extruding 
G1 X43.632 Y23.346 ;extruding 
G1 X43.632 Y24.937 ;extruding 
FILEWRITE $hFile"\x05\x02\x30\x34\x44\x49\x20\x20\x43\x46\x03"
G1 X43.147 Y21.745 ;not extruding 
FILEWRITE $hFile"\x05\x02\x30\x34\x44\x49\x20\x20\x43\x46\x03"
DWELL 0.15
G1 X39.348 Y11.636 ;extruding 
G1 X39.790 Y11.388 ;extruding 
G1 X40.255 Y11.986 ;extruding 
CCW X42.536 Y15.705 I-21.327 J15.639 
G1 X43.632 Y18.039 ;extruding 
G1 X43.632 Y21.657 ;extruding 
G1 X43.233 Y21.729 ;extruding 
FILEWRITE $hFile"\x05\x02\x30\x34\x44\x49\x20\x20\x43\x46\x03"
G1 X43.127 Y24.695 ;not extruding 
FILEWRITE $hFile"\x05\x02\x30\x34\x44\x49\x20\x20\x43\x46\x03"
DWELL 0.15
G1 X42.946 Y25.080 ;extruding 
G1 X41.421 Y24.899 ;extruding 
G1 X34.762 Y24.290 ;extruding 
G1 X31.887 Y23.919 ;extruding 
G1 X28.770 Y23.313 ;extruding 
G1 X28.770 Y18.689 ;extruding 
G1 X33.299 Y18.689 ;extruding 
G1 X39.054 Y20.819 ;extruding 
G1 X43.064 Y24.635 ;extruding 
FILEWRITE $hFile"\x05\x02\x30\x34\x44\x49\x20\x20\x43\x46\x03"
G1 X41.780 Y27.115 ;not extruding 
FILEWRITE $hFile"\x05\x02\x30\x34\x44\x49\x20\x20\x43\x46\x03"
DWELL 0.15
G1 X41.858 Y27.543 ;extruding 
G1 X38.426 Y29.335 ;extruding 
G1 X35.899 Y30.435 ;extruding 
G1 X33.231 Y31.367 ;extruding 
CCW X26.252 Y33.257 I-88.132 J-311.605 
CCW X23.860 Y33.469 I-1.769 J-6.362 
CCW X21.792 Y32.030 I0.230 J-2.536 
CCW X22.084 Y30.643 I1.302 J-0.450 
G1 X21.563 Y30.319 ;extruding 
CCW X20.268 Y29.072 I3.541 J-4.974 
CCW X19.726 Y27.400 I1.565 J-1.431 
CCW X20.919 Y26.358 I1.540 J0.559 
G1 X25.970 Y25.230 ;extruding 
G1 X41.694 Y27.105 ;extruding 
FILEWRITE $hFile"\x05\x02\x30\x34\x44\x49\x20\x20\x43\x46\x03"
G1 X20.137 Y33.586 ;not extruding 
FILEWRITE $hFile"\x05\x02\x30\x34\x44\x49\x20\x20\x43\x46\x03"
DWELL 0.15
G1 X13.704 Y33.586 ;extruding 
CW X13.180 Y33.092 I-1.763 J1.346 
CCW X11.156 Y31.773 I5.262 J-10.287 
CCW X10.655 Y30.220 I1.547 J-1.356 
G1 X19.820 Y32.965 ;extruding 
G1 X20.097 Y33.509 ;extruding 
FILEWRITE $hFile"\x05\x02\x30\x34\x44\x49\x20\x20\x43\x46\x03"
G1 X19.751 Y32.830 ;not extruding 
FILEWRITE $hFile"\x05\x02\x30\x34\x44\x49\x20\x20\x43\x46\x03"
DWELL 0.15
G1 X9.496 Y29.758 ;extruding 
CW X9.188 Y29.290 I-1.616 J0.728 
CCW X7.595 Y27.633 I8.737 J-9.993 
CCW X7.557 Y25.920 I1.288 J-0.885 
G1 X18.431 Y30.241 ;extruding 
G1 X19.711 Y32.752 ;extruding 
FILEWRITE $hFile"\x05\x02\x30\x34\x44\x49\x20\x20\x43\x46\x03"
G1 X17.742 Y16.562 ;not extruding 
FILEWRITE $hFile"\x05\x02\x30\x34\x44\x49\x20\x20\x43\x46\x03"
DWELL 0.15
G1 X18.128 Y16.262 ;extruding 
CCW X17.637 Y13.409 I2.874 J-1.963 
G1 X17.911 Y12.540 ;extruding 
G1 X18.480 Y11.380 ;extruding 
G1 X19.545 Y9.793 ;extruding 
CCW X23.039 Y6.555 I10.190 J7.491 
G1 X24.533 Y5.822 ;extruding 
G1 X26.116 Y5.327 ;extruding 
G1 X27.803 Y5.050 ;extruding 
G1 X29.419 Y5.002 ;extruding 
G1 X31.189 Y5.189 ;extruding 
G1 X32.899 Y5.627 ;extruding 
G1 X34.552 Y6.301 ;extruding 
G1 X36.013 Y7.117 ;extruding 
G1 X37.768 Y8.387 ;extruding 
G1 X39.369 Y9.874 ;extruding 
G1 X40.838 Y11.580 ;extruding 
G1 X42.101 Y13.408 ;extruding 
G1 X43.187 Y15.400 ;extruding 
G1 X43.632 Y15.287 ;extruding 
G1 X43.632 Y1.860 ;extruding 
G1 X44.892 Y1.860 ;extruding 
G1 X44.892 Y31.370 ;extruding 
G1 X43.632 Y31.370 ;extruding 
G1 X43.632 Y27.920 ;extruding 
G1 X39.760 Y29.876 ;extruding 
G1 X36.184 Y31.418 ;extruding 
G1 X32.570 Y32.718 ;extruding 
G1 X28.776 Y33.814 ;extruding 
CCW X24.774 Y34.690 I-16.617 J-66.333 
G1 X20.963 Y35.262 ;extruding 
G1 X17.114 Y35.593 ;extruding 
CCW X12.426 Y35.556 I-2.097 J-31.311 
G1 X10.473 Y35.269 ;extruding 
CCW X4.924 Y32.727 I2.412 J-12.593 
G1 X3.975 Y31.802 ;extruding 
CCW X2.558 Y27.954 I4.064 J-3.682 
CCW X2.918 Y25.296 I11.363 J0.186 
G1 X3.418 Y23.658 ;extruding 
G1 X4.034 Y22.238 ;extruding 
G1 X4.957 Y20.680 ;extruding 
G1 X5.990 Y19.387 ;extruding 
G1 X7.126 Y18.305 ;extruding 
CCW X8.566 Y17.261 I8.560 J10.291 
G1 X10.032 Y16.464 ;extruding 
G1 X11.738 Y15.789 ;extruding 
G1 X13.127 Y15.431 ;extruding 
G1 X14.318 Y15.302 ;extruding 
CCW X17.673 Y16.508 I0.272 J4.512 
FILEWRITE $hFile"\x05\x02\x30\x34\x44\x49\x20\x20\x43\x46\x03"
G1 X7.812 Y28.489 ;not extruding 
FILEWRITE $hFile"\x05\x02\x30\x34\x44\x49\x20\x20\x43\x46\x03"
DWELL 0.15
G1 X8.052 Y28.902 ;extruding 
G1 X8.136 Y28.818 ;extruding 
G1 X8.471 Y29.137 ;extruding 
G1 X8.352 Y29.255 ;extruding 
CW X8.697 Y29.563 I1.089 J-0.873 
G1 X8.805 Y29.456 ;extruding 
CCW X9.092 Y29.822 I-0.767 J0.897 
FILEWRITE $hFile"\x05\x02\x30\x34\x44\x49\x20\x20\x43\x46\x03"
G1 X13.100 Y33.521 ;not extruding 
FILEWRITE $hFile"\x05\x02\x30\x34\x44\x49\x20\x20\x43\x46\x03"
DWELL 0.15
G1 X13.082 Y33.539 ;extruding 
CCW X13.247 Y33.919 I-1.105 J0.706 
G1 X13.373 Y33.793 ;extruding 
G1 X13.532 Y33.971 ;extruding 
G1 X13.740 Y33.971 ;extruding 
G1 X13.348 Y34.363 ;extruding 
CCW X13.375 Y34.881 I-1.796 J0.353 
G1 X14.284 Y33.971 ;extruding 
G1 X14.829 Y33.971 ;extruding 
G1 X13.576 Y35.225 ;extruding 
G1 X14.096 Y35.249 ;extruding 
G1 X15.374 Y33.971 ;extruding 
G1 X15.919 Y33.971 ;extruding 
G1 X14.616 Y35.274 ;extruding 
G1 X15.173 Y35.261 ;extruding 
G1 X16.463 Y33.971 ;extruding 
G1 X17.008 Y33.971 ;extruding 
G1 X15.734 Y35.246 ;extruding 
G1 X16.294 Y35.230 ;extruding 
G1 X17.553 Y33.971 ;extruding 
G1 X18.098 Y33.971 ;extruding 
G1 X16.854 Y35.215 ;extruding 
G1 X17.434 Y35.179 ;extruding 
G1 X18.642 Y33.971 ;extruding 
G1 X19.187 Y33.971 ;extruding 
G1 X18.030 Y35.128 ;extruding 
G1 X18.626 Y35.077 ;extruding 
G1 X19.732 Y33.971 ;extruding 
G1 X20.276 Y33.971 ;extruding 
G1 X19.222 Y35.026 ;extruding 
G1 X19.818 Y34.974 ;extruding 
G1 X21.896 Y32.896 ;extruding 
CW X22.180 Y33.157 I1.002 J-0.806 
G1 X20.414 Y34.923 ;extruding 
G1 X21.017 Y34.865 ;extruding 
G1 X22.503 Y33.379 ;extruding 
G1 X22.854 Y33.573 ;extruding 
G1 X21.658 Y34.769 ;extruding 
G1 X22.299 Y34.672 ;extruding 
G1 X23.248 Y33.723 ;extruding 
G1 X23.690 Y33.826 ;extruding 
G1 X22.940 Y34.576 ;extruding 
G1 X23.581 Y34.480 ;extruding 
G1 X24.184 Y33.877 ;extruding 
CW X24.727 Y33.878 I0.275 J-1.874 
G1 X24.222 Y34.384 ;extruding 
CW X24.871 Y34.279 I-1.046 J-8.526 
G1 X25.317 Y33.833 ;extruding 
G1 X25.995 Y33.700 ;extruding 
G1 X25.553 Y34.142 ;extruding 
G1 X26.255 Y33.985 ;extruding 
G1 X26.709 Y33.531 ;extruding 
G1 X27.459 Y33.325 ;extruding 
G1 X26.957 Y33.828 ;extruding 
G1 X27.659 Y33.670 ;extruding 
G1 X28.203 Y33.126 ;extruding 
G1 X28.935 Y32.939 ;extruding 
G1 X28.361 Y33.513 ;extruding 
CW X29.097 Y33.321 I-1.243 J-6.271 
G1 X29.666 Y32.752 ;extruding 
G1 X30.419 Y32.544 ;extruding 
G1 X29.864 Y33.100 ;extruding 
G1 X30.630 Y32.878 ;extruding 
G1 X31.173 Y32.335 ;extruding 
G1 X31.926 Y32.127 ;extruding 
G1 X31.396 Y32.657 ;extruding 
G1 X32.162 Y32.435 ;extruding 
G1 X32.679 Y31.919 ;extruding 
G1 X33.441 Y31.701 ;extruding 
G1 X32.981 Y32.161 ;extruding 
G1 X33.832 Y31.855 ;extruding 
G1 X34.278 Y31.409 ;extruding 
G1 X35.115 Y31.116 ;extruding 
G1 X34.682 Y31.549 ;extruding 
G1 X35.533 Y31.243 ;extruding 
G1 X35.953 Y30.824 ;extruding 
G1 X36.904 Y30.417 ;extruding 
G1 X36.427 Y30.894 ;extruding 
G1 X37.385 Y30.481 ;extruding 
G1 X37.868 Y29.997 ;extruding 
CW X38.877 Y29.534 I-2.865 J-7.576 
G1 X38.343 Y30.068 ;extruding 
G1 X39.301 Y29.655 ;extruding 
G1 X40.017 Y28.938 ;extruding 
G1 X41.157 Y28.343 ;extruding 
G1 X40.357 Y29.143 ;extruding 
FILEWRITE $hFile"\x05\x02\x30\x34\x44\x49\x20\x20\x43\x46\x03"
G1 X42.204 Y27.296 ;not extruding 
FILEWRITE $hFile"\x05\x02\x30\x34\x44\x49\x20\x20\x43\x46\x03"
DWELL 0.15
G1 X43.792 Y25.708 ;extruding 
G1 X43.513 Y25.442 ;extruding 
G1 X42.121 Y26.834 ;extruding 
G1 X42.108 Y26.766 ;extruding 
G1 X41.694 Y26.717 ;extruding 
G1 X42.943 Y25.467 ;extruding 
G1 X42.456 Y25.409 ;extruding 
G1 X41.207 Y26.659 ;extruding 
G1 X40.720 Y26.601 ;extruding 
G1 X41.969 Y25.352 ;extruding 
G1 X41.482 Y25.294 ;extruding 
G1 X40.233 Y26.543 ;extruding 
G1 X39.747 Y26.485 ;extruding 
G1 X40.986 Y25.246 ;extruding 
G1 X40.487 Y25.200 ;extruding 
G1 X39.260 Y26.427 ;extruding 
G1 X38.773 Y26.369 ;extruding 
G1 X39.988 Y25.155 ;extruding 
G1 X39.489 Y25.109 ;extruding 
G1 X38.287 Y26.311 ;extruding 
G1 X37.800 Y26.253 ;extruding 
G1 X38.989 Y25.063 ;extruding 
G1 X38.490 Y25.018 ;extruding 
G1 X37.313 Y26.195 ;extruding 
G1 X36.827 Y26.137 ;extruding 
G1 X37.991 Y24.972 ;extruding 
G1 X37.492 Y24.926 ;extruding 
G1 X36.340 Y26.079 ;extruding 
G1 X35.853 Y26.021 ;extruding 
G1 X36.993 Y24.881 ;extruding 
G1 X36.494 Y24.835 ;extruding 
G1 X35.367 Y25.963 ;extruding 
G1 X34.880 Y25.904 ;extruding 
G1 X35.995 Y24.789 ;extruding 
G1 X35.496 Y24.744 ;extruding 
G1 X34.393 Y25.846 ;extruding 
G1 X33.907 Y25.788 ;extruding 
G1 X34.997 Y24.698 ;extruding 
G1 X34.505 Y24.645 ;extruding 
G1 X33.420 Y25.730 ;extruding 
G1 X32.933 Y25.672 ;extruding 
G1 X34.023 Y24.583 ;extruding 
G1 X33.540 Y24.521 ;extruding 
G1 X32.446 Y25.614 ;extruding 
G1 X31.960 Y25.556 ;extruding 
G1 X33.058 Y24.458 ;extruding 
G1 X32.575 Y24.396 ;extruding 
G1 X31.473 Y25.498 ;extruding 
G1 X30.986 Y25.440 ;extruding 
G1 X32.093 Y24.334 ;extruding 
G1 X31.622 Y24.260 ;extruding 
G1 X30.500 Y25.382 ;extruding 
G1 X30.013 Y25.324 ;extruding 
G1 X31.166 Y24.171 ;extruding 
G1 X30.710 Y24.082 ;extruding 
G1 X29.526 Y25.266 ;extruding 
G1 X29.040 Y25.208 ;extruding 
G1 X30.254 Y23.994 ;extruding 
G1 X29.798 Y23.905 ;extruding 
G1 X28.553 Y25.150 ;extruding 
G1 X28.066 Y25.092 ;extruding 
G1 X29.342 Y23.816 ;extruding 
G1 X29.070 Y23.763 ;extruding 
G1 X29.070 Y23.802 ;extruding 
G1 X28.868 Y23.745 ;extruding 
G1 X27.580 Y25.034 ;extruding 
G1 X27.093 Y24.976 ;extruding 
G1 X28.430 Y23.639 ;extruding 
G1 X28.385 Y23.630 ;extruding 
G1 X28.385 Y23.609 ;extruding 
G1 X28.018 Y23.506 ;extruding 
G1 X26.606 Y24.918 ;extruding 
G1 X26.202 Y24.870 ;extruding 
G1 X26.213 Y24.766 ;extruding 
G1 X27.593 Y23.386 ;extruding 
G1 X27.168 Y23.267 ;extruding 
G1 X26.057 Y24.377 ;extruding 
G1 X25.683 Y24.207 ;extruding 
G1 X26.743 Y23.147 ;extruding 
G1 X26.337 Y23.008 ;extruding 
G1 X25.308 Y24.037 ;extruding 
G1 X24.933 Y23.868 ;extruding 
G1 X25.936 Y22.864 ;extruding 
G1 X25.535 Y22.721 ;extruding 
G1 X24.558 Y23.698 ;extruding 
CCW X24.196 Y23.515 I0.578 J-1.594 
G1 X25.134 Y22.577 ;extruding 
G1 X24.757 Y22.409 ;extruding 
G1 X23.857 Y23.310 ;extruding 
G1 X23.517 Y23.104 ;extruding 
G1 X24.389 Y22.232 ;extruding 
G1 X24.021 Y22.056 ;extruding 
G1 X23.178 Y22.899 ;extruding 
G1 X22.851 Y22.681 ;extruding 
G1 X23.653 Y21.879 ;extruding 
G1 X23.298 Y21.689 ;extruding 
G1 X22.541 Y22.446 ;extruding 
G1 X22.232 Y22.211 ;extruding 
G1 X22.969 Y21.473 ;extruding 
G1 X22.642 Y21.256 ;extruding 
G1 X21.923 Y21.975 ;extruding 
G1 X21.613 Y21.740 ;extruding 
G1 X22.315 Y21.038 ;extruding 
G1 X21.988 Y20.821 ;extruding 
G1 X21.319 Y21.490 ;extruding 
G1 X21.036 Y21.228 ;extruding 
G1 X21.698 Y20.566 ;extruding 
G1 X21.410 Y20.309 ;extruding 
G1 X20.753 Y20.966 ;extruding 
G1 X20.470 Y20.705 ;extruding 
G1 X21.121 Y20.053 ;extruding 
CCW X20.847 Y19.782 I0.669 J-0.950 
G1 X20.187 Y20.443 ;extruding 
G1 X19.911 Y20.174 ;extruding 
G1 X20.603 Y19.482 ;extruding 
CCW X20.380 Y19.161 I0.896 J-0.861 
G1 X19.649 Y19.891 ;extruding 
G1 X19.388 Y19.608 ;extruding 
G1 X20.182 Y18.813 ;extruding 
G1 X20.033 Y18.417 ;extruding 
G1 X19.126 Y19.325 ;extruding 
G1 X18.864 Y19.042 ;extruding 
G1 X19.937 Y17.969 ;extruding 
G1 X19.905 Y17.457 ;extruding 
G1 X18.603 Y18.759 ;extruding 
G1 X18.341 Y18.476 ;extruding 
G1 X19.920 Y16.897 ;extruding 
G1 X19.946 Y16.325 ;extruding 
G1 X18.078 Y18.194 ;extruding 
G1 X17.806 Y17.921 ;extruding 
G1 X19.947 Y15.781 ;extruding 
CW X19.904 Y15.279 I-1.924 J-0.088 
G1 X17.534 Y17.648 ;extruding 
G1 X17.236 Y17.401 ;extruding 
G1 X17.654 Y16.984 ;extruding 
G1 X17.350 Y16.743 ;extruding 
G1 X16.936 Y17.157 ;extruding 
G1 X16.611 Y16.938 ;extruding 
G1 X17.046 Y16.503 ;extruding 
G1 X16.732 Y16.271 ;extruding 
G1 X16.274 Y16.730 ;extruding 
G1 X15.903 Y16.556 ;extruding 
G1 X16.380 Y16.079 ;extruding 
G1 X15.984 Y15.930 ;extruding 
G1 X15.498 Y16.416 ;extruding 
CW X15.033 Y16.336 I-0.502 J1.527 
G1 X15.565 Y15.804 ;extruding 
G1 X15.105 Y15.720 ;extruding 
G1 X14.425 Y16.400 ;extruding 
CW X12.872 Y17.592 I0.825 J2.683 
CW X12.465 Y18.359 I2.184 J1.650 
G1 X11.473 Y19.351 ;extruding 
G1 X11.044 Y19.236 ;extruding 
G1 X14.583 Y15.697 ;extruding 
CW X14.013 Y15.722 I-0.198 J2.003 
G1 X10.615 Y19.120 ;extruding 
G1 X10.218 Y18.972 ;extruding 
G1 X13.402 Y15.788 ;extruding 
CW X12.710 Y15.936 I0.177 J2.519 
G1 X9.821 Y18.824 ;extruding 
G1 X9.409 Y18.692 ;extruding 
G1 X11.976 Y16.125 ;extruding 
CW X11.102 Y16.455 I0.837 J3.539 
G1 X8.974 Y18.582 ;extruding 
G1 X8.462 Y18.550 ;extruding 
G1 X10.200 Y16.811 ;extruding 
G1 X9.008 Y17.459 ;extruding 
G1 X7.811 Y18.656 ;extruding 
CW X6.296 Y20.171 I0.620 J2.135 
G1 X6.081 Y20.385 ;extruding 
G1 X5.853 Y20.175 ;extruding 
G1 X6.278 Y19.644 ;extruding 
FILEWRITE $hFile"\x05\x02\x30\x34\x44\x49\x20\x20\x43\x46\x03"
G1 X11.902 Y19.467 ;not extruding 
FILEWRITE $hFile"\x05\x02\x30\x34\x44\x49\x20\x20\x43\x46\x03"
DWELL 0.15
G1 X12.222 Y19.147 ;extruding 
CCW X12.465 Y18.359 I2.597 J0.370 
FILEWRITE $hFile"\x05\x02\x30\x34\x44\x49\x20\x20\x43\x46\x03"
G1 X18.499 Y16.138 ;not extruding 
FILEWRITE $hFile"\x05\x02\x30\x34\x44\x49\x20\x20\x43\x46\x03"
DWELL 0.15
G1 X19.819 Y14.819 ;extruding 
G1 X19.735 Y14.358 ;extruding 
G1 X18.304 Y15.789 ;extruding 
CCW X18.124 Y15.425 I0.958 J-0.700 
G1 X19.649 Y13.899 ;extruding 
G1 X19.561 Y13.443 ;extruding 
G1 X17.999 Y15.005 ;extruding 
CCW X17.926 Y14.533 I1.197 J-0.427 
G1 X19.473 Y12.986 ;extruding 
G1 X19.390 Y12.553 ;extruding 
G1 X19.591 Y12.675 ;extruding 
G1 X19.605 Y12.309 ;extruding 
G1 X17.941 Y13.973 ;extruding 
CCW X18.077 Y13.292 I2.259 J0.097 
G1 X19.702 Y11.667 ;extruding 
CCW X19.909 Y10.915 I2.532 J0.293 
FILEWRITE $hFile"\x05\x02\x30\x34\x44\x49\x20\x20\x43\x46\x03"
G1 X21.652 Y8.083 ;not extruding 
CW X20.508 Y9.227 I5.176 J6.320 
CCW X22.084 Y7.687 I18.498 J17.354 
FILEWRITE $hFile"\x05\x02\x30\x34\x44\x49\x20\x20\x43\x46\x03"
DWELL 0.15
G1 X23.235 Y6.887 ;extruding 
G1 X23.544 Y6.736 ;extruding 
G1 X19.032 Y11.248 ;extruding 
CW X18.392 Y12.432 I4.065 J2.962 
G1 X19.909 Y10.915 ;extruding 
CCW X22.330 Y8.495 I4.124 J1.705 
G1 X24.613 Y6.211 ;extruding 
G1 X25.422 Y5.947 ;extruding 
G1 X23.309 Y8.060 ;extruding 
G1 X24.105 Y7.809 ;extruding 
G1 X26.213 Y5.701 ;extruding 
G1 X26.865 Y5.594 ;extruding 
G1 X24.905 Y7.554 ;extruding 
G1 X25.626 Y7.377 ;extruding 
G1 X27.517 Y5.487 ;extruding 
CCW X28.123 Y5.425 I0.539 J2.271 
G1 X26.348 Y7.200 ;extruding 
G1 X27.070 Y7.023 ;extruding 
G1 X28.684 Y5.409 ;extruding 
G1 X29.245 Y5.392 ;extruding 
G1 X27.752 Y6.885 ;extruding 
G1 X28.430 Y6.752 ;extruding 
G1 X29.758 Y5.425 ;extruding 
G1 X30.250 Y5.477 ;extruding 
G1 X29.108 Y6.620 ;extruding 
G1 X29.726 Y6.546 ;extruding 
G1 X30.743 Y5.529 ;extruding 
CCW X31.222 Y5.594 I0.019 J1.656 
G1 X30.326 Y6.491 ;extruding 
G1 X30.923 Y6.438 ;extruding 
G1 X31.656 Y5.706 ;extruding 
G1 X32.089 Y5.817 ;extruding 
G1 X31.445 Y6.461 ;extruding 
G1 X31.966 Y6.484 ;extruding 
G1 X32.026 Y6.425 ;extruding 
G1 X31.960 Y6.276 ;extruding 
G1 X32.127 Y6.324 ;extruding 
G1 X32.523 Y5.928 ;extruding 
CCW X32.937 Y6.058 I-0.259 J1.550 
G1 X32.552 Y6.443 ;extruding 
G1 X32.977 Y6.563 ;extruding 
G1 X33.324 Y6.216 ;extruding 
G1 X33.711 Y6.374 ;extruding 
G1 X33.402 Y6.683 ;extruding 
G1 X33.827 Y6.803 ;extruding 
G1 X34.098 Y6.532 ;extruding 
CCW X34.475 Y6.699 I-0.504 J1.647 
G1 X34.251 Y6.923 ;extruding 
CCW X34.662 Y7.057 I-0.250 J1.464 
G1 X34.825 Y6.894 ;extruding 
G1 X35.174 Y7.090 ;extruding 
G1 X35.039 Y7.225 ;extruding 
G1 X35.415 Y7.393 ;extruding 
G1 X35.524 Y7.285 ;extruding 
G1 X35.867 Y7.487 ;extruding 
G1 X35.792 Y7.561 ;extruding 
G1 X36.158 Y7.740 ;extruding 
G1 X36.183 Y7.715 ;extruding 
G1 X36.499 Y7.944 ;extruding 
G1 X36.489 Y7.953 ;extruding 
FILEWRITE $hFile"\x05\x02\x30\x34\x44\x49\x20\x20\x43\x46\x03"
G1 X39.182 Y10.247 ;not extruding 
FILEWRITE $hFile"\x05\x02\x30\x34\x44\x49\x20\x20\x43\x46\x03"
DWELL 0.15
G1 X39.137 Y10.293 ;extruding 
G1 X39.315 Y10.768 ;extruding 
G1 X39.485 Y10.598 ;extruding 
G1 X39.786 Y10.949 ;extruding 
FILEWRITE $hFile"\x05\x02\x30\x34\x44\x49\x20\x20\x43\x46\x03"
G1 X44.377 Y2.245 ;not extruding 
FILEWRITE $hFile"\x05\x02\x30\x34\x44\x49\x20\x20\x43\x46\x03"
DWELL 0.15
G1 X44.016 Y2.245 ;extruding 
G1 X44.016 Y2.605 ;extruding 
G1 X44.377 Y2.245 ;extruding 
G1 X44.507 Y2.245 ;extruding 
G1 X44.507 Y2.660 ;extruding 
G1 X44.016 Y3.150 ;extruding 
G1 X44.016 Y3.695 ;extruding 
G1 X44.507 Y3.204 ;extruding 
G1 X44.507 Y3.749 ;extruding 
G1 X44.016 Y4.239 ;extruding 
G1 X44.016 Y4.784 ;extruding 
G1 X44.507 Y4.294 ;extruding 
G1 X44.507 Y4.838 ;extruding 
G1 X44.016 Y5.329 ;extruding 
G1 X44.016 Y5.874 ;extruding 
G1 X44.507 Y5.383 ;extruding 
G1 X44.507 Y5.928 ;extruding 
G1 X44.016 Y6.418 ;extruding 
G1 X44.016 Y6.963 ;extruding 
G1 X44.507 Y6.473 ;extruding 
G1 X44.507 Y7.017 ;extruding 
G1 X44.016 Y7.508 ;extruding 
G1 X44.016 Y8.052 ;extruding 
G1 X44.507 Y7.562 ;extruding 
G1 X44.507 Y8.107 ;extruding 
G1 X44.016 Y8.597 ;extruding 
G1 X44.016 Y9.142 ;extruding 
G1 X44.507 Y8.652 ;extruding 
G1 X44.507 Y9.196 ;extruding 
G1 X44.016 Y9.687 ;extruding 
G1 X44.016 Y10.231 ;extruding 
G1 X44.507 Y9.741 ;extruding 
G1 X44.507 Y10.286 ;extruding 
G1 X44.016 Y10.776 ;extruding 
G1 X44.016 Y11.321 ;extruding 
G1 X44.507 Y10.830 ;extruding 
G1 X44.507 Y11.375 ;extruding 
G1 X44.016 Y11.865 ;extruding 
G1 X44.016 Y12.410 ;extruding 
G1 X44.507 Y11.920 ;extruding 
G1 X44.507 Y12.465 ;extruding 
G1 X44.016 Y12.955 ;extruding 
G1 X44.016 Y13.500 ;extruding 
G1 X44.507 Y13.009 ;extruding 
G1 X44.507 Y13.554 ;extruding 
G1 X44.016 Y14.044 ;extruding 
G1 X44.016 Y14.589 ;extruding 
G1 X44.507 Y14.099 ;extruding 
G1 X44.507 Y14.643 ;extruding 
G1 X44.016 Y15.134 ;extruding 
G1 X44.016 Y15.586 ;extruding 
G1 X43.410 Y15.740 ;extruding 
G1 X43.116 Y16.034 ;extruding 
G1 X43.290 Y16.405 ;extruding 
G1 X44.507 Y15.188 ;extruding 
G1 X44.507 Y15.733 ;extruding 
G1 X43.464 Y16.776 ;extruding 
G1 X43.638 Y17.146 ;extruding 
G1 X44.507 Y16.278 ;extruding 
G1 X44.507 Y16.822 ;extruding 
G1 X43.812 Y17.517 ;extruding 
G1 X43.986 Y17.888 ;extruding 
G1 X44.507 Y17.367 ;extruding 
G1 X44.507 Y17.912 ;extruding 
G1 X44.016 Y18.402 ;extruding 
G1 X44.016 Y18.947 ;extruding 
G1 X44.507 Y18.457 ;extruding 
G1 X44.507 Y19.001 ;extruding 
G1 X44.016 Y19.492 ;extruding 
G1 X44.016 Y20.036 ;extruding 
G1 X44.507 Y19.546 ;extruding 
G1 X44.507 Y20.091 ;extruding 
G1 X44.016 Y20.581 ;extruding 
G1 X44.016 Y21.126 ;extruding 
G1 X44.507 Y20.635 ;extruding 
G1 X44.507 Y21.180 ;extruding 
G1 X44.016 Y21.671 ;extruding 
G1 X44.016 Y21.978 ;extruding 
G1 X43.640 Y22.047 ;extruding 
G1 X43.578 Y22.109 ;extruding 
G1 X43.726 Y22.505 ;extruding 
G1 X44.507 Y21.725 ;extruding 
G1 X44.507 Y22.270 ;extruding 
G1 X43.875 Y22.901 ;extruding 
G1 X44.016 Y23.305 ;extruding 
G1 X44.507 Y22.814 ;extruding 
G1 X44.507 Y23.359 ;extruding 
G1 X44.016 Y23.849 ;extruding 
G1 X44.016 Y24.394 ;extruding 
G1 X44.507 Y23.904 ;extruding 
G1 X44.507 Y24.449 ;extruding 
G1 X44.016 Y24.939 ;extruding 
G1 X44.016 Y25.484 ;extruding 
G1 X44.507 Y24.993 ;extruding 
G1 X44.507 Y25.538 ;extruding 
G1 X41.458 Y28.587 ;extruding 
G1 X42.559 Y28.031 ;extruding 
G1 X44.507 Y26.083 ;extruding 
G1 X44.507 Y26.627 ;extruding 
G1 X43.660 Y27.475 ;extruding 
G1 X44.016 Y27.294 ;extruding 
G1 X44.016 Y27.662 ;extruding 
G1 X44.507 Y27.172 ;extruding 
G1 X44.507 Y27.717 ;extruding 
G1 X44.016 Y28.207 ;extruding 
G1 X44.016 Y28.752 ;extruding 
G1 X44.507 Y28.262 ;extruding 
G1 X44.507 Y28.806 ;extruding 
G1 X44.016 Y29.297 ;extruding 
G1 X44.016 Y29.841 ;extruding 
G1 X44.507 Y29.351 ;extruding 
G1 X44.507 Y29.896 ;extruding 
G1 X44.016 Y30.386 ;extruding 
G1 X44.016 Y30.931 ;extruding 
G1 X44.507 Y30.440 ;extruding 
G1 X44.507 Y30.985 ;extruding 
FILEWRITE $hFile"\x05\x02\x30\x34\x44\x49\x20\x20\x43\x46\x03"
G1 X20.600 Y33.648 ;not extruding 
FILEWRITE $hFile"\x05\x02\x30\x34\x44\x49\x20\x20\x43\x46\x03"
DWELL 0.15
G1 X21.654 Y32.594 ;extruding 
CCW X21.464 Y32.239 I0.995 J-0.761 
G1 X20.416 Y33.287 ;extruding 
G1 X20.232 Y32.926 ;extruding 
G1 X21.348 Y31.810 ;extruding 
CCW X21.366 Y31.247 I1.283 J-0.241 
G1 X20.048 Y32.565 ;extruding 
G1 X19.864 Y32.205 ;extruding 
G1 X21.399 Y30.670 ;extruding 
G1 X21.097 Y30.427 ;extruding 
G1 X19.680 Y31.844 ;extruding 
G1 X19.496 Y31.483 ;extruding 
G1 X20.804 Y30.176 ;extruding 
G1 X20.510 Y29.925 ;extruding 
G1 X19.312 Y31.122 ;extruding 
G1 X19.128 Y30.762 ;extruding 
G1 X20.251 Y29.639 ;extruding 
G1 X19.998 Y29.347 ;extruding 
G1 X18.944 Y30.401 ;extruding 
G1 X18.760 Y30.040 ;extruding 
G1 X19.774 Y29.027 ;extruding 
CCW X19.574 Y28.682 I1.070 J-0.851 
G1 X18.576 Y29.679 ;extruding 
G1 X18.392 Y29.319 ;extruding 
G1 X19.413 Y28.298 ;extruding 
CCW X19.332 Y27.956 I1.154 J-0.454 
G1 X18.826 Y28.527 ;extruding 
G1 X18.704 Y28.462 ;extruding 
G1 X18.208 Y28.958 ;extruding 
G1 X18.024 Y28.597 ;extruding 
G1 X18.349 Y28.273 ;extruding 
G1 X17.993 Y28.084 ;extruding 
G1 X17.840 Y28.236 ;extruding 
G1 X17.676 Y27.915 ;extruding 
G1 X17.993 Y28.084 ;extruding 
FILEWRITE $hFile"\x05\x02\x30\x34\x44\x49\x20\x20\x43\x46\x03"
G1 X78.030 Y35.061 ;not extruding 
CCW X79.196 Y32.803 I2.227 J-0.280 
CW X80.598 Y31.865 I-3.614 J-6.919 
CW X81.133 Y30.535 I-1.120 J-1.223 
CW X83.784 Y25.752 I-0.800 J-3.570 
CW X85.045 Y23.150 I-2.403 J-2.771 
FILEWRITE $hFile"\x05\x02\x30\x34\x44\x49\x20\x20\x43\x46\x03"
DWELL 0.15
G1 X85.007 Y22.829 ;extruding 
G1 X84.733 Y21.928 ;extruding 
CCW X85.023 Y20.834 I1.113 J-0.290 
G1 X85.474 Y20.418 ;extruding 
CCW X87.307 Y24.191 I-30.536 J17.167 
CCW X87.906 Y26.605 I-8.652 J3.428 
CCW X86.181 Y31.942 I-7.018 J0.679 
G1 X85.259 Y32.841 ;extruding 
G1 X83.997 Y33.726 ;extruding 
G1 X82.590 Y34.408 ;extruding 
G1 X81.109 Y34.862 ;extruding 
G1 X79.659 Y35.076 ;extruding 
G1 X78.117 Y35.062 ;extruding 
FILEWRITE $hFile"\x05\x02\x30\x34\x44\x49\x20\x20\x43\x46\x03"
G1 X72.668 Y30.093 ;not extruding 
FILEWRITE $hFile"\x05\x02\x30\x34\x44\x49\x20\x20\x43\x46\x03"
DWELL 0.15
G1 X74.158 Y27.171 ;extruding 
G1 X83.532 Y22.177 ;extruding 
CCW X84.386 Y23.361 I-0.067 J0.948 
CCW X83.742 Y25.178 I-8.170 J-1.873 
CW X83.701 Y25.708 I0.632 J0.315 
G1 X72.749 Y30.061 ;extruding 
FILEWRITE $hFile"\x05\x02\x30\x34\x44\x49\x20\x20\x43\x46\x03"
G1 X72.284 Y28.045 ;not extruding 
FILEWRITE $hFile"\x05\x02\x30\x34\x44\x49\x20\x20\x43\x46\x03"
DWELL 0.15
G1 X71.063 Y26.667 ;extruding 
G1 X78.345 Y20.261 ;extruding 
CCW X79.022 Y19.893 I1.488 J1.930 
CW X81.557 Y19.103 I-2.976 J-14.010 
CCW X83.907 Y19.508 I0.858 J2.039 
CCW X83.825 Y21.929 I-1.059 J1.176 
CCW X83.393 Y22.126 I-0.804 J-1.192 
G1 X72.361 Y28.004 ;extruding 
FILEWRITE $hFile"\x05\x02\x30\x34\x44\x49\x20\x20\x43\x46\x03"
G1 X65.237 Y25.122 ;not extruding 
FILEWRITE $hFile"\x05\x02\x30\x34\x44\x49\x20\x20\x43\x46\x03"
DWELL 0.15
G1 X65.199 Y24.698 ;extruding 
G1 X66.886 Y23.930 ;extruding 
CW X71.434 Y20.399 I-9.492 J-16.920 
G1 X73.224 Y18.458 ;extruding 
CCW X75.457 Y16.831 I4.854 J4.316 
CCW X77.451 Y17.350 I0.621 J1.702 
CCW X78.456 Y19.594 I-2.324 J2.388 
G1 X78.401 Y20.064 ;extruding 
G1 X71.165 Y26.432 ;extruding 
G1 X65.322 Y25.141 ;extruding 
FILEWRITE $hFile"\x05\x02\x30\x34\x44\x49\x20\x20\x43\x46\x03"
G1 X62.338 Y23.294 ;not extruding 
FILEWRITE $hFile"\x05\x02\x30\x34\x44\x49\x20\x20\x43\x46\x03"
DWELL 0.15
G1 X62.338 Y18.662 ;extruding 
G1 X71.087 Y13.336 ;extruding 
G1 X70.710 Y15.379 ;extruding 
CW X70.739 Y17.357 I10.733 J0.832 
CCW X69.818 Y19.613 I-2.981 J0.099 
G1 X68.812 Y20.507 ;extruding 
CCW X67.333 Y21.470 I-7.649 J-10.131 
CCW X62.421 Y23.270 I-9.858 J-19.299 
FILEWRITE $hFile"\x05\x02\x30\x34\x44\x49\x20\x20\x43\x46\x03"
G1 X57.700 Y18.579 ;not extruding 
FILEWRITE $hFile"\x05\x02\x30\x34\x44\x49\x20\x20\x43\x46\x03"
DWELL 0.15
G1 X65.925 Y7.902 ;extruding 
G1 X67.787 Y8.498 ;extruding 
G1 X68.899 Y9.015 ;extruding 
CCW X70.870 Y11.368 I-1.934 J3.622 
G1 X71.018 Y12.090 ;extruding 
G1 X71.069 Y13.218 ;extruding 
G1 X62.262 Y18.579 ;extruding 
G1 X57.787 Y18.579 ;extruding 
FILEWRITE $hFile"\x05\x02\x30\x34\x44\x49\x20\x20\x43\x46\x03"
G1 X52.475 Y20.444 ;not extruding 
FILEWRITE $hFile"\x05\x02\x30\x34\x44\x49\x20\x20\x43\x46\x03"
DWELL 0.15
G1 X58.488 Y6.894 ;extruding 
G1 X60.111 Y6.823 ;extruding 
G1 X61.641 Y6.960 ;extruding 
CCW X65.807 Y7.874 I-7.482 J44.055 
G1 X57.580 Y18.555 ;extruding 
G1 X52.556 Y20.414 ;extruding 
FILEWRITE $hFile"\x05\x02\x30\x34\x44\x49\x20\x20\x43\x46\x03"
G1 X47.392 Y25.024 ;not extruding 
FILEWRITE $hFile"\x05\x02\x30\x34\x44\x49\x20\x20\x43\x46\x03"
DWELL 0.15
G1 X47.392 Y23.346 ;extruding 
G1 X52.365 Y10.113 ;extruding 
G1 X53.717 Y8.935 ;extruding 
G1 X55.131 Y8.027 ;extruding 
G1 X56.605 Y7.370 ;extruding 
G1 X58.378 Y6.873 ;extruding 
G1 X52.465 Y20.194 ;extruding 
G1 X47.455 Y24.964 ;extruding 
FILEWRITE $hFile"\x05\x02\x30\x34\x44\x49\x20\x20\x43\x46\x03"
G1 X47.876 Y21.745 ;not extruding 
FILEWRITE $hFile"\x05\x02\x30\x34\x44\x49\x20\x20\x43\x46\x03"
DWELL 0.15
G1 X47.392 Y21.657 ;extruding 
G1 X47.392 Y18.039 ;extruding 
G1 X48.513 Y15.657 ;extruding 
CCW X51.233 Y11.389 I22.590 J11.396 
G1 X51.675 Y11.637 ;extruding 
G1 X47.906 Y21.664 ;extruding 
FILEWRITE $hFile"\x05\x02\x30\x34\x44\x49\x20\x20\x43\x46\x03"
G1 X47.897 Y24.695 ;not extruding 
FILEWRITE $hFile"\x05\x02\x30\x34\x44\x49\x20\x20\x43\x46\x03"
DWELL 0.15
G1 X51.969 Y20.819 ;extruding 
G1 X57.724 Y18.689 ;extruding 
G1 X62.253 Y18.689 ;extruding 
G1 X62.253 Y23.313 ;extruding 
G1 X59.136 Y23.919 ;extruding 
G1 X56.262 Y24.290 ;extruding 
G1 X49.602 Y24.899 ;extruding 
G1 X48.078 Y25.080 ;extruding 
G1 X47.934 Y24.774 ;extruding 
FILEWRITE $hFile"\x05\x02\x30\x34\x44\x49\x20\x20\x43\x46\x03"
G1 X49.243 Y27.115 ;not extruding 
FILEWRITE $hFile"\x05\x02\x30\x34\x44\x49\x20\x20\x43\x46\x03"
DWELL 0.15
G1 X65.053 Y25.230 ;extruding 
G1 X69.909 Y26.302 ;extruding 
CCW X71.203 Y27.149 I-0.366 J1.971 
CCW X71.034 Y28.658 I-1.515 J0.594 
CCW X68.939 Y30.642 I-4.868 J-3.042 
CCW X68.723 Y32.762 I-1.109 J0.958 
CCW X66.523 Y33.512 I-2.055 J-2.425 
CCW X64.771 Y33.257 I0.233 J-7.749 
CCW X57.831 Y31.379 I83.529 J-322.436 
G1 X55.124 Y30.435 ;extruding 
G1 X52.516 Y29.298 ;extruding 
G1 X49.165 Y27.543 ;extruding 
G1 X49.227 Y27.200 ;extruding 
FILEWRITE $hFile"\x05\x02\x30\x34\x44\x49\x20\x20\x43\x46\x03"
G1 X70.886 Y33.586 ;not extruding 
FILEWRITE $hFile"\x05\x02\x30\x34\x44\x49\x20\x20\x43\x46\x03"
DWELL 0.15
G1 X71.203 Y32.965 ;extruding 
G1 X80.376 Y30.218 ;extruding 
CCW X80.062 Y31.535 I-2.190 J0.174 
CCW X78.872 Y32.490 I-2.755 J-2.214 
G1 X77.842 Y33.092 ;extruding 
CW X77.319 Y33.586 I1.256 J1.853 
G1 X70.973 Y33.586 ;extruding 
FILEWRITE $hFile"\x05\x02\x30\x34\x44\x49\x20\x20\x43\x46\x03"
G1 X71.272 Y32.830 ;not extruding 
FILEWRITE $hFile"\x05\x02\x30\x34\x44\x49\x20\x20\x43\x46\x03"
DWELL 0.15
G1 X72.592 Y30.241 ;extruding 
G1 X83.484 Y25.913 ;extruding 
G1 X83.680 Y26.508 ;extruding 
CCW X83.181 Y27.967 I-1.699 J0.234 
CCW X81.835 Y29.290 I-18.392 J-17.366 
CW X81.527 Y29.758 I1.308 J1.196 
G1 X71.356 Y32.805 ;extruding 
FILEWRITE $hFile"\x05\x02\x30\x34\x44\x49\x20\x20\x43\x46\x03"
G1 X73.281 Y16.557 ;not extruding 
CCW X76.791 Y15.303 I3.218 J3.467 
FILEWRITE $hFile"\x05\x02\x30\x34\x44\x49\x20\x20\x43\x46\x03"
DWELL 0.15
G1 X77.895 Y15.431 ;extruding 
G1 X79.348 Y15.810 ;extruding 
G1 X80.991 Y16.464 ;extruding 
G1 X82.457 Y17.261 ;extruding 
G1 X83.827 Y18.246 ;extruding 
CCW X85.105 Y19.467 I-8.124 J9.783 
G1 X86.097 Y20.724 ;extruding 
G1 X86.988 Y22.235 ;extruding 
G1 X87.606 Y23.658 ;extruding 
CCW X88.380 Y26.740 I-13.890 J5.127 
CCW X88.283 Y29.531 I-7.514 J1.136 
CCW X87.085 Y31.757 I-5.394 J-1.468 
G1 X86.144 Y32.689 ;extruding 
G1 X84.989 Y33.534 ;extruding 
G1 X83.612 Y34.283 ;extruding 
G1 X82.091 Y34.873 ;extruding 
G1 X80.420 Y35.297 ;extruding 
CCW X76.563 Y35.657 I-3.890 J-20.830 
CCW X69.946 Y35.249 I0.144 J-56.205 
CCW X65.782 Y34.602 I8.013 J-65.295 
G1 X62.099 Y33.778 ;extruding 
G1 X58.453 Y32.718 ;extruding 
G1 X54.839 Y31.418 ;extruding 
G1 X51.263 Y29.876 ;extruding 
G1 X47.392 Y27.919 ;extruding 
G1 X47.392 Y31.370 ;extruding 
G1 X46.132 Y31.370 ;extruding 
G1 X46.132 Y1.860 ;extruding 
G1 X47.392 Y1.860 ;extruding 
G1 X47.392 Y15.286 ;extruding 
G1 X47.836 Y15.399 ;extruding 
G1 X48.915 Y13.419 ;extruding 
G1 X50.177 Y11.591 ;extruding 
G1 X51.654 Y9.874 ;extruding 
G1 X53.290 Y8.360 ;extruding 
G1 X54.936 Y7.161 ;extruding 
G1 X56.461 Y6.306 ;extruding 
G1 X58.049 Y5.655 ;extruding 
CCW X66.490 Y5.822 I3.982 J12.117 
G1 X67.927 Y6.520 ;extruding 
G1 X69.266 Y7.459 ;extruding 
CCW X73.133 Y12.591 I-9.315 J11.042 
CCW X73.396 Y15.169 I-4.096 J1.720 
CCW X72.907 Y16.250 I-3.486 J-0.926 
G1 X73.213 Y16.502 ;extruding 
FILEWRITE $hFile"\x05\x02\x30\x34\x44\x49\x20\x20\x43\x46\x03"
G1 X70.579 Y19.272 ;not extruding 
FILEWRITE $hFile"\x05\x02\x30\x34\x44\x49\x20\x20\x43\x46\x03"
DWELL 0.15
G1 X73.015 Y16.837 ;extruding 
G1 X72.714 Y16.590 ;extruding 
G1 X71.021 Y18.283 ;extruding 
CW X71.108 Y17.648 I-2.208 J-0.626 
G1 X72.418 Y16.338 ;extruding 
G1 X72.854 Y15.550 ;extruding 
G1 X72.961 Y15.247 ;extruding 
G1 X71.112 Y17.096 ;extruding 
G1 X71.088 Y16.572 ;extruding 
G1 X73.095 Y14.565 ;extruding 
G1 X73.091 Y14.021 ;extruding 
G1 X71.064 Y16.048 ;extruding 
G1 X71.091 Y15.474 ;extruding 
G1 X73.018 Y13.546 ;extruding 
CW X72.895 Y13.122 I-1.361 J0.165 
G1 X71.206 Y14.810 ;extruding 
G1 X71.330 Y14.139 ;extruding 
G1 X72.761 Y12.707 ;extruding 
G1 X72.579 Y12.341 ;extruding 
G1 X71.454 Y13.467 ;extruding 
G1 X71.578 Y12.795 ;extruding 
G1 X72.397 Y11.975 ;extruding 
G1 X72.216 Y11.609 ;extruding 
G1 X71.417 Y12.407 ;extruding 
CW X71.373 Y11.904 I-1.633 J-0.111 
G1 X72.013 Y11.264 ;extruding 
G1 X71.791 Y10.938 ;extruding 
G1 X71.280 Y11.450 ;extruding 
CW X71.154 Y11.027 I-1.462 J0.205 
G1 X71.570 Y10.612 ;extruding 
G1 X71.348 Y10.286 ;extruding 
G1 X71.002 Y10.631 ;extruding 
G1 X70.805 Y10.281 ;extruding 
G1 X71.122 Y9.964 ;extruding 
G1 X70.880 Y9.658 ;extruding 
G1 X70.583 Y9.955 ;extruding 
G1 X70.337 Y9.653 ;extruding 
G1 X70.632 Y9.358 ;extruding 
G1 X70.373 Y9.069 ;extruding 
G1 X70.055 Y9.387 ;extruding 
G1 X69.761 Y9.133 ;extruding 
G1 X70.115 Y8.780 ;extruding 
G1 X69.837 Y8.509 ;extruding 
G1 X69.434 Y8.912 ;extruding 
G1 X69.107 Y8.691 ;extruding 
G1 X69.552 Y8.246 ;extruding 
G1 X69.267 Y7.983 ;extruding 
G1 X68.736 Y8.515 ;extruding 
G1 X68.362 Y8.341 ;extruding 
G1 X68.977 Y7.726 ;extruding 
G1 X68.655 Y7.500 ;extruding 
G1 X67.987 Y8.167 ;extruding 
G1 X67.579 Y8.028 ;extruding 
G1 X68.333 Y7.274 ;extruding 
G1 X68.011 Y7.049 ;extruding 
G1 X67.164 Y7.895 ;extruding 
G1 X66.749 Y7.762 ;extruding 
G1 X67.682 Y6.829 ;extruding 
G1 X67.314 Y6.650 ;extruding 
G1 X66.352 Y7.611 ;extruding 
G1 X65.920 Y7.496 ;extruding 
G1 X66.945 Y6.471 ;extruding 
G1 X66.576 Y6.292 ;extruding 
G1 X65.472 Y7.396 ;extruding 
G1 X65.032 Y7.288 ;extruding 
G1 X66.189 Y6.130 ;extruding 
G1 X65.773 Y5.999 ;extruding 
G1 X64.592 Y7.180 ;extruding 
G1 X64.152 Y7.072 ;extruding 
G1 X65.357 Y5.868 ;extruding 
G1 X64.940 Y5.736 ;extruding 
G1 X63.706 Y6.970 ;extruding 
G1 X63.247 Y6.881 ;extruding 
G1 X64.486 Y5.643 ;extruding 
G1 X64.014 Y5.567 ;extruding 
G1 X62.789 Y6.792 ;extruding 
G1 X62.330 Y6.702 ;extruding 
G1 X63.542 Y5.491 ;extruding 
CW X63.055 Y5.430 I-0.463 J1.723 
G1 X61.872 Y6.613 ;extruding 
G1 X61.386 Y6.551 ;extruding 
G1 X62.521 Y5.415 ;extruding 
G1 X61.988 Y5.401 ;extruding 
G1 X60.883 Y6.506 ;extruding 
G1 X60.380 Y6.461 ;extruding 
G1 X61.441 Y5.400 ;extruding 
G1 X60.826 Y5.467 ;extruding 
G1 X59.844 Y6.450 ;extruding 
G1 X59.271 Y6.475 ;extruding 
G1 X60.211 Y5.535 ;extruding 
CW X59.536 Y5.662 I0.100 J2.391 
G1 X58.860 Y6.338 ;extruding 
G1 X58.098 Y6.551 ;extruding 
G1 X58.801 Y5.848 ;extruding 
CW X58.019 Y6.083 I0.525 J3.166 
G1 X57.337 Y6.765 ;extruding 
G1 X56.576 Y6.978 ;extruding 
G1 X57.090 Y6.464 ;extruding 
CW X56.000 Y7.006 I1.659 J4.704 
G1 X55.617 Y7.389 ;extruding 
CW X54.454 Y8.005 I1.433 J4.112 
G1 X54.513 Y7.945 ;extruding 
FILEWRITE $hFile"\x05\x02\x30\x34\x44\x49\x20\x20\x43\x46\x03"
G1 X51.933 Y10.140 ;not extruding 
FILEWRITE $hFile"\x05\x02\x30\x34\x44\x49\x20\x20\x43\x46\x03"
DWELL 0.15
G1 X51.950 Y10.125 ;extruding 
G1 X51.569 Y11.136 ;extruding 
FILEWRITE $hFile"\x05\x02\x30\x34\x44\x49\x20\x20\x43\x46\x03"
G1 X46.517 Y2.245 ;not extruding 
FILEWRITE $hFile"\x05\x02\x30\x34\x44\x49\x20\x20\x43\x46\x03"
DWELL 0.15
G1 X47.007 Y2.245 ;extruding 
G1 X47.007 Y2.303 ;extruding 
G1 X46.516 Y2.793 ;extruding 
G1 X46.516 Y3.341 ;extruding 
G1 X47.007 Y2.851 ;extruding 
G1 X47.007 Y3.399 ;extruding 
G1 X46.516 Y3.889 ;extruding 
G1 X46.516 Y4.437 ;extruding 
G1 X47.007 Y3.946 ;extruding 
G1 X47.007 Y4.494 ;extruding 
G1 X46.516 Y4.985 ;extruding 
G1 X46.516 Y5.532 ;extruding 
G1 X47.007 Y5.042 ;extruding 
G1 X47.007 Y5.590 ;extruding 
G1 X46.516 Y6.080 ;extruding 
G1 X46.516 Y6.628 ;extruding 
G1 X47.007 Y6.138 ;extruding 
G1 X47.007 Y6.686 ;extruding 
G1 X46.516 Y7.176 ;extruding 
G1 X46.516 Y7.724 ;extruding 
G1 X47.007 Y7.234 ;extruding 
G1 X47.007 Y7.781 ;extruding 
G1 X46.516 Y8.272 ;extruding 
G1 X46.516 Y8.820 ;extruding 
G1 X47.007 Y8.329 ;extruding 
G1 X47.007 Y8.877 ;extruding 
G1 X46.516 Y9.367 ;extruding 
G1 X46.516 Y9.915 ;extruding 
G1 X47.007 Y9.425 ;extruding 
G1 X47.007 Y9.973 ;extruding 
G1 X46.516 Y10.463 ;extruding 
G1 X46.516 Y11.011 ;extruding 
G1 X47.007 Y10.521 ;extruding 
G1 X47.007 Y11.069 ;extruding 
G1 X46.516 Y11.559 ;extruding 
G1 X46.516 Y12.107 ;extruding 
G1 X47.007 Y11.616 ;extruding 
G1 X47.007 Y12.164 ;extruding 
G1 X46.516 Y12.655 ;extruding 
G1 X46.516 Y13.203 ;extruding 
G1 X47.007 Y12.712 ;extruding 
G1 X47.007 Y13.260 ;extruding 
G1 X46.516 Y13.750 ;extruding 
G1 X46.516 Y14.298 ;extruding 
G1 X47.007 Y13.808 ;extruding 
G1 X47.007 Y14.356 ;extruding 
G1 X46.516 Y14.846 ;extruding 
G1 X46.516 Y15.394 ;extruding 
G1 X47.007 Y14.904 ;extruding 
G1 X47.007 Y15.452 ;extruding 
G1 X46.516 Y15.942 ;extruding 
G1 X46.516 Y16.490 ;extruding 
G1 X47.337 Y15.669 ;extruding 
G1 X47.774 Y15.780 ;extruding 
G1 X46.516 Y17.038 ;extruding 
G1 X46.516 Y17.585 ;extruding 
G1 X47.769 Y16.333 ;extruding 
G1 X47.282 Y17.368 ;extruding 
G1 X46.516 Y18.133 ;extruding 
G1 X46.516 Y18.681 ;extruding 
G1 X47.007 Y18.191 ;extruding 
G1 X47.007 Y18.739 ;extruding 
G1 X46.516 Y19.229 ;extruding 
G1 X46.516 Y19.777 ;extruding 
G1 X47.007 Y19.287 ;extruding 
G1 X47.007 Y19.834 ;extruding 
G1 X46.516 Y20.325 ;extruding 
G1 X46.516 Y20.873 ;extruding 
G1 X47.007 Y20.382 ;extruding 
G1 X47.007 Y20.930 ;extruding 
G1 X46.516 Y21.421 ;extruding 
G1 X46.516 Y21.968 ;extruding 
G1 X47.007 Y21.478 ;extruding 
G1 X47.007 Y21.978 ;extruding 
G1 X47.047 Y21.986 ;extruding 
G1 X46.516 Y22.516 ;extruding 
G1 X46.516 Y23.064 ;extruding 
G1 X47.430 Y22.151 ;extruding 
G1 X47.100 Y23.028 ;extruding 
G1 X46.516 Y23.612 ;extruding 
G1 X46.516 Y24.160 ;extruding 
G1 X47.007 Y23.670 ;extruding 
G1 X47.007 Y24.217 ;extruding 
G1 X46.516 Y24.708 ;extruding 
G1 X46.516 Y25.256 ;extruding 
G1 X47.007 Y24.765 ;extruding 
G1 X47.007 Y25.313 ;extruding 
G1 X46.516 Y25.803 ;extruding 
G1 X46.516 Y26.351 ;extruding 
G1 X47.007 Y25.861 ;extruding 
G1 X47.007 Y25.921 ;extruding 
G1 X47.726 Y25.237 ;extruding 
G1 X47.847 Y25.494 ;extruding 
G1 X47.931 Y25.485 ;extruding 
G1 X46.516 Y26.899 ;extruding 
G1 X46.516 Y27.447 ;extruding 
G1 X48.552 Y25.411 ;extruding 
G1 X49.174 Y25.337 ;extruding 
G1 X47.147 Y27.365 ;extruding 
G1 X47.511 Y27.548 ;extruding 
G1 X49.791 Y25.268 ;extruding 
G1 X50.394 Y25.213 ;extruding 
G1 X47.875 Y27.732 ;extruding 
G1 X48.239 Y27.916 ;extruding 
G1 X48.810 Y27.345 ;extruding 
G1 X48.736 Y27.752 ;extruding 
G1 X48.877 Y27.826 ;extruding 
G1 X48.603 Y28.100 ;extruding 
G1 X48.966 Y28.284 ;extruding 
G1 X49.236 Y28.014 ;extruding 
G1 X49.596 Y28.203 ;extruding 
G1 X49.330 Y28.468 ;extruding 
G1 X49.694 Y28.652 ;extruding 
G1 X49.955 Y28.391 ;extruding 
G1 X50.315 Y28.579 ;extruding 
G1 X50.058 Y28.836 ;extruding 
G1 X50.422 Y29.020 ;extruding 
G1 X50.674 Y28.768 ;extruding 
G1 X51.034 Y28.956 ;extruding 
G1 X50.786 Y29.204 ;extruding 
G1 X51.150 Y29.388 ;extruding 
G1 X51.394 Y29.144 ;extruding 
G1 X51.753 Y29.332 ;extruding 
G1 X51.519 Y29.567 ;extruding 
G1 X51.902 Y29.732 ;extruding 
G1 X52.113 Y29.521 ;extruding 
G1 X52.480 Y29.702 ;extruding 
G1 X52.284 Y29.897 ;extruding 
G1 X52.667 Y30.062 ;extruding 
G1 X52.861 Y29.868 ;extruding 
G1 X53.243 Y30.034 ;extruding 
G1 X53.050 Y30.227 ;extruding 
G1 X53.433 Y30.392 ;extruding 
G1 X53.624 Y30.201 ;extruding 
G1 X54.006 Y30.367 ;extruding 
G1 X53.815 Y30.557 ;extruding 
G1 X54.198 Y30.723 ;extruding 
G1 X54.387 Y30.533 ;extruding 
G1 X54.769 Y30.700 ;extruding 
G1 X54.581 Y30.888 ;extruding 
G1 X54.964 Y31.053 ;extruding 
G1 X55.161 Y30.855 ;extruding 
G1 X55.567 Y30.997 ;extruding 
G1 X55.366 Y31.199 ;extruding 
G1 X55.769 Y31.344 ;extruding 
G1 X55.973 Y31.139 ;extruding 
G1 X56.380 Y31.280 ;extruding 
G1 X56.172 Y31.488 ;extruding 
G1 X56.574 Y31.633 ;extruding 
G1 X56.786 Y31.422 ;extruding 
G1 X57.192 Y31.564 ;extruding 
G1 X56.977 Y31.778 ;extruding 
G1 X57.380 Y31.923 ;extruding 
G1 X57.598 Y31.705 ;extruding 
G1 X58.021 Y31.831 ;extruding 
G1 X57.783 Y32.068 ;extruding 
G1 X58.186 Y32.213 ;extruding 
G1 X58.450 Y31.949 ;extruding 
G1 X58.879 Y32.068 ;extruding 
G1 X58.590 Y32.357 ;extruding 
G1 X59.014 Y32.481 ;extruding 
G1 X59.308 Y32.187 ;extruding 
G1 X59.737 Y32.306 ;extruding 
G1 X59.439 Y32.604 ;extruding 
G1 X59.863 Y32.727 ;extruding 
G1 X60.167 Y32.424 ;extruding 
G1 X60.596 Y32.543 ;extruding 
G1 X60.288 Y32.851 ;extruding 
G1 X60.713 Y32.974 ;extruding 
G1 X61.025 Y32.662 ;extruding 
G1 X61.459 Y32.776 ;extruding 
G1 X61.137 Y33.097 ;extruding 
G1 X61.562 Y33.221 ;extruding 
G1 X61.895 Y32.888 ;extruding 
G1 X62.330 Y33.000 ;extruding 
G1 X61.986 Y33.344 ;extruding 
CW X62.422 Y33.456 I1.106 J-3.401 
G1 X62.766 Y33.112 ;extruding 
G1 X63.200 Y33.226 ;extruding 
G1 X62.870 Y33.556 ;extruding 
G1 X63.318 Y33.656 ;extruding 
G1 X63.630 Y33.344 ;extruding 
G1 X64.060 Y33.461 ;extruding 
G1 X63.765 Y33.756 ;extruding 
G1 X64.213 Y33.857 ;extruding 
G1 X64.490 Y33.579 ;extruding 
G1 X64.936 Y33.682 ;extruding 
G1 X64.660 Y33.957 ;extruding 
G1 X65.108 Y34.057 ;extruding 
G1 X65.394 Y33.771 ;extruding 
G1 X65.867 Y33.846 ;extruding 
G1 X65.556 Y34.157 ;extruding 
G1 X66.009 Y34.252 ;extruding 
G1 X66.375 Y33.886 ;extruding 
CW X66.939 Y33.870 I0.225 J-2.013 
G1 X66.472 Y34.337 ;extruding 
G1 X66.946 Y34.410 ;extruding 
G1 X67.586 Y33.771 ;extruding 
CW X68.524 Y33.381 I-0.586 J-2.731 
G1 X67.423 Y34.482 ;extruding 
G1 X67.899 Y34.553 ;extruding 
G1 X72.107 Y30.345 ;extruding 
G1 X71.537 Y31.463 ;extruding 
G1 X68.376 Y34.624 ;extruding 
G1 X68.852 Y34.696 ;extruding 
G1 X70.967 Y32.581 ;extruding 
G1 X70.397 Y33.699 ;extruding 
G1 X69.329 Y34.767 ;extruding 
G1 X69.805 Y34.838 ;extruding 
G1 X70.673 Y33.971 ;extruding 
G1 X71.220 Y33.971 ;extruding 
G1 X70.293 Y34.898 ;extruding 
G1 X70.789 Y34.951 ;extruding 
G1 X71.768 Y33.971 ;extruding 
G1 X72.316 Y33.971 ;extruding 
G1 X71.284 Y35.003 ;extruding 
G1 X71.783 Y35.053 ;extruding 
G1 X72.864 Y33.971 ;extruding 
G1 X73.412 Y33.971 ;extruding 
G1 X72.293 Y35.090 ;extruding 
G1 X72.803 Y35.128 ;extruding 
G1 X73.960 Y33.971 ;extruding 
G1 X74.508 Y33.971 ;extruding 
G1 X73.313 Y35.166 ;extruding 
G1 X73.824 Y35.203 ;extruding 
G1 X75.055 Y33.971 ;extruding 
G1 X75.603 Y33.971 ;extruding 
G1 X74.358 Y35.216 ;extruding 
G1 X74.893 Y35.230 ;extruding 
G1 X76.151 Y33.971 ;extruding 
G1 X76.699 Y33.971 ;extruding 
G1 X75.427 Y35.243 ;extruding 
G1 X75.962 Y35.257 ;extruding 
G1 X77.247 Y33.971 ;extruding 
G1 X77.491 Y33.971 ;extruding 
CCW X77.970 Y33.483 I1.746 J1.235 
CW X77.740 Y34.026 I1.590 J0.994 
G1 X76.496 Y35.270 ;extruding 
G1 X77.067 Y35.247 ;extruding 
G1 X77.652 Y34.662 ;extruding 
G1 X77.642 Y35.219 ;extruding 
FILEWRITE $hFile"\x05\x02\x30\x34\x44\x49\x20\x20\x43\x46\x03"
G1 X69.470 Y32.434 ;not extruding 
FILEWRITE $hFile"\x05\x02\x30\x34\x44\x49\x20\x20\x43\x46\x03"
DWELL 0.15
G1 X72.678 Y29.227 ;extruding 
G1 X73.248 Y28.109 ;extruding 
G1 X69.690 Y31.667 ;extruding 
CW X69.640 Y31.169 I-1.395 J-0.111 
G1 X72.378 Y28.431 ;extruding 
G1 X72.197 Y28.527 ;extruding 
G1 X71.980 Y28.281 ;extruding 
G1 X71.278 Y28.983 ;extruding 
CW X71.679 Y28.034 I-1.994 J-1.402 
G1 X71.722 Y27.991 ;extruding 
FILEWRITE $hFile"\x05\x02\x30\x34\x44\x49\x20\x20\x43\x46\x03"
G1 X71.278 Y28.983 ;not extruding 
CCW X69.490 Y30.771 I-5.820 J-4.032 
G1 X84.782 Y20.410 ;not extruding 
FILEWRITE $hFile"\x05\x02\x30\x34\x44\x49\x20\x20\x43\x46\x03"
DWELL 0.15
G1 X85.104 Y20.088 ;extruding 
G1 X84.862 Y19.781 ;extruding 
G1 X84.661 Y19.983 ;extruding 
CW X84.478 Y19.618 I-1.285 J0.416 
G1 X84.598 Y19.498 ;extruding 
G1 X84.316 Y19.232 ;extruding 
G1 X84.241 Y19.307 ;extruding 
G1 X83.956 Y19.044 ;extruding 
G1 X84.033 Y18.967 ;extruding 
G1 X83.750 Y18.702 ;extruding 
G1 X83.623 Y18.829 ;extruding 
G1 X83.240 Y18.664 ;extruding 
G1 X83.453 Y18.451 ;extruding 
G1 X83.135 Y18.222 ;extruding 
G1 X82.789 Y18.568 ;extruding 
CW X82.242 Y18.567 I-0.276 J1.637 
G1 X82.816 Y17.993 ;extruding 
G1 X82.497 Y17.764 ;extruding 
G1 X81.555 Y18.706 ;extruding 
G1 X80.702 Y19.011 ;extruding 
G1 X82.170 Y17.543 ;extruding 
G1 X81.815 Y17.350 ;extruding 
G1 X79.911 Y19.254 ;extruding 
G1 X79.161 Y19.457 ;extruding 
G1 X81.460 Y17.157 ;extruding 
G1 X81.105 Y16.964 ;extruding 
G1 X78.815 Y19.254 ;extruding 
G1 X78.720 Y18.801 ;extruding 
G1 X80.742 Y16.779 ;extruding 
G1 X80.351 Y16.623 ;extruding 
G1 X78.576 Y18.398 ;extruding 
G1 X78.408 Y18.018 ;extruding 
G1 X79.959 Y16.467 ;extruding 
G1 X79.567 Y16.311 ;extruding 
G1 X78.198 Y17.680 ;extruding 
CW X77.969 Y17.361 I-1.136 J0.574 
G1 X79.169 Y16.161 ;extruding 
G1 X78.735 Y16.047 ;extruding 
G1 X77.714 Y17.068 ;extruding 
G1 X77.420 Y16.814 ;extruding 
G1 X78.300 Y15.934 ;extruding 
G1 X77.866 Y15.821 ;extruding 
G1 X77.090 Y16.596 ;extruding 
G1 X76.703 Y16.436 ;extruding 
G1 X77.380 Y15.758 ;extruding 
G1 X76.889 Y15.702 ;extruding 
G1 X76.250 Y16.341 ;extruding 
CW X75.666 Y16.377 I-0.184 J1.770 
G1 X76.340 Y15.702 ;extruding 
CW X75.742 Y15.753 I-0.136 J1.938 
G1 X74.790 Y16.705 ;extruding 
CW X72.948 Y18.189 I3.746 J6.535 
CCW X70.565 Y20.719 I-30.053 J-25.920 
CCW X68.533 Y22.414 I-11.832 J-12.118 
G1 X75.014 Y15.933 ;extruding 
CW X73.617 Y16.782 I1.190 J3.532 
G1 X66.979 Y23.420 ;extruding 
CCW X65.892 Y23.959 I-2.715 J-4.109 
G1 X69.023 Y20.828 ;extruding 
CCW X67.475 Y21.829 I-7.401 J-9.747 
G1 X64.886 Y24.417 ;extruding 
G1 X64.792 Y24.460 ;extruding 
G1 X64.796 Y24.508 ;extruding 
G1 X64.381 Y24.922 ;extruding 
G1 X63.759 Y24.996 ;extruding 
G1 X66.422 Y22.334 ;extruding 
CCW X65.486 Y22.722 I-2.324 J-4.283 
G1 X63.137 Y25.070 ;extruding 
G1 X62.515 Y25.145 ;extruding 
G1 X64.633 Y23.027 ;extruding 
CCW X63.842 Y23.271 I-2.272 J-5.960 
G1 X61.893 Y25.219 ;extruding 
G1 X61.271 Y25.293 ;extruding 
G1 X63.079 Y23.485 ;extruding 
G1 X62.638 Y23.609 ;extruding 
G1 X62.638 Y23.630 ;extruding 
G1 X62.317 Y23.700 ;extruding 
G1 X60.649 Y25.367 ;extruding 
G1 X60.027 Y25.441 ;extruding 
G1 X61.646 Y23.823 ;extruding 
G1 X60.965 Y23.955 ;extruding 
G1 X59.405 Y25.516 ;extruding 
G1 X58.783 Y25.590 ;extruding 
G1 X60.285 Y24.088 ;extruding 
G1 X59.605 Y24.220 ;extruding 
G1 X58.161 Y25.664 ;extruding 
G1 X57.539 Y25.738 ;extruding 
G1 X58.945 Y24.332 ;extruding 
G1 X58.316 Y24.413 ;extruding 
G1 X56.917 Y25.812 ;extruding 
G1 X56.295 Y25.886 ;extruding 
G1 X57.687 Y24.494 ;extruding 
G1 X57.058 Y24.575 ;extruding 
G1 X55.673 Y25.961 ;extruding 
G1 X55.051 Y26.035 ;extruding 
G1 X56.429 Y24.656 ;extruding 
G1 X55.821 Y24.717 ;extruding 
G1 X54.429 Y26.109 ;extruding 
G1 X53.807 Y26.183 ;extruding 
G1 X55.218 Y24.772 ;extruding 
G1 X54.615 Y24.827 ;extruding 
G1 X53.185 Y26.257 ;extruding 
G1 X52.563 Y26.331 ;extruding 
G1 X54.012 Y24.882 ;extruding 
G1 X53.409 Y24.937 ;extruding 
G1 X51.941 Y26.406 ;extruding 
G1 X51.319 Y26.480 ;extruding 
G1 X52.806 Y24.993 ;extruding 
G1 X52.203 Y25.048 ;extruding 
G1 X50.697 Y26.554 ;extruding 
G1 X50.075 Y26.628 ;extruding 
G1 X51.600 Y25.103 ;extruding 
G1 X50.997 Y25.158 ;extruding 
G1 X49.453 Y26.702 ;extruding 
G1 X48.915 Y26.766 ;extruding 
G1 X48.810 Y27.345 ;extruding 
FILEWRITE $hFile"\x05\x02\x30\x34\x44\x49\x20\x20\x43\x46\x03"
G1 X47.007 Y27.505 ;not extruding 
FILEWRITE $hFile"\x05\x02\x30\x34\x44\x49\x20\x20\x43\x46\x03"
DWELL 0.15
G1 X46.516 Y27.995 ;extruding 
G1 X46.516 Y28.543 ;extruding 
G1 X47.007 Y28.052 ;extruding 
G1 X47.007 Y28.600 ;extruding 
G1 X46.516 Y29.091 ;extruding 
G1 X46.516 Y29.638 ;extruding 
G1 X47.007 Y29.148 ;extruding 
G1 X47.007 Y29.696 ;extruding 
G1 X46.516 Y30.186 ;extruding 
G1 X46.516 Y30.734 ;extruding 
G1 X47.007 Y30.244 ;extruding 
G1 X47.007 Y30.792 ;extruding 
G1 X46.813 Y30.985 ;extruding 
FILEWRITE $hFile"\x05\x02\x30\x34\x44\x49\x20\x20\x43\x46\x03"
G1 D-149.020 ;not extruding 
G1 X12.991 Y35.056 ;not extruding 
CCW X4.840 Y31.939 I-0.917 J-9.817 
CCW X3.315 Y25.465 I5.371 J-4.682 
CCW X4.350 Y22.742 I13.213 J3.464 
FILEWRITE $hFile"\x05\x02\x30\x34\x44\x49\x20\x20\x43\x46\x03"
DWELL 0.15
G1 X5.548 Y20.423 ;extruding 
CCW X6.294 Y21.356 I-1.065 J1.616 
CCW X6.290 Y21.926 I-1.225 J0.276 
CW X5.977 Y23.189 I3.574 J1.556 
CW X7.239 Y25.754 I3.596 J-0.176 
CW X9.891 Y30.534 I3.441 J1.217 
CW X10.844 Y32.191 I1.897 J0.012 
CCW X12.175 Y33.057 I-4.884 J8.962 
CCW X12.990 Y34.969 I-1.276 J1.674 
FILEWRITE $hFile"\x05\x02\x30\x34\x44\x49\x20\x20\x43\x46\x03"
G1 X18.355 Y30.093 ;not extruding 
FILEWRITE $hFile"\x05\x02\x30\x34\x44\x49\x20\x20\x43\x46\x03"
DWELL 0.15
G1 X7.320 Y25.707 ;extruding 
CW X7.291 Y25.204 I-0.668 J-0.214 
CCW X6.647 Y23.422 I8.070 J-3.924 
CCW X7.091 Y22.287 I0.948 J-0.284 
G1 X7.491 Y22.177 ;extruding 
G1 X16.865 Y27.171 ;extruding 
G1 X18.316 Y30.015 ;extruding 
FILEWRITE $hFile"\x05\x02\x30\x34\x44\x49\x20\x20\x43\x46\x03"
G1 X18.739 Y28.045 ;not extruding 
FILEWRITE $hFile"\x05\x02\x30\x34\x44\x49\x20\x20\x43\x46\x03"
DWELL 0.15
G1 X7.631 Y22.126 ;extruding 
CCW X6.785 Y19.965 I0.444 J-1.420 
CCW X8.913 Y18.963 I1.746 J0.947 
CCW X10.673 Y19.547 I-1.966 J8.869 
G1 X11.976 Y19.884 ;extruding 
CCW X12.664 Y20.250 I-0.777 J2.290 
G1 X19.960 Y26.667 ;extruding 
G1 X18.797 Y27.980 ;extruding 
FILEWRITE $hFile"\x05\x02\x30\x34\x44\x49\x20\x20\x43\x46\x03"
G1 X25.790 Y25.121 ;not extruding 
FILEWRITE $hFile"\x05\x02\x30\x34\x44\x49\x20\x20\x43\x46\x03"
DWELL 0.15
G1 X19.859 Y26.432 ;extruding 
G1 X12.627 Y20.069 ;extruding 
CCW X13.101 Y17.945 I2.835 J-0.482 
CCW X14.556 Y16.762 I2.179 J1.194 
CCW X16.041 Y17.037 I0.394 J2.022 
CCW X17.728 Y18.382 I-3.451 J6.060 
CW X21.221 Y21.924 I27.164 J-23.295 
CW X25.833 Y24.696 I10.046 J-11.492 
G1 X25.798 Y25.035 ;extruding 
FILEWRITE $hFile"\x05\x02\x30\x34\x44\x49\x20\x20\x43\x46\x03"
G1 X28.685 Y23.295 ;not extruding 
CCW X25.193 Y22.191 I6.295 J-25.986 
CCW X21.230 Y19.640 I4.534 J-11.397 
CCW X20.284 Y17.366 I2.202 J-2.250 
CW X20.294 Y15.218 I-9.691 J-1.119 
FILEWRITE $hFile"\x05\x02\x30\x34\x44\x49\x20\x20\x43\x46\x03"
DWELL 0.15
G1 X19.932 Y13.333 ;extruding 
G1 X28.685 Y18.662 ;extruding 
G1 X28.685 Y23.208 ;extruding 
FILEWRITE $hFile"\x05\x02\x30\x34\x44\x49\x20\x20\x43\x46\x03"
G1 X33.323 Y18.579 ;not extruding 
FILEWRITE $hFile"\x05\x02\x30\x34\x44\x49\x20\x20\x43\x46\x03"
DWELL 0.15
G1 X28.761 Y18.579 ;extruding 
G1 X19.955 Y13.219 ;extruding 
CCW X20.177 Y11.289 I5.795 J-0.311 
CCW X22.343 Y8.900 I3.923 J1.381 
G1 X23.355 Y8.449 ;extruding 
G1 X25.101 Y7.906 ;extruding 
G1 X33.270 Y18.510 ;extruding 
FILEWRITE $hFile"\x05\x02\x30\x34\x44\x49\x20\x20\x43\x46\x03"
G1 X38.548 Y20.444 ;not extruding 
FILEWRITE $hFile"\x05\x02\x30\x34\x44\x49\x20\x20\x43\x46\x03"
DWELL 0.15
G1 X33.443 Y18.555 ;extruding 
G1 X25.216 Y7.874 ;extruding 
CCW X29.474 Y6.948 I11.074 J40.671 
G1 X30.912 Y6.823 ;extruding 
G1 X32.535 Y6.894 ;extruding 
G1 X38.513 Y20.365 ;extruding 
FILEWRITE $hFile"\x05\x02\x30\x34\x44\x49\x20\x20\x43\x46\x03"
G1 X43.632 Y25.024 ;not extruding 
FILEWRITE $hFile"\x05\x02\x30\x34\x44\x49\x20\x20\x43\x46\x03"
DWELL 0.15
G1 X38.558 Y20.194 ;extruding 
G1 X32.645 Y6.873 ;extruding 
G1 X34.419 Y7.370 ;extruding 
G1 X35.892 Y8.027 ;extruding 
G1 X37.307 Y8.936 ;extruding 
G1 X38.658 Y10.113 ;extruding 
G1 X43.632 Y23.346 ;extruding 
G1 X43.632 Y24.937 ;extruding 
FILEWRITE $hFile"\x05\x02\x30\x34\x44\x49\x20\x20\x43\x46\x03"
G1 X43.147 Y21.745 ;not extruding 
FILEWRITE $hFile"\x05\x02\x30\x34\x44\x49\x20\x20\x43\x46\x03"
DWELL 0.15
G1 X39.347 Y11.635 ;extruding 
G1 X39.790 Y11.387 ;extruding 
G1 X40.269 Y12.006 ;extruding 
CCW X42.538 Y15.708 I-21.702 J15.848 
G1 X43.632 Y18.039 ;extruding 
G1 X43.632 Y21.657 ;extruding 
G1 X43.233 Y21.729 ;extruding 
FILEWRITE $hFile"\x05\x02\x30\x34\x44\x49\x20\x20\x43\x46\x03"
G1 X43.126 Y24.694 ;not extruding 
FILEWRITE $hFile"\x05\x02\x30\x34\x44\x49\x20\x20\x43\x46\x03"
DWELL 0.15
G1 X42.946 Y25.079 ;extruding 
G1 X41.345 Y24.892 ;extruding 
G1 X34.448 Y24.254 ;extruding 
G1 X31.887 Y23.919 ;extruding 
G1 X28.770 Y23.313 ;extruding 
G1 X28.770 Y18.689 ;extruding 
G1 X33.299 Y18.689 ;extruding 
G1 X39.054 Y20.819 ;extruding 
G1 X43.063 Y24.634 ;extruding 
FILEWRITE $hFile"\x05\x02\x30\x34\x44\x49\x20\x20\x43\x46\x03"
G1 X41.782 Y27.115 ;not extruding 
FILEWRITE $hFile"\x05\x02\x30\x34\x44\x49\x20\x20\x43\x46\x03"
DWELL 0.15
G1 X41.863 Y27.542 ;extruding 
G1 X38.267 Y29.408 ;extruding 
G1 X35.899 Y30.435 ;extruding 
G1 X33.308 Y31.343 ;extruding 
CCW X26.237 Y33.261 I-75.926 J-265.919 
CCW X23.842 Y33.467 I-1.749 J-6.315 
CCW X21.900 Y32.270 I0.290 J-2.645 
CCW X22.083 Y30.643 I1.204 J-0.688 
CCW X19.988 Y28.656 I2.802 J-5.052 
CCW X19.808 Y27.172 I1.449 J-0.929 
CCW X21.114 Y26.303 I1.666 J1.088 
G1 X25.970 Y25.230 ;extruding 
G1 X41.695 Y27.105 ;extruding 
FILEWRITE $hFile"\x05\x02\x30\x34\x44\x49\x20\x20\x43\x46\x03"
G1 X20.137 Y33.586 ;not extruding 
FILEWRITE $hFile"\x05\x02\x30\x34\x44\x49\x20\x20\x43\x46\x03"
DWELL 0.15
G1 X13.704 Y33.586 ;extruding 
CW X13.156 Y33.075 I-1.809 J1.390 
CCW X11.458 Y32.043 I7.440 J-14.154 
CCW X10.670 Y30.225 I1.036 J-1.529 
G1 X19.820 Y32.965 ;extruding 
G1 X20.097 Y33.509 ;extruding 
FILEWRITE $hFile"\x05\x02\x30\x34\x44\x49\x20\x20\x43\x46\x03"
G1 X19.751 Y32.830 ;not extruding 
FILEWRITE $hFile"\x05\x02\x30\x34\x44\x49\x20\x20\x43\x46\x03"
DWELL 0.15
G1 X9.496 Y29.758 ;extruding 
CW X9.173 Y29.273 I-1.599 J0.715 
CCW X7.596 Y27.634 I8.673 J-9.923 
CCW X7.558 Y25.920 I1.284 J-0.886 
G1 X18.431 Y30.241 ;extruding 
G1 X19.711 Y32.752 ;extruding 
FILEWRITE $hFile"\x05\x02\x30\x34\x44\x49\x20\x20\x43\x46\x03"
G1 X17.718 Y16.570 ;not extruding 
FILEWRITE $hFile"\x05\x02\x30\x34\x44\x49\x20\x20\x43\x46\x03"
DWELL 0.15
G1 X18.119 Y16.266 ;extruding 
CCW X17.637 Y13.409 I2.899 J-1.958 
CCW X18.665 Y11.070 I8.414 J2.302 
CCW X21.840 Y7.388 I12.263 J7.365 
CCW X27.462 Y5.092 I6.853 J8.748 
G1 X27.799 Y5.050 ;extruding 
CCW X31.188 Y5.188 I1.186 J12.548 
G1 X32.899 Y5.627 ;extruding 
G1 X34.500 Y6.276 ;extruding 
G1 X36.091 Y7.164 ;extruding 
G1 X37.767 Y8.387 ;extruding 
G1 X39.369 Y9.874 ;extruding 
G1 X40.838 Y11.580 ;extruding 
G1 X42.069 Y13.358 ;extruding 
G1 X43.191 Y15.399 ;extruding 
G1 X43.632 Y15.279 ;extruding 
G1 X43.632 Y1.860 ;extruding 
G1 X44.892 Y1.860 ;extruding 
G1 X44.892 Y31.370 ;extruding 
G1 X43.632 Y31.370 ;extruding 
G1 X43.632 Y27.919 ;extruding 
G1 X39.760 Y29.876 ;extruding 
G1 X36.151 Y31.431 ;extruding 
G1 X32.570 Y32.718 ;extruding 
CCW X14.645 Y35.661 I-18.611 J-57.297 
CCW X9.045 Y34.908 I-0.183 J-19.841 
CCW X3.980 Y31.808 I3.162 J-10.855 
CCW X2.558 Y27.954 I4.027 J-3.675 
CCW X2.918 Y25.296 I11.363 J0.186 
G1 X3.418 Y23.656 ;extruding 
CCW X10.032 Y16.464 I11.881 J4.289 
CCW X14.314 Y15.300 I5.178 J10.588 
CCW X17.655 Y16.510 I0.302 J4.385 
FILEWRITE $hFile"\x05\x02\x30\x34\x44\x49\x20\x20\x43\x46\x03"
G1 X24.044 Y23.429 ;not extruding 
CW X25.131 Y23.968 I3.830 J-6.358 
FILEWRITE $hFile"\x05\x02\x30\x34\x44\x49\x20\x20\x43\x46\x03"
DWELL 0.15
G1 X21.909 Y20.747 ;extruding 
CW X23.518 Y21.807 I6.747 J-8.490 
G1 X26.105 Y24.395 ;extruding 
G1 X26.245 Y24.456 ;extruding 
G1 X26.238 Y24.527 ;extruding 
G1 X26.632 Y24.921 ;extruding 
G1 X27.254 Y24.995 ;extruding 
G1 X24.591 Y22.332 ;extruding 
CW X25.527 Y22.720 I2.559 J-4.849 
G1 X27.876 Y25.069 ;extruding 
G1 X28.498 Y25.144 ;extruding 
G1 X26.385 Y23.030 ;extruding 
G1 X27.164 Y23.262 ;extruding 
G1 X29.120 Y25.218 ;extruding 
G1 X29.743 Y25.292 ;extruding 
G1 X27.931 Y23.480 ;extruding 
G1 X28.385 Y23.610 ;extruding 
G1 X28.385 Y23.630 ;extruding 
G1 X28.697 Y23.699 ;extruding 
G1 X30.365 Y25.366 ;extruding 
G1 X30.987 Y25.440 ;extruding 
G1 X29.368 Y23.821 ;extruding 
G1 X30.048 Y23.954 ;extruding 
G1 X31.609 Y25.514 ;extruding 
G1 X32.231 Y25.589 ;extruding 
G1 X30.729 Y24.086 ;extruding 
G1 X31.409 Y24.218 ;extruding 
G1 X32.853 Y25.663 ;extruding 
G1 X33.476 Y25.737 ;extruding 
G1 X32.070 Y24.331 ;extruding 
G1 X32.700 Y24.414 ;extruding 
G1 X34.098 Y25.811 ;extruding 
G1 X34.720 Y25.885 ;extruding 
G1 X33.331 Y24.496 ;extruding 
G1 X33.961 Y24.578 ;extruding 
G1 X35.342 Y25.960 ;extruding 
G1 X35.964 Y26.034 ;extruding 
G1 X34.584 Y24.653 ;extruding 
G1 X35.187 Y24.709 ;extruding 
G1 X36.586 Y26.108 ;extruding 
G1 X37.209 Y26.182 ;extruding 
G1 X35.791 Y24.765 ;extruding 
G1 X36.395 Y24.820 ;extruding 
G1 X37.831 Y26.256 ;extruding 
G1 X38.453 Y26.331 ;extruding 
G1 X36.999 Y24.876 ;extruding 
G1 X37.602 Y24.932 ;extruding 
G1 X39.075 Y26.405 ;extruding 
G1 X39.697 Y26.479 ;extruding 
G1 X38.206 Y24.988 ;extruding 
G1 X38.810 Y25.044 ;extruding 
G1 X40.319 Y26.553 ;extruding 
G1 X40.942 Y26.627 ;extruding 
G1 X39.414 Y25.100 ;extruding 
G1 X40.018 Y25.155 ;extruding 
G1 X41.564 Y26.701 ;extruding 
FILEWRITE $hFile"\x05\x02\x30\x34\x44\x49\x20\x20\x43\x46\x03"
G1 X44.507 Y28.000 ;not extruding 
FILEWRITE $hFile"\x05\x02\x30\x34\x44\x49\x20\x20\x43\x46\x03"
DWELL 0.15
G1 X44.016 Y27.510 ;extruding 
G1 X44.016 Y28.058 ;extruding 
G1 X44.507 Y28.548 ;extruding 
G1 X44.507 Y29.096 ;extruding 
G1 X44.016 Y28.606 ;extruding 
G1 X44.016 Y29.154 ;extruding 
G1 X44.507 Y29.644 ;extruding 
G1 X44.507 Y30.192 ;extruding 
G1 X44.016 Y29.702 ;extruding 
G1 X44.016 Y30.250 ;extruding 
G1 X44.507 Y30.740 ;extruding 
G1 X44.507 Y30.985 ;extruding 
G1 X44.204 Y30.985 ;extruding 
G1 X44.016 Y30.798 ;extruding 
FILEWRITE $hFile"\x05\x02\x30\x34\x44\x49\x20\x20\x43\x46\x03"
G1 X39.453 Y11.134 ;not extruding 
FILEWRITE $hFile"\x05\x02\x30\x34\x44\x49\x20\x20\x43\x46\x03"
DWELL 0.15
G1 X39.073 Y10.125 ;extruding 
G1 X39.092 Y10.142 ;extruding 
FILEWRITE $hFile"\x05\x02\x30\x34\x44\x49\x20\x20\x43\x46\x03"
G1 X36.561 Y8.000 ;not extruding 
CW X35.013 Y6.999 I-4.449 J5.182 
FILEWRITE $hFile"\x05\x02\x30\x34\x44\x49\x20\x20\x43\x46\x03"
DWELL 0.15
G1 X35.400 Y7.386 ;extruding 
G1 X34.550 Y7.007 ;extruding 
G1 X34.443 Y6.977 ;extruding 
G1 X33.924 Y6.458 ;extruding 
G1 X33.002 Y6.084 ;extruding 
G1 X33.681 Y6.763 ;extruding 
G1 X32.920 Y6.550 ;extruding 
G1 X32.220 Y5.850 ;extruding 
G1 X31.483 Y5.661 ;extruding 
G1 X32.159 Y6.336 ;extruding 
G1 X31.962 Y6.281 ;extruding 
G1 X32.054 Y6.488 ;extruding 
G1 X31.749 Y6.475 ;extruding 
G1 X30.806 Y5.532 ;extruding 
G1 X30.187 Y5.461 ;extruding 
G1 X31.176 Y6.449 ;extruding 
CW X30.639 Y6.461 I-0.222 J2.109 
G1 X29.572 Y5.394 ;extruding 
G1 X29.023 Y5.393 ;extruding 
G1 X30.134 Y6.504 ;extruding 
G1 X29.630 Y6.548 ;extruding 
G1 X28.493 Y5.411 ;extruding 
G1 X27.963 Y5.429 ;extruding 
G1 X29.152 Y6.618 ;extruding 
G1 X28.691 Y6.705 ;extruding 
G1 X27.468 Y5.482 ;extruding 
G1 X27.002 Y5.564 ;extruding 
G1 X28.231 Y6.793 ;extruding 
G1 X27.770 Y6.880 ;extruding 
G1 X26.535 Y5.645 ;extruding 
CW X26.080 Y5.738 I0.154 J1.915 
G1 X27.310 Y6.968 ;extruding 
G1 X26.868 Y7.074 ;extruding 
G1 X25.660 Y5.865 ;extruding 
G1 X25.239 Y5.993 ;extruding 
G1 X26.428 Y7.182 ;extruding 
G1 X25.988 Y7.289 ;extruding 
G1 X24.823 Y6.125 ;extruding 
G1 X24.441 Y6.291 ;extruding 
G1 X25.547 Y7.397 ;extruding 
G1 X25.106 Y7.504 ;extruding 
G1 X24.069 Y6.467 ;extruding 
G1 X23.697 Y6.643 ;extruding 
G1 X24.666 Y7.612 ;extruding 
G1 X24.260 Y7.754 ;extruding 
G1 X23.337 Y6.830 ;extruding 
G1 X23.000 Y7.042 ;extruding 
G1 X23.845 Y7.887 ;extruding 
G1 X23.431 Y8.021 ;extruding 
G1 X22.679 Y7.269 ;extruding 
G1 X22.357 Y7.495 ;extruding 
G1 X23.034 Y8.171 ;extruding 
G1 X22.655 Y8.340 ;extruding 
G1 X22.039 Y7.724 ;extruding 
G1 X21.746 Y7.980 ;extruding 
G1 X22.276 Y8.509 ;extruding 
G1 X21.918 Y8.700 ;extruding 
G1 X21.464 Y8.245 ;extruding 
G1 X21.181 Y8.510 ;extruding 
G1 X21.578 Y8.907 ;extruding 
G1 X21.257 Y9.135 ;extruding 
G1 X20.905 Y8.783 ;extruding 
G1 X20.647 Y9.072 ;extruding 
G1 X20.961 Y9.387 ;extruding 
G1 X20.681 Y9.655 ;extruding 
G1 X20.388 Y9.361 ;extruding 
CW X20.141 Y9.663 I2.000 J1.888 
G1 X20.434 Y9.955 ;extruding 
G1 X20.211 Y10.281 ;extruding 
G1 X19.901 Y9.970 ;extruding 
G1 X19.666 Y10.284 ;extruding 
G1 X20.019 Y10.636 ;extruding 
G1 X19.864 Y11.030 ;extruding 
G1 X19.444 Y10.610 ;extruding 
CW X19.274 Y10.988 I0.287 J0.356 
G1 X19.748 Y11.461 ;extruding 
G1 X19.652 Y11.914 ;extruding 
G1 X19.000 Y11.262 ;extruding 
G1 X18.797 Y11.606 ;extruding 
G1 X19.601 Y12.411 ;extruding 
G1 X19.591 Y12.675 ;extruding 
G1 X19.390 Y12.553 ;extruding 
G1 X19.436 Y12.793 ;extruding 
G1 X18.612 Y11.970 ;extruding 
G1 X18.435 Y12.341 ;extruding 
G1 X19.566 Y13.472 ;extruding 
G1 X19.697 Y14.150 ;extruding 
G1 X18.258 Y12.712 ;extruding 
G1 X18.127 Y13.128 ;extruding 
G1 X19.827 Y14.829 ;extruding 
G1 X19.936 Y15.485 ;extruding 
G1 X18.004 Y13.554 ;extruding 
G1 X17.933 Y14.031 ;extruding 
G1 X19.957 Y16.055 ;extruding 
G1 X19.934 Y16.579 ;extruding 
G1 X17.926 Y14.571 ;extruding 
CW X18.059 Y15.252 I2.131 J-0.063 
G1 X19.910 Y17.104 ;extruding 
CW X19.920 Y17.661 I2.301 J0.237 
G1 X18.595 Y16.336 ;extruding 
G1 X18.615 Y16.374 ;extruding 
G1 X18.313 Y16.602 ;extruding 
G1 X20.004 Y18.293 ;extruding 
CW X20.453 Y19.290 I2.844 J-0.681 
G1 X18.001 Y16.838 ;extruding 
G1 X17.689 Y17.073 ;extruding 
G1 X17.675 Y17.061 ;extruding 
G1 X24.044 Y23.429 ;extruding 
CCW X22.494 Y22.428 I5.822 J-10.716 
G1 X15.989 Y15.922 ;extruding 
CW X15.269 Y15.750 I-1.044 J2.776 
G1 X16.209 Y16.691 ;extruding 
CW X15.348 Y16.377 I-1.404 J2.512 
G1 X14.667 Y15.696 ;extruding 
CW X14.123 Y15.700 I-0.253 J2.539 
G1 X14.766 Y16.344 ;extruding 
CW X14.313 Y16.438 I0.023 J1.250 
G1 X13.626 Y15.752 ;extruding 
G1 X13.149 Y15.823 ;extruding 
G1 X13.937 Y16.610 ;extruding 
G1 X13.598 Y16.819 ;extruding 
G1 X12.714 Y15.935 ;extruding 
G1 X12.278 Y16.047 ;extruding 
G1 X13.304 Y17.073 ;extruding 
G1 X13.051 Y17.368 ;extruding 
G1 X11.843 Y16.160 ;extruding 
G1 X11.438 Y16.303 ;extruding 
G1 X12.817 Y17.682 ;extruding 
G1 X12.617 Y18.030 ;extruding 
G1 X11.048 Y16.461 ;extruding 
G1 X10.660 Y16.621 ;extruding 
G1 X12.442 Y18.403 ;extruding 
G1 X12.297 Y18.806 ;extruding 
G1 X10.272 Y16.781 ;extruding 
G1 X9.907 Y16.964 ;extruding 
G1 X12.206 Y19.263 ;extruding 
G1 X12.189 Y19.557 ;extruding 
G1 X11.848 Y19.453 ;extruding 
G1 X9.548 Y17.153 ;extruding 
G1 X9.189 Y17.342 ;extruding 
G1 X11.109 Y19.262 ;extruding 
CCW X10.297 Y18.998 I0.908 J-4.172 
G1 X8.846 Y17.547 ;extruding 
G1 X8.511 Y17.760 ;extruding 
G1 X9.457 Y18.706 ;extruding 
CW X8.766 Y18.563 I-0.794 J2.094 
G1 X8.191 Y17.988 ;extruding 
G1 X7.870 Y18.215 ;extruding 
G1 X8.226 Y18.571 ;extruding 
G1 X7.775 Y18.668 ;extruding 
G1 X7.560 Y18.453 ;extruding 
G1 X7.258 Y18.699 ;extruding 
G1 X7.393 Y18.833 ;extruding 
G1 X7.061 Y19.050 ;extruding 
G1 X6.978 Y18.967 ;extruding 
G1 X6.699 Y19.236 ;extruding 
G1 X6.776 Y19.313 ;extruding 
CW X6.541 Y19.626 I0.859 J0.890 
G1 X6.421 Y19.506 ;extruding 
G1 X6.152 Y19.785 ;extruding 
G1 X6.358 Y19.991 ;extruding 
G1 X6.238 Y20.419 ;extruding 
G1 X5.904 Y20.084 ;extruding 
FILEWRITE $hFile"\x05\x02\x30\x34\x44\x49\x20\x20\x43\x46\x03"
G1 X19.358 Y28.059 ;not extruding 
FILEWRITE $hFile"\x05\x02\x30\x34\x44\x49\x20\x20\x43\x46\x03"
DWELL 0.15
G1 X19.296 Y27.997 ;extruding 
CW X19.196 Y28.274 I0.167 J0.217 
G1 X19.095 Y28.224 ;extruding 
G1 X19.038 Y28.287 ;extruding 
G1 X19.770 Y29.019 ;extruding 
CW X21.530 Y30.778 I5.292 J-3.535 
G1 X21.381 Y31.178 ;extruding 
G1 X18.621 Y28.418 ;extruding 
G1 X17.676 Y27.915 ;extruding 
G1 X17.787 Y28.132 ;extruding 
G1 X21.330 Y31.675 ;extruding 
CW X21.561 Y32.453 I1.759 J-0.099 
G1 X18.357 Y29.250 ;extruding 
G1 X18.928 Y30.368 ;extruding 
G1 X18.993 Y30.434 ;extruding 
G1 X18.964 Y30.439 ;extruding 
G1 X18.928 Y30.368 ;extruding 
FILEWRITE $hFile"\x05\x02\x30\x34\x44\x49\x20\x20\x43\x46\x03"
G1 X13.379 Y35.231 ;not extruding 
FILEWRITE $hFile"\x05\x02\x30\x34\x44\x49\x20\x20\x43\x46\x03"
DWELL 0.15
G1 X13.371 Y34.675 ;extruding 
G1 X13.947 Y35.251 ;extruding 
G1 X14.514 Y35.271 ;extruding 
G1 X13.293 Y34.050 ;extruding 
CW X13.050 Y33.482 I-2.039 J0.536 
CCW X13.533 Y33.971 I-1.200 J1.668 
G1 X13.763 Y33.971 ;extruding 
G1 X15.057 Y35.265 ;extruding 
G1 X15.592 Y35.252 ;extruding 
G1 X14.311 Y33.971 ;extruding 
G1 X14.859 Y33.971 ;extruding 
G1 X16.126 Y35.239 ;extruding 
G1 X16.661 Y35.226 ;extruding 
G1 X15.407 Y33.971 ;extruding 
G1 X15.955 Y33.971 ;extruding 
G1 X17.183 Y35.200 ;extruding 
G1 X17.699 Y35.168 ;extruding 
G1 X16.503 Y33.971 ;extruding 
G1 X17.051 Y33.971 ;extruding 
G1 X18.211 Y35.131 ;extruding 
G1 X18.713 Y35.085 ;extruding 
G1 X17.599 Y33.971 ;extruding 
G1 X18.146 Y33.971 ;extruding 
G1 X19.214 Y35.039 ;extruding 
G1 X19.716 Y34.993 ;extruding 
G1 X18.694 Y33.971 ;extruding 
G1 X19.242 Y33.971 ;extruding 
G1 X20.218 Y34.947 ;extruding 
G1 X20.720 Y34.901 ;extruding 
G1 X19.790 Y33.971 ;extruding 
G1 X20.338 Y33.971 ;extruding 
G1 X21.208 Y34.841 ;extruding 
G1 X21.693 Y34.778 ;extruding 
G1 X20.639 Y33.723 ;extruding 
G1 X20.068 Y32.605 ;extruding 
G1 X22.170 Y34.707 ;extruding 
G1 X22.644 Y34.633 ;extruding 
G1 X19.498 Y31.487 ;extruding 
G1 X19.056 Y30.621 ;extruding 
G1 X19.069 Y30.509 ;extruding 
G1 X23.118 Y34.559 ;extruding 
G1 X23.592 Y34.485 ;extruding 
G1 X22.449 Y33.342 ;extruding 
CW X23.421 Y33.766 I1.415 J-1.917 
G1 X24.066 Y34.411 ;extruding 
G1 X24.540 Y34.337 ;extruding 
G1 X24.074 Y33.870 ;extruding 
CW X24.633 Y33.882 I0.322 J-1.981 
G1 X25.003 Y34.252 ;extruding 
G1 X25.461 Y34.162 ;extruding 
G1 X25.148 Y33.849 ;extruding 
G1 X25.618 Y33.771 ;extruding 
G1 X25.916 Y34.069 ;extruding 
G1 X26.364 Y33.969 ;extruding 
G1 X26.078 Y33.683 ;extruding 
G1 X26.524 Y33.581 ;extruding 
G1 X26.811 Y33.868 ;extruding 
G1 X27.259 Y33.768 ;extruding 
G1 X26.954 Y33.463 ;extruding 
G1 X27.385 Y33.346 ;extruding 
G1 X27.706 Y33.667 ;extruding 
G1 X28.153 Y33.567 ;extruding 
G1 X27.815 Y33.228 ;extruding 
G1 X28.249 Y33.114 ;extruding 
G1 X28.595 Y33.460 ;extruding 
G1 X29.028 Y33.345 ;extruding 
G1 X28.685 Y33.002 ;extruding 
G1 X29.122 Y32.891 ;extruding 
G1 X29.462 Y33.231 ;extruding 
CW X29.886 Y33.107 I-20.340 J-70.336 
G1 X29.559 Y32.780 ;extruding 
G1 X29.992 Y32.665 ;extruding 
G1 X30.309 Y32.982 ;extruding 
G1 X30.733 Y32.858 ;extruding 
G1 X30.421 Y32.546 ;extruding 
G1 X30.849 Y32.426 ;extruding 
G1 X31.156 Y32.733 ;extruding 
G1 X31.579 Y32.609 ;extruding 
G1 X31.278 Y32.307 ;extruding 
G1 X31.707 Y32.188 ;extruding 
G1 X32.003 Y32.484 ;extruding 
G1 X32.426 Y32.359 ;extruding 
G1 X32.135 Y32.068 ;extruding 
G1 X32.564 Y31.949 ;extruding 
G1 X32.830 Y32.216 ;extruding 
G1 X33.233 Y32.071 ;extruding 
G1 X32.993 Y31.830 ;extruding 
G1 X33.421 Y31.710 ;extruding 
G1 X33.637 Y31.926 ;extruding 
G1 X34.040 Y31.781 ;extruding 
G1 X33.827 Y31.568 ;extruding 
G1 X34.233 Y31.426 ;extruding 
G1 X34.443 Y31.636 ;extruding 
G1 X34.846 Y31.491 ;extruding 
G1 X34.639 Y31.284 ;extruding 
G1 X35.045 Y31.142 ;extruding 
G1 X35.249 Y31.346 ;extruding 
G1 X35.652 Y31.201 ;extruding 
G1 X35.450 Y31.000 ;extruding 
G1 X35.856 Y30.858 ;extruding 
G1 X36.053 Y31.054 ;extruding 
G1 X36.436 Y30.889 ;extruding 
G1 X36.249 Y30.702 ;extruding 
G1 X36.631 Y30.537 ;extruding 
G1 X36.819 Y30.724 ;extruding 
G1 X37.202 Y30.559 ;extruding 
G1 X37.014 Y30.371 ;extruding 
G1 X37.396 Y30.205 ;extruding 
G1 X37.585 Y30.394 ;extruding 
G1 X37.968 Y30.229 ;extruding 
G1 X37.778 Y30.040 ;extruding 
G1 X38.160 Y29.874 ;extruding 
G1 X38.351 Y30.064 ;extruding 
G1 X38.733 Y29.899 ;extruding 
G1 X38.537 Y29.702 ;extruding 
G1 X38.897 Y29.515 ;extruding 
G1 X39.116 Y29.734 ;extruding 
G1 X39.499 Y29.569 ;extruding 
G1 X39.258 Y29.328 ;extruding 
G1 X39.619 Y29.140 ;extruding 
G1 X39.868 Y29.390 ;extruding 
G1 X40.232 Y29.206 ;extruding 
G1 X39.980 Y28.953 ;extruding 
G1 X40.340 Y28.766 ;extruding 
G1 X40.596 Y29.022 ;extruding 
G1 X40.960 Y28.838 ;extruding 
G1 X40.701 Y28.579 ;extruding 
G1 X41.062 Y28.392 ;extruding 
G1 X41.324 Y28.654 ;extruding 
G1 X41.688 Y28.470 ;extruding 
G1 X41.423 Y28.204 ;extruding 
G1 X41.783 Y28.017 ;extruding 
G1 X42.052 Y28.286 ;extruding 
G1 X42.416 Y28.102 ;extruding 
G1 X42.144 Y27.830 ;extruding 
G1 X42.295 Y27.751 ;extruding 
G1 X42.220 Y27.358 ;extruding 
G1 X42.780 Y27.918 ;extruding 
G1 X43.144 Y27.734 ;extruding 
G1 X40.621 Y25.211 ;extruding 
G1 X41.225 Y25.267 ;extruding 
G1 X43.508 Y27.550 ;extruding 
G1 X43.872 Y27.366 ;extruding 
G1 X41.844 Y25.337 ;extruding 
G1 X42.464 Y25.410 ;extruding 
G1 X44.507 Y27.452 ;extruding 
G1 X44.507 Y26.904 ;extruding 
G1 X43.085 Y25.483 ;extruding 
G1 X43.177 Y25.494 ;extruding 
G1 X43.297 Y25.237 ;extruding 
G1 X44.016 Y25.921 ;extruding 
G1 X44.016 Y25.866 ;extruding 
G1 X44.507 Y26.356 ;extruding 
G1 X44.507 Y25.808 ;extruding 
G1 X44.016 Y25.318 ;extruding 
G1 X44.016 Y24.770 ;extruding 
G1 X44.507 Y25.260 ;extruding 
G1 X44.507 Y24.712 ;extruding 
G1 X44.016 Y24.222 ;extruding 
G1 X44.016 Y23.674 ;extruding 
G1 X44.507 Y24.165 ;extruding 
G1 X44.507 Y23.617 ;extruding 
G1 X43.926 Y23.036 ;extruding 
G1 X43.596 Y22.158 ;extruding 
G1 X44.507 Y23.069 ;extruding 
G1 X44.507 Y22.521 ;extruding 
G1 X43.972 Y21.986 ;extruding 
G1 X44.016 Y21.978 ;extruding 
G1 X44.016 Y21.482 ;extruding 
G1 X44.507 Y21.973 ;extruding 
G1 X44.507 Y21.425 ;extruding 
G1 X44.016 Y20.934 ;extruding 
G1 X44.016 Y20.386 ;extruding 
G1 X44.507 Y20.877 ;extruding 
G1 X44.507 Y20.329 ;extruding 
G1 X44.016 Y19.838 ;extruding 
G1 X44.016 Y19.290 ;extruding 
G1 X44.507 Y19.781 ;extruding 
G1 X44.507 Y19.233 ;extruding 
G1 X44.016 Y18.742 ;extruding 
G1 X44.016 Y18.194 ;extruding 
G1 X44.507 Y18.685 ;extruding 
G1 X44.507 Y18.137 ;extruding 
G1 X43.745 Y17.375 ;extruding 
G1 X43.261 Y16.343 ;extruding 
G1 X44.507 Y17.589 ;extruding 
G1 X44.507 Y17.041 ;extruding 
G1 X43.248 Y15.782 ;extruding 
G1 X43.679 Y15.665 ;extruding 
G1 X44.507 Y16.493 ;extruding 
G1 X44.507 Y15.945 ;extruding 
G1 X44.016 Y15.454 ;extruding 
G1 X44.016 Y14.906 ;extruding 
G1 X44.507 Y15.397 ;extruding 
G1 X44.507 Y14.849 ;extruding 
G1 X44.016 Y14.358 ;extruding 
G1 X44.016 Y13.810 ;extruding 
G1 X44.507 Y14.301 ;extruding 
G1 X44.507 Y13.753 ;extruding 
G1 X44.016 Y13.262 ;extruding 
G1 X44.016 Y12.715 ;extruding 
G1 X44.507 Y13.205 ;extruding 
G1 X44.507 Y12.657 ;extruding 
G1 X44.016 Y12.167 ;extruding 
G1 X44.016 Y11.619 ;extruding 
G1 X44.507 Y12.109 ;extruding 
G1 X44.507 Y11.561 ;extruding 
G1 X44.016 Y11.071 ;extruding 
G1 X44.016 Y10.523 ;extruding 
G1 X44.507 Y11.013 ;extruding 
G1 X44.507 Y10.465 ;extruding 
G1 X44.016 Y9.975 ;extruding 
G1 X44.016 Y9.427 ;extruding 
G1 X44.507 Y9.917 ;extruding 
G1 X44.507 Y9.369 ;extruding 
G1 X44.016 Y8.879 ;extruding 
G1 X44.016 Y8.331 ;extruding 
G1 X44.507 Y8.821 ;extruding 
G1 X44.507 Y8.273 ;extruding 
G1 X44.016 Y7.783 ;extruding 
G1 X44.016 Y7.235 ;extruding 
G1 X44.507 Y7.725 ;extruding 
G1 X44.507 Y7.177 ;extruding 
G1 X44.016 Y6.687 ;extruding 
G1 X44.016 Y6.139 ;extruding 
G1 X44.507 Y6.629 ;extruding 
G1 X44.507 Y6.081 ;extruding 
G1 X44.016 Y5.591 ;extruding 
G1 X44.016 Y5.043 ;extruding 
G1 X44.507 Y5.533 ;extruding 
G1 X44.507 Y4.985 ;extruding 
G1 X44.016 Y4.495 ;extruding 
G1 X44.016 Y3.947 ;extruding 
G1 X44.507 Y4.437 ;extruding 
G1 X44.507 Y3.889 ;extruding 
G1 X44.016 Y3.399 ;extruding 
G1 X44.016 Y2.851 ;extruding 
G1 X44.507 Y3.341 ;extruding 
G1 X44.507 Y2.793 ;extruding 
G1 X44.016 Y2.303 ;extruding 
G1 X44.016 Y2.245 ;extruding 
G1 X44.507 Y2.245 ;extruding 
FILEWRITE $hFile"\x05\x02\x30\x34\x44\x49\x20\x20\x43\x46\x03"
G1 X78.032 Y35.056 ;not extruding 
CCW X79.119 Y32.856 I2.188 J-0.287 
CW X80.599 Y31.864 I-4.142 J-7.780 
CW X81.133 Y30.534 I-1.128 J-1.225 
CW X83.784 Y25.754 I-0.798 J-3.568 
CW X85.046 Y23.192 I-2.390 J-2.769 
FILEWRITE $hFile"\x05\x02\x30\x34\x44\x49\x20\x20\x43\x46\x03"
DWELL 0.15
G1 X85.006 Y22.828 ;extruding 
G1 X84.733 Y21.925 ;extruding 
CCW X85.105 Y20.756 I1.110 J-0.290 
G1 X85.478 Y20.423 ;extruding 
G1 X86.673 Y22.742 ;extruding 
CCW X87.720 Y25.512 I-11.903 J6.082 
CCW X84.835 Y33.167 I-7.020 J1.726 
CCW X78.119 Y35.059 I-5.867 J-7.961 
FILEWRITE $hFile"\x05\x02\x30\x34\x44\x49\x20\x20\x43\x46\x03"
G1 X72.284 Y28.045 ;not extruding 
FILEWRITE $hFile"\x05\x02\x30\x34\x44\x49\x20\x20\x43\x46\x03"
DWELL 0.15
G1 X71.063 Y26.667 ;extruding 
G1 X78.359 Y20.250 ;extruding 
CCW X79.047 Y19.884 I1.465 J1.924 
CW X81.518 Y19.116 I-2.576 J-12.646 
CCW X83.907 Y19.508 I0.891 J2.044 
CCW X83.825 Y21.929 I-1.059 J1.176 
CCW X83.393 Y22.126 I-0.800 J-1.182 
G1 X72.361 Y28.004 ;extruding 
FILEWRITE $hFile"\x05\x02\x30\x34\x44\x49\x20\x20\x43\x46\x03"
G1 X72.668 Y30.093 ;not extruding 
FILEWRITE $hFile"\x05\x02\x30\x34\x44\x49\x20\x20\x43\x46\x03"
DWELL 0.15
G1 X74.158 Y27.171 ;extruding 
G1 X83.532 Y22.177 ;extruding 
CCW X84.376 Y23.422 I-0.068 J0.955 
CCW X83.733 Y25.203 I-8.826 J-2.180 
CW X83.709 Y25.705 I0.581 J0.279 
G1 X72.749 Y30.061 ;extruding 
FILEWRITE $hFile"\x05\x02\x30\x34\x44\x49\x20\x20\x43\x46\x03"
G1 X71.272 Y32.830 ;not extruding 
FILEWRITE $hFile"\x05\x02\x30\x34\x44\x49\x20\x20\x43\x46\x03"
DWELL 0.15
G1 X72.592 Y30.241 ;extruding 
G1 X83.465 Y25.920 ;extruding 
CCW X83.427 Y27.634 I-1.322 J0.828 
G1 X83.141 Y28.013 ;extruding 
G1 X81.851 Y29.272 ;extruding 
CW X81.527 Y29.758 I1.274 J1.200 
G1 X71.356 Y32.805 ;extruding 
FILEWRITE $hFile"\x05\x02\x30\x34\x44\x49\x20\x20\x43\x46\x03"
G1 X70.886 Y33.586 ;not extruding 
FILEWRITE $hFile"\x05\x02\x30\x34\x44\x49\x20\x20\x43\x46\x03"
DWELL 0.15
G1 X71.203 Y32.965 ;extruding 
G1 X80.364 Y30.221 ;extruding 
CCW X79.432 Y32.141 I-2.000 J0.215 
G1 X77.868 Y33.075 ;extruding 
CW X77.319 Y33.586 I1.245 J1.888 
G1 X70.973 Y33.586 ;extruding 
FILEWRITE $hFile"\x05\x02\x30\x34\x44\x49\x20\x20\x43\x46\x03"
G1 X65.237 Y25.122 ;not extruding 
FILEWRITE $hFile"\x05\x02\x30\x34\x44\x49\x20\x20\x43\x46\x03"
DWELL 0.15
G1 X65.199 Y24.695 ;extruding 
CW X70.869 Y20.961 I-6.346 J-15.809 
CW X73.295 Y18.382 I-32.498 J-33.001 
CCW X75.489 Y16.821 I4.676 J4.250 
CCW X77.450 Y17.349 I0.590 J1.713 
CCW X78.398 Y20.067 I-2.107 J2.259 
G1 X71.165 Y26.432 ;extruding 
G1 X65.322 Y25.141 ;extruding 
FILEWRITE $hFile"\x05\x02\x30\x34\x44\x49\x20\x20\x43\x46\x03"
G1 X62.338 Y23.295 ;not extruding 
FILEWRITE $hFile"\x05\x02\x30\x34\x44\x49\x20\x20\x43\x46\x03"
DWELL 0.15
G1 X62.338 Y18.662 ;extruding 
G1 X71.091 Y13.333 ;extruding 
G1 X70.729 Y15.218 ;extruding 
CW X70.739 Y17.366 I9.701 J1.029 
CCW X69.615 Y19.814 I-3.218 J0.005 
CCW X65.310 Y22.383 I-8.442 J-9.256 
CCW X62.421 Y23.271 I-8.327 J-21.948 
FILEWRITE $hFile"\x05\x02\x30\x34\x44\x49\x20\x20\x43\x46\x03"
G1 X57.700 Y18.579 ;not extruding 
FILEWRITE $hFile"\x05\x02\x30\x34\x44\x49\x20\x20\x43\x46\x03"
DWELL 0.15
G1 X65.924 Y7.903 ;extruding 
G1 X67.652 Y8.443 ;extruding 
CCW X69.968 Y9.820 I-2.015 J6.026 
CCW X71.044 Y12.349 I-2.910 J2.732 
G1 X71.066 Y13.220 ;extruding 
G1 X62.262 Y18.579 ;extruding 
G1 X57.787 Y18.579 ;extruding 
FILEWRITE $hFile"\x05\x02\x30\x34\x44\x49\x20\x20\x43\x46\x03"
G1 X52.475 Y20.444 ;not extruding 
FILEWRITE $hFile"\x05\x02\x30\x34\x44\x49\x20\x20\x43\x46\x03"
DWELL 0.15
G1 X58.488 Y6.894 ;extruding 
G1 X60.111 Y6.823 ;extruding 
G1 X61.640 Y6.960 ;extruding 
CCW X65.808 Y7.874 I-7.218 J42.875 
G1 X57.580 Y18.555 ;extruding 
G1 X52.556 Y20.414 ;extruding 
FILEWRITE $hFile"\x05\x02\x30\x34\x44\x49\x20\x20\x43\x46\x03"
G1 X47.392 Y25.024 ;not extruding 
FILEWRITE $hFile"\x05\x02\x30\x34\x44\x49\x20\x20\x43\x46\x03"
DWELL 0.15
G1 X47.392 Y23.346 ;extruding 
G1 X52.365 Y10.113 ;extruding 
G1 X53.716 Y8.936 ;extruding 
G1 X55.131 Y8.027 ;extruding 
G1 X56.604 Y7.370 ;extruding 
G1 X58.378 Y6.873 ;extruding 
G1 X52.465 Y20.194 ;extruding 
G1 X47.455 Y24.964 ;extruding 
FILEWRITE $hFile"\x05\x02\x30\x34\x44\x49\x20\x20\x43\x46\x03"
G1 X47.876 Y21.745 ;not extruding 
FILEWRITE $hFile"\x05\x02\x30\x34\x44\x49\x20\x20\x43\x46\x03"
DWELL 0.15
G1 X47.392 Y21.657 ;extruding 
G1 X47.392 Y18.039 ;extruding 
G1 X48.487 Y15.703 ;extruding 
G1 X49.608 Y13.706 ;extruding 
G1 X50.862 Y11.865 ;extruding 
G1 X51.233 Y11.389 ;extruding 
G1 X51.675 Y11.637 ;extruding 
G1 X47.906 Y21.664 ;extruding 
FILEWRITE $hFile"\x05\x02\x30\x34\x44\x49\x20\x20\x43\x46\x03"
G1 X47.897 Y24.694 ;not extruding 
FILEWRITE $hFile"\x05\x02\x30\x34\x44\x49\x20\x20\x43\x46\x03"
DWELL 0.15
G1 X51.969 Y20.819 ;extruding 
G1 X57.724 Y18.689 ;extruding 
G1 X62.253 Y18.689 ;extruding 
G1 X62.253 Y23.313 ;extruding 
G1 X59.136 Y23.919 ;extruding 
G1 X56.575 Y24.254 ;extruding 
G1 X49.678 Y24.892 ;extruding 
G1 X48.077 Y25.079 ;extruding 
G1 X47.934 Y24.773 ;extruding 
FILEWRITE $hFile"\x05\x02\x30\x34\x44\x49\x20\x20\x43\x46\x03"
G1 X49.241 Y27.115 ;not extruding 
FILEWRITE $hFile"\x05\x02\x30\x34\x44\x49\x20\x20\x43\x46\x03"
DWELL 0.15
G1 X65.053 Y25.230 ;extruding 
G1 X69.992 Y26.325 ;extruding 
CCW X71.215 Y27.172 I-0.404 J1.889 
CCW X71.204 Y28.305 I-1.283 J0.554 
CCW X68.940 Y30.643 I-4.846 J-2.427 
CCW X68.748 Y32.740 I-1.104 J0.956 
CCW X66.531 Y33.512 I-2.066 J-2.363 
CCW X64.786 Y33.261 I0.201 J-7.589 
CCW X57.713 Y31.342 I68.271 J-265.626 
CCW X52.513 Y29.296 I12.125 J-38.448 
G1 X49.160 Y27.541 ;extruding 
G1 X49.225 Y27.200 ;extruding 
FILEWRITE $hFile"\x05\x02\x30\x34\x44\x49\x20\x20\x43\x46\x03"
G1 X47.392 Y27.919 ;not extruding 
FILEWRITE $hFile"\x05\x02\x30\x34\x44\x49\x20\x20\x43\x46\x03"
DWELL 0.15
G1 X47.392 Y31.370 ;extruding 
G1 X46.132 Y31.370 ;extruding 
G1 X46.132 Y1.860 ;extruding 
G1 X47.392 Y1.860 ;extruding 
G1 X47.392 Y15.280 ;extruding 
G1 X47.833 Y15.398 ;extruding 
G1 X48.933 Y13.392 ;extruding 
G1 X50.160 Y11.613 ;extruding 
G1 X51.654 Y9.875 ;extruding 
G1 X53.358 Y8.305 ;extruding 
G1 X54.936 Y7.161 ;extruding 
G1 X56.441 Y6.316 ;extruding 
CCW X66.490 Y5.822 I5.597 J11.408 
CCW X71.043 Y9.242 I-4.394 J10.590 
CCW X73.133 Y12.590 I-11.305 J9.383 
CCW X73.404 Y15.137 I-4.128 J1.727 
CCW X72.921 Y16.244 I-3.705 J-0.958 
G1 X73.291 Y16.548 ;extruding 
CCW X76.965 Y15.313 I3.217 J3.487 
CCW X82.457 Y17.261 I-1.418 J12.712 
CCW X87.604 Y23.654 I-6.597 J10.580 
CCW X88.380 Y26.740 I-13.850 J5.123 
CCW X88.283 Y29.531 I-7.514 J1.136 
CCW X86.146 Y32.689 I-6.199 J-1.893 
CCW X80.621 Y35.256 I-8.015 J-10.021 
CCW X75.987 Y35.658 I-4.171 J-21.170 
CCW X62.087 Y33.774 I1.129 J-60.551 
G1 X58.453 Y32.718 ;extruding 
G1 X54.839 Y31.418 ;extruding 
G1 X51.263 Y29.876 ;extruding 
G1 X47.469 Y27.958 ;extruding 
FILEWRITE $hFile"\x05\x02\x30\x34\x44\x49\x20\x20\x43\x46\x03"
G1 X48.731 Y27.751 ;not extruding 
FILEWRITE $hFile"\x05\x02\x30\x34\x44\x49\x20\x20\x43\x46\x03"
DWELL 0.15
G1 X49.567 Y28.587 ;extruding 
G1 X50.669 Y29.144 ;extruding 
G1 X49.874 Y28.349 ;extruding 
G1 X51.017 Y28.947 ;extruding 
G1 X51.726 Y29.656 ;extruding 
G1 X52.684 Y30.069 ;extruding 
G1 X52.160 Y29.546 ;extruding 
G1 X53.159 Y30.000 ;extruding 
G1 X53.642 Y30.483 ;extruding 
G1 X54.600 Y30.896 ;extruding 
G1 X54.130 Y30.426 ;extruding 
G1 X55.070 Y30.822 ;extruding 
G1 X55.493 Y31.244 ;extruding 
G1 X56.344 Y31.551 ;extruding 
G1 X55.920 Y31.126 ;extruding 
G1 X56.755 Y31.416 ;extruding 
G1 X57.195 Y31.857 ;extruding 
G1 X58.046 Y32.163 ;extruding 
G1 X57.590 Y31.706 ;extruding 
G1 X58.360 Y31.932 ;extruding 
G1 X58.866 Y32.438 ;extruding 
G1 X59.634 Y32.661 ;extruding 
G1 X59.111 Y32.138 ;extruding 
G1 X59.863 Y32.345 ;extruding 
G1 X60.402 Y32.884 ;extruding 
G1 X61.170 Y33.107 ;extruding 
G1 X60.614 Y32.551 ;extruding 
G1 X61.361 Y32.753 ;extruding 
G1 X61.938 Y33.330 ;extruding 
G1 X62.672 Y33.520 ;extruding 
G1 X62.092 Y32.940 ;extruding 
G1 X62.823 Y33.126 ;extruding 
G1 X63.378 Y33.681 ;extruding 
G1 X64.077 Y33.834 ;extruding 
G1 X63.569 Y33.327 ;extruding 
G1 X64.319 Y33.532 ;extruding 
G1 X64.775 Y33.988 ;extruding 
G1 X65.473 Y34.142 ;extruding 
G1 X65.031 Y33.699 ;extruding 
G1 X65.705 Y33.829 ;extruding 
G1 X66.154 Y34.277 ;extruding 
G1 X66.816 Y34.395 ;extruding 
G1 X66.302 Y33.881 ;extruding 
CW X66.842 Y33.876 I0.252 J-1.957 
G1 X67.463 Y34.496 ;extruding 
G1 X68.102 Y34.591 ;extruding 
G1 X67.337 Y33.826 ;extruding 
G1 X67.779 Y33.723 ;extruding 
G1 X68.741 Y34.685 ;extruding 
G1 X69.380 Y34.779 ;extruding 
G1 X68.171 Y33.570 ;extruding 
G1 X68.526 Y33.380 ;extruding 
G1 X70.013 Y34.867 ;extruding 
G1 X70.622 Y34.932 ;extruding 
G1 X68.845 Y33.155 ;extruding 
CW X69.127 Y32.892 I-0.577 J-0.902 
G1 X71.231 Y34.996 ;extruding 
G1 X71.839 Y35.058 ;extruding 
G1 X70.752 Y33.971 ;extruding 
G1 X70.258 Y33.971 ;extruding 
G1 X70.425 Y33.644 ;extruding 
G1 X69.372 Y32.592 ;extruding 
CW X69.562 Y32.236 I-1.155 J-0.845 
G1 X70.609 Y33.284 ;extruding 
G1 X70.793 Y32.923 ;extruding 
G1 X69.674 Y31.804 ;extruding 
CW X69.655 Y31.240 I-1.231 J-0.241 
G1 X70.977 Y32.562 ;extruding 
G1 X71.161 Y32.201 ;extruding 
G1 X69.628 Y30.668 ;extruding 
G1 X69.931 Y30.427 ;extruding 
G1 X71.345 Y31.840 ;extruding 
G1 X71.529 Y31.479 ;extruding 
G1 X70.230 Y30.181 ;extruding 
G1 X70.517 Y29.923 ;extruding 
G1 X71.713 Y31.119 ;extruding 
G1 X71.897 Y30.758 ;extruding 
G1 X70.778 Y29.639 ;extruding 
G1 X71.030 Y29.346 ;extruding 
G1 X72.081 Y30.397 ;extruding 
G1 X72.265 Y30.036 ;extruding 
G1 X71.254 Y29.026 ;extruding 
G1 X71.448 Y28.674 ;extruding 
G1 X72.449 Y29.675 ;extruding 
G1 X72.633 Y29.314 ;extruding 
G1 X71.611 Y28.293 ;extruding 
CW X71.691 Y27.956 I-1.064 J-0.431 
CCW X71.817 Y28.279 I-0.170 J0.252 
G1 X71.928 Y28.224 ;extruding 
G1 X72.197 Y28.527 ;extruding 
G1 X72.323 Y28.460 ;extruding 
G1 X72.817 Y28.954 ;extruding 
G1 X73.001 Y28.593 ;extruding 
G1 X72.679 Y28.271 ;extruding 
G1 X73.034 Y28.081 ;extruding 
G1 X73.185 Y28.232 ;extruding 
FILEWRITE $hFile"\x05\x02\x30\x34\x44\x49\x20\x20\x43\x46\x03"
G1 X71.839 Y35.058 ;not extruding 
FILEWRITE $hFile"\x05\x02\x30\x34\x44\x49\x20\x20\x43\x46\x03"
DWELL 0.15
G1 X72.427 Y35.101 ;extruding 
G1 X71.296 Y33.971 ;extruding 
G1 X71.841 Y33.971 ;extruding 
G1 X73.014 Y35.144 ;extruding 
G1 X73.602 Y35.188 ;extruding 
G1 X72.386 Y33.971 ;extruding 
G1 X72.931 Y33.971 ;extruding 
G1 X74.174 Y35.214 ;extruding 
G1 X74.737 Y35.233 ;extruding 
G1 X73.476 Y33.971 ;extruding 
G1 X74.021 Y33.971 ;extruding 
G1 X75.300 Y35.251 ;extruding 
G1 X75.864 Y35.269 ;extruding 
G1 X74.565 Y33.971 ;extruding 
G1 X75.110 Y33.971 ;extruding 
G1 X76.409 Y35.270 ;extruding 
G1 X76.947 Y35.263 ;extruding 
G1 X75.655 Y33.971 ;extruding 
G1 X76.200 Y33.971 ;extruding 
G1 X77.464 Y35.235 ;extruding 
G1 X77.645 Y35.225 ;extruding 
G1 X77.650 Y34.876 ;extruding 
G1 X76.745 Y33.971 ;extruding 
G1 X77.290 Y33.971 ;extruding 
G1 X77.677 Y34.358 ;extruding 
CCW X77.779 Y33.916 I1.049 J0.009 
G1 X77.653 Y33.790 ;extruding 
CCW X77.943 Y33.535 I0.508 J0.285 
FILEWRITE $hFile"\x05\x02\x30\x34\x44\x49\x20\x20\x43\x46\x03"
G1 X79.562 Y19.353 ;not extruding 
FILEWRITE $hFile"\x05\x02\x30\x34\x44\x49\x20\x20\x43\x46\x03"
DWELL 0.15
G1 X78.554 Y18.345 ;extruding 
CCW X78.786 Y19.122 I-2.033 J1.030 
G1 X79.129 Y19.465 ;extruding 
G1 X78.833 Y19.557 ;extruding 
CW X78.786 Y19.122 I-1.239 J-0.086 
FILEWRITE $hFile"\x05\x02\x30\x34\x44\x49\x20\x20\x43\x46\x03"
G1 X83.227 Y18.659 ;not extruding 
CCW X84.723 Y20.156 I-0.640 J2.136 
FILEWRITE $hFile"\x05\x02\x30\x34\x44\x49\x20\x20\x43\x46\x03"
DWELL 0.15
G1 X84.948 Y20.380 ;extruding 
FILEWRITE $hFile"\x05\x02\x30\x34\x44\x49\x20\x20\x43\x46\x03"
G1 X84.509 Y19.396 ;not extruding 
CW X82.030 Y17.463 I-8.553 J8.413 
FILEWRITE $hFile"\x05\x02\x30\x34\x44\x49\x20\x20\x43\x46\x03"
DWELL 0.15
G1 X83.227 Y18.659 ;extruding 
CW X82.575 Y18.552 I-0.653 J1.941 
G1 X80.854 Y16.832 ;extruding 
CW X79.915 Y16.437 I-3.312 J6.560 
G1 X82.065 Y18.587 ;extruding 
G1 X81.622 Y18.689 ;extruding 
G1 X79.060 Y16.127 ;extruding 
G1 X78.316 Y15.927 ;extruding 
G1 X81.208 Y18.820 ;extruding 
G1 X80.810 Y18.967 ;extruding 
G1 X77.628 Y15.785 ;extruding 
G1 X77.004 Y15.706 ;extruding 
G1 X80.412 Y19.114 ;extruding 
G1 X79.995 Y19.241 ;extruding 
G1 X76.444 Y15.691 ;extruding 
G1 X75.931 Y15.722 ;extruding 
G1 X76.611 Y16.403 ;extruding 
CW X75.999 Y16.335 I-0.496 J1.673 
G1 X75.467 Y15.803 ;extruding 
CW X75.042 Y15.922 I0.195 J1.515 
G1 X75.531 Y16.412 ;extruding 
CW X75.130 Y16.556 I0.259 J1.351 
G1 X74.650 Y16.075 ;extruding 
G1 X74.297 Y16.267 ;extruding 
G1 X74.755 Y16.725 ;extruding 
G1 X74.416 Y16.931 ;extruding 
G1 X73.981 Y16.497 ;extruding 
G1 X73.675 Y16.736 ;extruding 
G1 X74.092 Y17.153 ;extruding 
G1 X73.787 Y17.392 ;extruding 
G1 X73.370 Y16.975 ;extruding 
G1 X73.285 Y17.041 ;extruding 
G1 X72.437 Y16.344 ;extruding 
G1 X72.540 Y16.145 ;extruding 
G1 X71.200 Y14.806 ;extruding 
G1 X71.288 Y14.348 ;extruding 
G1 X72.725 Y15.786 ;extruding 
CW X72.905 Y15.420 I-1.119 J-0.778 
G1 X71.376 Y13.891 ;extruding 
G1 X71.464 Y13.434 ;extruding 
G1 X73.036 Y15.006 ;extruding 
G1 X73.100 Y14.526 ;extruding 
G1 X71.551 Y12.977 ;extruding 
G1 X71.633 Y12.553 ;extruding 
G1 X71.437 Y12.672 ;extruding 
G1 X71.426 Y12.307 ;extruding 
G1 X73.086 Y13.967 ;extruding 
G1 X72.958 Y13.294 ;extruding 
G1 X71.327 Y11.663 ;extruding 
CW X71.101 Y10.892 I-2.673 J0.365 
G1 X72.625 Y12.416 ;extruding 
CW X72.059 Y11.318 I-7.241 J3.038 
G1 X71.846 Y11.093 ;extruding 
G1 X71.817 Y11.097 ;extruding 
G1 X71.814 Y11.060 ;extruding 
G1 X67.459 Y6.706 ;extruding 
G1 X67.720 Y6.845 ;extruding 
G1 X68.848 Y7.615 ;extruding 
CCW X70.414 Y9.115 I-8.876 J10.834 
FILEWRITE $hFile"\x05\x02\x30\x34\x44\x49\x20\x20\x43\x46\x03"
G1 X68.699 Y8.491 ;not extruding 
FILEWRITE $hFile"\x05\x02\x30\x34\x44\x49\x20\x20\x43\x46\x03"
DWELL 0.15
G1 X66.426 Y6.217 ;extruding 
G1 X65.601 Y5.937 ;extruding 
G1 X67.728 Y8.064 ;extruding 
G1 X66.935 Y7.816 ;extruding 
G1 X64.820 Y5.701 ;extruding 
G1 X64.153 Y5.578 ;extruding 
G1 X66.130 Y7.556 ;extruding 
G1 X65.783 Y7.455 ;extruding 
G1 X65.772 Y7.469 ;extruding 
G1 X65.411 Y7.381 ;extruding 
G1 X63.501 Y5.472 ;extruding 
CW X62.906 Y5.421 I-0.562 J3.066 
G1 X64.691 Y7.207 ;extruding 
G1 X63.972 Y7.032 ;extruding 
G1 X62.348 Y5.408 ;extruding 
G1 X61.789 Y5.394 ;extruding 
G1 X63.276 Y6.881 ;extruding 
G1 X62.602 Y6.752 ;extruding 
G1 X61.269 Y5.419 ;extruding 
G1 X60.778 Y5.473 ;extruding 
G1 X61.929 Y6.624 ;extruding 
CW X61.304 Y6.544 I-0.712 J3.084 
G1 X60.287 Y5.526 ;extruding 
CW X59.808 Y5.592 I0.015 J1.883 
G1 X60.705 Y6.490 ;extruding 
G1 X60.109 Y6.438 ;extruding 
G1 X59.371 Y5.701 ;extruding 
G1 X58.935 Y5.809 ;extruding 
G1 X59.587 Y6.461 ;extruding 
G1 X59.065 Y6.484 ;extruding 
G1 X59.000 Y6.419 ;extruding 
G1 X59.061 Y6.281 ;extruding 
G1 X58.906 Y6.325 ;extruding 
G1 X58.502 Y5.922 ;extruding 
G1 X58.090 Y6.054 ;extruding 
G1 X58.480 Y6.444 ;extruding 
G1 X58.055 Y6.564 ;extruding 
G1 X57.700 Y6.209 ;extruding 
G1 X57.315 Y6.369 ;extruding 
G1 X57.629 Y6.683 ;extruding 
G1 X57.204 Y6.802 ;extruding 
G1 X56.931 Y6.529 ;extruding 
G1 X56.552 Y6.695 ;extruding 
G1 X56.778 Y6.921 ;extruding 
G1 X56.366 Y7.055 ;extruding 
G1 X56.203 Y6.891 ;extruding 
G1 X55.854 Y7.087 ;extruding 
G1 X55.990 Y7.223 ;extruding 
G1 X55.613 Y7.391 ;extruding 
G1 X55.505 Y7.283 ;extruding 
G1 X55.156 Y7.479 ;extruding 
G1 X55.236 Y7.559 ;extruding 
G1 X54.870 Y7.737 ;extruding 
G1 X54.839 Y7.707 ;extruding 
G1 X54.523 Y7.936 ;extruding 
G1 X54.538 Y7.950 ;extruding 
G1 X54.227 Y8.150 ;extruding 
G1 X54.523 Y7.936 ;extruding 
FILEWRITE $hFile"\x05\x02\x30\x34\x44\x49\x20\x20\x43\x46\x03"
G1 X51.949 Y10.126 ;not extruding 
FILEWRITE $hFile"\x05\x02\x30\x34\x44\x49\x20\x20\x43\x46\x03"
DWELL 0.15
G1 X51.645 Y10.475 ;extruding 
G1 X51.771 Y10.601 ;extruding 
G1 X51.592 Y11.075 ;extruding 
G1 X51.343 Y10.826 ;extruding 
FILEWRITE $hFile"\x05\x02\x30\x34\x44\x49\x20\x20\x43\x46\x03"
G1 X47.007 Y2.599 ;not extruding 
FILEWRITE $hFile"\x05\x02\x30\x34\x44\x49\x20\x20\x43\x46\x03"
DWELL 0.15
G1 X46.653 Y2.245 ;extruding 
G1 X46.516 Y2.245 ;extruding 
G1 X46.516 Y2.653 ;extruding 
G1 X47.007 Y3.143 ;extruding 
G1 X47.007 Y3.688 ;extruding 
G1 X46.516 Y3.198 ;extruding 
G1 X46.516 Y3.743 ;extruding 
G1 X47.007 Y4.233 ;extruding 
G1 X47.007 Y4.778 ;extruding 
G1 X46.516 Y4.288 ;extruding 
G1 X46.516 Y4.832 ;extruding 
G1 X47.007 Y5.323 ;extruding 
G1 X47.007 Y5.868 ;extruding 
G1 X46.516 Y5.377 ;extruding 
G1 X46.516 Y5.922 ;extruding 
G1 X47.007 Y6.412 ;extruding 
G1 X47.007 Y6.957 ;extruding 
G1 X46.516 Y6.467 ;extruding 
G1 X46.516 Y7.012 ;extruding 
G1 X47.007 Y7.502 ;extruding 
G1 X47.007 Y8.047 ;extruding 
G1 X46.516 Y7.557 ;extruding 
G1 X46.516 Y8.102 ;extruding 
G1 X47.007 Y8.592 ;extruding 
G1 X47.007 Y9.137 ;extruding 
G1 X46.516 Y8.646 ;extruding 
G1 X46.516 Y9.191 ;extruding 
G1 X47.007 Y9.682 ;extruding 
G1 X47.007 Y10.226 ;extruding 
G1 X46.516 Y9.736 ;extruding 
G1 X46.516 Y10.281 ;extruding 
G1 X47.007 Y10.771 ;extruding 
G1 X47.007 Y11.316 ;extruding 
G1 X46.516 Y10.826 ;extruding 
G1 X46.516 Y11.371 ;extruding 
G1 X47.007 Y11.861 ;extruding 
G1 X47.007 Y12.406 ;extruding 
G1 X46.516 Y11.915 ;extruding 
G1 X46.516 Y12.460 ;extruding 
G1 X47.007 Y12.951 ;extruding 
G1 X47.007 Y13.495 ;extruding 
G1 X46.516 Y13.005 ;extruding 
G1 X46.516 Y13.550 ;extruding 
G1 X47.007 Y14.040 ;extruding 
G1 X47.007 Y14.585 ;extruding 
G1 X46.516 Y14.095 ;extruding 
G1 X46.516 Y14.640 ;extruding 
G1 X47.007 Y15.130 ;extruding 
G1 X47.007 Y15.576 ;extruding 
G1 X47.615 Y15.738 ;extruding 
G1 X47.908 Y16.032 ;extruding 
G1 X47.734 Y16.402 ;extruding 
G1 X46.516 Y15.185 ;extruding 
G1 X46.516 Y15.729 ;extruding 
G1 X47.560 Y16.773 ;extruding 
G1 X47.386 Y17.144 ;extruding 
G1 X46.516 Y16.274 ;extruding 
G1 X46.516 Y16.819 ;extruding 
G1 X47.212 Y17.515 ;extruding 
G1 X47.038 Y17.886 ;extruding 
G1 X46.516 Y17.364 ;extruding 
G1 X46.516 Y17.909 ;extruding 
G1 X47.007 Y18.399 ;extruding 
G1 X47.007 Y18.944 ;extruding 
G1 X46.516 Y18.454 ;extruding 
G1 X46.516 Y18.998 ;extruding 
G1 X47.007 Y19.489 ;extruding 
G1 X47.007 Y20.034 ;extruding 
G1 X46.516 Y19.543 ;extruding 
G1 X46.516 Y20.088 ;extruding 
G1 X47.007 Y20.579 ;extruding 
G1 X47.007 Y21.123 ;extruding 
G1 X46.516 Y20.633 ;extruding 
G1 X46.516 Y21.178 ;extruding 
G1 X47.007 Y21.668 ;extruding 
G1 X47.007 Y21.978 ;extruding 
G1 X47.386 Y22.047 ;extruding 
G1 X47.446 Y22.108 ;extruding 
G1 X47.297 Y22.504 ;extruding 
G1 X46.516 Y21.723 ;extruding 
G1 X46.516 Y22.268 ;extruding 
G1 X47.148 Y22.900 ;extruding 
G1 X47.007 Y23.303 ;extruding 
G1 X46.516 Y22.812 ;extruding 
G1 X46.516 Y23.357 ;extruding 
G1 X47.007 Y23.848 ;extruding 
G1 X47.007 Y24.392 ;extruding 
G1 X46.516 Y23.902 ;extruding 
G1 X46.516 Y24.447 ;extruding 
G1 X47.007 Y24.937 ;extruding 
G1 X47.007 Y25.482 ;extruding 
G1 X46.516 Y24.992 ;extruding 
G1 X46.516 Y25.537 ;extruding 
FILEWRITE $hFile"\x05\x02\x30\x34\x44\x49\x20\x20\x43\x46\x03"
G1 X46.516 Y30.985 ;not extruding 
FILEWRITE $hFile"\x05\x02\x30\x34\x44\x49\x20\x20\x43\x46\x03"
DWELL 0.15
G1 X47.007 Y30.985 ;extruding 
G1 X47.007 Y30.931 ;extruding 
G1 X46.516 Y30.440 ;extruding 
G1 X46.516 Y29.895 ;extruding 
G1 X47.007 Y30.386 ;extruding 
G1 X47.007 Y29.841 ;extruding 
G1 X46.516 Y29.351 ;extruding 
G1 X46.516 Y28.806 ;extruding 
G1 X47.007 Y29.296 ;extruding 
G1 X47.007 Y28.751 ;extruding 
G1 X46.516 Y28.261 ;extruding 
G1 X46.516 Y27.716 ;extruding 
G1 X47.007 Y28.206 ;extruding 
G1 X47.007 Y27.662 ;extruding 
G1 X46.516 Y27.171 ;extruding 
G1 X46.516 Y26.626 ;extruding 
G1 X47.364 Y27.474 ;extruding 
G1 X48.465 Y28.031 ;extruding 
G1 X46.516 Y26.082 ;extruding 
G1 X46.516 Y25.537 ;extruding 
G1 X48.728 Y27.749 ;extruding 
G1 X48.816 Y27.291 ;extruding 
G1 X47.232 Y25.707 ;extruding 
G1 X47.511 Y25.441 ;extruding 
G1 X48.903 Y26.834 ;extruding 
G1 X48.916 Y26.766 ;extruding 
G1 X49.331 Y26.717 ;extruding 
G1 X48.080 Y25.466 ;extruding 
G1 X48.568 Y25.409 ;extruding 
G1 X49.818 Y26.659 ;extruding 
G1 X50.305 Y26.601 ;extruding 
G1 X49.056 Y25.352 ;extruding 
G1 X49.544 Y25.295 ;extruding 
G1 X50.791 Y26.543 ;extruding 
G1 X51.278 Y26.485 ;extruding 
G1 X50.038 Y25.245 ;extruding 
G1 X50.537 Y25.199 ;extruding 
G1 X51.765 Y26.427 ;extruding 
G1 X52.252 Y26.368 ;extruding 
G1 X51.036 Y25.152 ;extruding 
G1 X51.535 Y25.106 ;extruding 
G1 X52.739 Y26.310 ;extruding 
G1 X53.225 Y26.252 ;extruding 
G1 X52.033 Y25.060 ;extruding 
G1 X52.532 Y25.014 ;extruding 
G1 X53.712 Y26.194 ;extruding 
G1 X54.199 Y26.136 ;extruding 
G1 X53.031 Y24.968 ;extruding 
G1 X53.530 Y24.922 ;extruding 
G1 X54.686 Y26.078 ;extruding 
G1 X55.173 Y26.020 ;extruding 
G1 X54.028 Y24.876 ;extruding 
G1 X54.527 Y24.830 ;extruding 
G1 X55.659 Y25.962 ;extruding 
G1 X56.146 Y25.904 ;extruding 
G1 X55.026 Y24.784 ;extruding 
G1 X55.525 Y24.738 ;extruding 
G1 X56.633 Y25.846 ;extruding 
G1 X57.120 Y25.788 ;extruding 
G1 X56.023 Y24.691 ;extruding 
G1 X56.522 Y24.645 ;extruding 
G1 X57.607 Y25.730 ;extruding 
G1 X58.093 Y25.672 ;extruding 
G1 X57.007 Y24.586 ;extruding 
G1 X57.489 Y24.523 ;extruding 
G1 X58.580 Y25.614 ;extruding 
G1 X59.067 Y25.556 ;extruding 
G1 X57.971 Y24.460 ;extruding 
G1 X58.453 Y24.397 ;extruding 
G1 X59.554 Y25.498 ;extruding 
G1 X60.041 Y25.440 ;extruding 
G1 X58.935 Y24.334 ;extruding 
G1 X59.405 Y24.259 ;extruding 
G1 X60.527 Y25.382 ;extruding 
G1 X61.014 Y25.324 ;extruding 
G1 X59.861 Y24.170 ;extruding 
G1 X60.317 Y24.082 ;extruding 
G1 X61.501 Y25.266 ;extruding 
G1 X61.988 Y25.208 ;extruding 
G1 X60.773 Y23.993 ;extruding 
G1 X61.229 Y23.904 ;extruding 
G1 X62.475 Y25.149 ;extruding 
G1 X62.961 Y25.091 ;extruding 
G1 X61.685 Y23.815 ;extruding 
G1 X61.953 Y23.763 ;extruding 
G1 X61.953 Y23.805 ;extruding 
G1 X62.161 Y23.746 ;extruding 
G1 X63.448 Y25.033 ;extruding 
G1 X63.935 Y24.975 ;extruding 
G1 X62.597 Y23.638 ;extruding 
G1 X62.638 Y23.630 ;extruding 
G1 X62.638 Y23.610 ;extruding 
G1 X63.009 Y23.504 ;extruding 
G1 X64.422 Y24.917 ;extruding 
G1 X64.828 Y24.869 ;extruding 
G1 X64.819 Y24.770 ;extruding 
G1 X63.433 Y23.383 ;extruding 
G1 X63.857 Y23.262 ;extruding 
G1 X64.970 Y24.376 ;extruding 
G1 X65.348 Y24.209 ;extruding 
G1 X64.281 Y23.142 ;extruding 
G1 X64.694 Y23.011 ;extruding 
G1 X65.726 Y24.042 ;extruding 
G1 X66.105 Y23.876 ;extruding 
G1 X65.096 Y22.867 ;extruding 
G1 X65.497 Y22.724 ;extruding 
G1 X66.477 Y23.703 ;extruding 
CW X66.835 Y23.516 I-0.948 J-2.251 
G1 X65.895 Y22.576 ;extruding 
G1 X66.272 Y22.408 ;extruding 
G1 X67.174 Y23.311 ;extruding 
G1 X67.514 Y23.106 ;extruding 
G1 X66.642 Y22.234 ;extruding 
G1 X67.012 Y22.059 ;extruding 
G1 X67.853 Y22.900 ;extruding 
G1 X68.179 Y22.681 ;extruding 
G1 X67.378 Y21.880 ;extruding 
G1 X67.724 Y21.682 ;extruding 
G1 X68.496 Y22.453 ;extruding 
G1 X68.802 Y22.215 ;extruding 
G1 X68.066 Y21.478 ;extruding 
G1 X68.393 Y21.260 ;extruding 
G1 X69.109 Y21.976 ;extruding 
G1 X69.415 Y21.738 ;extruding 
G1 X68.720 Y21.042 ;extruding 
G1 X69.031 Y20.809 ;extruding 
G1 X69.710 Y21.488 ;extruding 
G1 X69.997 Y21.230 ;extruding 
G1 X69.327 Y20.560 ;extruding 
G1 X69.623 Y20.311 ;extruding 
G1 X70.283 Y20.971 ;extruding 
G1 X70.570 Y20.713 ;extruding 
G1 X69.915 Y20.058 ;extruding 
G1 X70.183 Y19.781 ;extruding 
G1 X70.842 Y20.441 ;extruding 
G1 X71.114 Y20.167 ;extruding 
G1 X70.424 Y19.478 ;extruding 
CW X70.647 Y19.156 I-0.939 J-0.888 
G1 X71.385 Y19.893 ;extruding 
G1 X71.647 Y19.611 ;extruding 
G1 X70.844 Y18.808 ;extruding 
G1 X70.992 Y18.411 ;extruding 
G1 X71.865 Y19.284 ;extruding 
