; generated by Slic3r 1.3.0 on 2023-06-06 at 09:47:28

; external perimeters extrusion width = 0.50mm (2.95mm^3/s)
; perimeters extrusion width = 0.50mm (2.95mm^3/s)
; infill extrusion width = 0.50mm (2.95mm^3/s)
; solid infill extrusion width = 0.50mm (2.95mm^3/s)
; top infill extrusion width = 0.50mm (2.95mm^3/s)


; Filament gcode

G21 ; set units to millimeters
G90 ; use absolute coordinates
G1 Z-149.500 F900.000
G1 X18.374 Y22.156 F900.000
G1 F900
G1 X18.374 Y21.334 0.00000
G1 X18.077 Y21.112 0.00000
G1 X17.795 Y20.812 0.00000
G1 X17.568 Y20.468 0.00000
G1 X17.405 Y20.096 0.00000
G1 X17.305 Y19.690 0.00000
G1 X17.278 Y19.278 0.00000
G1 X17.322 Y18.868 0.00000
G1 X17.435 Y18.472 0.00000
G1 X17.615 Y18.101 0.00000
G1 X17.855 Y17.766 0.00000
G1 X18.149 Y17.477 0.00000
G1 X18.489 Y17.243 0.00000
G1 X18.864 Y17.071 0.00000
G1 X19.262 Y16.966 0.00000
G1 X19.666 Y16.931 0.00000
G1 X20.082 Y16.966 0.00000
G1 X20.482 Y17.071 0.00000
G1 X20.857 Y17.243 0.00000
G1 X21.196 Y17.477 0.00000
G1 X21.490 Y17.766 0.00000
G1 X21.731 Y18.101 0.00000
G1 X21.910 Y18.472 0.00000
G1 X22.024 Y18.868 0.00000
G1 X22.067 Y19.278 0.00000
G1 X22.040 Y19.689 0.00000
G1 X21.943 Y20.090 0.00000
G1 X21.778 Y20.468 0.00000
G1 X21.551 Y20.812 0.00000
G1 X21.268 Y21.112 0.00000
G1 X20.972 Y21.334 0.00000
G1 X20.972 Y22.156 0.00000
G1 X18.461 Y22.156 0.00000
G1 X18.766 Y21.763 F900.000
G1 F900
G1 X18.766 Y21.101 0.00000
G1 X18.615 Y21.024 0.00000
G1 X18.340 Y20.818 0.00000
G1 X18.104 Y20.567 0.00000
G1 X17.914 Y20.280 0.00000
G1 X17.779 Y19.969 0.00000
G1 X17.695 Y19.630 0.00000
G1 X17.672 Y19.286 0.00000
G1 X17.709 Y18.943 0.00000
G1 X17.803 Y18.612 0.00000
G1 X17.953 Y18.302 0.00000
G1 X18.154 Y18.022 0.00000
G1 X18.400 Y17.781 0.00000
G1 X18.684 Y17.586 0.00000
G1 X18.997 Y17.442 0.00000
G1 X19.330 Y17.354 0.00000
G1 X19.667 Y17.325 0.00000
G1 X20.015 Y17.354 0.00000
G1 X20.349 Y17.442 0.00000
G1 X20.662 Y17.586 0.00000
G1 X20.945 Y17.781 0.00000
G1 X21.191 Y18.022 0.00000
G1 X21.392 Y18.302 0.00000
G1 X21.542 Y18.612 0.00000
G1 X21.637 Y18.943 0.00000
G1 X21.673 Y19.286 0.00000
G1 X21.650 Y19.629 0.00000
G1 X21.569 Y19.964 0.00000
G1 X21.431 Y20.280 0.00000
G1 X21.242 Y20.567 0.00000
G1 X21.006 Y20.818 0.00000
G1 X20.730 Y21.024 0.00000
G1 X20.579 Y21.101 0.00000
G1 X20.579 Y21.763 0.00000
G1 X18.853 Y21.763 0.00000
G1 X18.190 Y21.831 F900.000
G1 X15.010 Y31.877 F900.000
G1 F900
G1 X14.267 Y31.601 0.00000
G1 X12.851 Y30.875 0.00000
G1 X11.585 Y30.023 0.00000
G1 X10.296 Y28.915 0.00000
G1 X9.257 Y27.777 0.00000
G1 X8.330 Y26.486 0.00000
G1 X7.563 Y25.094 0.00000
G1 X6.993 Y23.691 0.00000
G1 X6.540 Y22.052 0.00000
G1 X6.312 Y20.517 0.00000
G1 X6.265 Y18.953 0.00000
G1 X6.409 Y17.330 0.00000
G1 X6.733 Y15.790 0.00000
G1 X7.252 Y14.262 0.00000
G1 X7.926 Y12.850 0.00000
G1 X8.774 Y11.506 0.00000
G1 X9.776 Y10.271 0.00000
G1 X10.894 Y9.184 0.00000
G1 X12.250 Y8.158 0.00000
G1 X13.548 Y7.392 0.00000
G1 X15.002 Y6.751 0.00000
G1 X16.522 Y6.287 0.00000
G1 X18.046 Y6.012 0.00000
G1 X19.743 Y5.915 0.00000
G1 X21.259 Y6.006 0.00000
G1 X22.763 Y6.275 0.00000
G1 X24.390 Y6.770 0.00000
G1 X25.797 Y7.392 0.00000
G1 X27.166 Y8.200 0.00000
G1 X28.430 Y9.165 0.00000
G1 X29.518 Y10.220 0.00000
G1 X30.593 Y11.537 0.00000
G1 X31.419 Y12.849 0.00000
G1 X32.103 Y14.284 0.00000
G1 X32.612 Y15.790 0.00000
G1 X32.937 Y17.330 0.00000
G1 X33.081 Y18.953 0.00000
G1 X33.033 Y20.517 0.00000
G1 X32.805 Y22.053 0.00000
G1 X32.378 Y23.626 0.00000
G1 X31.782 Y25.094 0.00000
G1 X31.015 Y26.486 0.00000
G1 X30.088 Y27.777 0.00000
G1 X29.050 Y28.915 0.00000
G1 X27.761 Y30.023 0.00000
G1 X26.494 Y30.875 0.00000
G1 X25.079 Y31.601 0.00000
G1 X23.590 Y32.154 0.00000
G1 X22.045 Y32.527 0.00000
G1 X20.478 Y32.715 0.00000
G1 X19.673 Y32.740 0.00000
G1 X18.868 Y32.715 0.00000
G1 X17.300 Y32.527 0.00000
G1 X15.755 Y32.154 0.00000
G1 X15.092 Y31.908 0.00000
G1 X14.873 Y32.246 F900.000
G1 F900
G1 X14.108 Y31.961 0.00000
G1 X12.651 Y31.214 0.00000
G1 X11.346 Y30.336 0.00000
G1 X10.022 Y29.197 0.00000
G1 X8.951 Y28.025 0.00000
G1 X7.998 Y26.696 0.00000
G1 X7.208 Y25.263 0.00000
G1 X6.620 Y23.817 0.00000
G1 X6.155 Y22.133 0.00000
G1 X5.920 Y20.551 0.00000
G1 X5.872 Y18.942 0.00000
G1 X6.020 Y17.272 0.00000
G1 X6.354 Y15.686 0.00000
G1 X6.887 Y14.114 0.00000
G1 X7.582 Y12.660 0.00000
G1 X8.455 Y11.276 0.00000
G1 X9.486 Y10.006 0.00000
G1 X10.638 Y8.886 0.00000
G1 X12.031 Y7.831 0.00000
G1 X13.368 Y7.042 0.00000
G1 X14.865 Y6.383 0.00000
G1 X16.430 Y5.905 0.00000
G1 X18.000 Y5.621 0.00000
G1 X19.744 Y5.522 0.00000
G1 X21.306 Y5.616 0.00000
G1 X22.855 Y5.893 0.00000
G1 X24.527 Y6.401 0.00000
G1 X25.977 Y7.042 0.00000
G1 X27.386 Y7.874 0.00000
G1 X28.686 Y8.867 0.00000
G1 X29.808 Y9.954 0.00000
G1 X30.912 Y11.308 0.00000
G1 X31.764 Y12.660 0.00000
G1 X32.467 Y14.136 0.00000
G1 X32.991 Y15.686 0.00000
G1 X33.326 Y17.272 0.00000
G1 X33.474 Y18.942 0.00000
G1 X33.425 Y20.551 0.00000
G1 X33.190 Y22.134 0.00000
G1 X32.751 Y23.751 0.00000
G1 X32.138 Y25.263 0.00000
G1 X31.348 Y26.696 0.00000
G1 X30.394 Y28.025 0.00000
G1 X29.324 Y29.197 0.00000
G1 X27.999 Y30.336 0.00000
G1 X26.694 Y31.214 0.00000
G1 X25.237 Y31.961 0.00000
G1 X23.705 Y32.530 0.00000
G1 X22.115 Y32.915 0.00000
G1 X20.507 Y33.107 0.00000
G1 X19.673 Y33.133 0.00000
G1 X18.838 Y33.107 0.00000
G1 X17.230 Y32.915 0.00000
G1 X15.640 Y32.530 0.00000
G1 X14.955 Y32.276 0.00000
G1 X14.761 Y31.676 F900.000
G1 Z-149.000 F900.000
G1 X18.374 Y22.156 F900.000
G1 F900
G1 X18.374 Y21.334 0.00000
G1 X18.077 Y21.112 0.00000
G1 X17.795 Y20.812 0.00000
G1 X17.568 Y20.468 0.00000
G1 X17.403 Y20.090 0.00000
G1 X17.305 Y19.689 0.00000
G1 X17.278 Y19.278 0.00000
G1 X17.322 Y18.868 0.00000
G1 X17.435 Y18.472 0.00000
G1 X17.615 Y18.101 0.00000
G1 X17.855 Y17.766 0.00000
G1 X18.149 Y17.477 0.00000
G1 X18.489 Y17.243 0.00000
G1 X18.864 Y17.071 0.00000
G1 X19.262 Y16.966 0.00000
G1 X19.653 Y16.932 0.00000
G1 X20.081 Y16.965 0.00000
G1 X20.482 Y17.071 0.00000
G1 X20.857 Y17.243 0.00000
G1 X21.196 Y17.477 0.00000
G1 X21.490 Y17.766 0.00000
G1 X21.731 Y18.101 0.00000
G1 X21.910 Y18.472 0.00000
G1 X22.024 Y18.868 0.00000
G1 X22.067 Y19.278 0.00000
G1 X22.040 Y19.689 0.00000
G1 X21.943 Y20.090 0.00000
G1 X21.778 Y20.468 0.00000
G1 X21.551 Y20.812 0.00000
G1 X21.268 Y21.112 0.00000
G1 X20.972 Y21.334 0.00000
G1 X20.972 Y22.156 0.00000
G1 X18.461 Y22.156 0.00000
G1 X18.766 Y21.763 F900.000
G1 F900
G1 X18.766 Y21.101 0.00000
G1 X18.615 Y21.024 0.00000
G1 X18.340 Y20.818 0.00000
G1 X18.104 Y20.567 0.00000
G1 X17.914 Y20.280 0.00000
G1 X17.776 Y19.964 0.00000
G1 X17.695 Y19.629 0.00000
G1 X17.672 Y19.286 0.00000
G1 X17.709 Y18.943 0.00000
G1 X17.803 Y18.612 0.00000
G1 X17.953 Y18.302 0.00000
G1 X18.154 Y18.022 0.00000
G1 X18.400 Y17.781 0.00000
G1 X18.684 Y17.586 0.00000
G1 X18.997 Y17.442 0.00000
G1 X19.330 Y17.354 0.00000
G1 X19.655 Y17.326 0.00000
G1 X20.015 Y17.354 0.00000
G1 X20.349 Y17.442 0.00000
G1 X20.662 Y17.586 0.00000
G1 X20.945 Y17.781 0.00000
G1 X21.191 Y18.022 0.00000
G1 X21.392 Y18.302 0.00000
G1 X21.542 Y18.612 0.00000
G1 X21.637 Y18.943 0.00000
G1 X21.673 Y19.286 0.00000
G1 X21.650 Y19.629 0.00000
G1 X21.569 Y19.964 0.00000
G1 X21.431 Y20.280 0.00000
G1 X21.242 Y20.567 0.00000
G1 X21.006 Y20.818 0.00000
G1 X20.730 Y21.024 0.00000
G1 X20.579 Y21.101 0.00000
G1 X20.579 Y21.763 0.00000
G1 X18.853 Y21.763 0.00000
G1 X18.190 Y21.831 F900.000
G1 X15.011 Y31.878 F900.000
G1 F900
G1 X14.271 Y31.603 0.00000
G1 X12.754 Y30.814 0.00000
G1 X11.534 Y29.988 0.00000
G1 X10.330 Y28.950 0.00000
G1 X9.257 Y27.777 0.00000
G1 X8.352 Y26.520 0.00000
G1 X7.530 Y25.022 0.00000
G1 X6.966 Y23.622 0.00000
G1 X6.547 Y22.088 0.00000
G1 X6.312 Y20.516 0.00000
G1 X6.264 Y19.004 0.00000
G1 X6.413 Y17.301 0.00000
G1 X6.733 Y15.791 0.00000
G1 X7.270 Y14.219 0.00000
G1 X7.926 Y12.850 0.00000
G1 X8.774 Y11.506 0.00000
G1 X9.776 Y10.271 0.00000
G1 X10.855 Y9.219 0.00000
G1 X12.049 Y8.295 0.00000
G1 X12.373 Y8.083 0.00000
G1 X13.547 Y7.392 0.00000
G1 X15.002 Y6.751 0.00000
G1 X16.523 Y6.287 0.00000
G1 X17.970 Y6.023 0.00000
G1 X19.480 Y5.920 0.00000
G1 X19.867 Y5.920 0.00000
G1 X21.259 Y6.006 0.00000
G1 X22.657 Y6.253 0.00000
G1 X23.035 Y6.349 0.00000
G1 X24.296 Y6.734 0.00000
G1 X25.797 Y7.392 0.00000
G1 X27.166 Y8.200 0.00000
G1 X28.430 Y9.165 0.00000
G1 X29.427 Y10.129 0.00000
G1 X29.690 Y10.413 0.00000
G1 X30.633 Y11.596 0.00000
G1 X31.419 Y12.849 0.00000
G1 X32.103 Y14.284 0.00000
G1 X32.612 Y15.790 0.00000
G1 X32.932 Y17.301 0.00000
G1 X33.081 Y19.004 0.00000
G1 X33.033 Y20.516 0.00000
G1 X32.799 Y22.088 0.00000
G1 X32.379 Y23.622 0.00000
G1 X31.815 Y25.022 0.00000
G1 X30.993 Y26.520 0.00000
G1 X30.089 Y27.777 0.00000
G1 X29.016 Y28.950 0.00000
G1 X27.811 Y29.988 0.00000
G1 X26.591 Y30.814 0.00000
G1 X25.075 Y31.603 0.00000
G1 X23.590 Y32.154 0.00000
G1 X22.045 Y32.528 0.00000
G1 X20.517 Y32.712 0.00000
G1 X19.673 Y32.740 0.00000
G1 X18.829 Y32.712 0.00000
G1 X17.301 Y32.528 0.00000
G1 X15.755 Y32.154 0.00000
G1 X15.093 Y31.908 0.00000
G1 X14.874 Y32.246 F900.000
G1 F900
G1 X14.111 Y31.963 0.00000
G1 X12.553 Y31.152 0.00000
G1 X11.295 Y30.300 0.00000
G1 X10.056 Y29.232 0.00000
G1 X8.951 Y28.025 0.00000
G1 X8.020 Y26.730 0.00000
G1 X7.174 Y25.190 0.00000
G1 X6.593 Y23.748 0.00000
G1 X6.162 Y22.169 0.00000
G1 X5.920 Y20.551 0.00000
G1 X5.871 Y18.993 0.00000
G1 X6.024 Y17.243 0.00000
G1 X6.354 Y15.687 0.00000
G1 X6.906 Y14.070 0.00000
G1 X7.581 Y12.660 0.00000
G1 X8.455 Y11.276 0.00000
G1 X9.486 Y10.006 0.00000
G1 X10.597 Y8.922 0.00000
G1 X11.821 Y7.975 0.00000
G1 X12.166 Y7.749 0.00000
G1 X13.368 Y7.042 0.00000
G1 X14.865 Y6.383 0.00000
G1 X16.430 Y5.905 0.00000
G1 X17.921 Y5.632 0.00000
G1 X19.467 Y5.527 0.00000
G1 X19.879 Y5.527 0.00000
G1 X21.306 Y5.615 0.00000
G1 X22.740 Y5.869 0.00000
G1 X23.140 Y5.970 0.00000
G1 X24.424 Y6.362 0.00000
G1 X25.977 Y7.042 0.00000
G1 X27.386 Y7.874 0.00000
G1 X28.686 Y8.867 0.00000
G1 X29.709 Y9.854 0.00000
G1 X29.988 Y10.158 0.00000
G1 X30.954 Y11.369 0.00000
G1 X31.764 Y12.659 0.00000
G1 X32.467 Y14.136 0.00000
G1 X32.991 Y15.686 0.00000
G1 X33.321 Y17.243 0.00000
G1 X33.475 Y18.993 0.00000
G1 X33.425 Y20.551 0.00000
G1 X33.184 Y22.169 0.00000
G1 X32.752 Y23.748 0.00000
G1 X32.171 Y25.190 0.00000
G1 X31.326 Y26.730 0.00000
G1 X30.394 Y28.025 0.00000
G1 X29.290 Y29.232 0.00000
G1 X28.050 Y30.300 0.00000
G1 X26.793 Y31.152 0.00000
G1 X25.234 Y31.963 0.00000
G1 X23.705 Y32.530 0.00000
G1 X22.115 Y32.915 0.00000
G1 X20.547 Y33.104 0.00000
G1 X19.673 Y33.133 0.00000
G1 X18.799 Y33.104 0.00000
G1 X17.231 Y32.915 0.00000
G1 X15.640 Y32.530 0.00000
G1 X14.956 Y32.276 0.00000
G1 X14.762 Y31.677 F900.000
G1 Z-148.500 F900.000
G1 X18.374 Y22.156 F900.000
G1 F900
G1 X18.374 Y21.334 0.00000
G1 X18.077 Y21.112 0.00000
G1 X17.795 Y20.812 0.00000
G1 X17.568 Y20.468 0.00000
G1 X17.416 Y20.120 0.00000
G1 X17.306 Y19.694 0.00000
G1 X17.278 Y19.278 0.00000
G1 X17.322 Y18.868 0.00000
G1 X17.426 Y18.503 0.00000
G1 X17.612 Y18.104 0.00000
G1 X17.855 Y17.766 0.00000
G1 X18.149 Y17.477 0.00000
G1 X18.489 Y17.243 0.00000
G1 X18.864 Y17.071 0.00000
G1 X19.262 Y16.966 0.00000
G1 X19.640 Y16.933 0.00000
G1 X20.079 Y16.965 0.00000
G1 X20.482 Y17.071 0.00000
G1 X20.857 Y17.243 0.00000
G1 X21.196 Y17.477 0.00000
G1 X21.490 Y17.766 0.00000
G1 X21.731 Y18.101 0.00000
G1 X21.910 Y18.472 0.00000
G1 X22.024 Y18.868 0.00000
G1 X22.067 Y19.278 0.00000
G1 X22.040 Y19.689 0.00000
G1 X21.943 Y20.090 0.00000
G1 X21.778 Y20.468 0.00000
G1 X21.551 Y20.812 0.00000
G1 X21.268 Y21.112 0.00000
G1 X20.972 Y21.334 0.00000
G1 X20.972 Y22.156 0.00000
G1 X18.461 Y22.156 0.00000
G1 X18.766 Y21.763 F900.000
G1 F900
G1 X18.766 Y21.101 0.00000
G1 X18.615 Y21.024 0.00000
G1 X18.340 Y20.818 0.00000
G1 X18.104 Y20.567 0.00000
G1 X17.914 Y20.280 0.00000
G1 X17.788 Y19.991 0.00000
G1 X17.695 Y19.631 0.00000
G1 X17.672 Y19.286 0.00000
G1 X17.709 Y18.943 0.00000
G1 X17.795 Y18.641 0.00000
G1 X17.952 Y18.304 0.00000
G1 X18.154 Y18.022 0.00000
G1 X18.400 Y17.781 0.00000
G1 X18.684 Y17.586 0.00000
G1 X18.997 Y17.442 0.00000
G1 X19.330 Y17.354 0.00000
G1 X19.643 Y17.327 0.00000
G1 X20.014 Y17.354 0.00000
G1 X20.349 Y17.442 0.00000
G1 X20.662 Y17.586 0.00000
G1 X20.945 Y17.781 0.00000
G1 X21.191 Y18.022 0.00000
G1 X21.392 Y18.302 0.00000
G1 X21.542 Y18.612 0.00000
G1 X21.637 Y18.943 0.00000
G1 X21.673 Y19.286 0.00000
G1 X21.650 Y19.629 0.00000
G1 X21.569 Y19.964 0.00000
G1 X21.431 Y20.280 0.00000
G1 X21.242 Y20.567 0.00000
G1 X21.006 Y20.818 0.00000
G1 X20.730 Y21.024 0.00000
G1 X20.579 Y21.101 0.00000
G1 X20.579 Y21.763 0.00000
G1 X18.853 Y21.763 0.00000
G1 X18.190 Y21.831 F900.000
G1 X15.012 Y31.878 F900.000
G1 F900
G1 X14.270 Y31.603 0.00000
G1 X12.975 Y30.946 0.00000
G1 X12.704 Y30.784 0.00000
G1 X11.503 Y29.964 0.00000
G1 X10.330 Y28.950 0.00000
G1 X9.256 Y27.777 0.00000
G1 X8.365 Y26.540 0.00000
G1 X7.652 Y25.271 0.00000
G1 X7.513 Y24.987 0.00000
G1 X6.966 Y23.623 0.00000
G1 X6.547 Y22.088 0.00000
G1 X6.312 Y20.515 0.00000
G1 X6.263 Y19.040 0.00000
G1 X6.276 Y18.724 0.00000
G1 X6.417 Y17.275 0.00000
G1 X6.734 Y15.789 0.00000
G1 X7.168 Y14.482 0.00000
G1 X7.283 Y14.187 0.00000
G1 X7.925 Y12.851 0.00000
G1 X8.774 Y11.506 0.00000
G1 X9.777 Y10.271 0.00000
G1 X10.823 Y9.247 0.00000
G1 X11.064 Y9.043 0.00000
G1 X12.227 Y8.168 0.00000
G1 X13.547 Y7.392 0.00000
G1 X15.003 Y6.751 0.00000
G1 X16.479 Y6.298 0.00000
G1 X17.909 Y6.031 0.00000
G1 X18.223 Y5.992 0.00000
G1 X19.348 Y5.925 0.00000
G1 X19.673 Y5.911 0.00000
G1 X19.996 Y5.925 0.00000
G1 X21.258 Y6.006 0.00000
G1 X22.823 Y6.287 0.00000
G1 X24.345 Y6.752 0.00000
G1 X25.870 Y7.429 0.00000
G1 X27.124 Y8.172 0.00000
G1 X28.428 Y9.164 0.00000
G1 X29.562 Y10.263 0.00000
G1 X30.483 Y11.386 0.00000
G1 X30.666 Y11.643 0.00000
G1 X31.435 Y12.877 0.00000
G1 X32.103 Y14.284 0.00000
G1 X32.612 Y15.791 0.00000
G1 X32.928 Y17.275 0.00000
G1 X33.070 Y18.724 0.00000
G1 X33.083 Y19.040 0.00000
G1 X33.033 Y20.515 0.00000
G1 X32.799 Y22.088 0.00000
G1 X32.379 Y23.623 0.00000
G1 X31.832 Y24.987 0.00000
G1 X31.693 Y25.271 0.00000
G1 X30.980 Y26.540 0.00000
G1 X30.089 Y27.777 0.00000
G1 X29.016 Y28.950 0.00000
G1 X27.842 Y29.964 0.00000
G1 X26.641 Y30.784 0.00000
G1 X26.370 Y30.946 0.00000
G1 X25.075 Y31.603 0.00000
G1 X23.590 Y32.154 0.00000
G1 X22.044 Y32.528 0.00000
G1 X20.556 Y32.710 0.00000
G1 X19.673 Y32.740 0.00000
G1 X18.789 Y32.710 0.00000
G1 X17.301 Y32.528 0.00000
G1 X15.755 Y32.154 0.00000
G1 X15.093 Y31.909 0.00000
G1 X14.875 Y32.246 F900.000
G1 F900
G1 X14.112 Y31.963 0.00000
G1 X12.786 Y31.290 0.00000
G1 X12.493 Y31.115 0.00000
G1 X11.263 Y30.276 0.00000
G1 X10.056 Y29.232 0.00000
G1 X8.951 Y28.025 0.00000
G1 X8.033 Y26.752 0.00000
G1 X7.304 Y25.453 0.00000
G1 X7.154 Y25.147 0.00000
G1 X6.593 Y23.748 0.00000
G1 X6.162 Y22.169 0.00000
G1 X5.920 Y20.551 0.00000
G1 X5.870 Y19.038 0.00000
G1 X5.884 Y18.697 0.00000
G1 X6.029 Y17.215 0.00000
G1 X6.354 Y15.686 0.00000
G1 X6.798 Y14.348 0.00000
G1 X6.923 Y14.030 0.00000
G1 X7.581 Y12.660 0.00000
G1 X8.455 Y11.276 0.00000
G1 X9.486 Y10.006 0.00000
G1 X10.558 Y8.956 0.00000
G1 X10.819 Y8.736 0.00000
G1 X12.009 Y7.841 0.00000
G1 X13.368 Y7.042 0.00000
G1 X14.865 Y6.383 0.00000
G1 X16.385 Y5.916 0.00000
G1 X17.848 Y5.643 0.00000
G1 X18.187 Y5.600 0.00000
G1 X19.328 Y5.533 0.00000
G1 X19.673 Y5.518 0.00000
G1 X20.017 Y5.533 0.00000
G1 X21.305 Y5.615 0.00000
G1 X22.916 Y5.905 0.00000
G1 X24.481 Y6.383 0.00000
G1 X26.056 Y7.084 0.00000
G1 X27.339 Y7.842 0.00000
G1 X28.686 Y8.866 0.00000
G1 X29.851 Y9.997 0.00000
G1 X30.795 Y11.147 0.00000
G1 X30.993 Y11.425 0.00000
G1 X31.780 Y12.688 0.00000
G1 X32.467 Y14.136 0.00000
G1 X32.991 Y15.686 0.00000
G1 X33.317 Y17.215 0.00000
G1 X33.461 Y18.697 0.00000
G1 X33.476 Y19.038 0.00000
G1 X33.425 Y20.551 0.00000
G1 X33.184 Y22.169 0.00000
G1 X32.752 Y23.748 0.00000
G1 X32.191 Y25.147 0.00000
G1 X32.041 Y25.453 0.00000
G1 X31.312 Y26.752 0.00000
G1 X30.394 Y28.025 0.00000
G1 X29.290 Y29.232 0.00000
G1 X28.082 Y30.276 0.00000
G1 X26.853 Y31.115 0.00000
G1 X26.560 Y31.290 0.00000
G1 X25.233 Y31.963 0.00000
G1 X23.705 Y32.530 0.00000
G1 X22.115 Y32.915 0.00000
G1 X20.587 Y33.101 0.00000
G1 X19.673 Y33.133 0.00000
G1 X18.759 Y33.101 0.00000
G1 X17.231 Y32.915 0.00000
G1 X15.640 Y32.530 0.00000
G1 X14.957 Y32.277 0.00000
G1 X14.763 Y31.677 F900.000
G1 Z-148.000 F900.000
G1 X18.374 Y22.156 F900.000
G1 F900
G1 X18.374 Y21.334 0.00000
G1 X18.077 Y21.112 0.00000
G1 X17.795 Y20.812 0.00000
G1 X17.568 Y20.468 0.00000
G1 X17.403 Y20.090 0.00000
G1 X17.305 Y19.689 0.00000
G1 X17.278 Y19.278 0.00000
G1 X17.322 Y18.861 0.00000
G1 X17.435 Y18.471 0.00000
G1 X17.615 Y18.101 0.00000
G1 X17.855 Y17.766 0.00000
G1 X18.149 Y17.477 0.00000
G1 X18.489 Y17.243 0.00000
G1 X18.864 Y17.071 0.00000
G1 X19.262 Y16.966 0.00000
G1 X19.628 Y16.934 0.00000
G1 X20.077 Y16.964 0.00000
G1 X20.482 Y17.071 0.00000
G1 X20.857 Y17.243 0.00000
G1 X21.196 Y17.477 0.00000
G1 X21.490 Y17.766 0.00000
G1 X21.731 Y18.101 0.00000
G1 X21.910 Y18.472 0.00000
G1 X22.024 Y18.868 0.00000
G1 X22.067 Y19.278 0.00000
G1 X22.040 Y19.689 0.00000
G1 X21.943 Y20.090 0.00000
G1 X21.778 Y20.468 0.00000
G1 X21.576 Y20.774 0.00000
G1 X21.273 Y21.108 0.00000
G1 X20.972 Y21.334 0.00000
G1 X20.972 Y22.156 0.00000
G1 X18.461 Y22.156 0.00000
G1 X18.766 Y21.763 F900.000
G1 F900
G1 X18.766 Y21.101 0.00000
G1 X18.615 Y21.024 0.00000
G1 X18.340 Y20.818 0.00000
G1 X18.104 Y20.567 0.00000
G1 X17.914 Y20.280 0.00000
G1 X17.776 Y19.964 0.00000
G1 X17.695 Y19.629 0.00000
G1 X17.672 Y19.286 0.00000
G1 X17.709 Y18.937 0.00000
G1 X17.803 Y18.612 0.00000
G1 X17.953 Y18.302 0.00000
G1 X18.154 Y18.022 0.00000
G1 X18.400 Y17.781 0.00000
G1 X18.684 Y17.586 0.00000
G1 X18.997 Y17.442 0.00000
G1 X19.330 Y17.354 0.00000
G1 X19.632 Y17.328 0.00000
G1 X20.013 Y17.354 0.00000
G1 X20.349 Y17.442 0.00000
G1 X20.662 Y17.586 0.00000
G1 X20.945 Y17.781 0.00000
G1 X21.191 Y18.022 0.00000
G1 X21.392 Y18.302 0.00000
G1 X21.542 Y18.612 0.00000
G1 X21.637 Y18.943 0.00000
G1 X21.673 Y19.286 0.00000
G1 X21.650 Y19.629 0.00000
G1 X21.569 Y19.964 0.00000
G1 X21.431 Y20.280 0.00000
G1 X21.265 Y20.533 0.00000
G1 X21.008 Y20.816 0.00000
G1 X20.730 Y21.024 0.00000
G1 X20.579 Y21.101 0.00000
G1 X20.579 Y21.763 0.00000
G1 X18.853 Y21.763 0.00000
G1 X18.190 Y21.831 F900.000
G1 X15.013 Y31.879 F900.000
G1 F900
G1 X14.274 Y31.604 0.00000
G1 X12.849 Y30.874 0.00000
G1 X11.493 Y29.957 0.00000
G1 X10.435 Y29.051 0.00000
G1 X10.108 Y28.724 0.00000
G1 X9.188 Y27.692 0.00000
G1 X8.331 Y26.487 0.00000
G1 X7.562 Y25.092 0.00000
G1 X6.973 Y23.646 0.00000
G1 X6.597 Y22.309 0.00000
G1 X6.503 Y21.860 0.00000
G1 X6.309 Y20.482 0.00000
G1 X6.265 Y18.928 0.00000
G1 X6.406 Y17.344 0.00000
G1 X6.706 Y15.894 0.00000
G1 X7.136 Y14.568 0.00000
G1 X7.302 Y14.143 0.00000
G1 X7.925 Y12.851 0.00000
G1 X8.774 Y11.506 0.00000
G1 X9.777 Y10.270 0.00000
G1 X10.781 Y9.284 0.00000
G1 X11.130 Y8.989 0.00000
G1 X12.246 Y8.156 0.00000
G1 X13.547 Y7.392 0.00000
G1 X15.003 Y6.751 0.00000
G1 X16.462 Y6.302 0.00000
G1 X17.830 Y6.042 0.00000
G1 X18.285 Y5.985 0.00000
G1 X19.205 Y5.931 0.00000
G1 X19.673 Y5.911 0.00000
G1 X21.257 Y6.006 0.00000
G1 X22.823 Y6.287 0.00000
G1 X24.346 Y6.752 0.00000
G1 X25.491 Y7.245 0.00000
G1 X25.903 Y7.447 0.00000
G1 X27.104 Y8.158 0.00000
G1 X27.478 Y8.426 0.00000
G1 X28.427 Y9.163 0.00000
G1 X29.570 Y10.272 0.00000
G1 X30.573 Y11.508 0.00000
G1 X31.439 Y12.884 0.00000
G1 X32.044 Y14.142 0.00000
G1 X32.210 Y14.568 0.00000
G1 X32.639 Y15.894 0.00000
G1 X32.939 Y17.344 0.00000
G1 X33.080 Y18.928 0.00000
G1 X33.036 Y20.482 0.00000
G1 X32.842 Y21.860 0.00000
G1 X32.749 Y22.307 0.00000
G1 X32.372 Y23.646 0.00000
G1 X31.783 Y25.094 0.00000
G1 X31.015 Y26.487 0.00000
G1 X30.157 Y27.692 0.00000
G1 X29.237 Y28.724 0.00000
G1 X28.911 Y29.050 0.00000
G1 X27.813 Y29.986 0.00000
G1 X26.494 Y30.875 0.00000
G1 X25.070 Y31.605 0.00000
G1 X23.770 Y32.096 0.00000
G1 X23.332 Y32.227 0.00000
G1 X21.975 Y32.540 0.00000
G1 X20.459 Y32.717 0.00000
G1 X19.673 Y32.740 0.00000
G1 X18.887 Y32.717 0.00000
G1 X17.364 Y32.539 0.00000
G1 X16.915 Y32.445 0.00000
G1 X15.758 Y32.155 0.00000
G1 X15.094 Y31.909 0.00000
G1 X14.876 Y32.247 F900.000
G1 F900
G1 X14.115 Y31.965 0.00000
G1 X12.651 Y31.213 0.00000
G1 X11.252 Y30.267 0.00000
G1 X10.168 Y29.339 0.00000
G1 X9.825 Y28.995 0.00000
G1 X8.878 Y27.933 0.00000
G1 X7.998 Y26.696 0.00000
G1 X7.207 Y25.263 0.00000
G1 X6.602 Y23.773 0.00000
G1 X6.215 Y22.402 0.00000
G1 X6.116 Y21.927 0.00000
G1 X5.917 Y20.515 0.00000
G1 X5.872 Y18.917 0.00000
G1 X6.017 Y17.286 0.00000
G1 X6.326 Y15.794 0.00000
G1 X6.766 Y14.436 0.00000
G1 X6.941 Y13.986 0.00000
G1 X7.581 Y12.660 0.00000
G1 X8.455 Y11.276 0.00000
G1 X9.486 Y10.006 0.00000
G1 X10.516 Y8.994 0.00000
G1 X10.885 Y8.681 0.00000
G1 X12.029 Y7.828 0.00000
G1 X13.368 Y7.042 0.00000
G1 X14.865 Y6.383 0.00000
G1 X16.367 Y5.920 0.00000
G1 X17.769 Y5.654 0.00000
G1 X18.249 Y5.594 0.00000
G1 X19.185 Y5.539 0.00000
G1 X19.673 Y5.518 0.00000
G1 X21.305 Y5.615 0.00000
G1 X22.916 Y5.905 0.00000
G1 X24.481 Y6.383 0.00000
G1 X25.655 Y6.888 0.00000
G1 X26.090 Y7.101 0.00000
G1 X27.318 Y7.829 0.00000
G1 X27.713 Y8.111 0.00000
G1 X28.685 Y8.866 0.00000
G1 X29.860 Y10.006 0.00000
G1 X30.891 Y11.277 0.00000
G1 X31.785 Y12.699 0.00000
G1 X32.404 Y13.985 0.00000
G1 X32.580 Y14.436 0.00000
G1 X33.020 Y15.794 0.00000
G1 X33.328 Y17.286 0.00000
G1 X33.474 Y18.917 0.00000
G1 X33.428 Y20.515 0.00000
G1 X33.229 Y21.927 0.00000
G1 X33.130 Y22.401 0.00000
G1 X32.744 Y23.773 0.00000
G1 X32.138 Y25.263 0.00000
G1 X31.348 Y26.696 0.00000
G1 X30.467 Y27.933 0.00000
G1 X29.521 Y28.995 0.00000
G1 X29.178 Y29.338 0.00000
G1 X28.051 Y30.300 0.00000
G1 X26.694 Y31.214 0.00000
G1 X25.229 Y31.965 0.00000
G1 X23.896 Y32.469 0.00000
G1 X23.432 Y32.607 0.00000
G1 X22.042 Y32.927 0.00000
G1 X20.487 Y33.109 0.00000
G1 X19.673 Y33.133 0.00000
G1 X18.858 Y33.109 0.00000
G1 X17.301 Y32.927 0.00000
G1 X16.827 Y32.828 0.00000
G1 X15.641 Y32.531 0.00000
G1 X14.958 Y32.277 0.00000
G1 X14.767 Y31.677 F900.000
G1 Z-147.500 F900.000
G1 X18.374 Y22.156 F900.000
G1 F900
G1 X18.374 Y21.334 0.00000
G1 X18.077 Y21.112 0.00000
G1 X17.795 Y20.812 0.00000
G1 X17.568 Y20.468 0.00000
G1 X17.403 Y20.090 0.00000
G1 X17.305 Y19.689 0.00000
G1 X17.278 Y19.278 0.00000
G1 X17.316 Y18.926 0.00000
G1 X17.432 Y18.479 0.00000
G1 X17.615 Y18.101 0.00000
G1 X17.855 Y17.766 0.00000
G1 X18.149 Y17.477 0.00000
G1 X18.489 Y17.243 0.00000
G1 X18.864 Y17.071 0.00000
G1 X19.262 Y16.966 0.00000
G1 X19.678 Y16.930 0.00000
G1 X20.084 Y16.966 0.00000
G1 X20.426 Y17.056 0.00000
G1 X20.850 Y17.239 0.00000
G1 X21.196 Y17.477 0.00000
G1 X21.490 Y17.766 0.00000
G1 X21.731 Y18.101 0.00000
G1 X21.910 Y18.472 0.00000
G1 X22.024 Y18.868 0.00000
G1 X22.067 Y19.278 0.00000
G1 X22.040 Y19.689 0.00000
G1 X21.943 Y20.090 0.00000
G1 X21.778 Y20.468 0.00000
G1 X21.551 Y20.812 0.00000
G1 X21.268 Y21.112 0.00000
G1 X20.972 Y21.334 0.00000
G1 X20.972 Y22.156 0.00000
G1 X18.461 Y22.156 0.00000
G1 X18.766 Y21.763 F900.000
G1 F900
G1 X18.766 Y21.101 0.00000
G1 X18.615 Y21.024 0.00000
G1 X18.340 Y20.818 0.00000
G1 X18.104 Y20.567 0.00000
G1 X17.914 Y20.280 0.00000
G1 X17.776 Y19.964 0.00000
G1 X17.695 Y19.629 0.00000
G1 X17.672 Y19.286 0.00000
G1 X17.703 Y18.996 0.00000
G1 X17.802 Y18.615 0.00000
G1 X17.953 Y18.302 0.00000
G1 X18.154 Y18.022 0.00000
G1 X18.400 Y17.781 0.00000
G1 X18.684 Y17.586 0.00000
G1 X18.997 Y17.442 0.00000
G1 X19.330 Y17.354 0.00000
G1 X19.677 Y17.324 0.00000
G1 X20.016 Y17.354 0.00000
G1 X20.297 Y17.429 0.00000
G1 X20.659 Y17.584 0.00000
G1 X20.945 Y17.781 0.00000
G1 X21.191 Y18.022 0.00000
G1 X21.392 Y18.302 0.00000
G1 X21.542 Y18.612 0.00000
G1 X21.637 Y18.943 0.00000
G1 X21.673 Y19.286 0.00000
G1 X21.650 Y19.629 0.00000
G1 X21.569 Y19.964 0.00000
G1 X21.431 Y20.280 0.00000
G1 X21.242 Y20.567 0.00000
G1 X21.006 Y20.818 0.00000
G1 X20.730 Y21.024 0.00000
G1 X20.579 Y21.101 0.00000
G1 X20.579 Y21.763 0.00000
G1 X18.853 Y21.763 0.00000
G1 X18.190 Y21.831 F900.000
G1 X15.014 Y31.879 F900.000
G1 F900
G1 X14.276 Y31.606 0.00000
G1 X12.848 Y30.873 0.00000
G1 X11.972 Y30.298 0.00000
G1 X11.480 Y29.947 0.00000
G1 X10.469 Y29.082 0.00000
G1 X10.041 Y28.654 0.00000
G1 X9.557 Y28.125 0.00000
G1 X9.167 Y27.665 0.00000
G1 X8.326 Y26.481 0.00000
G1 X8.083 Y26.065 0.00000
G1 X7.564 Y25.097 0.00000
G1 X6.976 Y23.652 0.00000
G1 X6.612 Y22.374 0.00000
G1 X6.490 Y21.789 0.00000
G1 X6.308 Y20.472 0.00000
G1 X6.265 Y18.925 0.00000
G1 X6.351 Y17.818 0.00000
G1 X6.405 Y17.352 0.00000
G1 X6.699 Y15.918 0.00000
G1 X7.101 Y14.660 0.00000
G1 X7.320 Y14.098 0.00000
G1 X7.928 Y12.845 0.00000
G1 X8.208 Y12.380 0.00000
G1 X8.772 Y11.509 0.00000
G1 X9.777 Y10.270 0.00000
G1 X10.739 Y9.321 0.00000
G1 X11.199 Y8.932 0.00000
G1 X11.769 Y8.497 0.00000
G1 X12.263 Y8.144 0.00000
G1 X13.548 Y7.391 0.00000
G1 X14.611 Y6.909 0.00000
G1 X15.170 Y6.691 0.00000
G1 X16.523 Y6.287 0.00000
G1 X17.749 Y6.054 0.00000
G1 X18.347 Y5.979 0.00000
G1 X19.673 Y5.911 0.00000
G1 X21.259 Y6.006 0.00000
G1 X22.818 Y6.285 0.00000
G1 X24.175 Y6.691 0.00000
G1 X24.737 Y6.910 0.00000
G1 X25.393 Y7.199 0.00000
G1 X25.937 Y7.465 0.00000
G1 X27.083 Y8.145 0.00000
G1 X27.573 Y8.495 0.00000
G1 X28.427 Y9.162 0.00000
G1 X29.570 Y10.272 0.00000
G1 X30.573 Y11.509 0.00000
G1 X31.137 Y12.379 0.00000
G1 X31.446 Y12.897 0.00000
G1 X32.025 Y14.098 0.00000
G1 X32.244 Y14.660 0.00000
G1 X32.474 Y15.339 0.00000
G1 X32.646 Y15.918 0.00000
G1 X32.941 Y17.352 0.00000
G1 X32.995 Y17.818 0.00000
G1 X33.080 Y18.925 0.00000
G1 X33.037 Y20.472 0.00000
G1 X32.856 Y21.789 0.00000
G1 X32.733 Y22.374 0.00000
G1 X32.369 Y23.652 0.00000
G1 X31.781 Y25.097 0.00000
G1 X31.262 Y26.065 0.00000
G1 X31.019 Y26.481 0.00000
G1 X30.179 Y27.665 0.00000
G1 X29.788 Y28.125 0.00000
G1 X29.305 Y28.654 0.00000
G1 X28.878 Y29.081 0.00000
G1 X27.808 Y29.991 0.00000
G1 X27.375 Y30.297 0.00000
G1 X26.497 Y30.873 0.00000
G1 X25.067 Y31.607 0.00000
G1 X23.826 Y32.078 0.00000
G1 X23.253 Y32.249 0.00000
G1 X21.955 Y32.543 0.00000
G1 X20.459 Y32.717 0.00000
G1 X19.673 Y32.740 0.00000
G1 X18.887 Y32.717 0.00000
G1 X17.385 Y32.543 0.00000
G1 X16.797 Y32.419 0.00000
G1 X15.759 Y32.155 0.00000
G1 X15.095 Y31.909 0.00000
G1 X14.877 Y32.247 F900.000
G1 F900
G1 X14.118 Y31.966 0.00000
G1 X12.650 Y31.213 0.00000
G1 X11.750 Y30.622 0.00000
G1 X11.239 Y30.257 0.00000
G1 X10.201 Y29.370 0.00000
G1 X9.757 Y28.926 0.00000
G1 X9.262 Y28.385 0.00000
G1 X8.856 Y27.906 0.00000
G1 X7.996 Y26.694 0.00000
G1 X7.740 Y26.257 0.00000
G1 X7.208 Y25.265 0.00000
G1 X6.604 Y23.781 0.00000
G1 X6.231 Y22.469 0.00000
G1 X6.103 Y21.856 0.00000
G1 X5.916 Y20.505 0.00000
G1 X5.872 Y18.915 0.00000
G1 X5.960 Y17.781 0.00000
G1 X6.017 Y17.290 0.00000
G1 X6.318 Y15.822 0.00000
G1 X6.732 Y14.526 0.00000
G1 X6.960 Y13.941 0.00000
G1 X7.582 Y12.658 0.00000
G1 X7.875 Y12.172 0.00000
G1 X8.454 Y11.278 0.00000
G1 X9.486 Y10.005 0.00000
G1 X10.474 Y9.031 0.00000
G1 X10.953 Y8.626 0.00000
G1 X11.536 Y8.181 0.00000
G1 X12.048 Y7.815 0.00000
G1 X13.368 Y7.042 0.00000
G1 X14.459 Y6.547 0.00000
G1 X15.042 Y6.319 0.00000
G1 X16.430 Y5.905 0.00000
G1 X17.688 Y5.665 0.00000
G1 X18.311 Y5.588 0.00000
G1 X19.673 Y5.518 0.00000
G1 X21.306 Y5.615 0.00000
G1 X22.382 Y5.796 0.00000
G1 X22.914 Y5.904 0.00000
G1 X24.303 Y6.319 0.00000
G1 X24.888 Y6.547 0.00000
G1 X25.559 Y6.843 0.00000
G1 X26.123 Y7.119 0.00000
G1 X27.298 Y7.815 0.00000
G1 X27.809 Y8.180 0.00000
G1 X28.685 Y8.866 0.00000
G1 X29.860 Y10.006 0.00000
G1 X30.892 Y11.278 0.00000
G1 X31.471 Y12.171 0.00000
G1 X31.792 Y12.711 0.00000
G1 X32.385 Y13.941 0.00000
G1 X32.613 Y14.526 0.00000
G1 X32.848 Y15.220 0.00000
G1 X33.027 Y15.822 0.00000
G1 X33.329 Y17.290 0.00000
G1 X33.386 Y17.781 0.00000
G1 X33.474 Y18.915 0.00000
G1 X33.429 Y20.505 0.00000
G1 X33.243 Y21.856 0.00000
G1 X33.114 Y22.469 0.00000
G1 X32.741 Y23.781 0.00000
G1 X32.137 Y25.265 0.00000
G1 X31.605 Y26.257 0.00000
G1 X31.349 Y26.694 0.00000
G1 X30.489 Y27.906 0.00000
G1 X30.083 Y28.385 0.00000
G1 X29.589 Y28.926 0.00000
G1 X29.145 Y29.370 0.00000
G1 X28.049 Y30.301 0.00000
G1 X27.596 Y30.622 0.00000
G1 X26.695 Y31.213 0.00000
G1 X25.227 Y31.966 0.00000
G1 X23.952 Y32.451 0.00000
G1 X23.352 Y32.629 0.00000
G1 X22.021 Y32.931 0.00000
G1 X20.487 Y33.109 0.00000
G1 X19.673 Y33.133 0.00000
G1 X18.858 Y33.109 0.00000
G1 X17.322 Y32.931 0.00000
G1 X16.709 Y32.802 0.00000
G1 X15.642 Y32.531 0.00000
G1 X14.959 Y32.278 0.00000
G1 X14.768 Y31.678 F900.000
G1 Z-147.000 F900.000
G1 X18.374 Y22.156 F900.000
G1 F900
G1 X18.374 Y21.334 0.00000
G1 X18.077 Y21.112 0.00000
G1 X17.795 Y20.812 0.00000
G1 X17.568 Y20.468 0.00000
G1 X17.431 Y20.154 0.00000
G1 X17.306 Y19.699 0.00000
G1 X17.278 Y19.278 0.00000
G1 X17.322 Y18.868 0.00000
G1 X17.435 Y18.472 0.00000
G1 X17.615 Y18.101 0.00000
G1 X17.855 Y17.766 0.00000
G1 X18.149 Y17.477 0.00000
G1 X18.489 Y17.243 0.00000
G1 X18.864 Y17.071 0.00000
G1 X19.262 Y16.966 0.00000
G1 X19.603 Y16.936 0.00000
G1 X20.074 Y16.963 0.00000
G1 X20.482 Y17.071 0.00000
G1 X20.857 Y17.243 0.00000
G1 X21.196 Y17.477 0.00000
G1 X21.490 Y17.766 0.00000
G1 X21.731 Y18.101 0.00000
G1 X21.920 Y18.492 0.00000
G1 X22.024 Y18.872 0.00000
G1 X22.067 Y19.278 0.00000
G1 X22.040 Y19.689 0.00000
G1 X21.943 Y20.090 0.00000
G1 X21.778 Y20.468 0.00000
G1 X21.551 Y20.812 0.00000
G1 X21.268 Y21.112 0.00000
G1 X20.972 Y21.334 0.00000
G1 X20.972 Y22.156 0.00000
G1 X18.461 Y22.156 0.00000
G1 X18.766 Y21.763 F900.000
G1 F900
G1 X18.766 Y21.101 0.00000
G1 X18.615 Y21.024 0.00000
G1 X18.340 Y20.818 0.00000
G1 X18.104 Y20.567 0.00000
G1 X17.914 Y20.280 0.00000
G1 X17.802 Y20.023 0.00000
G1 X17.695 Y19.633 0.00000
G1 X17.672 Y19.286 0.00000
G1 X17.709 Y18.943 0.00000
G1 X17.803 Y18.612 0.00000
G1 X17.953 Y18.302 0.00000
G1 X18.154 Y18.022 0.00000
G1 X18.400 Y17.781 0.00000
G1 X18.684 Y17.586 0.00000
G1 X18.997 Y17.442 0.00000
G1 X19.330 Y17.354 0.00000
G1 X19.608 Y17.330 0.00000
G1 X20.012 Y17.353 0.00000
G1 X20.349 Y17.442 0.00000
G1 X20.662 Y17.586 0.00000
G1 X20.945 Y17.781 0.00000
G1 X21.191 Y18.022 0.00000
G1 X21.392 Y18.302 0.00000
G1 X21.551 Y18.630 0.00000
G1 X21.637 Y18.945 0.00000
G1 X21.673 Y19.286 0.00000
G1 X21.650 Y19.629 0.00000
G1 X21.569 Y19.964 0.00000
G1 X21.431 Y20.280 0.00000
G1 X21.242 Y20.567 0.00000
G1 X21.006 Y20.818 0.00000
G1 X20.730 Y21.024 0.00000
G1 X20.579 Y21.101 0.00000
G1 X20.579 Y21.763 0.00000
G1 X18.853 Y21.763 0.00000
G1 X18.190 Y21.831 F900.000
G1 X14.908 Y31.848 F900.000
G1 F900
G1 X14.276 Y31.606 0.00000
G1 X13.606 Y31.278 0.00000
G1 X12.845 Y30.872 0.00000
G1 X12.511 Y30.665 0.00000
G1 X11.534 Y29.988 0.00000
G1 X10.500 Y29.112 0.00000
G1 X9.973 Y28.585 0.00000
G1 X9.144 Y27.636 0.00000
G1 X8.404 Y26.602 0.00000
G1 X7.774 Y25.511 0.00000
G1 X7.447 Y24.841 0.00000
G1 X6.979 Y23.662 0.00000
G1 X6.628 Y22.442 0.00000
G1 X6.475 Y21.714 0.00000
G1 X6.307 Y20.463 0.00000
G1 X6.261 Y19.192 0.00000
G1 X6.291 Y18.454 0.00000
G1 X6.430 Y17.192 0.00000
G1 X6.734 Y15.787 0.00000
G1 X7.071 Y14.740 0.00000
G1 X7.238 Y14.293 0.00000
G1 X7.893 Y12.910 0.00000
G1 X8.553 Y11.828 0.00000
G1 X8.983 Y11.226 0.00000
G1 X9.795 Y10.250 0.00000
G1 X10.913 Y9.166 0.00000
G1 X11.258 Y8.883 0.00000
G1 X12.177 Y8.201 0.00000
G1 X13.377 Y7.481 0.00000
G1 X14.047 Y7.154 0.00000
G1 X14.515 Y6.948 0.00000
G1 X15.210 Y6.676 0.00000
G1 X16.527 Y6.286 0.00000
G1 X17.156 Y6.157 0.00000
G1 X18.094 Y6.004 0.00000
G1 X18.398 Y5.974 0.00000
G1 X19.675 Y5.912 0.00000
G1 X20.937 Y5.973 0.00000
G1 X21.674 Y6.065 0.00000
G1 X22.920 Y6.311 0.00000
G1 X24.134 Y6.676 0.00000
G1 X24.830 Y6.948 0.00000
G1 X25.970 Y7.482 0.00000
G1 X27.063 Y8.131 0.00000
G1 X28.079 Y8.877 0.00000
G1 X28.648 Y9.358 0.00000
G1 X29.570 Y10.272 0.00000
G1 X30.363 Y11.226 0.00000
G1 X30.795 Y11.832 0.00000
G1 X31.452 Y12.909 0.00000
G1 X32.006 Y14.053 0.00000
G1 X32.275 Y14.742 0.00000
G1 X32.655 Y15.953 0.00000
G1 X32.940 Y17.348 0.00000
G1 X33.055 Y18.456 0.00000
G1 X33.081 Y18.918 0.00000
G1 X33.038 Y20.463 0.00000
G1 X32.869 Y21.718 0.00000
G1 X32.717 Y22.442 0.00000
G1 X32.367 Y23.659 0.00000
G1 X31.779 Y25.104 0.00000
G1 X31.576 Y25.503 0.00000
G1 X31.017 Y26.484 0.00000
G1 X30.203 Y27.634 0.00000
G1 X29.367 Y28.590 0.00000
G1 X28.845 Y29.112 0.00000
G1 X27.811 Y29.988 0.00000
G1 X26.834 Y30.665 0.00000
G1 X26.500 Y30.872 0.00000
G1 X25.740 Y31.278 0.00000
G1 X25.070 Y31.606 0.00000
G1 X23.882 Y32.060 0.00000
G1 X23.173 Y32.271 0.00000
G1 X21.936 Y32.547 0.00000
G1 X20.459 Y32.716 0.00000
G1 X19.673 Y32.740 0.00000
G1 X18.886 Y32.717 0.00000
G1 X17.406 Y32.546 0.00000
G1 X16.178 Y32.273 0.00000
G1 X15.463 Y32.060 0.00000
G1 X14.990 Y31.879 0.00000
G1 X14.768 Y32.215 F900.000
G1 F900
G1 X14.119 Y31.966 0.00000
G1 X13.427 Y31.628 0.00000
G1 X12.649 Y31.213 0.00000
G1 X12.296 Y30.993 0.00000
G1 X11.295 Y30.300 0.00000
G1 X10.234 Y29.401 0.00000
G1 X9.689 Y28.856 0.00000
G1 X8.834 Y27.878 0.00000
G1 X8.076 Y26.818 0.00000
G1 X7.426 Y25.692 0.00000
G1 X7.087 Y25.000 0.00000
G1 X6.607 Y23.789 0.00000
G1 X6.247 Y22.537 0.00000
G1 X6.089 Y21.783 0.00000
G1 X5.915 Y20.495 0.00000
G1 X5.868 Y19.191 0.00000
G1 X5.899 Y18.424 0.00000
G1 X6.042 Y17.129 0.00000
G1 X6.354 Y15.685 0.00000
G1 X6.700 Y14.611 0.00000
G1 X6.876 Y14.140 0.00000
G1 X7.547 Y12.723 0.00000
G1 X8.225 Y11.611 0.00000
G1 X8.672 Y10.986 0.00000
G1 X9.505 Y9.984 0.00000
G1 X10.434 Y9.067 0.00000
G1 X10.658 Y8.867 0.00000
G1 X11.017 Y8.573 0.00000
G1 X11.959 Y7.874 0.00000
G1 X13.189 Y7.136 0.00000
G1 X13.882 Y6.798 0.00000
G1 X14.365 Y6.585 0.00000
G1 X15.083 Y6.305 0.00000
G1 X16.432 Y5.904 0.00000
G1 X17.085 Y5.771 0.00000
G1 X18.043 Y5.615 0.00000
G1 X18.368 Y5.582 0.00000
G1 X19.674 Y5.518 0.00000
G1 X20.973 Y5.582 0.00000
G1 X21.736 Y5.677 0.00000
G1 X23.015 Y5.929 0.00000
G1 X24.262 Y6.305 0.00000
G1 X24.981 Y6.585 0.00000
G1 X26.157 Y7.136 0.00000
G1 X27.278 Y7.802 0.00000
G1 X28.326 Y8.571 0.00000
G1 X28.913 Y9.069 0.00000
G1 X29.860 Y10.006 0.00000
G1 X30.674 Y10.986 0.00000
G1 X31.121 Y11.613 0.00000
G1 X31.798 Y12.722 0.00000
G1 X32.366 Y13.896 0.00000
G1 X32.645 Y14.612 0.00000
G1 X33.036 Y15.855 0.00000
G1 X33.329 Y17.288 0.00000
G1 X33.446 Y18.425 0.00000
G1 X33.474 Y18.912 0.00000
G1 X33.430 Y20.494 0.00000
G1 X33.256 Y21.785 0.00000
G1 X33.099 Y22.537 0.00000
G1 X32.739 Y23.788 0.00000
G1 X32.136 Y25.267 0.00000
G1 X31.922 Y25.689 0.00000
G1 X31.348 Y26.695 0.00000
G1 X30.512 Y27.877 0.00000
G1 X29.654 Y28.858 0.00000
G1 X29.112 Y29.401 0.00000
G1 X28.050 Y30.300 0.00000
G1 X27.050 Y30.993 0.00000
G1 X26.696 Y31.213 0.00000
G1 X25.919 Y31.628 0.00000
G1 X25.226 Y31.966 0.00000
G1 X24.008 Y32.432 0.00000
G1 X23.272 Y32.651 0.00000
G1 X22.001 Y32.935 0.00000
G1 X20.487 Y33.109 0.00000
G1 X19.673 Y33.133 0.00000
G1 X18.858 Y33.109 0.00000
G1 X17.343 Y32.934 0.00000
G1 X16.075 Y32.652 0.00000
G1 X15.337 Y32.432 0.00000
G1 X14.849 Y32.246 0.00000
G1 X14.669 Y31.643 F900.000
G1 Z-146.500 F900.000
G1 X18.374 Y22.156 F900.000
G1 F900
G1 X18.374 Y21.334 0.00000
G1 X18.077 Y21.112 0.00000
G1 X17.795 Y20.812 0.00000
G1 X17.568 Y20.468 0.00000
G1 X17.403 Y20.090 0.00000
G1 X17.305 Y19.689 0.00000
G1 X17.278 Y19.278 0.00000
G1 X17.322 Y18.868 0.00000
G1 X17.435 Y18.472 0.00000
G1 X17.615 Y18.101 0.00000
G1 X17.855 Y17.766 0.00000
G1 X18.149 Y17.477 0.00000
G1 X18.489 Y17.243 0.00000
G1 X18.864 Y17.071 0.00000
G1 X19.262 Y16.966 0.00000
G1 X19.590 Y16.938 0.00000
G1 X20.073 Y16.963 0.00000
G1 X20.482 Y17.071 0.00000
G1 X20.857 Y17.243 0.00000
G1 X21.196 Y17.477 0.00000
G1 X21.490 Y17.766 0.00000
G1 X21.731 Y18.101 0.00000
G1 X21.910 Y18.472 0.00000
G1 X22.024 Y18.868 0.00000
G1 X22.067 Y19.278 0.00000
G1 X22.040 Y19.689 0.00000
G1 X21.943 Y20.090 0.00000
G1 X21.778 Y20.468 0.00000
G1 X21.551 Y20.812 0.00000
G1 X21.325 Y21.051 0.00000
G1 X20.972 Y21.335 0.00000
G1 X20.972 Y22.156 0.00000
G1 X18.461 Y22.156 0.00000
G1 X18.766 Y21.763 F900.000
G1 F900
G1 X18.766 Y21.101 0.00000
G1 X18.615 Y21.024 0.00000
G1 X18.340 Y20.818 0.00000
G1 X18.104 Y20.567 0.00000
G1 X17.914 Y20.280 0.00000
G1 X17.776 Y19.964 0.00000
G1 X17.695 Y19.629 0.00000
G1 X17.672 Y19.286 0.00000
G1 X17.709 Y18.943 0.00000
G1 X17.803 Y18.612 0.00000
G1 X17.953 Y18.302 0.00000
G1 X18.154 Y18.022 0.00000
G1 X18.400 Y17.781 0.00000
G1 X18.684 Y17.586 0.00000
G1 X18.997 Y17.442 0.00000
G1 X19.330 Y17.354 0.00000
G1 X19.597 Y17.331 0.00000
G1 X20.012 Y17.353 0.00000
G1 X20.349 Y17.442 0.00000
G1 X20.662 Y17.586 0.00000
G1 X20.945 Y17.781 0.00000
G1 X21.191 Y18.022 0.00000
G1 X21.392 Y18.302 0.00000
G1 X21.542 Y18.612 0.00000
G1 X21.637 Y18.943 0.00000
G1 X21.673 Y19.286 0.00000
G1 X21.650 Y19.629 0.00000
G1 X21.569 Y19.964 0.00000
G1 X21.431 Y20.280 0.00000
G1 X21.242 Y20.567 0.00000
G1 X21.058 Y20.762 0.00000
G1 X20.734 Y21.022 0.00000
G1 X20.579 Y21.101 0.00000
G1 X20.579 Y21.763 0.00000
G1 X18.853 Y21.763 0.00000
G1 X18.190 Y21.831 F900.000
G1 X14.884 Y31.841 F900.000
G1 F900
G1 X14.279 Y31.607 0.00000
G1 X13.482 Y31.217 0.00000
G1 X12.847 Y30.874 0.00000
G1 X12.446 Y30.624 0.00000
G1 X11.535 Y29.989 0.00000
G1 X10.536 Y29.145 0.00000
G1 X9.691 Y28.281 0.00000
G1 X9.124 Y27.611 0.00000
G1 X8.328 Y26.483 0.00000
G1 X7.810 Y25.581 0.00000
G1 X7.428 Y24.800 0.00000
G1 X6.982 Y23.669 0.00000
G1 X6.642 Y22.503 0.00000
G1 X6.547 Y22.094 0.00000
G1 X6.416 Y21.332 0.00000
G1 X6.306 Y20.452 0.00000
G1 X6.260 Y19.243 0.00000
G1 X6.296 Y18.364 0.00000
G1 X6.434 Y17.165 0.00000
G1 X6.735 Y15.783 0.00000
G1 X6.934 Y15.137 0.00000
G1 X7.245 Y14.277 0.00000
G1 X7.885 Y12.923 0.00000
G1 X8.511 Y11.889 0.00000
G1 X9.022 Y11.173 0.00000
G1 X9.798 Y10.247 0.00000
G1 X10.661 Y9.390 0.00000
G1 X10.913 Y9.166 0.00000
G1 X11.324 Y8.829 0.00000
G1 X12.177 Y8.202 0.00000
G1 X13.341 Y7.501 0.00000
G1 X14.432 Y6.982 0.00000
G1 X15.250 Y6.662 0.00000
G1 X16.526 Y6.286 0.00000
G1 X17.275 Y6.133 0.00000
G1 X18.092 Y6.005 0.00000
G1 X18.459 Y5.968 0.00000
G1 X19.674 Y5.911 0.00000
G1 X20.562 Y5.948 0.00000
G1 X21.264 Y6.006 0.00000
G1 X21.747 Y6.075 0.00000
G1 X22.935 Y6.314 0.00000
G1 X24.351 Y6.754 0.00000
G1 X24.913 Y6.981 0.00000
G1 X25.794 Y7.390 0.00000
G1 X27.045 Y8.119 0.00000
G1 X27.763 Y8.632 0.00000
G1 X28.435 Y9.168 0.00000
G1 X28.684 Y9.390 0.00000
G1 X29.572 Y10.273 0.00000
G1 X30.122 Y10.925 0.00000
G1 X30.574 Y11.509 0.00000
G1 X30.832 Y11.885 0.00000
G1 X31.419 Y12.848 0.00000
G1 X31.988 Y14.010 0.00000
G1 X32.307 Y14.829 0.00000
G1 X32.663 Y15.983 0.00000
G1 X32.941 Y17.351 0.00000
G1 X33.021 Y18.040 0.00000
G1 X33.081 Y18.936 0.00000
G1 X33.086 Y19.235 0.00000
G1 X33.039 Y20.450 0.00000
G1 X32.882 Y21.648 0.00000
G1 X32.702 Y22.509 0.00000
G1 X32.364 Y23.669 0.00000
G1 X31.918 Y24.800 0.00000
G1 X31.785 Y25.092 0.00000
G1 X31.536 Y25.581 0.00000
G1 X31.017 Y26.483 0.00000
G1 X30.224 Y27.608 0.00000
G1 X29.434 Y28.521 0.00000
G1 X28.812 Y29.143 0.00000
G1 X27.811 Y29.989 0.00000
G1 X26.900 Y30.624 0.00000
G1 X26.498 Y30.874 0.00000
G1 X25.864 Y31.217 0.00000
G1 X25.066 Y31.607 0.00000
G1 X23.938 Y32.042 0.00000
G1 X23.094 Y32.293 0.00000
G1 X21.916 Y32.550 0.00000
G1 X20.459 Y32.716 0.00000
G1 X19.673 Y32.740 0.00000
G1 X18.886 Y32.716 0.00000
G1 X17.427 Y32.550 0.00000
G1 X16.563 Y32.369 0.00000
G1 X15.749 Y32.153 0.00000
G1 X14.966 Y31.872 0.00000
G1 X14.743 Y32.207 F900.000
G1 F900
G1 X14.122 Y31.968 0.00000
G1 X13.302 Y31.567 0.00000
G1 X12.650 Y31.213 0.00000
G1 X12.230 Y30.952 0.00000
G1 X11.295 Y30.301 0.00000
G1 X10.268 Y29.433 0.00000
G1 X9.401 Y28.545 0.00000
G1 X8.813 Y27.851 0.00000
G1 X7.997 Y26.695 0.00000
G1 X7.464 Y25.768 0.00000
G1 X7.066 Y24.954 0.00000
G1 X6.610 Y23.796 0.00000
G1 X6.262 Y22.602 0.00000
G1 X6.162 Y22.172 0.00000
G1 X6.027 Y21.389 0.00000
G1 X5.914 Y20.484 0.00000
G1 X5.867 Y19.242 0.00000
G1 X5.904 Y18.333 0.00000
G1 X6.047 Y17.100 0.00000
G1 X6.355 Y15.684 0.00000
G1 X6.561 Y15.012 0.00000
G1 X6.879 Y14.134 0.00000
G1 X6.996 Y13.855 0.00000
G1 X7.540 Y12.735 0.00000
G1 X8.183 Y11.673 0.00000
G1 X8.712 Y10.932 0.00000
G1 X9.509 Y9.981 0.00000
G1 X10.392 Y9.104 0.00000
G1 X10.658 Y8.867 0.00000
G1 X11.083 Y8.519 0.00000
G1 X11.959 Y7.874 0.00000
G1 X13.155 Y7.154 0.00000
G1 X14.276 Y6.621 0.00000
G1 X15.123 Y6.290 0.00000
G1 X16.431 Y5.904 0.00000
G1 X17.206 Y5.746 0.00000
G1 X18.042 Y5.615 0.00000
G1 X18.430 Y5.576 0.00000
G1 X19.673 Y5.518 0.00000
G1 X20.586 Y5.556 0.00000
G1 X21.307 Y5.615 0.00000
G1 X21.814 Y5.688 0.00000
G1 X23.032 Y5.933 0.00000
G1 X24.483 Y6.384 0.00000
G1 X25.069 Y6.621 0.00000
G1 X25.976 Y7.041 0.00000
G1 X27.258 Y7.789 0.00000
G1 X28.000 Y8.319 0.00000
G1 X28.688 Y8.868 0.00000
G1 X28.953 Y9.104 0.00000
G1 X29.861 Y10.007 0.00000
G1 X30.427 Y10.678 0.00000
G1 X30.892 Y11.278 0.00000
G1 X31.162 Y11.671 0.00000
G1 X31.764 Y12.659 0.00000
G1 X32.348 Y13.852 0.00000
G1 X32.678 Y14.700 0.00000
G1 X33.044 Y15.886 0.00000
G1 X33.329 Y17.289 0.00000
G1 X33.412 Y18.004 0.00000
G1 X33.474 Y18.919 0.00000
G1 X33.479 Y19.239 0.00000
G1 X33.431 Y20.483 0.00000
G1 X33.270 Y21.714 0.00000
G1 X33.083 Y22.605 0.00000
G1 X32.736 Y23.796 0.00000
G1 X32.279 Y24.954 0.00000
G1 X32.138 Y25.262 0.00000
G1 X31.881 Y25.768 0.00000
G1 X31.349 Y26.695 0.00000
G1 X30.533 Y27.850 0.00000
G1 X29.722 Y28.789 0.00000
G1 X29.078 Y29.432 0.00000
G1 X28.050 Y30.301 0.00000
G1 X27.116 Y30.952 0.00000
G1 X26.696 Y31.213 0.00000
G1 X26.044 Y31.567 0.00000
G1 X25.223 Y31.968 0.00000
G1 X24.065 Y32.414 0.00000
G1 X23.192 Y32.674 0.00000
G1 X21.980 Y32.938 0.00000
G1 X20.488 Y33.109 0.00000
G1 X19.673 Y33.133 0.00000
G1 X18.858 Y33.109 0.00000
G1 X17.364 Y32.938 0.00000
G1 X16.473 Y32.751 0.00000
G1 X15.638 Y32.530 0.00000
G1 X14.824 Y32.238 0.00000
G1 X14.649 Y31.635 F900.000
G1 Z-146.000 F900.000
G1 X18.374 Y22.156 F900.000
G1 F900
G1 X18.374 Y21.334 0.00000
G1 X18.077 Y21.112 0.00000
G1 X17.795 Y20.812 0.00000
G1 X17.561 Y20.458 0.00000
G1 X17.402 Y20.088 0.00000
G1 X17.305 Y19.689 0.00000
G1 X17.278 Y19.278 0.00000
G1 X17.322 Y18.868 0.00000
G1 X17.435 Y18.472 0.00000
G1 X17.573 Y18.186 0.00000
G1 X17.846 Y17.774 0.00000
G1 X18.149 Y17.477 0.00000
G1 X18.489 Y17.243 0.00000
G1 X18.864 Y17.071 0.00000
G1 X19.262 Y16.966 0.00000
G1 X19.578 Y16.939 0.00000
G1 X20.072 Y16.963 0.00000
G1 X20.482 Y17.071 0.00000
G1 X20.857 Y17.243 0.00000
G1 X21.196 Y17.477 0.00000
G1 X21.490 Y17.766 0.00000
G1 X21.731 Y18.101 0.00000
G1 X21.910 Y18.472 0.00000
G1 X22.024 Y18.868 0.00000
G1 X22.067 Y19.278 0.00000
G1 X22.040 Y19.689 0.00000
G1 X21.943 Y20.090 0.00000
G1 X21.778 Y20.468 0.00000
G1 X21.551 Y20.812 0.00000
G1 X21.334 Y21.042 0.00000
G1 X20.972 Y21.335 0.00000
G1 X20.972 Y22.156 0.00000
G1 X18.461 Y22.156 0.00000
G1 X18.766 Y21.763 F900.000
G1 F900
G1 X18.766 Y21.101 0.00000
G1 X18.615 Y21.024 0.00000
G1 X18.340 Y20.818 0.00000
G1 X18.104 Y20.567 0.00000
G1 X17.908 Y20.271 0.00000
G1 X17.776 Y19.963 0.00000
G1 X17.695 Y19.629 0.00000
G1 X17.672 Y19.286 0.00000
G1 X17.709 Y18.943 0.00000
G1 X17.803 Y18.612 0.00000
G1 X17.915 Y18.381 0.00000
G1 X18.151 Y18.026 0.00000
G1 X18.400 Y17.781 0.00000
G1 X18.684 Y17.586 0.00000
G1 X18.997 Y17.442 0.00000
G1 X19.330 Y17.354 0.00000
G1 X19.585 Y17.332 0.00000
G1 X20.011 Y17.353 0.00000
G1 X20.349 Y17.442 0.00000
G1 X20.662 Y17.586 0.00000
G1 X20.945 Y17.781 0.00000
G1 X21.191 Y18.022 0.00000
G1 X21.392 Y18.302 0.00000
G1 X21.542 Y18.612 0.00000
G1 X21.637 Y18.943 0.00000
G1 X21.673 Y19.286 0.00000
G1 X21.650 Y19.629 0.00000
G1 X21.569 Y19.964 0.00000
G1 X21.431 Y20.280 0.00000
G1 X21.242 Y20.567 0.00000
G1 X21.066 Y20.754 0.00000
G1 X20.734 Y21.022 0.00000
G1 X20.579 Y21.101 0.00000
G1 X20.579 Y21.763 0.00000
G1 X18.853 Y21.763 0.00000
G1 X18.190 Y21.831 F900.000
G1 X14.858 Y31.832 F900.000
G1 F900
G1 X14.283 Y31.609 0.00000
G1 X13.254 Y31.103 0.00000
G1 X12.377 Y30.581 0.00000
G1 X11.441 Y29.917 0.00000
G1 X10.560 Y29.169 0.00000
G1 X10.332 Y28.954 0.00000
G1 X9.846 Y28.454 0.00000
G1 X9.260 Y27.782 0.00000
G1 X8.432 Y26.645 0.00000
G1 X7.909 Y25.767 0.00000
G1 X7.406 Y24.753 0.00000
G1 X6.965 Y23.620 0.00000
G1 X6.658 Y22.571 0.00000
G1 X6.546 Y22.091 0.00000
G1 X6.432 Y21.459 0.00000
G1 X6.312 Y20.519 0.00000
G1 X6.259 Y19.293 0.00000
G1 X6.301 Y18.274 0.00000
G1 X6.439 Y17.138 0.00000
G1 X6.735 Y15.784 0.00000
G1 X6.966 Y15.033 0.00000
G1 X7.244 Y14.279 0.00000
G1 X7.373 Y13.973 0.00000
G1 X7.879 Y12.934 0.00000
G1 X8.469 Y11.950 0.00000
G1 X9.062 Y11.120 0.00000
G1 X9.802 Y10.243 0.00000
G1 X10.619 Y9.427 0.00000
G1 X10.913 Y9.166 0.00000
G1 X11.390 Y8.775 0.00000
G1 X12.176 Y8.202 0.00000
G1 X13.310 Y7.517 0.00000
G1 X14.341 Y7.018 0.00000
G1 X15.290 Y6.648 0.00000
G1 X16.526 Y6.286 0.00000
G1 X17.395 Y6.109 0.00000
G1 X18.090 Y6.005 0.00000
G1 X18.519 Y5.961 0.00000
G1 X19.673 Y5.911 0.00000
G1 X20.701 Y5.954 0.00000
G1 X21.260 Y6.005 0.00000
G1 X21.826 Y6.086 0.00000
G1 X22.955 Y6.319 0.00000
G1 X24.339 Y6.749 0.00000
G1 X25.004 Y7.018 0.00000
G1 X25.793 Y7.389 0.00000
G1 X27.024 Y8.105 0.00000
G1 X27.953 Y8.773 0.00000
G1 X28.731 Y9.433 0.00000
G1 X29.571 Y10.272 0.00000
G1 X30.209 Y11.027 0.00000
G1 X30.573 Y11.507 0.00000
G1 X30.874 Y11.946 0.00000
G1 X31.419 Y12.847 0.00000
G1 X31.969 Y13.966 0.00000
G1 X32.340 Y14.916 0.00000
G1 X32.671 Y16.012 0.00000
G1 X32.940 Y17.350 0.00000
G1 X33.045 Y18.276 0.00000
G1 X33.081 Y18.932 0.00000
G1 X33.087 Y19.285 0.00000
G1 X33.040 Y20.440 0.00000
G1 X32.913 Y21.460 0.00000
G1 X32.799 Y22.091 0.00000
G1 X32.688 Y22.571 0.00000
G1 X32.381 Y23.620 0.00000
G1 X31.943 Y24.745 0.00000
G1 X31.495 Y25.661 0.00000
G1 X30.913 Y26.646 0.00000
G1 X30.085 Y27.783 0.00000
G1 X29.585 Y28.361 0.00000
G1 X28.785 Y29.169 0.00000
G1 X27.904 Y29.917 0.00000
G1 X26.969 Y30.581 0.00000
G1 X26.092 Y31.103 0.00000
G1 X25.063 Y31.609 0.00000
G1 X23.986 Y32.027 0.00000
G1 X23.593 Y32.154 0.00000
G1 X23.019 Y32.315 0.00000
G1 X22.049 Y32.527 0.00000
G1 X20.754 Y32.696 0.00000
G1 X19.673 Y32.740 0.00000
G1 X18.592 Y32.696 0.00000
G1 X17.297 Y32.527 0.00000
G1 X16.327 Y32.315 0.00000
G1 X15.753 Y32.154 0.00000
G1 X14.939 Y31.864 0.00000
G1 X14.716 Y32.198 F900.000
G1 F900
G1 X14.125 Y31.969 0.00000
G1 X13.066 Y31.449 0.00000
G1 X12.162 Y30.910 0.00000
G1 X11.200 Y30.227 0.00000
G1 X10.298 Y29.462 0.00000
G1 X10.057 Y29.234 0.00000
G1 X9.557 Y28.720 0.00000
G1 X8.953 Y28.027 0.00000
G1 X8.104 Y26.862 0.00000
G1 X7.565 Y25.957 0.00000
G1 X7.044 Y24.906 0.00000
G1 X6.593 Y23.747 0.00000
G1 X6.278 Y22.670 0.00000
G1 X6.162 Y22.170 0.00000
G1 X6.044 Y21.519 0.00000
G1 X5.920 Y20.552 0.00000
G1 X5.866 Y19.293 0.00000
G1 X5.910 Y18.242 0.00000
G1 X6.051 Y17.072 0.00000
G1 X6.355 Y15.684 0.00000
G1 X6.594 Y14.907 0.00000
G1 X6.879 Y14.134 0.00000
G1 X7.015 Y13.810 0.00000
G1 X7.534 Y12.747 0.00000
G1 X8.140 Y11.735 0.00000
G1 X8.752 Y10.879 0.00000
G1 X9.512 Y9.977 0.00000
G1 X10.350 Y9.142 0.00000
G1 X10.658 Y8.867 0.00000
G1 X11.150 Y8.464 0.00000
G1 X11.958 Y7.875 0.00000
G1 X13.122 Y7.171 0.00000
G1 X14.184 Y6.658 0.00000
G1 X15.164 Y6.276 0.00000
G1 X16.431 Y5.904 0.00000
G1 X17.326 Y5.722 0.00000
G1 X18.041 Y5.615 0.00000
G1 X18.491 Y5.570 0.00000
G1 X19.673 Y5.518 0.00000
G1 X20.727 Y5.562 0.00000
G1 X21.306 Y5.615 0.00000
G1 X21.893 Y5.699 0.00000
G1 X23.051 Y5.938 0.00000
G1 X24.185 Y6.277 0.00000
G1 X24.479 Y6.382 0.00000
G1 X25.161 Y6.658 0.00000
G1 X25.975 Y7.041 0.00000
G1 X27.238 Y7.776 0.00000
G1 X28.195 Y8.464 0.00000
G1 X28.998 Y9.144 0.00000
G1 X29.860 Y10.006 0.00000
G1 X30.515 Y10.782 0.00000
G1 X30.891 Y11.277 0.00000
G1 X31.204 Y11.733 0.00000
G1 X31.764 Y12.659 0.00000
G1 X32.329 Y13.808 0.00000
G1 X32.711 Y14.787 0.00000
G1 X33.052 Y15.916 0.00000
G1 X33.329 Y17.289 0.00000
G1 X33.436 Y18.243 0.00000
G1 X33.474 Y18.918 0.00000
G1 X33.479 Y19.290 0.00000
G1 X33.432 Y20.473 0.00000
G1 X33.302 Y21.519 0.00000
G1 X33.184 Y22.170 0.00000
G1 X33.068 Y22.670 0.00000
G1 X32.753 Y23.747 0.00000
G1 X32.303 Y24.903 0.00000
G1 X31.841 Y25.848 0.00000
G1 X31.241 Y26.862 0.00000
G1 X30.393 Y28.027 0.00000
G1 X29.875 Y28.626 0.00000
G1 X29.048 Y29.462 0.00000
G1 X28.145 Y30.227 0.00000
G1 X27.183 Y30.910 0.00000
G1 X26.279 Y31.449 0.00000
G1 X25.220 Y31.969 0.00000
G1 X24.118 Y32.397 0.00000
G1 X23.706 Y32.531 0.00000
G1 X23.114 Y32.696 0.00000
G1 X22.116 Y32.915 0.00000
G1 X20.787 Y33.087 0.00000
G1 X19.673 Y33.133 0.00000
G1 X18.558 Y33.087 0.00000
G1 X17.229 Y32.915 0.00000
G1 X16.232 Y32.696 0.00000
G1 X15.639 Y32.531 0.00000
G1 X15.228 Y32.397 0.00000
G1 X14.797 Y32.230 0.00000
G1 X14.622 Y31.626 F900.000
G1 Z-145.500 F900.000
G1 X18.374 Y22.156 F900.000
G1 F900
G1 X18.374 Y21.334 0.00000
G1 X18.077 Y21.112 0.00000
G1 X17.795 Y20.812 0.00000
G1 X17.568 Y20.468 0.00000
G1 X17.403 Y20.090 0.00000
G1 X17.305 Y19.689 0.00000
G1 X17.278 Y19.278 0.00000
G1 X17.322 Y18.868 0.00000
G1 X17.405 Y18.575 0.00000
G1 X17.607 Y18.111 0.00000
G1 X17.855 Y17.766 0.00000
G1 X18.149 Y17.477 0.00000
G1 X18.489 Y17.243 0.00000
G1 X18.864 Y17.071 0.00000
G1 X19.262 Y16.966 0.00000
G1 X19.565 Y16.940 0.00000
G1 X20.071 Y16.962 0.00000
G1 X20.482 Y17.071 0.00000
G1 X20.857 Y17.243 0.00000
G1 X21.196 Y17.477 0.00000
G1 X21.490 Y17.766 0.00000
G1 X21.731 Y18.101 0.00000
G1 X21.910 Y18.472 0.00000
G1 X22.024 Y18.868 0.00000
G1 X22.067 Y19.278 0.00000
G1 X22.040 Y19.689 0.00000
G1 X21.943 Y20.090 0.00000
G1 X21.778 Y20.468 0.00000
G1 X21.551 Y20.812 0.00000
G1 X21.268 Y21.112 0.00000
G1 X20.972 Y21.334 0.00000
G1 X20.972 Y22.156 0.00000
G1 X18.461 Y22.156 0.00000
G1 X18.766 Y21.763 F900.000
G1 F900
G1 X18.766 Y21.101 0.00000
G1 X18.615 Y21.024 0.00000
G1 X18.340 Y20.818 0.00000
G1 X18.104 Y20.567 0.00000
G1 X17.914 Y20.280 0.00000
G1 X17.776 Y19.964 0.00000
G1 X17.695 Y19.629 0.00000
G1 X17.672 Y19.286 0.00000
G1 X17.709 Y18.943 0.00000
G1 X17.776 Y18.708 0.00000
G1 X17.950 Y18.306 0.00000
G1 X18.154 Y18.022 0.00000
G1 X18.400 Y17.781 0.00000
G1 X18.684 Y17.586 0.00000
G1 X18.997 Y17.442 0.00000
G1 X19.330 Y17.354 0.00000
G1 X19.573 Y17.333 0.00000
G1 X20.011 Y17.353 0.00000
G1 X20.349 Y17.442 0.00000
G1 X20.662 Y17.586 0.00000
G1 X20.945 Y17.781 0.00000
G1 X21.191 Y18.022 0.00000
G1 X21.392 Y18.302 0.00000
G1 X21.542 Y18.612 0.00000
G1 X21.637 Y18.943 0.00000
G1 X21.673 Y19.286 0.00000
G1 X21.650 Y19.629 0.00000
G1 X21.569 Y19.964 0.00000
G1 X21.431 Y20.280 0.00000
G1 X21.242 Y20.567 0.00000
G1 X21.006 Y20.818 0.00000
G1 X20.730 Y21.024 0.00000
G1 X20.579 Y21.101 0.00000
G1 X20.579 Y21.763 0.00000
G1 X18.853 Y21.763 0.00000
G1 X18.190 Y21.831 F900.000
G1 X14.835 Y31.838 F900.000
G1 F900
G1 X14.375 Y31.659 0.00000
G1 X13.280 Y31.133 0.00000
G1 X12.329 Y30.566 0.00000
G1 X11.426 Y29.921 0.00000
G1 X10.579 Y29.204 0.00000
G1 X9.794 Y28.419 0.00000
G1 X9.077 Y27.572 0.00000
G1 X8.432 Y26.669 0.00000
G1 X7.864 Y25.716 0.00000
G1 X7.377 Y24.719 0.00000
G1 X6.974 Y23.685 0.00000
G1 X6.657 Y22.622 0.00000
G1 X6.429 Y21.535 0.00000
G1 X6.292 Y20.434 0.00000
G1 X6.246 Y19.325 0.00000
G1 X6.292 Y18.217 0.00000
G1 X6.429 Y17.116 0.00000
G1 X6.657 Y16.029 0.00000
G1 X6.974 Y14.966 0.00000
G1 X7.377 Y13.932 0.00000
G1 X7.864 Y12.935 0.00000
G1 X8.432 Y11.982 0.00000
G1 X9.077 Y11.079 0.00000
G1 X9.728 Y10.311 0.00000
G1 X10.581 Y9.446 0.00000
G1 X11.426 Y8.730 0.00000
G1 X12.329 Y8.085 0.00000
G1 X13.194 Y7.570 0.00000
G1 X14.281 Y7.029 0.00000
G1 X15.313 Y6.626 0.00000
G1 X16.377 Y6.310 0.00000
G1 X17.463 Y6.082 0.00000
G1 X18.564 Y5.945 0.00000
G1 X19.673 Y5.899 0.00000
G1 X20.678 Y5.940 0.00000
G1 X21.885 Y6.082 0.00000
G1 X22.969 Y6.310 0.00000
G1 X24.032 Y6.626 0.00000
G1 X25.066 Y7.030 0.00000
G1 X26.063 Y7.517 0.00000
G1 X27.016 Y8.085 0.00000
G1 X27.920 Y8.730 0.00000
G1 X28.688 Y9.380 0.00000
G1 X29.553 Y10.234 0.00000
G1 X30.268 Y11.079 0.00000
G1 X30.913 Y11.982 0.00000
G1 X31.481 Y12.935 0.00000
G1 X31.923 Y13.839 0.00000
G1 X32.373 Y14.968 0.00000
G1 X32.689 Y16.029 0.00000
G1 X32.916 Y17.116 0.00000
G1 X33.041 Y18.114 0.00000
G1 X33.099 Y19.328 0.00000
G1 X33.054 Y20.434 0.00000
G1 X32.916 Y21.535 0.00000
G1 X32.689 Y22.622 0.00000
G1 X32.372 Y23.685 0.00000
G1 X31.969 Y24.719 0.00000
G1 X31.481 Y25.716 0.00000
G1 X30.966 Y26.581 0.00000
G1 X30.267 Y27.574 0.00000
G1 X29.551 Y28.419 0.00000
G1 X28.766 Y29.204 0.00000
G1 X27.920 Y29.921 0.00000
G1 X27.016 Y30.566 0.00000
G1 X26.063 Y31.134 0.00000
G1 X25.159 Y31.576 0.00000
G1 X24.030 Y32.025 0.00000
G1 X22.969 Y32.341 0.00000
G1 X21.883 Y32.569 0.00000
G1 X20.884 Y32.694 0.00000
G1 X19.671 Y32.752 0.00000
G1 X18.564 Y32.706 0.00000
G1 X17.463 Y32.569 0.00000
G1 X16.377 Y32.341 0.00000
G1 X15.313 Y32.025 0.00000
G1 X14.916 Y31.870 0.00000
G1 X14.692 Y32.204 F900.000
G1 F900
G1 X14.219 Y32.019 0.00000
G1 X13.095 Y31.479 0.00000
G1 X12.114 Y30.895 0.00000
G1 X11.184 Y30.231 0.00000
G1 X10.313 Y29.493 0.00000
G1 X9.505 Y28.685 0.00000
G1 X8.767 Y27.814 0.00000
G1 X8.103 Y26.884 0.00000
G1 X7.519 Y25.903 0.00000
G1 X7.017 Y24.877 0.00000
G1 X6.602 Y23.813 0.00000
G1 X6.276 Y22.718 0.00000
G1 X6.041 Y21.600 0.00000
G1 X5.900 Y20.467 0.00000
G1 X5.853 Y19.325 0.00000
G1 X5.900 Y18.184 0.00000
G1 X6.041 Y17.051 0.00000
G1 X6.276 Y15.933 0.00000
G1 X6.602 Y14.838 0.00000
G1 X7.017 Y13.774 0.00000
G1 X7.519 Y12.748 0.00000
G1 X8.103 Y11.767 0.00000
G1 X8.767 Y10.837 0.00000
G1 X9.438 Y10.045 0.00000
G1 X10.314 Y9.157 0.00000
G1 X11.184 Y8.420 0.00000
G1 X12.114 Y7.756 0.00000
G1 X13.005 Y7.225 0.00000
G1 X14.122 Y6.669 0.00000
G1 X15.185 Y6.255 0.00000
G1 X16.280 Y5.929 0.00000
G1 X17.398 Y5.694 0.00000
G1 X18.532 Y5.553 0.00000
G1 X19.673 Y5.506 0.00000
G1 X20.709 Y5.549 0.00000
G1 X21.948 Y5.694 0.00000
G1 X23.065 Y5.929 0.00000
G1 X24.160 Y6.255 0.00000
G1 X25.224 Y6.670 0.00000
G1 X26.250 Y7.171 0.00000
G1 X27.231 Y7.756 0.00000
G1 X28.161 Y8.420 0.00000
G1 X28.953 Y9.090 0.00000
G1 X29.841 Y9.966 0.00000
G1 X30.578 Y10.837 0.00000
G1 X31.242 Y11.767 0.00000
G1 X31.827 Y12.748 0.00000
G1 X32.283 Y13.680 0.00000
G1 X32.744 Y14.839 0.00000
G1 X33.070 Y15.933 0.00000
G1 X33.304 Y17.051 0.00000
G1 X33.432 Y18.080 0.00000
G1 X33.492 Y19.326 0.00000
G1 X33.445 Y20.467 0.00000
G1 X33.304 Y21.600 0.00000
G1 X33.070 Y22.718 0.00000
G1 X32.744 Y23.813 0.00000
G1 X32.328 Y24.877 0.00000
G1 X31.827 Y25.903 0.00000
G1 X31.296 Y26.794 0.00000
G1 X30.578 Y27.814 0.00000
G1 X29.840 Y28.685 0.00000
G1 X29.033 Y29.493 0.00000
G1 X28.161 Y30.231 0.00000
G1 X27.231 Y30.895 0.00000
G1 X26.250 Y31.480 0.00000
G1 X25.318 Y31.935 0.00000
G1 X24.159 Y32.397 0.00000
G1 X23.065 Y32.722 0.00000
G1 X21.947 Y32.957 0.00000
G1 X20.918 Y33.085 0.00000
G1 X19.672 Y33.145 0.00000
G1 X18.532 Y33.098 0.00000
G1 X17.398 Y32.957 0.00000
G1 X16.280 Y32.722 0.00000
G1 X15.185 Y32.396 0.00000
G1 X14.773 Y32.236 0.00000
G1 X14.606 Y31.703 F900.000
G1 Z-145.000 F900.000
G1 X18.374 Y22.156 F900.000
G1 F900
G1 X18.374 Y21.334 0.00000
G1 X18.077 Y21.112 0.00000
G1 X17.795 Y20.812 0.00000
G1 X17.568 Y20.468 0.00000
G1 X17.417 Y20.121 0.00000
G1 X17.306 Y19.694 0.00000
G1 X17.278 Y19.278 0.00000
G1 X17.322 Y18.868 0.00000
G1 X17.435 Y18.472 0.00000
G1 X17.615 Y18.101 0.00000
G1 X17.855 Y17.766 0.00000
G1 X18.149 Y17.477 0.00000
G1 X18.489 Y17.243 0.00000
G1 X18.864 Y17.071 0.00000
G1 X19.262 Y16.966 0.00000
G1 X19.673 Y16.930 0.00000
G1 X20.083 Y16.966 0.00000
G1 X20.482 Y17.071 0.00000
G1 X20.857 Y17.243 0.00000
G1 X21.196 Y17.477 0.00000
G1 X21.490 Y17.766 0.00000
G1 X21.731 Y18.101 0.00000
G1 X21.910 Y18.472 0.00000
G1 X22.024 Y18.868 0.00000
G1 X22.067 Y19.278 0.00000
G1 X22.040 Y19.689 0.00000
G1 X21.943 Y20.090 0.00000
G1 X21.778 Y20.468 0.00000
G1 X21.551 Y20.812 0.00000
G1 X21.268 Y21.112 0.00000
G1 X20.972 Y21.334 0.00000
G1 X20.972 Y22.156 0.00000
G1 X18.461 Y22.156 0.00000
G1 X18.766 Y21.763 F900.000
G1 F900
G1 X18.766 Y21.101 0.00000
G1 X18.615 Y21.024 0.00000
G1 X18.340 Y20.818 0.00000
G1 X18.104 Y20.567 0.00000
G1 X17.914 Y20.280 0.00000
G1 X17.789 Y19.993 0.00000
G1 X17.695 Y19.631 0.00000
G1 X17.672 Y19.286 0.00000
G1 X17.709 Y18.943 0.00000
G1 X17.803 Y18.612 0.00000
G1 X17.953 Y18.302 0.00000
G1 X18.154 Y18.022 0.00000
G1 X18.400 Y17.781 0.00000
G1 X18.684 Y17.586 0.00000
G1 X18.997 Y17.442 0.00000
G1 X19.330 Y17.354 0.00000
G1 X19.673 Y17.325 0.00000
G1 X20.016 Y17.354 0.00000
G1 X20.349 Y17.442 0.00000
G1 X20.662 Y17.586 0.00000
G1 X20.945 Y17.781 0.00000
G1 X21.191 Y18.022 0.00000
G1 X21.392 Y18.302 0.00000
G1 X21.542 Y18.612 0.00000
G1 X21.637 Y18.943 0.00000
G1 X21.673 Y19.286 0.00000
G1 X21.650 Y19.629 0.00000
G1 X21.569 Y19.964 0.00000
G1 X21.431 Y20.280 0.00000
G1 X21.242 Y20.567 0.00000
G1 X21.006 Y20.818 0.00000
G1 X20.730 Y21.024 0.00000
G1 X20.579 Y21.101 0.00000
G1 X20.579 Y21.763 0.00000
G1 X18.853 Y21.763 0.00000
G1 X18.190 Y21.831 F900.000
G1 X14.853 Y32.009 F900.000
G1 F900
G1 X14.433 Y31.849 0.00000
G1 X13.207 Y31.265 0.00000
G1 X12.248 Y30.694 0.00000
G1 X11.200 Y29.933 0.00000
G1 X10.479 Y29.317 0.00000
G1 X9.590 Y28.417 0.00000
G1 X9.066 Y27.799 0.00000
G1 X8.304 Y26.750 0.00000
G1 X7.731 Y25.788 0.00000
G1 X7.239 Y24.782 0.00000
G1 X6.781 Y23.580 0.00000
G1 X6.513 Y22.668 0.00000
G1 X6.316 Y21.755 0.00000
G1 X6.141 Y20.444 0.00000
G1 X6.094 Y19.325 0.00000
G1 X6.141 Y18.204 0.00000
G1 X6.271 Y17.143 0.00000
G1 X6.552 Y15.840 0.00000
G1 X6.822 Y14.943 0.00000
G1 X7.149 Y14.086 0.00000
G1 X7.733 Y12.860 0.00000
G1 X8.305 Y11.899 0.00000
G1 X8.957 Y10.986 0.00000
G1 X9.678 Y10.136 0.00000
G1 X10.582 Y9.242 0.00000
G1 X11.332 Y8.611 0.00000
G1 X12.246 Y7.958 0.00000
G1 X13.210 Y7.384 0.00000
G1 X14.220 Y6.890 0.00000
G1 X15.098 Y6.544 0.00000
G1 X16.332 Y6.166 0.00000
G1 X17.495 Y5.923 0.00000
G1 X18.551 Y5.794 0.00000
G1 X19.673 Y5.747 0.00000
G1 X20.795 Y5.794 0.00000
G1 X21.858 Y5.925 0.00000
G1 X22.837 Y6.123 0.00000
G1 X24.057 Y6.476 0.00000
G1 X25.128 Y6.891 0.00000
G1 X26.135 Y7.384 0.00000
G1 X27.099 Y7.958 0.00000
G1 X28.013 Y8.610 0.00000
G1 X28.862 Y9.331 0.00000
G1 X29.757 Y10.235 0.00000
G1 X30.387 Y10.985 0.00000
G1 X31.040 Y11.899 0.00000
G1 X31.614 Y12.863 0.00000
G1 X32.106 Y13.869 0.00000
G1 X32.565 Y15.070 0.00000
G1 X32.832 Y15.983 0.00000
G1 X33.029 Y16.896 0.00000
G1 X33.205 Y18.207 0.00000
G1 X33.251 Y19.325 0.00000
G1 X33.205 Y20.447 0.00000
G1 X33.074 Y21.508 0.00000
G1 X32.794 Y22.811 0.00000
G1 X32.524 Y23.708 0.00000
G1 X32.196 Y24.565 0.00000
G1 X31.613 Y25.791 0.00000
G1 X31.041 Y26.751 0.00000
G1 X30.320 Y27.750 0.00000
G1 X29.666 Y28.517 0.00000
G1 X28.992 Y29.198 0.00000
G1 X28.014 Y30.040 0.00000
G1 X27.099 Y30.693 0.00000
G1 X26.135 Y31.267 0.00000
G1 X25.129 Y31.759 0.00000
G1 X23.928 Y32.218 0.00000
G1 X23.015 Y32.485 0.00000
G1 X22.102 Y32.682 0.00000
G1 X20.791 Y32.858 0.00000
G1 X19.673 Y32.904 0.00000
G1 X18.551 Y32.857 0.00000
G1 X17.491 Y32.727 0.00000
G1 X16.187 Y32.447 0.00000
G1 X15.291 Y32.176 0.00000
G1 X14.934 Y32.040 0.00000
G1 X14.713 Y32.376 F900.000
G1 F900
G1 X14.279 Y32.210 0.00000
G1 X13.022 Y31.612 0.00000
G1 X12.032 Y31.022 0.00000
G1 X10.957 Y30.242 0.00000
G1 X10.215 Y29.607 0.00000
G1 X9.299 Y28.681 0.00000
G1 X8.757 Y28.042 0.00000
G1 X7.976 Y26.966 0.00000
G1 X7.385 Y25.975 0.00000
G1 X6.879 Y24.939 0.00000
G1 X6.408 Y23.706 0.00000
G1 X6.132 Y22.765 0.00000
G1 X5.929 Y21.822 0.00000
G1 X5.749 Y20.478 0.00000
G1 X5.701 Y19.325 0.00000
G1 X5.749 Y18.172 0.00000
G1 X5.884 Y17.078 0.00000
G1 X6.171 Y15.742 0.00000
G1 X6.450 Y14.816 0.00000
G1 X6.788 Y13.931 0.00000
G1 X7.386 Y12.675 0.00000
G1 X7.976 Y11.684 0.00000
G1 X8.647 Y10.744 0.00000
G1 X9.389 Y9.869 0.00000
G1 X10.317 Y8.951 0.00000
G1 X11.091 Y8.300 0.00000
G1 X12.031 Y7.629 0.00000
G1 X13.023 Y7.038 0.00000
G1 X14.061 Y6.531 0.00000
G1 X14.968 Y6.173 0.00000
G1 X16.234 Y5.785 0.00000
G1 X17.431 Y5.535 0.00000
G1 X18.519 Y5.402 0.00000
G1 X19.673 Y5.354 0.00000
G1 X20.827 Y5.402 0.00000
G1 X21.922 Y5.537 0.00000
G1 X22.931 Y5.742 0.00000
G1 X24.183 Y6.103 0.00000
G1 X25.285 Y6.531 0.00000
G1 X26.322 Y7.038 0.00000
G1 X27.314 Y7.629 0.00000
G1 X28.254 Y8.300 0.00000
G1 X29.129 Y9.042 0.00000
G1 X30.047 Y9.970 0.00000
G1 X30.698 Y10.744 0.00000
G1 X31.369 Y11.684 0.00000
G1 X31.960 Y12.676 0.00000
G1 X32.467 Y13.712 0.00000
G1 X32.937 Y14.945 0.00000
G1 X33.213 Y15.886 0.00000
G1 X33.416 Y16.829 0.00000
G1 X33.596 Y18.173 0.00000
G1 X33.644 Y19.325 0.00000
G1 X33.596 Y20.479 0.00000
G1 X33.462 Y21.573 0.00000
G1 X33.175 Y22.909 0.00000
G1 X32.895 Y23.835 0.00000
G1 X32.557 Y24.720 0.00000
G1 X31.959 Y25.976 0.00000
G1 X31.369 Y26.967 0.00000
G1 X30.630 Y27.993 0.00000
G1 X29.955 Y28.783 0.00000
G1 X29.263 Y29.482 0.00000
G1 X28.255 Y30.350 0.00000
G1 X27.314 Y31.022 0.00000
G1 X26.322 Y31.613 0.00000
G1 X25.286 Y32.120 0.00000
G1 X24.053 Y32.590 0.00000
G1 X23.112 Y32.866 0.00000
G1 X22.170 Y33.069 0.00000
G1 X20.825 Y33.249 0.00000
G1 X19.673 Y33.297 0.00000
G1 X18.519 Y33.249 0.00000
G1 X17.425 Y33.114 0.00000
G1 X16.089 Y32.827 0.00000
G1 X15.164 Y32.548 0.00000
G1 X14.794 Y32.407 0.00000
G1 X14.632 Y31.918 F900.000
G1 Z-144.500 F900.000
G1 X18.374 Y22.156 F900.000
G1 F900
G1 X18.374 Y21.334 0.00000
G1 X18.077 Y21.112 0.00000
G1 X17.795 Y20.812 0.00000
G1 X17.568 Y20.468 0.00000
G1 X17.403 Y20.090 0.00000
G1 X17.305 Y19.689 0.00000
G1 X17.278 Y19.278 0.00000
G1 X17.322 Y18.868 0.00000
G1 X17.435 Y18.472 0.00000
G1 X17.615 Y18.101 0.00000
G1 X17.855 Y17.766 0.00000
G1 X18.149 Y17.477 0.00000
G1 X18.489 Y17.243 0.00000
G1 X18.864 Y17.071 0.00000
G1 X19.262 Y16.966 0.00000
G1 X19.673 Y16.930 0.00000
G1 X20.083 Y16.966 0.00000
G1 X20.482 Y17.071 0.00000
G1 X20.857 Y17.243 0.00000
G1 X21.196 Y17.477 0.00000
G1 X21.490 Y17.766 0.00000
G1 X21.731 Y18.101 0.00000
G1 X21.910 Y18.472 0.00000
G1 X22.024 Y18.868 0.00000
G1 X22.067 Y19.278 0.00000
G1 X22.040 Y19.689 0.00000
G1 X21.943 Y20.090 0.00000
G1 X21.778 Y20.468 0.00000
G1 X21.551 Y20.812 0.00000
G1 X21.268 Y21.112 0.00000
G1 X20.972 Y21.334 0.00000
G1 X20.972 Y22.156 0.00000
G1 X18.461 Y22.156 0.00000
G1 X18.766 Y21.763 F900.000
G1 F900
G1 X18.766 Y21.101 0.00000
G1 X18.615 Y21.024 0.00000
G1 X18.340 Y20.818 0.00000
G1 X18.104 Y20.567 0.00000
G1 X17.914 Y20.280 0.00000
G1 X17.776 Y19.964 0.00000
G1 X17.695 Y19.629 0.00000
G1 X17.672 Y19.286 0.00000
G1 X17.709 Y18.943 0.00000
G1 X17.803 Y18.612 0.00000
G1 X17.953 Y18.302 0.00000
G1 X18.154 Y18.022 0.00000
G1 X18.400 Y17.781 0.00000
G1 X18.684 Y17.586 0.00000
G1 X18.997 Y17.442 0.00000
G1 X19.330 Y17.354 0.00000
G1 X19.673 Y17.325 0.00000
G1 X20.016 Y17.354 0.00000
G1 X20.349 Y17.442 0.00000
G1 X20.662 Y17.586 0.00000
G1 X20.945 Y17.781 0.00000
G1 X21.191 Y18.022 0.00000
G1 X21.392 Y18.302 0.00000
G1 X21.542 Y18.612 0.00000
G1 X21.637 Y18.943 0.00000
G1 X21.673 Y19.286 0.00000
G1 X21.650 Y19.629 0.00000
G1 X21.569 Y19.964 0.00000
G1 X21.431 Y20.280 0.00000
G1 X21.242 Y20.567 0.00000
G1 X21.006 Y20.818 0.00000
G1 X20.730 Y21.024 0.00000
G1 X20.579 Y21.101 0.00000
G1 X20.579 Y21.763 0.00000
G1 X18.853 Y21.763 0.00000
G1 X18.190 Y21.831 F900.000
G1 X15.063 Y31.826 F900.000
G1 F900
G1 X14.932 Y31.778 0.00000
G1 X14.658 Y31.743 0.00000
G1 X14.392 Y31.780 0.00000
G1 X14.035 Y31.950 0.00000
G1 X13.942 Y32.047 0.00000
G1 X13.128 Y31.652 0.00000
G1 X12.481 Y31.287 0.00000
G1 X11.887 Y30.909 0.00000
G1 X11.535 Y30.654 0.00000
G1 X11.552 Y30.208 0.00000
G1 X11.375 Y29.773 0.00000
G1 X10.653 Y29.141 0.00000
G1 X10.139 Y28.645 0.00000
G1 X9.269 Y27.666 0.00000
G1 X8.906 Y27.474 0.00000
G1 X8.478 Y27.440 0.00000
G1 X8.349 Y27.477 0.00000
G1 X7.596 Y26.321 0.00000
G1 X7.137 Y25.461 0.00000
G1 X6.955 Y25.055 0.00000
G1 X7.036 Y24.979 0.00000
G1 X7.225 Y24.603 0.00000
G1 X7.252 Y24.178 0.00000
G1 X6.953 Y23.314 0.00000
G1 X6.756 Y22.627 0.00000
G1 X6.470 Y21.276 0.00000
G1 X6.192 Y20.922 0.00000
G1 X5.788 Y20.709 0.00000
G1 X5.725 Y19.821 0.00000
G1 X5.718 Y19.078 0.00000
G1 X5.749 Y18.374 0.00000
G1 X5.793 Y17.943 0.00000
G1 X6.188 Y17.734 0.00000
G1 X6.476 Y17.363 0.00000
G1 X6.662 Y16.422 0.00000
G1 X6.836 Y15.723 0.00000
G1 X7.043 Y15.067 0.00000
G1 X7.220 Y14.585 0.00000
G1 X7.255 Y14.311 0.00000
G1 X7.218 Y14.045 0.00000
G1 X7.049 Y13.688 0.00000
G1 X6.951 Y13.594 0.00000
G1 X7.346 Y12.781 0.00000
G1 X7.712 Y12.134 0.00000
G1 X8.090 Y11.540 0.00000
G1 X8.344 Y11.188 0.00000
G1 X8.791 Y11.204 0.00000
G1 X9.225 Y11.028 0.00000
G1 X9.857 Y10.305 0.00000
G1 X10.354 Y9.791 0.00000
G1 X11.332 Y8.922 0.00000
G1 X11.524 Y8.559 0.00000
G1 X11.559 Y8.131 0.00000
G1 X11.521 Y8.001 0.00000
G1 X12.678 Y7.249 0.00000
G1 X13.537 Y6.790 0.00000
G1 X13.943 Y6.608 0.00000
G1 X14.020 Y6.689 0.00000
G1 X14.395 Y6.878 0.00000
G1 X14.821 Y6.905 0.00000
G1 X15.684 Y6.605 0.00000
G1 X16.371 Y6.409 0.00000
G1 X17.722 Y6.123 0.00000
G1 X18.076 Y5.844 0.00000
G1 X18.288 Y5.442 0.00000
G1 X19.237 Y5.376 0.00000
G1 X19.983 Y5.372 0.00000
G1 X20.677 Y5.405 0.00000
G1 X21.056 Y5.444 0.00000
G1 X21.265 Y5.841 0.00000
G1 X21.635 Y6.129 0.00000
G1 X22.577 Y6.315 0.00000
G1 X23.275 Y6.489 0.00000
G1 X23.931 Y6.695 0.00000
G1 X24.413 Y6.873 0.00000
G1 X24.687 Y6.908 0.00000
G1 X24.953 Y6.871 0.00000
G1 X25.310 Y6.701 0.00000
G1 X25.404 Y6.604 0.00000
G1 X26.217 Y6.999 0.00000
G1 X26.864 Y7.364 0.00000
G1 X27.459 Y7.742 0.00000
G1 X27.810 Y7.996 0.00000
G1 X27.794 Y8.443 0.00000
G1 X27.970 Y8.878 0.00000
G1 X28.693 Y9.510 0.00000
G1 X29.207 Y10.006 0.00000
G1 X30.076 Y10.985 0.00000
G1 X30.439 Y11.177 0.00000
G1 X30.867 Y11.211 0.00000
G1 X30.997 Y11.174 0.00000
G1 X31.750 Y12.330 0.00000
G1 X32.208 Y13.190 0.00000
G1 X32.390 Y13.596 0.00000
G1 X32.310 Y13.672 0.00000
G1 X32.121 Y14.048 0.00000
G1 X32.093 Y14.473 0.00000
G1 X32.393 Y15.337 0.00000
G1 X32.590 Y16.024 0.00000
G1 X32.876 Y17.375 0.00000
G1 X33.154 Y17.729 0.00000
G1 X33.557 Y17.941 0.00000
G1 X33.620 Y18.830 0.00000
G1 X33.627 Y19.573 0.00000
G1 X33.597 Y20.277 0.00000
G1 X33.553 Y20.708 0.00000
G1 X33.157 Y20.917 0.00000
G1 X32.869 Y21.288 0.00000
G1 X32.683 Y22.229 0.00000
G1 X32.509 Y22.928 0.00000
G1 X32.303 Y23.583 0.00000
G1 X32.125 Y24.066 0.00000
G1 X32.090 Y24.340 0.00000
G1 X32.128 Y24.606 0.00000
G1 X32.297 Y24.963 0.00000
G1 X32.395 Y25.057 0.00000
G1 X32.000 Y25.870 0.00000
G1 X31.634 Y26.517 0.00000
G1 X31.256 Y27.111 0.00000
G1 X31.002 Y27.463 0.00000
G1 X30.555 Y27.446 0.00000
G1 X30.120 Y27.623 0.00000
G1 X29.488 Y28.346 0.00000
G1 X28.992 Y28.860 0.00000
G1 X28.013 Y29.729 0.00000
G1 X27.821 Y30.092 0.00000
G1 X27.787 Y30.520 0.00000
G1 X27.825 Y30.650 0.00000
G1 X26.668 Y31.402 0.00000
G1 X25.808 Y31.861 0.00000
G1 X25.402 Y32.043 0.00000
G1 X25.326 Y31.962 0.00000
G1 X24.951 Y31.773 0.00000
G1 X24.525 Y31.746 0.00000
G1 X23.662 Y32.046 0.00000
G1 X22.974 Y32.242 0.00000
G1 X21.623 Y32.528 0.00000
G1 X21.269 Y32.806 0.00000
G1 X21.057 Y33.210 0.00000
G1 X20.168 Y33.273 0.00000
G1 X19.425 Y33.280 0.00000
G1 X18.721 Y33.250 0.00000
G1 X18.290 Y33.206 0.00000
G1 X18.081 Y32.810 0.00000
G1 X17.711 Y32.522 0.00000
G1 X16.769 Y32.336 0.00000
G1 X16.070 Y32.162 0.00000
G1 X15.145 Y31.856 0.00000
G1 X14.927 Y32.195 F900.000
G1 F900
G1 X14.838 Y32.162 0.00000
G1 X14.661 Y32.139 0.00000
G1 X14.506 Y32.161 0.00000
G1 X14.269 Y32.273 0.00000
G1 X14.049 Y32.523 0.00000
G1 X13.596 Y32.325 0.00000
G1 X12.944 Y31.999 0.00000
G1 X12.279 Y31.623 0.00000
G1 X11.666 Y31.234 0.00000
G1 X11.057 Y30.794 0.00000
G1 X11.147 Y30.569 0.00000
G1 X11.156 Y30.278 0.00000
G1 X11.047 Y30.007 0.00000
G1 X10.387 Y29.430 0.00000
G1 X9.855 Y28.917 0.00000
G1 X9.023 Y27.980 0.00000
G1 X8.794 Y27.859 0.00000
G1 X8.519 Y27.837 0.00000
G1 X8.204 Y27.943 0.00000
G1 X7.909 Y27.542 0.00000
G1 X7.257 Y26.519 0.00000
G1 X6.784 Y25.634 0.00000
G1 X6.477 Y24.948 0.00000
G1 X6.716 Y24.740 0.00000
G1 X6.838 Y24.498 0.00000
G1 X6.855 Y24.232 0.00000
G1 X6.578 Y23.433 0.00000
G1 X6.374 Y22.722 0.00000
G1 X6.105 Y21.447 0.00000
G1 X5.933 Y21.228 0.00000
G1 X5.681 Y21.090 0.00000
G1 X5.432 Y21.052 0.00000
G1 X5.377 Y20.562 0.00000
G1 X5.332 Y19.835 0.00000
G1 X5.325 Y19.071 0.00000
G1 X5.357 Y18.346 0.00000
G1 X5.433 Y17.598 0.00000
G1 X5.673 Y17.563 0.00000
G1 X5.930 Y17.426 0.00000
G1 X6.109 Y17.196 0.00000
G1 X6.279 Y16.336 0.00000
G1 X6.458 Y15.617 0.00000
G1 X6.671 Y14.941 0.00000
G1 X6.836 Y14.491 0.00000
G1 X6.859 Y14.314 0.00000
G1 X6.837 Y14.159 0.00000
G1 X6.725 Y13.922 0.00000
G1 X6.476 Y13.702 0.00000
G1 X6.673 Y13.249 0.00000
G1 X6.999 Y12.597 0.00000
G1 X7.375 Y11.932 0.00000
G1 X7.765 Y11.319 0.00000
G1 X8.204 Y10.710 0.00000
G1 X8.430 Y10.799 0.00000
G1 X8.720 Y10.809 0.00000
G1 X8.991 Y10.699 0.00000
G1 X9.568 Y10.039 0.00000
G1 X10.082 Y9.508 0.00000
G1 X11.018 Y8.675 0.00000
G1 X11.139 Y8.447 0.00000
G1 X11.161 Y8.172 0.00000
G1 X11.055 Y7.857 0.00000
G1 X11.456 Y7.561 0.00000
G1 X12.479 Y6.909 0.00000
G1 X13.364 Y6.437 0.00000
G1 X14.050 Y6.130 0.00000
G1 X14.258 Y6.369 0.00000
G1 X14.500 Y6.491 0.00000
G1 X14.767 Y6.508 0.00000
G1 X15.565 Y6.231 0.00000
G1 X16.276 Y6.027 0.00000
G1 X17.552 Y5.757 0.00000
G1 X17.770 Y5.585 0.00000
G1 X17.907 Y5.335 0.00000
G1 X17.946 Y5.085 0.00000
G1 X18.489 Y5.025 0.00000
G1 X19.225 Y4.983 0.00000
G1 X19.992 Y4.980 0.00000
G1 X20.707 Y5.013 0.00000
G1 X21.400 Y5.085 0.00000
G1 X21.435 Y5.326 0.00000
G1 X21.572 Y5.582 0.00000
G1 X21.802 Y5.762 0.00000
G1 X22.662 Y5.931 0.00000
G1 X23.382 Y6.111 0.00000
G1 X24.058 Y6.324 0.00000
G1 X24.507 Y6.489 0.00000
G1 X24.685 Y6.512 0.00000
G1 X24.839 Y6.490 0.00000
G1 X25.077 Y6.378 0.00000
G1 X25.296 Y6.128 0.00000
G1 X25.750 Y6.326 0.00000
G1 X26.402 Y6.652 0.00000
G1 X27.067 Y7.028 0.00000
G1 X27.679 Y7.417 0.00000
G1 X28.288 Y7.857 0.00000
G1 X28.199 Y8.082 0.00000
G1 X28.189 Y8.373 0.00000
G1 X28.299 Y8.644 0.00000
G1 X28.959 Y9.221 0.00000
G1 X29.491 Y9.734 0.00000
G1 X30.323 Y10.671 0.00000
G1 X30.551 Y10.792 0.00000
G1 X30.827 Y10.814 0.00000
G1 X31.142 Y10.708 0.00000
G1 X31.437 Y11.109 0.00000
G1 X32.089 Y12.132 0.00000
G1 X32.561 Y13.017 0.00000
G1 X32.869 Y13.703 0.00000
G1 X32.629 Y13.911 0.00000
G1 X32.507 Y14.153 0.00000
G1 X32.490 Y14.419 0.00000
G1 X32.767 Y15.218 0.00000
G1 X32.971 Y15.929 0.00000
G1 X33.241 Y17.204 0.00000
G1 X33.413 Y17.423 0.00000
G1 X33.663 Y17.560 0.00000
G1 X33.914 Y17.599 0.00000
G1 X33.969 Y18.089 0.00000
G1 X34.013 Y18.816 0.00000
G1 X34.020 Y19.580 0.00000
G1 X33.989 Y20.305 0.00000
G1 X33.912 Y21.052 0.00000
G1 X33.673 Y21.088 0.00000
G1 X33.416 Y21.225 0.00000
G1 X33.237 Y21.455 0.00000
G1 X33.067 Y22.315 0.00000
G1 X32.887 Y23.034 0.00000
G1 X32.675 Y23.710 0.00000
G1 X32.509 Y24.160 0.00000
G1 X32.486 Y24.337 0.00000
G1 X32.508 Y24.492 0.00000
G1 X32.621 Y24.729 0.00000
G1 X32.870 Y24.949 0.00000
G1 X32.672 Y25.402 0.00000
G1 X32.346 Y26.054 0.00000
G1 X31.971 Y26.719 0.00000
G1 X31.581 Y27.332 0.00000
G1 X31.141 Y27.941 0.00000
G1 X30.916 Y27.852 0.00000
G1 X30.625 Y27.842 0.00000
G1 X30.355 Y27.952 0.00000
G1 X29.778 Y28.611 0.00000
G1 X29.264 Y29.143 0.00000
G1 X28.327 Y29.976 0.00000
G1 X28.206 Y30.204 0.00000
G1 X28.184 Y30.479 0.00000
G1 X28.290 Y30.794 0.00000
G1 X27.889 Y31.090 0.00000
G1 X26.866 Y31.742 0.00000
G1 X25.981 Y32.214 0.00000
G1 X25.296 Y32.521 0.00000
G1 X25.088 Y32.282 0.00000
G1 X24.845 Y32.160 0.00000
G1 X24.579 Y32.143 0.00000
G1 X23.780 Y32.420 0.00000
G1 X23.069 Y32.624 0.00000
G1 X21.794 Y32.894 0.00000
G1 X21.575 Y33.066 0.00000
G1 X21.438 Y33.316 0.00000
G1 X21.399 Y33.567 0.00000
G1 X20.910 Y33.622 0.00000
G1 X20.182 Y33.666 0.00000
G1 X19.418 Y33.673 0.00000
G1 X18.693 Y33.642 0.00000
G1 X17.946 Y33.565 0.00000
G1 X17.910 Y33.325 0.00000
G1 X17.774 Y33.069 0.00000
G1 X17.543 Y32.889 0.00000
G1 X16.683 Y32.720 0.00000
G1 X15.964 Y32.540 0.00000
G1 X15.009 Y32.225 0.00000
G1 X14.910 Y32.101 F900.000
G1 Z-144.000 F900.000
G1 X14.568 Y34.684 F900.000
G1 X15.476 Y35.043 F900.000
G1 X18.374 Y22.156 F900.000
G1 F900
G1 X18.374 Y21.334 0.00000
G1 X18.077 Y21.112 0.00000
G1 X17.795 Y20.812 0.00000
G1 X17.568 Y20.468 0.00000
G1 X17.403 Y20.090 0.00000
G1 X17.305 Y19.689 0.00000
G1 X17.278 Y19.278 0.00000
G1 X17.322 Y18.868 0.00000
G1 X17.435 Y18.472 0.00000
G1 X17.615 Y18.101 0.00000
G1 X17.855 Y17.766 0.00000
G1 X18.149 Y17.477 0.00000
G1 X18.489 Y17.243 0.00000
G1 X18.864 Y17.071 0.00000
G1 X19.262 Y16.966 0.00000
G1 X19.589 Y16.938 0.00000
G1 X20.073 Y16.963 0.00000
G1 X20.482 Y17.071 0.00000
G1 X20.857 Y17.243 0.00000
G1 X21.196 Y17.477 0.00000
G1 X21.490 Y17.766 0.00000
G1 X21.731 Y18.101 0.00000
G1 X21.910 Y18.472 0.00000
G1 X22.024 Y18.868 0.00000
G1 X22.067 Y19.278 0.00000
G1 X22.040 Y19.689 0.00000
G1 X21.943 Y20.090 0.00000
G1 X21.778 Y20.468 0.00000
G1 X21.551 Y20.812 0.00000
G1 X21.268 Y21.112 0.00000
G1 X20.972 Y21.334 0.00000
G1 X20.972 Y22.156 0.00000
G1 X18.461 Y22.156 0.00000
G1 X18.766 Y21.763 F900.000
G1 F900
G1 X18.766 Y21.101 0.00000
G1 X18.615 Y21.024 0.00000
G1 X18.340 Y20.818 0.00000
G1 X18.104 Y20.567 0.00000
G1 X17.914 Y20.280 0.00000
G1 X17.776 Y19.964 0.00000
G1 X17.695 Y19.629 0.00000
G1 X17.672 Y19.286 0.00000
G1 X17.709 Y18.943 0.00000
G1 X17.803 Y18.612 0.00000
G1 X17.953 Y18.302 0.00000
G1 X18.154 Y18.022 0.00000
G1 X18.400 Y17.781 0.00000
G1 X18.684 Y17.586 0.00000
G1 X18.997 Y17.442 0.00000
G1 X19.330 Y17.354 0.00000
G1 X19.595 Y17.331 0.00000
G1 X20.012 Y17.353 0.00000
G1 X20.349 Y17.442 0.00000
G1 X20.662 Y17.586 0.00000
G1 X20.945 Y17.781 0.00000
G1 X21.191 Y18.022 0.00000
G1 X21.392 Y18.302 0.00000
G1 X21.542 Y18.612 0.00000
G1 X21.637 Y18.943 0.00000
G1 X21.673 Y19.286 0.00000
G1 X21.650 Y19.629 0.00000
G1 X21.569 Y19.964 0.00000
G1 X21.431 Y20.280 0.00000
G1 X21.242 Y20.567 0.00000
G1 X21.006 Y20.818 0.00000
G1 X20.730 Y21.024 0.00000
G1 X20.579 Y21.101 0.00000
G1 X20.579 Y21.763 0.00000
G1 X18.853 Y21.763 0.00000
G1 X18.190 Y21.831 F900.000
G1 X13.644 Y32.462 F900.000
G1 F900
G1 X12.821 Y32.054 0.00000
G1 X12.260 Y31.736 0.00000
G1 X11.591 Y31.312 0.00000
G1 X11.316 Y31.113 0.00000
G1 X11.634 Y30.704 0.00000
G1 X11.777 Y30.284 0.00000
G1 X11.782 Y29.993 0.00000
G1 X11.711 Y29.687 0.00000
G1 X11.505 Y29.379 0.00000
G1 X10.900 Y28.862 0.00000
G1 X10.408 Y28.387 0.00000
G1 X9.534 Y27.412 0.00000
G1 X9.218 Y27.258 0.00000
G1 X8.955 Y27.213 0.00000
G1 X8.660 Y27.233 0.00000
G1 X8.377 Y27.328 0.00000
G1 X8.173 Y27.450 0.00000
G1 X7.883 Y27.687 0.00000
G1 X7.162 Y26.568 0.00000
G1 X6.679 Y25.663 0.00000
G1 X6.543 Y25.358 0.00000
G1 X6.890 Y25.220 0.00000
G1 X7.090 Y25.109 0.00000
G1 X7.303 Y24.926 0.00000
G1 X7.494 Y24.648 0.00000
G1 X7.590 Y24.342 0.00000
G1 X7.591 Y24.018 0.00000
G1 X7.308 Y23.200 0.00000
G1 X7.118 Y22.537 0.00000
G1 X6.974 Y21.892 0.00000
G1 X6.885 Y21.379 0.00000
G1 X6.734 Y21.066 0.00000
G1 X6.548 Y20.871 0.00000
G1 X6.303 Y20.717 0.00000
G1 X6.071 Y20.637 0.00000
G1 X5.770 Y20.601 0.00000
G1 X5.282 Y20.677 0.00000
G1 X5.224 Y19.756 0.00000
G1 X5.218 Y19.111 0.00000
G1 X5.251 Y18.320 0.00000
G1 X5.286 Y17.982 0.00000
G1 X5.800 Y18.053 0.00000
G1 X6.235 Y17.967 0.00000
G1 X6.489 Y17.826 0.00000
G1 X6.718 Y17.611 0.00000
G1 X6.882 Y17.279 0.00000
G1 X7.028 Y16.496 0.00000
G1 X7.193 Y15.834 0.00000
G1 X7.586 Y14.647 0.00000
G1 X7.594 Y14.326 0.00000
G1 X7.493 Y14.001 0.00000
G1 X7.318 Y13.742 0.00000
G1 X7.094 Y13.545 0.00000
G1 X6.887 Y13.429 0.00000
G1 X6.536 Y13.297 0.00000
G1 X6.587 Y13.180 0.00000
G1 X6.945 Y12.474 0.00000
G1 X7.262 Y11.912 0.00000
G1 X7.686 Y11.244 0.00000
G1 X7.885 Y10.969 0.00000
G1 X8.295 Y11.287 0.00000
G1 X8.715 Y11.430 0.00000
G1 X9.005 Y11.435 0.00000
G1 X9.311 Y11.363 0.00000
G1 X9.619 Y11.158 0.00000
G1 X10.136 Y10.553 0.00000
G1 X10.611 Y10.061 0.00000
G1 X11.586 Y9.187 0.00000
G1 X11.740 Y8.871 0.00000
G1 X11.786 Y8.608 0.00000
G1 X11.765 Y8.312 0.00000
G1 X11.670 Y8.030 0.00000
G1 X11.548 Y7.826 0.00000
G1 X11.311 Y7.536 0.00000
G1 X12.430 Y6.814 0.00000
G1 X13.335 Y6.332 0.00000
G1 X13.640 Y6.196 0.00000
G1 X13.778 Y6.542 0.00000
G1 X13.889 Y6.742 0.00000
G1 X14.072 Y6.956 0.00000
G1 X14.350 Y7.147 0.00000
G1 X14.656 Y7.243 0.00000
G1 X14.981 Y7.244 0.00000
G1 X15.798 Y6.961 0.00000
G1 X16.461 Y6.771 0.00000
G1 X17.106 Y6.627 0.00000
G1 X17.619 Y6.538 0.00000
G1 X17.933 Y6.387 0.00000
G1 X18.127 Y6.201 0.00000
G1 X18.281 Y5.956 0.00000
G1 X18.361 Y5.724 0.00000
G1 X18.398 Y5.423 0.00000
G1 X18.321 Y4.936 0.00000
G1 X19.295 Y4.875 0.00000
G1 X19.942 Y4.872 0.00000
G1 X20.725 Y4.907 0.00000
G1 X21.017 Y4.938 0.00000
G1 X20.945 Y5.453 0.00000
G1 X21.032 Y5.888 0.00000
G1 X21.172 Y6.142 0.00000
G1 X21.387 Y6.371 0.00000
G1 X21.719 Y6.535 0.00000
G1 X22.502 Y6.680 0.00000
G1 X23.164 Y6.846 0.00000
G1 X24.351 Y7.239 0.00000
G1 X24.672 Y7.247 0.00000
G1 X24.997 Y7.145 0.00000
G1 X25.256 Y6.971 0.00000
G1 X25.454 Y6.747 0.00000
G1 X25.569 Y6.539 0.00000
G1 X25.702 Y6.189 0.00000
G1 X25.818 Y6.240 0.00000
G1 X26.525 Y6.597 0.00000
G1 X27.086 Y6.915 0.00000
G1 X27.754 Y7.339 0.00000
G1 X28.030 Y7.538 0.00000
G1 X27.711 Y7.947 0.00000
G1 X27.568 Y8.367 0.00000
G1 X27.563 Y8.658 0.00000
G1 X27.635 Y8.964 0.00000
G1 X27.840 Y9.272 0.00000
G1 X28.445 Y9.789 0.00000
G1 X28.937 Y10.264 0.00000
G1 X29.811 Y11.239 0.00000
G1 X30.127 Y11.393 0.00000
G1 X30.391 Y11.438 0.00000
G1 X30.686 Y11.418 0.00000
G1 X30.968 Y11.323 0.00000
G1 X31.172 Y11.201 0.00000
G1 X31.462 Y10.963 0.00000
G1 X32.184 Y12.083 0.00000
G1 X32.666 Y12.988 0.00000
G1 X32.802 Y13.293 0.00000
G1 X32.456 Y13.431 0.00000
G1 X32.256 Y13.542 0.00000
G1 X32.042 Y13.725 0.00000
G1 X31.852 Y14.003 0.00000
G1 X31.755 Y14.309 0.00000
G1 X31.755 Y14.633 0.00000
G1 X32.038 Y15.451 0.00000
G1 X32.228 Y16.114 0.00000
G1 X32.371 Y16.759 0.00000
G1 X32.461 Y17.272 0.00000
G1 X32.611 Y17.585 0.00000
G1 X32.798 Y17.780 0.00000
G1 X33.042 Y17.934 0.00000
G1 X33.274 Y18.013 0.00000
G1 X33.575 Y18.050 0.00000
G1 X34.063 Y17.974 0.00000
G1 X34.122 Y18.895 0.00000
G1 X34.127 Y19.540 0.00000
G1 X34.094 Y20.331 0.00000
G1 X34.059 Y20.669 0.00000
G1 X33.546 Y20.598 0.00000
G1 X33.111 Y20.684 0.00000
G1 X32.857 Y20.825 0.00000
G1 X32.627 Y21.040 0.00000
G1 X32.463 Y21.372 0.00000
G1 X32.318 Y22.155 0.00000
G1 X32.153 Y22.817 0.00000
G1 X31.759 Y24.004 0.00000
G1 X31.752 Y24.325 0.00000
G1 X31.853 Y24.650 0.00000
G1 X32.028 Y24.909 0.00000
G1 X32.251 Y25.106 0.00000
G1 X32.459 Y25.222 0.00000
G1 X32.809 Y25.354 0.00000
G1 X32.758 Y25.471 0.00000
G1 X32.401 Y26.177 0.00000
G1 X32.084 Y26.739 0.00000
G1 X31.659 Y27.407 0.00000
G1 X31.460 Y27.682 0.00000
G1 X31.051 Y27.364 0.00000
G1 X30.631 Y27.221 0.00000
G1 X30.340 Y27.216 0.00000
G1 X30.034 Y27.288 0.00000
G1 X29.726 Y27.493 0.00000
G1 X29.209 Y28.098 0.00000
G1 X28.734 Y28.590 0.00000
G1 X27.759 Y29.464 0.00000
G1 X27.605 Y29.780 0.00000
G1 X27.560 Y30.043 0.00000
G1 X27.580 Y30.338 0.00000
G1 X27.675 Y30.621 0.00000
G1 X27.797 Y30.825 0.00000
G1 X28.035 Y31.115 0.00000
G1 X26.916 Y31.837 0.00000
G1 X26.010 Y32.319 0.00000
G1 X25.706 Y32.455 0.00000
G1 X25.567 Y32.109 0.00000
G1 X25.457 Y31.909 0.00000
G1 X25.273 Y31.695 0.00000
G1 X24.995 Y31.504 0.00000
G1 X24.690 Y31.408 0.00000
G1 X24.365 Y31.407 0.00000
G1 X23.547 Y31.690 0.00000
G1 X22.884 Y31.880 0.00000
G1 X22.239 Y32.024 0.00000
G1 X21.726 Y32.113 0.00000
G1 X21.413 Y32.264 0.00000
G1 X21.218 Y32.450 0.00000
G1 X21.065 Y32.695 0.00000
G1 X20.985 Y32.927 0.00000
G1 X20.948 Y33.228 0.00000
G1 X21.025 Y33.716 0.00000
G1 X20.103 Y33.774 0.00000
G1 X19.458 Y33.780 0.00000
G1 X18.667 Y33.747 0.00000
G1 X18.329 Y33.712 0.00000
G1 X18.400 Y33.198 0.00000
G1 X18.314 Y32.763 0.00000
G1 X18.173 Y32.509 0.00000
G1 X17.958 Y32.280 0.00000
G1 X17.626 Y32.116 0.00000
G1 X16.844 Y31.971 0.00000
G1 X16.181 Y31.805 0.00000
G1 X14.994 Y31.412 0.00000
G1 X14.674 Y31.404 0.00000
G1 X14.348 Y31.506 0.00000
G1 X14.089 Y31.680 0.00000
G1 X13.892 Y31.904 0.00000
G1 X13.776 Y32.111 0.00000
G1 X13.675 Y32.380 0.00000
G1 X14.729 Y31.798 F900.000
G1 F900
G1 X14.520 Y31.863 0.00000
G1 X14.350 Y31.978 0.00000
G1 X14.214 Y32.132 0.00000
G1 X14.133 Y32.277 0.00000
G1 X13.865 Y32.987 0.00000
G1 X13.360 Y32.766 0.00000
G1 X12.636 Y32.400 0.00000
G1 X12.058 Y32.073 0.00000
G1 X11.370 Y31.637 0.00000
G1 X10.756 Y31.192 0.00000
G1 X11.284 Y30.514 0.00000
G1 X11.385 Y30.215 0.00000
G1 X11.389 Y30.035 0.00000
G1 X11.344 Y29.846 0.00000
G1 X11.209 Y29.642 0.00000
G1 X10.636 Y29.153 0.00000
G1 X10.125 Y28.660 0.00000
G1 X9.293 Y27.732 0.00000
G1 X9.096 Y27.636 0.00000
G1 X8.935 Y27.608 0.00000
G1 X8.737 Y27.621 0.00000
G1 X8.542 Y27.687 0.00000
G1 X8.399 Y27.772 0.00000
G1 X7.813 Y28.253 0.00000
G1 X7.486 Y27.811 0.00000
G1 X6.822 Y26.766 0.00000
G1 X6.326 Y25.836 0.00000
G1 X6.018 Y25.146 0.00000
G1 X6.721 Y24.864 0.00000
G1 X6.864 Y24.785 0.00000
G1 X7.009 Y24.661 0.00000
G1 X7.137 Y24.474 0.00000
G1 X7.198 Y24.282 0.00000
G1 X7.198 Y24.083 0.00000
G1 X6.933 Y23.318 0.00000
G1 X6.737 Y22.634 0.00000
G1 X6.589 Y21.968 0.00000
G1 X6.507 Y21.500 0.00000
G1 X6.407 Y21.292 0.00000
G1 X6.298 Y21.178 0.00000
G1 X6.133 Y21.074 0.00000
G1 X5.982 Y21.022 0.00000
G1 X5.777 Y20.997 0.00000
G1 X4.938 Y21.129 0.00000
G1 X4.876 Y20.579 0.00000
G1 X4.831 Y19.768 0.00000
G1 X4.825 Y19.104 0.00000
G1 X4.859 Y18.291 0.00000
G1 X4.937 Y17.537 0.00000
G1 X5.788 Y17.655 0.00000
G1 X6.098 Y17.593 0.00000
G1 X6.256 Y17.506 0.00000
G1 X6.398 Y17.373 0.00000
G1 X6.506 Y17.154 0.00000
G1 X6.644 Y16.413 0.00000
G1 X6.815 Y15.725 0.00000
G1 X7.195 Y14.579 0.00000
G1 X7.200 Y14.381 0.00000
G1 X7.135 Y14.173 0.00000
G1 X7.020 Y14.003 0.00000
G1 X6.866 Y13.867 0.00000
G1 X6.721 Y13.786 0.00000
G1 X6.011 Y13.518 0.00000
G1 X6.232 Y13.013 0.00000
G1 X6.598 Y12.288 0.00000
G1 X6.925 Y11.710 0.00000
G1 X7.361 Y11.023 0.00000
G1 X7.806 Y10.409 0.00000
G1 X8.484 Y10.937 0.00000
G1 X8.783 Y11.038 0.00000
G1 X8.963 Y11.041 0.00000
G1 X9.152 Y10.997 0.00000
G1 X9.356 Y10.861 0.00000
G1 X9.846 Y10.289 0.00000
G1 X10.339 Y9.778 0.00000
G1 X11.267 Y8.946 0.00000
G1 X11.363 Y8.749 0.00000
G1 X11.391 Y8.588 0.00000
G1 X11.377 Y8.390 0.00000
G1 X11.311 Y8.195 0.00000
G1 X11.226 Y8.052 0.00000
G1 X10.745 Y7.465 0.00000
G1 X11.188 Y7.139 0.00000
G1 X12.232 Y6.475 0.00000
G1 X13.163 Y5.979 0.00000
G1 X13.853 Y5.671 0.00000
G1 X14.134 Y6.374 0.00000
G1 X14.213 Y6.517 0.00000
G1 X14.337 Y6.661 0.00000
G1 X14.524 Y6.790 0.00000
G1 X14.717 Y6.850 0.00000
G1 X14.915 Y6.851 0.00000
G1 X15.680 Y6.586 0.00000
G1 X16.364 Y6.390 0.00000
G1 X17.030 Y6.241 0.00000
G1 X17.498 Y6.160 0.00000
G1 X17.706 Y6.060 0.00000
G1 X17.821 Y5.950 0.00000
G1 X17.924 Y5.786 0.00000
G1 X17.976 Y5.636 0.00000
G1 X18.001 Y5.430 0.00000
G1 X17.869 Y4.591 0.00000
G1 X18.461 Y4.526 0.00000
G1 X19.283 Y4.482 0.00000
G1 X19.950 Y4.479 0.00000
G1 X20.754 Y4.515 0.00000
G1 X21.461 Y4.590 0.00000
G1 X21.343 Y5.441 0.00000
G1 X21.405 Y5.751 0.00000
G1 X21.492 Y5.909 0.00000
G1 X21.625 Y6.050 0.00000
G1 X21.845 Y6.159 0.00000
G1 X22.585 Y6.296 0.00000
G1 X23.273 Y6.468 0.00000
G1 X24.419 Y6.848 0.00000
G1 X24.617 Y6.853 0.00000
G1 X24.826 Y6.788 0.00000
G1 X24.995 Y6.673 0.00000
G1 X25.131 Y6.519 0.00000
G1 X25.212 Y6.374 0.00000
G1 X25.480 Y5.664 0.00000
G1 X25.985 Y5.885 0.00000
G1 X26.710 Y6.251 0.00000
G1 X27.288 Y6.578 0.00000
G1 X27.975 Y7.014 0.00000
G1 X28.589 Y7.459 0.00000
G1 X28.062 Y8.136 0.00000
G1 X27.960 Y8.436 0.00000
G1 X27.957 Y8.616 0.00000
G1 X28.001 Y8.805 0.00000
G1 X28.137 Y9.009 0.00000
G1 X28.710 Y9.498 0.00000
G1 X29.220 Y9.991 0.00000
G1 X30.052 Y10.919 0.00000
G1 X30.249 Y11.015 0.00000
G1 X30.411 Y11.043 0.00000
G1 X30.608 Y11.030 0.00000
G1 X30.803 Y10.964 0.00000
G1 X30.946 Y10.879 0.00000
G1 X31.533 Y10.398 0.00000
G1 X31.859 Y10.840 0.00000
G1 X32.523 Y11.885 0.00000
G1 X33.019 Y12.815 0.00000
G1 X33.328 Y13.505 0.00000
G1 X32.624 Y13.787 0.00000
G1 X32.481 Y13.866 0.00000
G1 X32.337 Y13.990 0.00000
G1 X32.209 Y14.177 0.00000
G1 X32.148 Y14.369 0.00000
G1 X32.147 Y14.568 0.00000
G1 X32.412 Y15.333 0.00000
G1 X32.608 Y16.017 0.00000
G1 X32.757 Y16.683 0.00000
G1 X32.838 Y17.151 0.00000
G1 X32.938 Y17.359 0.00000
G1 X33.048 Y17.473 0.00000
G1 X33.213 Y17.577 0.00000
G1 X33.363 Y17.629 0.00000
G1 X33.568 Y17.654 0.00000
G1 X34.408 Y17.522 0.00000
G1 X34.469 Y18.072 0.00000
G1 X34.514 Y18.883 0.00000
G1 X34.520 Y19.546 0.00000
G1 X34.486 Y20.360 0.00000
G1 X34.408 Y21.114 0.00000
G1 X33.557 Y20.996 0.00000
G1 X33.247 Y21.058 0.00000
G1 X33.090 Y21.145 0.00000
G1 X32.948 Y21.278 0.00000
G1 X32.839 Y21.497 0.00000
G1 X32.702 Y22.238 0.00000
G1 X32.530 Y22.926 0.00000
G1 X32.150 Y24.072 0.00000
G1 X32.146 Y24.269 0.00000
G1 X32.211 Y24.478 0.00000
G1 X32.325 Y24.648 0.00000
G1 X32.479 Y24.784 0.00000
G1 X32.625 Y24.865 0.00000
G1 X33.334 Y25.133 0.00000
G1 X33.114 Y25.638 0.00000
G1 X32.747 Y26.363 0.00000
G1 X32.421 Y26.941 0.00000
G1 X31.984 Y27.628 0.00000
G1 X31.540 Y28.242 0.00000
G1 X30.862 Y27.714 0.00000
G1 X30.563 Y27.613 0.00000
G1 X30.382 Y27.610 0.00000
G1 X30.193 Y27.654 0.00000
G1 X29.989 Y27.790 0.00000
G1 X29.500 Y28.362 0.00000
G1 X29.007 Y28.873 0.00000
G1 X28.079 Y29.705 0.00000
G1 X27.983 Y29.902 0.00000
G1 X27.955 Y30.063 0.00000
G1 X27.969 Y30.261 0.00000
G1 X28.034 Y30.456 0.00000
G1 X28.120 Y30.599 0.00000
G1 X28.600 Y31.186 0.00000
G1 X28.158 Y31.512 0.00000
G1 X27.114 Y32.176 0.00000
G1 X26.183 Y32.672 0.00000
G1 X25.493 Y32.980 0.00000
G1 X25.212 Y32.277 0.00000
G1 X25.132 Y32.134 0.00000
G1 X25.009 Y31.990 0.00000
G1 X24.822 Y31.861 0.00000
G1 X24.629 Y31.801 0.00000
G1 X24.430 Y31.800 0.00000
G1 X23.666 Y32.065 0.00000
G1 X22.981 Y32.261 0.00000
G1 X22.315 Y32.410 0.00000
G1 X21.847 Y32.491 0.00000
G1 X21.639 Y32.591 0.00000
G1 X21.525 Y32.701 0.00000
G1 X21.421 Y32.865 0.00000
G1 X21.370 Y33.015 0.00000
G1 X21.344 Y33.221 0.00000
G1 X21.476 Y34.060 0.00000
G1 X20.926 Y34.122 0.00000
G1 X20.116 Y34.167 0.00000
G1 X19.452 Y34.173 0.00000
G1 X18.639 Y34.139 0.00000
G1 X17.884 Y34.061 0.00000
G1 X18.002 Y33.210 0.00000
G1 X17.941 Y32.900 0.00000
G1 X17.853 Y32.742 0.00000
G1 X17.720 Y32.600 0.00000
G1 X17.501 Y32.492 0.00000
G1 X16.760 Y32.355 0.00000
G1 X16.072 Y32.183 0.00000
G1 X14.927 Y31.803 0.00000
G1 X14.816 Y31.800 0.00000
G1 X14.600 Y31.622 F900.000
G1 Z-143.500 F900.000
G1 X14.196 Y34.699 F900.000
G1 X15.451 Y35.175 F900.000
G1 X18.374 Y22.156 F900.000
G1 F900
G1 X18.374 Y21.334 0.00000
G1 X18.077 Y21.112 0.00000
G1 X17.795 Y20.812 0.00000
G1 X17.568 Y20.468 0.00000
G1 X17.403 Y20.090 0.00000
G1 X17.305 Y19.689 0.00000
G1 X17.278 Y19.278 0.00000
G1 X17.322 Y18.868 0.00000
G1 X17.435 Y18.472 0.00000
G1 X17.615 Y18.101 0.00000
G1 X17.855 Y17.766 0.00000
G1 X18.149 Y17.477 0.00000
G1 X18.489 Y17.243 0.00000
G1 X18.864 Y17.071 0.00000
G1 X19.262 Y16.966 0.00000
G1 X19.673 Y16.930 0.00000
G1 X20.083 Y16.966 0.00000
G1 X20.482 Y17.071 0.00000
G1 X20.857 Y17.243 0.00000
G1 X21.196 Y17.477 0.00000
G1 X21.490 Y17.766 0.00000
G1 X21.731 Y18.101 0.00000
G1 X21.910 Y18.472 0.00000
G1 X22.024 Y18.868 0.00000
G1 X22.067 Y19.278 0.00000
G1 X22.040 Y19.689 0.00000
G1 X21.943 Y20.090 0.00000
G1 X21.778 Y20.468 0.00000
G1 X21.551 Y20.812 0.00000
G1 X21.268 Y21.112 0.00000
G1 X20.972 Y21.334 0.00000
G1 X20.972 Y22.156 0.00000
G1 X18.461 Y22.156 0.00000
G1 X18.766 Y21.763 F900.000
G1 F900
G1 X18.766 Y21.101 0.00000
G1 X18.615 Y21.024 0.00000
G1 X18.340 Y20.818 0.00000
G1 X18.104 Y20.567 0.00000
G1 X17.914 Y20.280 0.00000
G1 X17.776 Y19.964 0.00000
G1 X17.695 Y19.629 0.00000
G1 X17.672 Y19.286 0.00000
G1 X17.709 Y18.943 0.00000
G1 X17.803 Y18.612 0.00000
G1 X17.953 Y18.302 0.00000
G1 X18.154 Y18.022 0.00000
G1 X18.400 Y17.781 0.00000
G1 X18.684 Y17.586 0.00000
G1 X18.997 Y17.442 0.00000
G1 X19.330 Y17.354 0.00000
G1 X19.673 Y17.325 0.00000
G1 X20.016 Y17.354 0.00000
G1 X20.349 Y17.442 0.00000
G1 X20.662 Y17.586 0.00000
G1 X20.945 Y17.781 0.00000
G1 X21.191 Y18.022 0.00000
G1 X21.392 Y18.302 0.00000
G1 X21.542 Y18.612 0.00000
G1 X21.637 Y18.943 0.00000
G1 X21.673 Y19.286 0.00000
G1 X21.650 Y19.629 0.00000
G1 X21.569 Y19.964 0.00000
G1 X21.431 Y20.280 0.00000
G1 X21.242 Y20.567 0.00000
G1 X21.006 Y20.818 0.00000
G1 X20.730 Y21.024 0.00000
G1 X20.579 Y21.101 0.00000
G1 X20.579 Y21.763 0.00000
G1 X18.853 Y21.763 0.00000
G1 X18.190 Y21.831 F900.000
G1 X14.584 Y31.118 F900.000
G1 F900
G1 X14.225 Y31.330 0.00000
G1 X13.946 Y31.694 0.00000
G1 X13.476 Y32.933 0.00000
G1 X12.207 Y32.285 0.00000
G1 X11.291 Y31.713 0.00000
G1 X11.005 Y31.509 0.00000
G1 X11.824 Y30.468 0.00000
G1 X11.982 Y30.104 0.00000
G1 X12.016 Y29.821 0.00000
G1 X11.986 Y29.551 0.00000
G1 X11.887 Y29.291 0.00000
G1 X11.723 Y29.076 0.00000
G1 X11.150 Y28.585 0.00000
G1 X10.681 Y28.131 0.00000
G1 X9.925 Y27.280 0.00000
G1 X9.703 Y27.106 0.00000
G1 X9.393 Y26.999 0.00000
G1 X9.051 Y26.984 0.00000
G1 X8.592 Y27.130 0.00000
G1 X7.503 Y28.013 0.00000
G1 X6.727 Y26.816 0.00000
G1 X6.222 Y25.865 0.00000
G1 X6.078 Y25.542 0.00000
G1 X7.304 Y25.050 0.00000
G1 X7.644 Y24.799 0.00000
G1 X7.875 Y24.436 0.00000
G1 X7.949 Y24.078 0.00000
G1 X7.913 Y23.795 0.00000
G1 X7.662 Y23.084 0.00000
G1 X7.482 Y22.455 0.00000
G1 X7.233 Y21.250 0.00000
G1 X7.027 Y20.917 0.00000
G1 X6.758 Y20.709 0.00000
G1 X6.483 Y20.595 0.00000
G1 X6.150 Y20.548 0.00000
G1 X4.790 Y20.765 0.00000
G1 X4.723 Y19.690 0.00000
G1 X4.718 Y19.144 0.00000
G1 X4.754 Y18.265 0.00000
G1 X4.791 Y17.910 0.00000
G1 X6.152 Y18.102 0.00000
G1 X6.461 Y18.061 0.00000
G1 X6.755 Y17.945 0.00000
G1 X7.026 Y17.735 0.00000
G1 X7.230 Y17.411 0.00000
G1 X7.392 Y16.577 0.00000
G1 X7.551 Y15.940 0.00000
G1 X7.929 Y14.797 0.00000
G1 X7.943 Y14.526 0.00000
G1 X7.881 Y14.237 0.00000
G1 X7.668 Y13.878 0.00000
G1 X7.304 Y13.599 0.00000
G1 X6.065 Y13.129 0.00000
G1 X6.142 Y12.953 0.00000
G1 X6.713 Y11.860 0.00000
G1 X7.285 Y10.944 0.00000
G1 X7.489 Y10.658 0.00000
G1 X8.531 Y11.476 0.00000
G1 X8.895 Y11.635 0.00000
G1 X9.177 Y11.669 0.00000
G1 X9.447 Y11.638 0.00000
G1 X9.707 Y11.540 0.00000
G1 X9.922 Y11.376 0.00000
G1 X10.413 Y10.803 0.00000
G1 X10.867 Y10.333 0.00000
G1 X11.718 Y9.578 0.00000
G1 X11.892 Y9.356 0.00000
G1 X11.999 Y9.046 0.00000
G1 X12.014 Y8.703 0.00000
G1 X11.868 Y8.245 0.00000
G1 X10.985 Y7.156 0.00000
G1 X12.182 Y6.380 0.00000
G1 X13.133 Y5.875 0.00000
G1 X13.457 Y5.730 0.00000
G1 X13.948 Y6.957 0.00000
G1 X14.199 Y7.297 0.00000
G1 X14.562 Y7.527 0.00000
G1 X14.921 Y7.602 0.00000
G1 X15.203 Y7.566 0.00000
G1 X15.914 Y7.315 0.00000
G1 X16.543 Y7.135 0.00000
G1 X17.748 Y6.885 0.00000
G1 X18.081 Y6.680 0.00000
G1 X18.292 Y6.407 0.00000
G1 X18.408 Y6.114 0.00000
G1 X18.450 Y5.799 0.00000
G1 X18.234 Y4.443 0.00000
G1 X19.353 Y4.374 0.00000
G1 X19.900 Y4.371 0.00000
G1 X20.772 Y4.409 0.00000
G1 X21.089 Y4.443 0.00000
G1 X20.897 Y5.805 0.00000
G1 X20.937 Y6.114 0.00000
G1 X21.053 Y6.408 0.00000
G1 X21.264 Y6.678 0.00000
G1 X21.587 Y6.883 0.00000
G1 X22.421 Y7.045 0.00000
G1 X23.058 Y7.203 0.00000
G1 X24.201 Y7.581 0.00000
G1 X24.472 Y7.595 0.00000
G1 X24.761 Y7.533 0.00000
G1 X25.121 Y7.321 0.00000
G1 X25.399 Y6.957 0.00000
G1 X25.870 Y5.718 0.00000
G1 X26.045 Y5.795 0.00000
G1 X27.138 Y6.366 0.00000
G1 X28.054 Y6.938 0.00000
G1 X28.340 Y7.142 0.00000
G1 X27.522 Y8.183 0.00000
G1 X27.363 Y8.547 0.00000
G1 X27.329 Y8.830 0.00000
G1 X27.360 Y9.100 0.00000
G1 X27.458 Y9.360 0.00000
G1 X27.622 Y9.575 0.00000
G1 X28.195 Y10.066 0.00000
G1 X28.665 Y10.519 0.00000
G1 X29.420 Y11.371 0.00000
G1 X29.643 Y11.545 0.00000
G1 X29.952 Y11.652 0.00000
G1 X30.295 Y11.667 0.00000
G1 X30.753 Y11.521 0.00000
G1 X31.842 Y10.638 0.00000
G1 X32.618 Y11.835 0.00000
G1 X33.124 Y12.786 0.00000
G1 X33.268 Y13.109 0.00000
G1 X32.041 Y13.601 0.00000
G1 X31.701 Y13.852 0.00000
G1 X31.471 Y14.215 0.00000
G1 X31.396 Y14.573 0.00000
G1 X31.432 Y14.856 0.00000
G1 X31.683 Y15.567 0.00000
G1 X31.863 Y16.196 0.00000
G1 X32.113 Y17.401 0.00000
G1 X32.318 Y17.734 0.00000
G1 X32.591 Y17.945 0.00000
G1 X32.884 Y18.061 0.00000
G1 X33.199 Y18.102 0.00000
G1 X34.556 Y17.886 0.00000
G1 X34.623 Y18.961 0.00000
G1 X34.628 Y19.507 0.00000
G1 X34.592 Y20.386 0.00000
G1 X34.554 Y20.741 0.00000
G1 X33.193 Y20.549 0.00000
G1 X32.884 Y20.590 0.00000
G1 X32.590 Y20.706 0.00000
G1 X32.320 Y20.916 0.00000
G1 X32.115 Y21.240 0.00000
G1 X31.954 Y22.074 0.00000
G1 X31.795 Y22.711 0.00000
G1 X31.417 Y23.854 0.00000
G1 X31.403 Y24.125 0.00000
G1 X31.465 Y24.414 0.00000
G1 X31.677 Y24.773 0.00000
G1 X32.041 Y25.052 0.00000
G1 X33.280 Y25.522 0.00000
G1 X33.204 Y25.698 0.00000
G1 X32.633 Y26.791 0.00000
G1 X32.060 Y27.707 0.00000
G1 X31.856 Y27.993 0.00000
G1 X30.815 Y27.175 0.00000
G1 X30.451 Y27.016 0.00000
G1 X30.168 Y26.982 0.00000
G1 X29.898 Y27.013 0.00000
G1 X29.638 Y27.111 0.00000
G1 X29.424 Y27.275 0.00000
G1 X28.933 Y27.848 0.00000
G1 X28.479 Y28.318 0.00000
G1 X27.627 Y29.073 0.00000
G1 X27.454 Y29.295 0.00000
G1 X27.346 Y29.605 0.00000
G1 X27.331 Y29.948 0.00000
G1 X27.477 Y30.406 0.00000
G1 X28.360 Y31.495 0.00000
G1 X27.164 Y32.271 0.00000
G1 X26.212 Y32.776 0.00000
G1 X25.889 Y32.921 0.00000
G1 X25.398 Y31.694 0.00000
G1 X25.147 Y31.354 0.00000
G1 X24.783 Y31.124 0.00000
G1 X24.425 Y31.049 0.00000
G1 X24.143 Y31.085 0.00000
G1 X23.431 Y31.336 0.00000
G1 X22.802 Y31.516 0.00000
G1 X21.597 Y31.766 0.00000
G1 X21.264 Y31.971 0.00000
G1 X21.053 Y32.244 0.00000
G1 X20.937 Y32.537 0.00000
G1 X20.896 Y32.852 0.00000
G1 X21.112 Y34.208 0.00000
G1 X20.037 Y34.276 0.00000
G1 X19.491 Y34.281 0.00000
G1 X18.613 Y34.244 0.00000
G1 X18.257 Y34.207 0.00000
G1 X18.449 Y32.846 0.00000
G1 X18.408 Y32.537 0.00000
G1 X18.292 Y32.243 0.00000
G1 X18.082 Y31.973 0.00000
G1 X17.759 Y31.768 0.00000
G1 X16.924 Y31.606 0.00000
G1 X16.287 Y31.448 0.00000
G1 X15.145 Y31.070 0.00000
G1 X14.873 Y31.056 0.00000
G1 X14.669 Y31.099 0.00000
G1 X14.729 Y31.488 F900.000
G1 F900
G1 X14.490 Y31.629 0.00000
G1 X14.293 Y31.887 0.00000
G1 X13.697 Y33.458 0.00000
G1 X13.130 Y33.211 0.00000
G1 X12.012 Y32.626 0.00000
G1 X11.073 Y32.040 0.00000
G1 X10.442 Y31.589 0.00000
G1 X11.484 Y30.265 0.00000
G1 X11.599 Y30.000 0.00000
G1 X11.621 Y29.820 0.00000
G1 X11.601 Y29.644 0.00000
G1 X11.540 Y29.484 0.00000
G1 X11.436 Y29.347 0.00000
G1 X10.886 Y28.876 0.00000
G1 X10.397 Y28.403 0.00000
G1 X9.656 Y27.567 0.00000
G1 X9.513 Y27.456 0.00000
G1 X9.319 Y27.389 0.00000
G1 X9.103 Y27.380 0.00000
G1 X8.782 Y27.482 0.00000
G1 X7.431 Y28.577 0.00000
G1 X7.064 Y28.079 0.00000
G1 X6.388 Y27.014 0.00000
G1 X5.869 Y26.037 0.00000
G1 X5.553 Y25.329 0.00000
G1 X7.111 Y24.705 0.00000
G1 X7.352 Y24.527 0.00000
G1 X7.505 Y24.286 0.00000
G1 X7.551 Y24.062 0.00000
G1 X7.529 Y23.887 0.00000
G1 X7.288 Y23.203 0.00000
G1 X7.101 Y22.549 0.00000
G1 X6.862 Y21.397 0.00000
G1 X6.730 Y21.184 0.00000
G1 X6.560 Y21.052 0.00000
G1 X6.379 Y20.977 0.00000
G1 X6.153 Y20.945 0.00000
G1 X4.445 Y21.217 0.00000
G1 X4.376 Y20.601 0.00000
G1 X4.330 Y19.702 0.00000
G1 X4.325 Y19.138 0.00000
G1 X4.362 Y18.237 0.00000
G1 X4.443 Y17.464 0.00000
G1 X6.154 Y17.705 0.00000
G1 X6.362 Y17.678 0.00000
G1 X6.559 Y17.600 0.00000
G1 X6.731 Y17.467 0.00000
G1 X6.859 Y17.264 0.00000
G1 X7.008 Y16.492 0.00000
G1 X7.173 Y15.831 0.00000
G1 X7.539 Y14.724 0.00000
G1 X7.548 Y14.558 0.00000
G1 X7.510 Y14.381 0.00000
G1 X7.369 Y14.143 0.00000
G1 X7.111 Y13.946 0.00000
G1 X5.540 Y13.349 0.00000
G1 X5.788 Y12.783 0.00000
G1 X6.372 Y11.665 0.00000
G1 X6.959 Y10.726 0.00000
G1 X7.409 Y10.095 0.00000
G1 X8.734 Y11.137 0.00000
G1 X8.998 Y11.252 0.00000
G1 X9.178 Y11.274 0.00000
G1 X9.354 Y11.254 0.00000
G1 X9.514 Y11.193 0.00000
G1 X9.651 Y11.089 0.00000
G1 X10.122 Y10.539 0.00000
G1 X10.595 Y10.050 0.00000
G1 X11.431 Y9.308 0.00000
G1 X11.542 Y9.166 0.00000
G1 X11.609 Y8.972 0.00000
G1 X11.619 Y8.756 0.00000
G1 X11.516 Y8.435 0.00000
G1 X10.421 Y7.084 0.00000
G1 X10.919 Y6.717 0.00000
G1 X11.984 Y6.040 0.00000
G1 X12.961 Y5.521 0.00000
G1 X13.669 Y5.206 0.00000
G1 X14.294 Y6.764 0.00000
G1 X14.471 Y7.004 0.00000
G1 X14.712 Y7.157 0.00000
G1 X14.936 Y7.204 0.00000
G1 X15.112 Y7.182 0.00000
G1 X15.795 Y6.941 0.00000
G1 X16.449 Y6.753 0.00000
G1 X17.601 Y6.515 0.00000
G1 X17.814 Y6.383 0.00000
G1 X17.948 Y6.211 0.00000
G1 X18.025 Y6.015 0.00000
G1 X18.053 Y5.805 0.00000
G1 X17.781 Y4.098 0.00000
G1 X18.433 Y4.026 0.00000
G1 X19.342 Y3.981 0.00000
G1 X19.908 Y3.979 0.00000
G1 X20.802 Y4.018 0.00000
G1 X21.534 Y4.095 0.00000
G1 X21.293 Y5.807 0.00000
G1 X21.320 Y6.015 0.00000
G1 X21.398 Y6.211 0.00000
G1 X21.532 Y6.383 0.00000
G1 X21.734 Y6.512 0.00000
G1 X22.506 Y6.661 0.00000
G1 X23.167 Y6.826 0.00000
G1 X24.274 Y7.192 0.00000
G1 X24.440 Y7.201 0.00000
G1 X24.617 Y7.163 0.00000
G1 X24.855 Y7.022 0.00000
G1 X25.052 Y6.764 0.00000
G1 X25.649 Y5.193 0.00000
G1 X26.215 Y5.440 0.00000
G1 X27.334 Y6.025 0.00000
G1 X28.272 Y6.611 0.00000
G1 X28.903 Y7.062 0.00000
G1 X27.862 Y8.386 0.00000
G1 X27.746 Y8.651 0.00000
G1 X27.725 Y8.831 0.00000
G1 X27.745 Y9.007 0.00000
G1 X27.805 Y9.167 0.00000
G1 X27.909 Y9.304 0.00000
G1 X28.459 Y9.775 0.00000
G1 X28.949 Y10.248 0.00000
G1 X29.690 Y11.084 0.00000
G1 X29.833 Y11.195 0.00000
G1 X30.027 Y11.262 0.00000
G1 X30.242 Y11.271 0.00000
G1 X30.564 Y11.169 0.00000
G1 X31.914 Y10.074 0.00000
G1 X32.281 Y10.572 0.00000
G1 X32.958 Y11.637 0.00000
G1 X33.477 Y12.614 0.00000
G1 X33.793 Y13.322 0.00000
G1 X32.234 Y13.946 0.00000
G1 X31.994 Y14.124 0.00000
G1 X31.841 Y14.365 0.00000
G1 X31.794 Y14.589 0.00000
G1 X31.817 Y14.764 0.00000
G1 X32.057 Y15.448 0.00000
G1 X32.245 Y16.102 0.00000
G1 X32.483 Y17.254 0.00000
G1 X32.615 Y17.467 0.00000
G1 X32.787 Y17.600 0.00000
G1 X32.983 Y17.678 0.00000
G1 X33.194 Y17.706 0.00000
G1 X34.900 Y17.434 0.00000
G1 X34.969 Y18.050 0.00000
G1 X35.015 Y18.949 0.00000
G1 X35.021 Y19.513 0.00000
G1 X34.983 Y20.414 0.00000
G1 X34.903 Y21.187 0.00000
G1 X33.191 Y20.946 0.00000
G1 X32.983 Y20.973 0.00000
G1 X32.787 Y21.051 0.00000
G1 X32.615 Y21.184 0.00000
G1 X32.486 Y21.387 0.00000
G1 X32.337 Y22.159 0.00000
G1 X32.172 Y22.820 0.00000
G1 X31.806 Y23.927 0.00000
G1 X31.798 Y24.093 0.00000
G1 X31.836 Y24.269 0.00000
G1 X31.976 Y24.508 0.00000
G1 X32.234 Y24.705 0.00000
G1 X33.805 Y25.302 0.00000
G1 X33.558 Y25.868 0.00000
G1 X32.974 Y26.986 0.00000
G1 X32.387 Y27.925 0.00000
G1 X31.937 Y28.556 0.00000
G1 X30.612 Y27.514 0.00000
G1 X30.347 Y27.399 0.00000
G1 X30.167 Y27.377 0.00000
G1 X29.991 Y27.397 0.00000
G1 X29.831 Y27.458 0.00000
G1 X29.695 Y27.562 0.00000
G1 X29.223 Y28.112 0.00000
G1 X28.751 Y28.601 0.00000
G1 X27.915 Y29.343 0.00000
G1 X27.803 Y29.485 0.00000
G1 X27.736 Y29.679 0.00000
G1 X27.727 Y29.895 0.00000
G1 X27.829 Y30.216 0.00000
G1 X28.925 Y31.567 0.00000
G1 X28.426 Y31.934 0.00000
G1 X27.361 Y32.611 0.00000
G1 X26.385 Y33.130 0.00000
G1 X25.676 Y33.445 0.00000
G1 X25.052 Y31.887 0.00000
G1 X24.874 Y31.647 0.00000
G1 X24.633 Y31.493 0.00000
G1 X24.409 Y31.447 0.00000
G1 X24.234 Y31.469 0.00000
G1 X23.550 Y31.710 0.00000
G1 X22.896 Y31.898 0.00000
G1 X21.745 Y32.136 0.00000
G1 X21.531 Y32.268 0.00000
G1 X21.398 Y32.440 0.00000
G1 X21.320 Y32.636 0.00000
G1 X21.293 Y32.846 0.00000
G1 X21.564 Y34.553 0.00000
G1 X20.948 Y34.622 0.00000
G1 X20.049 Y34.668 0.00000
G1 X19.485 Y34.673 0.00000
G1 X18.584 Y34.636 0.00000
G1 X17.811 Y34.555 0.00000
G1 X18.053 Y32.844 0.00000
G1 X18.025 Y32.636 0.00000
G1 X17.948 Y32.440 0.00000
G1 X17.814 Y32.268 0.00000
G1 X17.611 Y32.139 0.00000
G1 X16.839 Y31.990 0.00000
G1 X16.178 Y31.825 0.00000
G1 X15.071 Y31.459 0.00000
G1 X14.905 Y31.450 0.00000
G1 X14.814 Y31.470 0.00000
G1 X14.510 Y31.318 F900.000
G1 Z-143.000 F900.000
G1 X18.374 Y22.156 F900.000
G1 F900
G1 X18.374 Y21.334 0.00000
G1 X18.077 Y21.112 0.00000
G1 X17.795 Y20.812 0.00000
G1 X17.568 Y20.468 0.00000
G1 X17.403 Y20.090 0.00000
G1 X17.305 Y19.689 0.00000
G1 X17.278 Y19.278 0.00000
G1 X17.322 Y18.868 0.00000
G1 X17.435 Y18.472 0.00000
G1 X17.615 Y18.101 0.00000
G1 X17.855 Y17.766 0.00000
G1 X18.149 Y17.477 0.00000
G1 X18.489 Y17.243 0.00000
G1 X18.864 Y17.071 0.00000
G1 X19.262 Y16.966 0.00000
G1 X19.673 Y16.930 0.00000
G1 X20.083 Y16.966 0.00000
G1 X20.482 Y17.071 0.00000
G1 X20.857 Y17.243 0.00000
G1 X21.196 Y17.477 0.00000
G1 X21.490 Y17.766 0.00000
G1 X21.731 Y18.101 0.00000
G1 X21.910 Y18.472 0.00000
G1 X22.024 Y18.868 0.00000
G1 X22.067 Y19.278 0.00000
G1 X22.040 Y19.689 0.00000
G1 X21.943 Y20.090 0.00000
G1 X21.778 Y20.468 0.00000
G1 X21.551 Y20.812 0.00000
G1 X21.268 Y21.112 0.00000
G1 X20.972 Y21.334 0.00000
G1 X20.972 Y22.156 0.00000
G1 X18.461 Y22.156 0.00000
G1 X18.766 Y21.763 F900.000
G1 F900
G1 X18.766 Y21.101 0.00000
G1 X18.615 Y21.024 0.00000
G1 X18.340 Y20.818 0.00000
G1 X18.104 Y20.567 0.00000
G1 X17.914 Y20.280 0.00000
G1 X17.776 Y19.964 0.00000
G1 X17.695 Y19.629 0.00000
G1 X17.672 Y19.286 0.00000
G1 X17.709 Y18.943 0.00000
G1 X17.803 Y18.612 0.00000
G1 X17.953 Y18.302 0.00000
G1 X18.154 Y18.022 0.00000
G1 X18.400 Y17.781 0.00000
G1 X18.684 Y17.586 0.00000
G1 X18.997 Y17.442 0.00000
G1 X19.330 Y17.354 0.00000
G1 X19.673 Y17.325 0.00000
G1 X20.016 Y17.354 0.00000
G1 X20.349 Y17.442 0.00000
G1 X20.662 Y17.586 0.00000
G1 X20.945 Y17.781 0.00000
G1 X21.191 Y18.022 0.00000
G1 X21.392 Y18.302 0.00000
G1 X21.542 Y18.612 0.00000
G1 X21.637 Y18.943 0.00000
G1 X21.673 Y19.286 0.00000
G1 X21.650 Y19.629 0.00000
G1 X21.569 Y19.964 0.00000
G1 X21.431 Y20.280 0.00000
G1 X21.242 Y20.567 0.00000
G1 X21.006 Y20.818 0.00000
G1 X20.730 Y21.024 0.00000
G1 X20.579 Y21.101 0.00000
