DVAR $hFile

G71
G76
G91 ;G90 = absolute, G91 = relative
G68

RAMP TYPE SINE X Y
VELOCITY OFF
RAMP RATE 900

ENABLE X Y D
G90
G0 D-80 F60
G0 X0 Y0 {Z}0 F60
G91

;Begin Motion
G0 X150 Y50 F60
G0 D-149.5 F60
G1 F30

FILECLOSE
$hFile = FILEOPEN "COM5", 2
COMMINIT $hFile, "baud=115200 parity=N data=8 stop=1"
COMMSETTIMEOUT $hFile, -1, -1, 1000


FILEWRITE $hFile"\x05\x02\x30\x38\x50\x53\x20\x20\x30\x33\x34\x30\x45\x45\x03"

; generated by Slic3r 1.3.0 on 2023-03-24 at 19:19:54 
; external perimeters extrusion width = 0.50mm (2.95mm^3/s) 
; perimeters extrusion width = 0.50mm (2.95mm^3/s) 
; infill extrusion width = 0.50mm (2.95mm^3/s) 
; solid infill extrusion width = 0.50mm (2.95mm^3/s) 
; top infill extrusion width = 0.50mm (2.95mm^3/s) 
; Filament gcode 
; G21 ; set units to millimeters 
G90 ; use absolute coordinates 
G1 D-149.500 ;not extruding 
G1 X12.970 Y12.923 ;not extruding 
FILEWRITE $hFile"\x05\x02\x30\x34\x44\x49\x20\x20\x43\x46\x03"
DWELL 0.3
G1 X14.340 Y11.684 ;extruding 
G1 X15.844 Y10.651 ;extruding 
G1 X17.509 Y9.806 ;extruding 
G1 X19.255 Y9.200 ;extruding 
G1 X21.065 Y8.832 ;extruding 
G1 X22.886 Y8.710 ;extruding 
G1 X24.749 Y8.832 ;extruding 
G1 X26.560 Y9.200 ;extruding 
G1 X28.305 Y9.806 ;extruding 
G1 X29.953 Y10.639 ;extruding 
G1 X31.475 Y11.684 ;extruding 
G1 X32.845 Y12.923 ;extruding 
G1 X34.037 Y14.333 ;extruding 
G1 X35.031 Y15.890 ;extruding 
G1 X35.809 Y17.565 ;extruding 
G1 X36.356 Y19.329 ;extruding 
G1 X36.663 Y21.150 ;extruding 
G1 X36.725 Y22.996 ;extruding 
G1 X36.540 Y24.833 ;extruding 
G1 X36.112 Y26.630 ;extruding 
G1 X35.448 Y28.353 ;extruding 
G1 X34.560 Y29.973 ;extruding 
G1 X33.465 Y31.459 ;extruding 
G1 X32.181 Y32.787 ;extruding 
G1 X30.749 Y33.918 ;extruding 
G1 X29.144 Y34.872 ;extruding 
G1 X27.442 Y35.594 ;extruding 
G1 X25.661 Y36.082 ;extruding 
G1 X23.831 Y36.328 ;extruding 
G1 X21.984 Y36.328 ;extruding 
G1 X20.154 Y36.082 ;extruding 
G1 X18.373 Y35.594 ;extruding 
G1 X16.672 Y34.873 ;extruding 
G1 X15.083 Y33.931 ;extruding 
G1 X13.634 Y32.787 ;extruding 
G1 X12.350 Y31.459 ;extruding 
G1 X11.255 Y29.973 ;extruding 
G1 X10.367 Y28.353 ;extruding 
G1 X9.703 Y26.630 ;extruding 
G1 X9.275 Y24.833 ;extruding 
G1 X9.090 Y22.996 ;extruding 
G1 X9.152 Y21.150 ;extruding 
G1 X9.456 Y19.350 ;extruding 
G1 X10.006 Y17.566 ;extruding 
G1 X10.784 Y15.890 ;extruding 
G1 X11.778 Y14.333 ;extruding 
G1 X12.914 Y12.989 ;extruding 
FILEWRITE $hFile"\x05\x02\x30\x34\x44\x49\x20\x20\x43\x46\x03"
DWELL 0.3
G1 X13.253 Y13.196 ;not extruding 
FILEWRITE $hFile"\x05\x02\x30\x34\x44\x49\x20\x20\x43\x46\x03"
DWELL 0.3
G1 X14.583 Y11.993 ;extruding 
G1 X16.045 Y10.989 ;extruding 
G1 X17.663 Y10.169 ;extruding 
G1 X19.359 Y9.580 ;extruding 
G1 X21.117 Y9.222 ;extruding 
G1 X22.886 Y9.104 ;extruding 
G1 X24.697 Y9.222 ;extruding 
G1 X26.456 Y9.580 ;extruding 
G1 X28.151 Y10.168 ;extruding 
G1 X29.752 Y10.977 ;extruding 
G1 X31.232 Y11.993 ;extruding 
G1 X32.562 Y13.196 ;extruding 
G1 X33.721 Y14.567 ;extruding 
G1 X34.686 Y16.079 ;extruding 
G1 X35.441 Y17.706 ;extruding 
G1 X35.973 Y19.420 ;extruding 
G1 X36.271 Y21.189 ;extruding 
G1 X36.331 Y22.983 ;extruding 
G1 X36.152 Y24.768 ;extruding 
G1 X35.736 Y26.513 ;extruding 
G1 X35.091 Y28.187 ;extruding 
G1 X34.229 Y29.761 ;extruding 
G1 X33.164 Y31.205 ;extruding 
G1 X31.917 Y32.495 ;extruding 
G1 X30.526 Y33.594 ;extruding 
G1 X28.966 Y34.521 ;extruding 
G1 X27.313 Y35.222 ;extruding 
G1 X25.583 Y35.696 ;extruding 
G1 X23.805 Y35.935 ;extruding 
G1 X22.010 Y35.935 ;extruding 
G1 X20.232 Y35.696 ;extruding 
G1 X18.502 Y35.222 ;extruding 
G1 X16.850 Y34.521 ;extruding 
G1 X15.306 Y33.607 ;extruding 
G1 X13.898 Y32.495 ;extruding 
G1 X12.651 Y31.205 ;extruding 
G1 X11.586 Y29.761 ;extruding 
G1 X10.724 Y28.187 ;extruding 
G1 X10.079 Y26.513 ;extruding 
G1 X9.663 Y24.768 ;extruding 
G1 X9.484 Y22.983 ;extruding 
G1 X9.544 Y21.189 ;extruding 
G1 X9.839 Y19.441 ;extruding 
G1 X10.373 Y17.707 ;extruding 
G1 X11.129 Y16.079 ;extruding 
G1 X12.094 Y14.567 ;extruding 
G1 X13.197 Y13.263 ;extruding 
FILEWRITE $hFile"\x05\x02\x30\x34\x44\x49\x20\x20\x43\x46\x03"
DWELL 0.3
G1 X13.536 Y13.470 ;not extruding 
FILEWRITE $hFile"\x05\x02\x30\x34\x44\x49\x20\x20\x43\x46\x03"
DWELL 0.3
G1 X14.827 Y12.302 ;extruding 
G1 X16.246 Y11.328 ;extruding 
G1 X17.817 Y10.531 ;extruding 
G1 X19.463 Y9.959 ;extruding 
G1 X21.170 Y9.612 ;extruding 
G1 X22.887 Y9.497 ;extruding 
G1 X24.644 Y9.612 ;extruding 
G1 X26.352 Y9.959 ;extruding 
G1 X27.997 Y10.531 ;extruding 
G1 X29.552 Y11.316 ;extruding 
G1 X30.988 Y12.302 ;extruding 
G1 X32.279 Y13.470 ;extruding 
G1 X33.404 Y14.800 ;extruding 
G1 X34.341 Y16.268 ;extruding 
G1 X35.074 Y17.848 ;extruding 
G1 X35.590 Y19.511 ;extruding 
G1 X35.880 Y21.229 ;extruding 
G1 X35.938 Y22.969 ;extruding 
G1 X35.764 Y24.702 ;extruding 
G1 X35.360 Y26.396 ;extruding 
G1 X34.734 Y28.022 ;extruding 
G1 X33.897 Y29.549 ;extruding 
G1 X32.864 Y30.951 ;extruding 
G1 X31.653 Y32.203 ;extruding 
G1 X30.303 Y33.270 ;extruding 
G1 X28.788 Y34.170 ;extruding 
G1 X27.184 Y34.850 ;extruding 
G1 X25.504 Y35.310 ;extruding 
G1 X23.778 Y35.542 ;extruding 
G1 X22.037 Y35.542 ;extruding 
G1 X20.311 Y35.310 ;extruding 
G1 X18.631 Y34.850 ;extruding 
G1 X17.027 Y34.170 ;extruding 
G1 X15.529 Y33.283 ;extruding 
G1 X14.162 Y32.203 ;extruding 
G1 X12.951 Y30.951 ;extruding 
G1 X11.918 Y29.549 ;extruding 
G1 X11.081 Y28.022 ;extruding 
G1 X10.455 Y26.396 ;extruding 
G1 X10.051 Y24.702 ;extruding 
G1 X9.877 Y22.969 ;extruding 
G1 X9.935 Y21.229 ;extruding 
G1 X10.221 Y19.532 ;extruding 
G1 X10.741 Y17.849 ;extruding 
G1 X11.474 Y16.268 ;extruding 
G1 X12.411 Y14.800 ;extruding 
G1 X13.480 Y13.536 ;extruding 
FILEWRITE $hFile"\x05\x02\x30\x34\x44\x49\x20\x20\x43\x46\x03"
DWELL 0.3
G1 X13.819 Y13.744 ;not extruding 
FILEWRITE $hFile"\x05\x02\x30\x34\x44\x49\x20\x20\x43\x46\x03"
DWELL 0.3
G1 X15.071 Y12.611 ;extruding 
G1 X16.447 Y11.666 ;extruding 
G1 X17.971 Y10.893 ;extruding 
G1 X19.567 Y10.339 ;extruding 
G1 X21.222 Y10.002 ;extruding 
G1 X22.887 Y9.891 ;extruding 
G1 X24.592 Y10.002 ;extruding 
G1 X26.248 Y10.339 ;extruding 
G1 X27.844 Y10.893 ;extruding 
G1 X29.351 Y11.655 ;extruding 
G1 X30.744 Y12.611 ;extruding 
G1 X31.996 Y13.744 ;extruding 
G1 X33.087 Y15.033 ;extruding 
G1 X33.996 Y16.457 ;extruding 
G1 X34.707 Y17.989 ;extruding 
G1 X35.207 Y19.603 ;extruding 
G1 X35.488 Y21.268 ;extruding 
G1 X35.545 Y22.956 ;extruding 
G1 X35.375 Y24.637 ;extruding 
G1 X34.984 Y26.280 ;extruding 
G1 X34.377 Y27.856 ;extruding 
G1 X33.565 Y29.337 ;extruding 
G1 X32.563 Y30.697 ;extruding 
G1 X31.389 Y31.911 ;extruding 
G1 X30.080 Y32.945 ;extruding 
G1 X28.611 Y33.819 ;extruding 
G1 X27.055 Y34.478 ;extruding 
G1 X25.426 Y34.924 ;extruding 
G1 X23.752 Y35.150 ;extruding 
G1 X22.063 Y35.150 ;extruding 
G1 X20.389 Y34.924 ;extruding 
G1 X18.760 Y34.478 ;extruding 
G1 X17.205 Y33.819 ;extruding 
G1 X15.752 Y32.958 ;extruding 
G1 X14.426 Y31.911 ;extruding 
G1 X13.252 Y30.697 ;extruding 
G1 X12.250 Y29.337 ;extruding 
G1 X11.438 Y27.856 ;extruding 
G1 X10.831 Y26.280 ;extruding 
G1 X10.439 Y24.637 ;extruding 
G1 X10.270 Y22.956 ;extruding 
G1 X10.327 Y21.268 ;extruding 
G1 X10.604 Y19.623 ;extruding 
G1 X11.108 Y17.990 ;extruding 
G1 X11.819 Y16.457 ;extruding 
G1 X12.728 Y15.033 ;extruding 
G1 X13.762 Y13.810 ;extruding 
FILEWRITE $hFile"\x05\x02\x30\x34\x44\x49\x20\x20\x43\x46\x03"
DWELL 0.3
G1 X14.101 Y14.017 ;not extruding 
FILEWRITE $hFile"\x05\x02\x30\x34\x44\x49\x20\x20\x43\x46\x03"
DWELL 0.3
G1 X15.315 Y12.919 ;extruding 
G1 X16.648 Y12.005 ;extruding 
G1 X18.125 Y11.255 ;extruding 
G1 X19.671 Y10.718 ;extruding 
G1 X21.275 Y10.392 ;extruding 
G1 X22.887 Y10.284 ;extruding 
G1 X24.540 Y10.392 ;extruding 
G1 X26.144 Y10.718 ;extruding 
G1 X27.690 Y11.255 ;extruding 
G1 X29.151 Y11.993 ;extruding 
G1 X30.500 Y12.919 ;extruding 
G1 X31.713 Y14.017 ;extruding 
G1 X32.770 Y15.267 ;extruding 
G1 X33.651 Y16.646 ;extruding 
G1 X34.339 Y18.131 ;extruding 
G1 X34.824 Y19.694 ;extruding 
G1 X35.097 Y21.307 ;extruding 
G1 X35.151 Y22.943 ;extruding 
G1 X34.987 Y24.571 ;extruding 
G1 X34.608 Y26.163 ;extruding 
G1 X34.020 Y27.690 ;extruding 
G1 X33.233 Y29.126 ;extruding 
G1 X32.263 Y30.443 ;extruding 
G1 X31.125 Y31.619 ;extruding 
G1 X29.857 Y32.621 ;extruding 
G1 X28.433 Y33.467 ;extruding 
G1 X26.926 Y34.106 ;extruding 
G1 X25.348 Y34.539 ;extruding 
G1 X23.726 Y34.757 ;extruding 
G1 X22.089 Y34.757 ;extruding 
G1 X20.467 Y34.539 ;extruding 
G1 X18.889 Y34.106 ;extruding 
G1 X17.382 Y33.468 ;extruding 
G1 X15.974 Y32.634 ;extruding 
G1 X14.690 Y31.619 ;extruding 
G1 X13.552 Y30.443 ;extruding 
G1 X12.582 Y29.126 ;extruding 
G1 X11.795 Y27.690 ;extruding 
G1 X11.207 Y26.163 ;extruding 
G1 X10.828 Y24.571 ;extruding 
G1 X10.664 Y22.943 ;extruding 
G1 X10.718 Y21.307 ;extruding 
G1 X10.987 Y19.714 ;extruding 
G1 X11.475 Y18.131 ;extruding 
G1 X12.164 Y16.646 ;extruding 
G1 X13.045 Y15.267 ;extruding 
G1 X14.045 Y14.084 ;extruding 
FILEWRITE $hFile"\x05\x02\x30\x34\x44\x49\x20\x20\x43\x46\x03"
DWELL 0.3
G1 X14.101 Y14.017 ;not extruding 
G1 X12.403 Y12.906 ;not extruding 
FILEWRITE $hFile"\x05\x02\x30\x34\x44\x49\x20\x20\x43\x46\x03"
DWELL 0.3
G1 X12.628 Y12.563 ;extruding 
G1 X16.296 Y9.842 ;extruding 
G1 X19.582 Y8.755 ;extruding 
G1 X20.452 Y8.425 ;extruding 
G1 X25.009 Y8.380 ;extruding 
G1 X29.279 Y9.722 ;extruding 
G1 X32.926 Y12.318 ;extruding 
G1 X35.599 Y15.923 ;extruding 
G1 X36.686 Y19.208 ;extruding 
G1 X37.017 Y20.078 ;extruding 
G1 X37.061 Y24.635 ;extruding 
G1 X35.716 Y28.915 ;extruding 
G1 X33.697 Y31.726 ;extruding 
G1 X33.187 Y32.505 ;extruding 
G1 X29.519 Y35.225 ;extruding 
G1 X26.233 Y36.312 ;extruding 
G1 X25.363 Y36.643 ;extruding 
G1 X20.806 Y36.687 ;extruding 
G1 X16.526 Y35.342 ;extruding 
G1 X13.715 Y33.323 ;extruding 
G1 X12.936 Y32.814 ;extruding 
G1 X10.216 Y29.145 ;extruding 
G1 X9.129 Y25.859 ;extruding 
G1 X8.798 Y24.989 ;extruding 
G1 X8.754 Y20.433 ;extruding 
G1 X10.099 Y16.152 ;extruding 
G1 X12.118 Y13.342 ;extruding 
G1 X12.355 Y12.979 ;extruding 
FILEWRITE $hFile"\x05\x02\x30\x34\x44\x49\x20\x20\x43\x46\x03"
DWELL 0.3
G1 X12.074 Y12.691 ;not extruding 
FILEWRITE $hFile"\x05\x02\x30\x34\x44\x49\x20\x20\x43\x46\x03"
DWELL 0.3
G1 X12.337 Y12.289 ;extruding 
G1 X16.113 Y9.489 ;extruding 
G1 X19.450 Y8.385 ;extruding 
G1 X20.378 Y8.033 ;extruding 
G1 X25.067 Y7.987 ;extruding 
G1 X29.456 Y9.366 ;extruding 
G1 X33.205 Y12.035 ;extruding 
G1 X35.952 Y15.739 ;extruding 
G1 X37.056 Y19.076 ;extruding 
G1 X37.409 Y20.004 ;extruding 
G1 X37.454 Y24.693 ;extruding 
G1 X36.072 Y29.093 ;extruding 
G1 X34.021 Y31.948 ;extruding 
G1 X33.478 Y32.778 ;extruding 
G1 X29.702 Y35.578 ;extruding 
G1 X26.365 Y36.682 ;extruding 
G1 X25.437 Y37.035 ;extruding 
G1 X20.748 Y37.080 ;extruding 
G1 X16.348 Y35.698 ;extruding 
G1 X13.493 Y33.647 ;extruding 
G1 X12.663 Y33.104 ;extruding 
G1 X9.863 Y29.328 ;extruding 
G1 X8.759 Y25.991 ;extruding 
G1 X8.406 Y25.063 ;extruding 
G1 X8.361 Y20.374 ;extruding 
G1 X9.743 Y15.974 ;extruding 
G1 X11.794 Y13.119 ;extruding 
G1 X12.027 Y12.764 ;extruding 
FILEWRITE $hFile"\x05\x02\x30\x34\x44\x49\x20\x20\x43\x46\x03"
DWELL 0.3
G1 X12.144 Y11.944 ;not extruding 
FILEWRITE $hFile"\x05\x02\x30\x34\x44\x49\x20\x20\x43\x46\x03"
DWELL 0.3
G1 X15.925 Y9.140 ;extruding 
G1 X15.789 Y8.871 ;extruding 
G1 X15.942 Y9.133 ;extruding 
G1 X19.319 Y8.015 ;extruding 
G1 X20.396 Y7.606 ;extruding 
G1 X20.349 Y7.293 ;extruding 
G1 X20.424 Y7.639 ;extruding 
G1 X25.126 Y7.594 ;extruding 
G1 X25.184 Y7.248 ;extruding 
G1 X25.149 Y7.601 ;extruding 
G1 X29.634 Y9.011 ;extruding 
G1 X29.796 Y8.700 ;extruding 
G1 X29.653 Y9.024 ;extruding 
G1 X33.488 Y11.754 ;extruding 
G1 X33.702 Y11.541 ;extruding 
G1 X33.498 Y11.770 ;extruding 
G1 X36.301 Y15.551 ;extruding 
G1 X36.571 Y15.415 ;extruding 
G1 X36.309 Y15.568 ;extruding 
G1 X37.426 Y18.945 ;extruding 
G1 X37.837 Y20.026 ;extruding 
G1 X38.102 Y19.985 ;extruding 
G1 X37.802 Y20.051 ;extruding 
G1 X37.847 Y24.752 ;extruding 
G1 X38.193 Y24.810 ;extruding 
G1 X37.840 Y24.775 ;extruding 
G1 X36.431 Y29.260 ;extruding 
G1 X36.742 Y29.422 ;extruding 
G1 X36.420 Y29.281 ;extruding 
G1 X34.345 Y32.170 ;extruding 
G1 X33.711 Y33.138 ;extruding 
G1 X33.900 Y33.328 ;extruding 
G1 X33.671 Y33.124 ;extruding 
G1 X29.890 Y35.927 ;extruding 
G1 X30.026 Y36.197 ;extruding 
G1 X29.873 Y35.935 ;extruding 
G1 X26.496 Y37.052 ;extruding 
G1 X25.415 Y37.463 ;extruding 
G1 X25.456 Y37.728 ;extruding 
G1 X25.391 Y37.428 ;extruding 
G1 X20.689 Y37.474 ;extruding 
G1 X20.631 Y37.819 ;extruding 
G1 X20.666 Y37.466 ;extruding 
G1 X16.181 Y36.057 ;extruding 
G1 X16.019 Y36.368 ;extruding 
G1 X16.160 Y36.046 ;extruding 
G1 X13.271 Y33.971 ;extruding 
G1 X12.303 Y33.338 ;extruding 
G1 X12.113 Y33.526 ;extruding 
G1 X12.317 Y33.297 ;extruding 
G1 X9.514 Y29.516 ;extruding 
G1 X9.244 Y29.653 ;extruding 
G1 X9.506 Y29.500 ;extruding 
G1 X8.389 Y26.123 ;extruding 
G1 X7.978 Y25.041 ;extruding 
G1 X7.713 Y25.082 ;extruding 
G1 X8.013 Y25.017 ;extruding 
G1 X7.968 Y20.315 ;extruding 
G1 X7.622 Y20.257 ;extruding 
G1 X7.975 Y20.293 ;extruding 
G1 X9.386 Y15.802 ;extruding 
G1 X9.117 Y15.664 ;extruding 
G1 X9.395 Y15.786 ;extruding 
G1 X11.470 Y12.897 ;extruding 
G1 X12.104 Y11.929 ;extruding 
G1 X11.915 Y11.739 ;extruding 
G1 X12.079 Y11.886 ;extruding 
FILEWRITE $hFile"\x05\x02\x30\x34\x44\x49\x20\x20\x43\x46\x03"
DWELL 0.3
G1 X12.167 Y11.438 ;not extruding 
FILEWRITE $hFile"\x05\x02\x30\x34\x44\x49\x20\x20\x43\x46\x03"
DWELL 0.3
G1 X15.425 Y9.022 ;extruding 
G1 X13.684 Y5.577 ;extruding 
G1 X14.278 Y5.259 ;extruding 
G1 X15.651 Y7.856 ;extruding 
G1 X16.120 Y8.660 ;extruding 
G1 X19.187 Y7.645 ;extruding 
G1 X19.961 Y7.351 ;extruding 
G1 X19.374 Y3.557 ;extruding 
G1 X20.038 Y3.438 ;extruding 
G1 X20.542 Y6.332 ;extruding 
G1 X20.740 Y7.244 ;extruding 
G1 X24.793 Y7.204 ;extruding 
G1 X25.410 Y3.399 ;extruding 
G1 X26.083 Y3.486 ;extruding 
G1 X25.664 Y6.396 ;extruding 
G1 X25.571 Y7.322 ;extruding 
G1 X29.438 Y8.537 ;extruding 
G1 X31.203 Y5.105 ;extruding 
G1 X31.811 Y5.398 ;extruding 
G1 X30.517 Y8.036 ;extruding 
G1 X30.141 Y8.890 ;extruding 
G1 X33.446 Y11.242 ;extruding 
G1 X36.184 Y8.522 ;extruding 
G1 X36.577 Y8.891 ;extruding 
G1 X36.672 Y8.991 ;extruding 
G1 X34.623 Y11.099 ;extruding 
G1 X34.004 Y11.793 ;extruding 
G1 X36.419 Y15.051 ;extruding 
G1 X39.864 Y13.310 ;extruding 
G1 X40.182 Y13.904 ;extruding 
G1 X37.585 Y15.278 ;extruding 
G1 X36.781 Y15.746 ;extruding 
G1 X37.796 Y18.813 ;extruding 
G1 X38.091 Y19.590 ;extruding 
G1 X41.884 Y19.001 ;extruding 
G1 X42.003 Y19.665 ;extruding 
G1 X39.109 Y20.168 ;extruding 
G1 X38.198 Y20.366 ;extruding 
G1 X38.237 Y24.419 ;extruding 
G1 X42.047 Y25.037 ;extruding 
G1 X41.955 Y25.709 ;extruding 
G1 X39.045 Y25.290 ;extruding 
G1 X38.119 Y25.197 ;extruding 
G1 X36.904 Y29.064 ;extruding 
G1 X40.337 Y30.829 ;extruding 
G1 X40.041 Y31.440 ;extruding 
G1 X37.403 Y30.142 ;extruding 
G1 X36.553 Y29.769 ;extruding 
G1 X34.669 Y32.392 ;extruding 
G1 X34.214 Y33.087 ;extruding 
G1 X36.919 Y35.810 ;extruding 
G1 X36.550 Y36.204 ;extruding 
G1 X36.450 Y36.298 ;extruding 
G1 X34.343 Y34.249 ;extruding 
G1 X33.648 Y33.630 ;extruding 
G1 X30.390 Y36.046 ;extruding 
G1 X32.131 Y39.490 ;extruding 
G1 X31.537 Y39.808 ;extruding 
G1 X30.164 Y37.211 ;extruding 
G1 X29.695 Y36.408 ;extruding 
G1 X26.628 Y37.422 ;extruding 
G1 X25.852 Y37.718 ;extruding 
G1 X26.440 Y41.510 ;extruding 
G1 X25.777 Y41.630 ;extruding 
G1 X25.273 Y38.735 ;extruding 
G1 X25.075 Y37.824 ;extruding 
G1 X21.022 Y37.863 ;extruding 
G1 X20.404 Y41.673 ;extruding 
G1 X19.735 Y41.582 ;extruding 
G1 X20.151 Y38.673 ;extruding 
G1 X20.244 Y37.745 ;extruding 
G1 X16.377 Y36.530 ;extruding 
G1 X14.612 Y39.963 ;extruding 
G1 X14.001 Y39.667 ;extruding 
G1 X15.299 Y37.029 ;extruding 
G1 X15.673 Y36.180 ;extruding 
G1 X13.049 Y34.295 ;extruding 
G1 X12.354 Y33.840 ;extruding 
G1 X9.631 Y36.546 ;extruding 
G1 X9.238 Y36.176 ;extruding 
G1 X9.143 Y36.077 ;extruding 
G1 X11.192 Y33.969 ;extruding 
G1 X11.811 Y33.274 ;extruding 
G1 X9.396 Y30.016 ;extruding 
G1 X5.951 Y31.757 ;extruding 
G1 X5.633 Y31.163 ;extruding 
G1 X8.230 Y29.790 ;extruding 
G1 X9.034 Y29.321 ;extruding 
G1 X8.019 Y26.254 ;extruding 
G1 X7.724 Y25.478 ;extruding 
G1 X3.931 Y26.066 ;extruding 
G1 X3.812 Y25.403 ;extruding 
G1 X6.706 Y24.899 ;extruding 
G1 X7.617 Y24.701 ;extruding 
G1 X7.578 Y20.648 ;extruding 
G1 X3.768 Y20.030 ;extruding 
G1 X3.860 Y19.358 ;extruding 
G1 X6.770 Y19.777 ;extruding 
G1 X7.696 Y19.870 ;extruding 
G1 X8.912 Y16.000 ;extruding 
G1 X5.479 Y14.237 ;extruding 
G1 X5.774 Y13.628 ;extruding 
G1 X8.412 Y14.925 ;extruding 
G1 X9.262 Y15.299 ;extruding 
G1 X11.146 Y12.675 ;extruding 
G1 X11.601 Y11.980 ;extruding 
G1 X8.896 Y9.258 ;extruding 
G1 X9.265 Y8.864 ;extruding 
G1 X9.365 Y8.769 ;extruding 
G1 X11.472 Y10.818 ;extruding 
G1 X12.102 Y11.380 ;extruding 
FILEWRITE $hFile"\x05\x02\x30\x34\x44\x49\x20\x20\x43\x46\x03"
DWELL 0.3
G1 X12.190 Y10.932 ;not extruding 
FILEWRITE $hFile"\x05\x02\x30\x34\x44\x49\x20\x20\x43\x46\x03"
DWELL 0.3
G1 X14.925 Y8.904 ;extruding 
G1 X13.157 Y5.420 ;extruding 
G1 X13.977 Y4.968 ;extruding 
G1 X14.451 Y4.741 ;extruding 
G1 X15.995 Y7.667 ;extruding 
G1 X16.299 Y8.187 ;extruding 
G1 X19.056 Y7.275 ;extruding 
G1 X19.526 Y7.096 ;extruding 
G1 X18.923 Y3.244 ;extruding 
G1 X19.842 Y3.068 ;extruding 
G1 X20.363 Y2.999 ;extruding 
G1 X20.928 Y6.258 ;extruding 
G1 X21.056 Y6.848 ;extruding 
G1 X24.460 Y6.815 ;extruding 
G1 X25.078 Y2.959 ;extruding 
G1 X26.010 Y3.074 ;extruding 
G1 X26.526 Y3.169 ;extruding 
G1 X26.054 Y6.444 ;extruding 
G1 X25.994 Y7.043 ;extruding 
G1 X29.242 Y8.064 ;extruding 
G1 X31.022 Y4.586 ;extruding 
G1 X31.870 Y4.984 ;extruding 
G1 X32.331 Y5.234 ;extruding 
G1 X30.872 Y8.203 ;extruding 
G1 X30.630 Y8.755 ;extruding 
G1 X33.404 Y10.730 ;extruding 
G1 X36.171 Y7.972 ;extruding 
G1 X36.854 Y8.612 ;extruding 
G1 X37.217 Y8.994 ;extruding 
G1 X34.910 Y11.366 ;extruding 
G1 X34.509 Y11.816 ;extruding 
G1 X36.538 Y14.551 ;extruding 
G1 X40.022 Y12.783 ;extruding 
G1 X40.474 Y13.603 ;extruding 
G1 X40.700 Y14.077 ;extruding 
G1 X37.775 Y15.622 ;extruding 
G1 X37.254 Y15.925 ;extruding 
G1 X38.166 Y18.682 ;extruding 
G1 X38.345 Y19.153 ;extruding 
G1 X42.197 Y18.549 ;extruding 
G1 X42.373 Y19.469 ;extruding 
G1 X42.443 Y19.989 ;extruding 
G1 X39.183 Y20.554 ;extruding 
G1 X38.593 Y20.682 ;extruding 
G1 X38.626 Y24.086 ;extruding 
G1 X42.484 Y24.705 ;extruding 
G1 X42.368 Y25.634 ;extruding 
G1 X42.272 Y26.152 ;extruding 
G1 X38.997 Y25.680 ;extruding 
G1 X38.398 Y25.620 ;extruding 
G1 X37.377 Y28.868 ;extruding 
G1 X40.855 Y30.648 ;extruding 
G1 X40.457 Y31.496 ;extruding 
G1 X40.207 Y31.959 ;extruding 
G1 X37.238 Y30.498 ;extruding 
G1 X36.687 Y30.256 ;extruding 
G1 X34.993 Y32.614 ;extruding 
G1 X34.717 Y33.036 ;extruding 
G1 X37.470 Y35.797 ;extruding 
G1 X36.829 Y36.480 ;extruding 
G1 X36.447 Y36.843 ;extruding 
G1 X34.075 Y34.537 ;extruding 
G1 X33.625 Y34.136 ;extruding 
G1 X30.890 Y36.164 ;extruding 
G1 X32.658 Y39.648 ;extruding 
G1 X31.838 Y40.100 ;extruding 
G1 X31.364 Y40.326 ;extruding 
G1 X29.820 Y37.401 ;extruding 
G1 X29.516 Y36.880 ;extruding 
G1 X26.759 Y37.793 ;extruding 
G1 X26.288 Y37.972 ;extruding 
G1 X26.892 Y41.823 ;extruding 
G1 X25.972 Y42.000 ;extruding 
G1 X25.452 Y42.069 ;extruding 
G1 X24.887 Y38.809 ;extruding 
G1 X24.759 Y38.220 ;extruding 
G1 X21.355 Y38.253 ;extruding 
G1 X20.737 Y42.111 ;extruding 
G1 X19.807 Y41.994 ;extruding 
G1 X19.291 Y41.899 ;extruding 
G1 X19.761 Y38.624 ;extruding 
G1 X19.821 Y38.024 ;extruding 
G1 X16.573 Y37.003 ;extruding 
G1 X14.793 Y40.482 ;extruding 
G1 X13.945 Y40.084 ;extruding 
G1 X13.482 Y39.833 ;extruding 
G1 X14.943 Y36.864 ;extruding 
G1 X15.185 Y36.313 ;extruding 
G1 X12.827 Y34.619 ;extruding 
G1 X12.405 Y34.343 ;extruding 
G1 X9.644 Y37.096 ;extruding 
G1 X8.961 Y36.455 ;extruding 
G1 X8.598 Y36.074 ;extruding 
G1 X10.904 Y33.701 ;extruding 
G1 X11.306 Y33.251 ;extruding 
G1 X9.277 Y30.516 ;extruding 
G1 X5.793 Y32.284 ;extruding 
G1 X5.341 Y31.464 ;extruding 
G1 X5.115 Y30.990 ;extruding 
G1 X8.040 Y29.446 ;extruding 
G1 X8.561 Y29.142 ;extruding 
G1 X7.649 Y26.386 ;extruding 
G1 X7.470 Y25.915 ;extruding 
G1 X3.618 Y26.519 ;extruding 
G1 X3.442 Y25.599 ;extruding 
G1 X3.372 Y25.078 ;extruding 
G1 X6.632 Y24.513 ;extruding 
G1 X7.222 Y24.385 ;extruding 
G1 X7.189 Y20.981 ;extruding 
G1 X3.331 Y20.363 ;extruding 
G1 X3.447 Y19.433 ;extruding 
G1 X3.543 Y18.916 ;extruding 
G1 X6.818 Y19.387 ;extruding 
G1 X7.417 Y19.447 ;extruding 
G1 X8.438 Y16.199 ;extruding 
G1 X4.960 Y14.419 ;extruding 
G1 X5.358 Y13.572 ;extruding 
G1 X5.608 Y13.109 ;extruding 
G1 X8.577 Y14.569 ;extruding 
G1 X9.128 Y14.811 ;extruding 
G1 X10.822 Y12.453 ;extruding 
G1 X11.098 Y12.031 ;extruding 
G1 X8.345 Y9.270 ;extruding 
G1 X8.986 Y8.587 ;extruding 
G1 X9.368 Y8.224 ;extruding 
G1 X11.740 Y10.531 ;extruding 
G1 X12.125 Y10.874 ;extruding 
FILEWRITE $hFile"\x05\x02\x30\x34\x44\x49\x20\x20\x43\x46\x03"
DWELL 0.3
G1 X12.561 Y11.378 ;not extruding 
G1 D-149.000 ;not extruding 
G1 X13.531 Y12.415 ;not extruding 
FILEWRITE $hFile"\x05\x02\x30\x34\x44\x49\x20\x20\x43\x46\x03"
DWELL 0.3
G1 X14.340 Y11.684 ;extruding 
G1 X15.862 Y10.639 ;extruding 
G1 X17.510 Y9.806 ;extruding 
G1 X19.255 Y9.200 ;extruding 
G1 X21.065 Y8.832 ;extruding 
G1 X22.843 Y8.713 ;extruding 
G1 X24.746 Y8.831 ;extruding 
G1 X26.560 Y9.200 ;extruding 
G1 X28.305 Y9.806 ;extruding 
G1 X29.895 Y10.610 ;extruding 
G1 X31.472 Y11.681 ;extruding 
G1 X32.845 Y12.923 ;extruding 
G1 X34.037 Y14.333 ;extruding 
G1 X35.031 Y15.890 ;extruding 
G1 X35.809 Y17.565 ;extruding 
G1 X36.356 Y19.329 ;extruding 
G1 X36.663 Y21.150 ;extruding 
G1 X36.725 Y22.996 ;extruding 
G1 X36.540 Y24.833 ;extruding 
G1 X36.112 Y26.630 ;extruding 
G1 X35.448 Y28.353 ;extruding 
G1 X34.591 Y29.916 ;extruding 
G1 X33.468 Y31.456 ;extruding 
G1 X32.181 Y32.787 ;extruding 
G1 X30.732 Y33.931 ;extruding 
G1 X29.143 Y34.873 ;extruding 
G1 X27.442 Y35.594 ;extruding 
G1 X25.661 Y36.082 ;extruding 
G1 X23.831 Y36.328 ;extruding 
G1 X21.984 Y36.328 ;extruding 
G1 X20.154 Y36.082 ;extruding 
G1 X18.373 Y35.594 ;extruding 
G1 X16.672 Y34.873 ;extruding 
G1 X15.083 Y33.931 ;extruding 
G1 X13.634 Y32.787 ;extruding 
G1 X12.350 Y31.459 ;extruding 
G1 X11.293 Y30.025 ;extruding 
G1 X10.369 Y28.357 ;extruding 
G1 X9.698 Y26.617 ;extruding 
G1 X9.275 Y24.832 ;extruding 
G1 X9.090 Y22.996 ;extruding 
G1 X9.152 Y21.150 ;extruding 
G1 X9.459 Y19.329 ;extruding 
G1 X10.006 Y17.565 ;extruding 
G1 X10.784 Y15.890 ;extruding 
G1 X11.743 Y14.387 ;extruding 
G1 X12.967 Y12.926 ;extruding 
G1 X13.467 Y12.473 ;extruding 
FILEWRITE $hFile"\x05\x02\x30\x34\x44\x49\x20\x20\x43\x46\x03"
DWELL 0.3
G1 X13.795 Y12.706 ;not extruding 
FILEWRITE $hFile"\x05\x02\x30\x34\x44\x49\x20\x20\x43\x46\x03"
DWELL 0.3
G1 X14.583 Y11.993 ;extruding 
G1 X16.063 Y10.977 ;extruding 
G1 X17.664 Y10.168 ;extruding 
G1 X19.359 Y9.580 ;extruding 
G1 X21.117 Y9.222 ;extruding 
G1 X22.844 Y9.107 ;extruding 
G1 X24.694 Y9.222 ;extruding 
G1 X26.456 Y9.580 ;extruding 
G1 X28.151 Y10.168 ;extruding 
G1 X29.696 Y10.949 ;extruding 
G1 X31.229 Y11.991 ;extruding 
G1 X32.562 Y13.196 ;extruding 
G1 X33.721 Y14.567 ;extruding 
G1 X34.686 Y16.079 ;extruding 
G1 X35.441 Y17.706 ;extruding 
G1 X35.973 Y19.420 ;extruding 
G1 X36.271 Y21.189 ;extruding 
G1 X36.331 Y22.983 ;extruding 
G1 X36.152 Y24.768 ;extruding 
G1 X35.736 Y26.513 ;extruding 
G1 X35.091 Y28.187 ;extruding 
G1 X34.259 Y29.705 ;extruding 
G1 X33.167 Y31.203 ;extruding 
G1 X31.917 Y32.495 ;extruding 
G1 X30.509 Y33.607 ;extruding 
G1 X28.965 Y34.521 ;extruding 
G1 X27.313 Y35.222 ;extruding 
G1 X25.583 Y35.696 ;extruding 
G1 X23.805 Y35.935 ;extruding 
G1 X22.010 Y35.935 ;extruding 
G1 X20.232 Y35.696 ;extruding 
G1 X18.502 Y35.222 ;extruding 
G1 X16.850 Y34.521 ;extruding 
G1 X15.306 Y33.607 ;extruding 
G1 X13.898 Y32.495 ;extruding 
G1 X12.651 Y31.205 ;extruding 
G1 X11.624 Y29.812 ;extruding 
G1 X10.725 Y28.191 ;extruding 
G1 X10.074 Y26.501 ;extruding 
G1 X9.663 Y24.767 ;extruding 
G1 X9.484 Y22.983 ;extruding 
G1 X9.544 Y21.189 ;extruding 
G1 X9.842 Y19.420 ;extruding 
G1 X10.374 Y17.706 ;extruding 
G1 X11.129 Y16.079 ;extruding 
G1 X12.060 Y14.620 ;extruding 
G1 X13.250 Y13.199 ;extruding 
G1 X13.730 Y12.765 ;extruding 
FILEWRITE $hFile"\x05\x02\x30\x34\x44\x49\x20\x20\x43\x46\x03"
DWELL 0.3
G1 X14.058 Y12.998 ;not extruding 
FILEWRITE $hFile"\x05\x02\x30\x34\x44\x49\x20\x20\x43\x46\x03"
DWELL 0.3
G1 X14.827 Y12.302 ;extruding 
G1 X16.263 Y11.316 ;extruding 
G1 X17.818 Y10.531 ;extruding 
G1 X19.463 Y9.959 ;extruding 
G1 X21.170 Y9.612 ;extruding 
G1 X22.845 Y9.500 ;extruding 
G1 X24.643 Y9.612 ;extruding 
G1 X26.352 Y9.959 ;extruding 
G1 X27.997 Y10.531 ;extruding 
G1 X29.496 Y11.288 ;extruding 
G1 X30.986 Y12.300 ;extruding 
G1 X32.279 Y13.470 ;extruding 
G1 X33.404 Y14.800 ;extruding 
G1 X34.341 Y16.268 ;extruding 
G1 X35.074 Y17.848 ;extruding 
G1 X35.590 Y19.511 ;extruding 
G1 X35.880 Y21.229 ;extruding 
G1 X35.938 Y22.969 ;extruding 
G1 X35.764 Y24.702 ;extruding 
G1 X35.360 Y26.396 ;extruding 
G1 X34.734 Y28.022 ;extruding 
G1 X33.927 Y29.494 ;extruding 
G1 X32.866 Y30.949 ;extruding 
G1 X31.653 Y32.203 ;extruding 
G1 X30.286 Y33.283 ;extruding 
G1 X28.788 Y34.170 ;extruding 
G1 X27.184 Y34.850 ;extruding 
G1 X25.504 Y35.310 ;extruding 
G1 X23.778 Y35.542 ;extruding 
G1 X22.037 Y35.542 ;extruding 
G1 X20.311 Y35.310 ;extruding 
G1 X18.631 Y34.850 ;extruding 
G1 X17.027 Y34.170 ;extruding 
G1 X15.529 Y33.283 ;extruding 
G1 X14.162 Y32.203 ;extruding 
G1 X12.951 Y30.951 ;extruding 
G1 X11.955 Y29.599 ;extruding 
G1 X11.082 Y28.024 ;extruding 
G1 X10.450 Y26.384 ;extruding 
G1 X10.051 Y24.702 ;extruding 
G1 X9.877 Y22.969 ;extruding 
G1 X9.935 Y21.229 ;extruding 
G1 X10.225 Y19.511 ;extruding 
G1 X10.741 Y17.848 ;extruding 
G1 X11.474 Y16.268 ;extruding 
G1 X12.378 Y14.853 ;extruding 
G1 X13.534 Y13.472 ;extruding 
G1 X13.994 Y13.056 ;extruding 
FILEWRITE $hFile"\x05\x02\x30\x34\x44\x49\x20\x20\x43\x46\x03"
DWELL 0.3
G1 X14.321 Y13.289 ;not extruding 
FILEWRITE $hFile"\x05\x02\x30\x34\x44\x49\x20\x20\x43\x46\x03"
DWELL 0.3
G1 X15.071 Y12.611 ;extruding 
G1 X16.464 Y11.655 ;extruding 
G1 X17.971 Y10.893 ;extruding 
G1 X19.567 Y10.339 ;extruding 
G1 X21.222 Y10.002 ;extruding 
G1 X22.846 Y9.894 ;extruding 
G1 X24.591 Y10.002 ;extruding 
G1 X26.248 Y10.339 ;extruding 
G1 X27.844 Y10.893 ;extruding 
G1 X29.296 Y11.627 ;extruding 
G1 X30.743 Y12.610 ;extruding 
G1 X31.996 Y13.744 ;extruding 
G1 X33.087 Y15.033 ;extruding 
G1 X33.996 Y16.457 ;extruding 
G1 X34.707 Y17.989 ;extruding 
G1 X35.207 Y19.603 ;extruding 
G1 X35.488 Y21.268 ;extruding 
G1 X35.545 Y22.956 ;extruding 
G1 X35.375 Y24.637 ;extruding 
G1 X34.984 Y26.280 ;extruding 
G1 X34.377 Y27.856 ;extruding 
G1 X33.595 Y29.283 ;extruding 
G1 X32.564 Y30.696 ;extruding 
G1 X31.389 Y31.911 ;extruding 
G1 X30.063 Y32.958 ;extruding 
G1 X28.610 Y33.819 ;extruding 
G1 X27.055 Y34.478 ;extruding 
G1 X25.426 Y34.924 ;extruding 
G1 X23.752 Y35.150 ;extruding 
G1 X22.063 Y35.150 ;extruding 
G1 X20.389 Y34.924 ;extruding 
G1 X18.760 Y34.478 ;extruding 
G1 X17.205 Y33.819 ;extruding 
G1 X15.752 Y32.958 ;extruding 
G1 X14.426 Y31.911 ;extruding 
G1 X13.252 Y30.697 ;extruding 
G1 X12.286 Y29.387 ;extruding 
G1 X11.439 Y27.858 ;extruding 
G1 X10.826 Y26.268 ;extruding 
G1 X10.439 Y24.636 ;extruding 
G1 X10.270 Y22.956 ;extruding 
G1 X10.327 Y21.268 ;extruding 
G1 X10.608 Y19.603 ;extruding 
G1 X11.108 Y17.989 ;extruding 
G1 X11.819 Y16.457 ;extruding 
G1 X12.695 Y15.085 ;extruding 
G1 X13.817 Y13.745 ;extruding 
G1 X14.257 Y13.347 ;extruding 
FILEWRITE $hFile"\x05\x02\x30\x34\x44\x49\x20\x20\x43\x46\x03"
DWELL 0.3
G1 X14.585 Y13.580 ;not extruding 
FILEWRITE $hFile"\x05\x02\x30\x34\x44\x49\x20\x20\x43\x46\x03"
DWELL 0.3
G1 X15.315 Y12.919 ;extruding 
G1 X16.664 Y11.993 ;extruding 
G1 X18.125 Y11.255 ;extruding 
G1 X19.671 Y10.718 ;extruding 
G1 X21.275 Y10.392 ;extruding 
G1 X22.847 Y10.287 ;extruding 
G1 X24.540 Y10.392 ;extruding 
G1 X26.144 Y10.718 ;extruding 
G1 X27.690 Y11.255 ;extruding 
G1 X29.096 Y11.966 ;extruding 
G1 X30.499 Y12.919 ;extruding 
G1 X31.713 Y14.017 ;extruding 
G1 X32.770 Y15.267 ;extruding 
G1 X33.651 Y16.646 ;extruding 
G1 X34.339 Y18.131 ;extruding 
G1 X34.824 Y19.694 ;extruding 
G1 X35.097 Y21.307 ;extruding 
G1 X35.151 Y22.943 ;extruding 
G1 X34.987 Y24.571 ;extruding 
G1 X34.608 Y26.163 ;extruding 
G1 X34.020 Y27.690 ;extruding 
G1 X33.263 Y29.072 ;extruding 
G1 X32.263 Y30.443 ;extruding 
G1 X31.125 Y31.619 ;extruding 
G1 X29.841 Y32.634 ;extruding 
G1 X28.433 Y33.468 ;extruding 
G1 X26.926 Y34.106 ;extruding 
G1 X25.348 Y34.539 ;extruding 
G1 X23.726 Y34.757 ;extruding 
G1 X22.089 Y34.757 ;extruding 
G1 X20.467 Y34.539 ;extruding 
G1 X18.889 Y34.106 ;extruding 
G1 X17.382 Y33.468 ;extruding 
G1 X15.974 Y32.634 ;extruding 
G1 X14.690 Y31.619 ;extruding 
G1 X13.552 Y30.443 ;extruding 
G1 X12.618 Y29.174 ;extruding 
G1 X11.795 Y27.691 ;extruding 
G1 X11.202 Y26.151 ;extruding 
G1 X10.828 Y24.571 ;extruding 
G1 X10.664 Y22.943 ;extruding 
G1 X10.718 Y21.307 ;extruding 
G1 X10.991 Y19.694 ;extruding 
G1 X11.476 Y18.131 ;extruding 
G1 X12.164 Y16.646 ;extruding 
G1 X13.012 Y15.318 ;extruding 
G1 X14.101 Y14.018 ;extruding 
G1 X14.520 Y13.638 ;extruding 
FILEWRITE $hFile"\x05\x02\x30\x34\x44\x49\x20\x20\x43\x46\x03"
DWELL 0.3
G1 X14.444 Y13.017 ;not extruding 
G1 X13.493 Y12.078 ;not extruding 
FILEWRITE $hFile"\x05\x02\x30\x34\x44\x49\x20\x20\x43\x46\x03"
DWELL 0.3
G1 X14.318 Y11.425 ;extruding 
G1 X14.803 Y11.072 ;extruding 
G1 X16.092 Y10.036 ;extruding 
G1 X17.341 Y9.630 ;extruding 
G1 X18.171 Y9.314 ;extruding 
G1 X18.741 Y9.129 ;extruding 
G1 X20.288 Y8.541 ;extruding 
G1 X21.601 Y8.541 ;extruding 
G1 X22.488 Y8.498 ;extruding 
G1 X23.088 Y8.498 ;extruding 
G1 X24.740 Y8.416 ;extruding 
G1 X25.978 Y8.819 ;extruding 
G1 X29.034 Y9.689 ;extruding 
G1 X30.075 Y10.446 ;extruding 
G1 X30.818 Y10.931 ;extruding 
G1 X31.303 Y11.284 ;extruding 
G1 X32.688 Y12.190 ;extruding 
G1 X33.460 Y13.252 ;extruding 
G1 X34.016 Y13.944 ;extruding 
G1 X34.369 Y14.429 ;extruding 
G1 X35.406 Y15.718 ;extruding 
G1 X35.811 Y16.967 ;extruding 
G1 X36.127 Y17.797 ;extruding 
G1 X36.312 Y18.368 ;extruding 
G1 X36.900 Y19.914 ;extruding 
G1 X36.900 Y21.227 ;extruding 
G1 X36.944 Y22.114 ;extruding 
G1 X36.944 Y22.714 ;extruding 
G1 X37.025 Y24.366 ;extruding 
G1 X36.619 Y25.615 ;extruding 
G1 X36.386 Y26.472 ;extruding 
G1 X36.201 Y27.042 ;extruding 
G1 X35.768 Y28.639 ;extruding 
G1 X35.002 Y29.692 ;extruding 
G1 X33.230 Y32.330 ;extruding 
G1 X32.189 Y33.086 ;extruding 
G1 X31.497 Y33.642 ;extruding 
G1 X31.012 Y33.995 ;extruding 
G1 X29.723 Y35.032 ;extruding 
G1 X28.474 Y35.438 ;extruding 
G1 X27.644 Y35.753 ;extruding 
G1 X27.074 Y35.938 ;extruding 
G1 X25.527 Y36.526 ;extruding 
G1 X24.214 Y36.526 ;extruding 
G1 X23.327 Y36.570 ;extruding 
G1 X22.727 Y36.570 ;extruding 
G1 X21.075 Y36.651 ;extruding 
G1 X19.826 Y36.245 ;extruding 
G1 X18.969 Y36.013 ;extruding 
G1 X18.399 Y35.827 ;extruding 
G1 X16.802 Y35.394 ;extruding 
G1 X15.749 Y34.628 ;extruding 
G1 X13.112 Y32.856 ;extruding 
G1 X12.362 Y31.824 ;extruding 
G1 X10.401 Y29.324 ;extruding 
G1 X10.003 Y28.100 ;extruding 
G1 X9.688 Y27.270 ;extruding 
G1 X9.503 Y26.700 ;extruding 
G1 X8.915 Y25.153 ;extruding 
G1 X8.915 Y23.840 ;extruding 
G1 X8.871 Y22.954 ;extruding 
G1 X8.871 Y22.354 ;extruding 
G1 X8.790 Y20.701 ;extruding 
G1 X9.196 Y19.452 ;extruding 
G1 X9.429 Y18.596 ;extruding 
G1 X9.614 Y18.025 ;extruding 
G1 X10.047 Y16.429 ;extruding 
G1 X10.813 Y15.375 ;extruding 
G1 X12.585 Y12.738 ;extruding 
G1 X13.423 Y12.129 ;extruding 
FILEWRITE $hFile"\x05\x02\x30\x34\x44\x49\x20\x20\x43\x46\x03"
DWELL 0.3
G1 X13.263 Y11.760 ;not extruding 
FILEWRITE $hFile"\x05\x02\x30\x34\x44\x49\x20\x20\x43\x46\x03"
DWELL 0.3
G1 X14.079 Y11.113 ;extruding 
G1 X14.564 Y10.760 ;extruding 
G1 X15.902 Y9.684 ;extruding 
G1 X17.211 Y9.259 ;extruding 
G1 X18.040 Y8.944 ;extruding 
G1 X18.611 Y8.758 ;extruding 
G1 X20.216 Y8.148 ;extruding 
G1 X21.591 Y8.148 ;extruding 
G1 X22.478 Y8.105 ;extruding 
G1 X23.078 Y8.105 ;extruding 
G1 X24.793 Y8.021 ;extruding 
G1 X26.093 Y8.443 ;extruding 
G1 X29.209 Y9.331 ;extruding 
G1 X30.298 Y10.122 ;extruding 
G1 X31.041 Y10.608 ;extruding 
G1 X31.526 Y10.961 ;extruding 
G1 X32.963 Y11.900 ;extruding 
G1 X33.772 Y13.014 ;extruding 
G1 X34.328 Y13.705 ;extruding 
G1 X34.681 Y14.191 ;extruding 
G1 X35.757 Y15.528 ;extruding 
G1 X36.182 Y16.837 ;extruding 
G1 X36.497 Y17.666 ;extruding 
G1 X36.683 Y18.237 ;extruding 
G1 X37.293 Y19.842 ;extruding 
G1 X37.293 Y21.218 ;extruding 
G1 X37.336 Y22.104 ;extruding 
G1 X37.336 Y22.704 ;extruding 
G1 X37.421 Y24.419 ;extruding 
G1 X36.995 Y25.727 ;extruding 
G1 X36.763 Y26.584 ;extruding 
G1 X36.577 Y27.155 ;extruding 
G1 X36.128 Y28.811 ;extruding 
G1 X35.324 Y29.917 ;extruding 
G1 X33.517 Y32.606 ;extruding 
G1 X32.428 Y33.398 ;extruding 
G1 X31.736 Y33.954 ;extruding 
G1 X31.251 Y34.307 ;extruding 
G1 X29.913 Y35.383 ;extruding 
G1 X28.604 Y35.808 ;extruding 
G1 X27.775 Y36.124 ;extruding 
G1 X27.204 Y36.309 ;extruding 
G1 X25.599 Y36.919 ;extruding 
G1 X24.224 Y36.919 ;extruding 
G1 X23.337 Y36.963 ;extruding 
G1 X22.737 Y36.963 ;extruding 
G1 X21.022 Y37.047 ;extruding 
G1 X19.714 Y36.622 ;extruding 
G1 X18.857 Y36.389 ;extruding 
G1 X18.287 Y36.204 ;extruding 
G1 X16.630 Y35.754 ;extruding 
G1 X15.524 Y34.950 ;extruding 
G1 X12.835 Y33.144 ;extruding 
G1 X12.048 Y32.061 ;extruding 
G1 X10.049 Y29.512 ;extruding 
G1 X9.633 Y28.231 ;extruding 
G1 X9.318 Y27.401 ;extruding 
G1 X9.132 Y26.830 ;extruding 
G1 X8.522 Y25.226 ;extruding 
G1 X8.522 Y23.850 ;extruding 
G1 X8.479 Y22.963 ;extruding 
G1 X8.479 Y22.363 ;extruding 
G1 X8.394 Y20.649 ;extruding 
G1 X8.820 Y19.340 ;extruding 
G1 X9.052 Y18.483 ;extruding 
G1 X9.238 Y17.913 ;extruding 
G1 X9.687 Y16.256 ;extruding 
G1 X10.491 Y15.150 ;extruding 
G1 X12.298 Y12.461 ;extruding 
G1 X13.192 Y11.811 ;extruding 
FILEWRITE $hFile"\x05\x02\x30\x34\x44\x49\x20\x20\x43\x46\x03"
DWELL 0.3
G1 X13.032 Y11.442 ;not extruding 
FILEWRITE $hFile"\x05\x02\x30\x34\x44\x49\x20\x20\x43\x46\x03"
DWELL 0.3
G1 X13.840 Y10.801 ;extruding 
G1 X14.326 Y10.448 ;extruding 
G1 X15.687 Y9.353 ;extruding 
G1 X15.613 Y9.205 ;extruding 
G1 X15.692 Y9.340 ;extruding 
G1 X17.080 Y8.889 ;extruding 
G1 X17.910 Y8.573 ;extruding 
G1 X18.480 Y8.388 ;extruding 
G1 X20.113 Y7.767 ;extruding 
G1 X20.089 Y7.603 ;extruding 
G1 X20.122 Y7.756 ;extruding 
G1 X21.582 Y7.756 ;extruding 
G1 X22.468 Y7.712 ;extruding 
G1 X23.068 Y7.712 ;extruding 
G1 X24.813 Y7.626 ;extruding 
G1 X24.840 Y7.463 ;extruding 
G1 X24.825 Y7.618 ;extruding 
G1 X26.207 Y8.067 ;extruding 
G1 X29.322 Y8.954 ;extruding 
G1 X29.403 Y8.798 ;extruding 
G1 X29.340 Y8.941 ;extruding 
G1 X30.521 Y9.799 ;extruding 
G1 X31.264 Y10.285 ;extruding 
G1 X31.749 Y10.637 ;extruding 
G1 X33.211 Y11.594 ;extruding 
G1 X33.330 Y11.477 ;extruding 
G1 X33.226 Y11.594 ;extruding 
G1 X34.084 Y12.775 ;extruding 
G1 X34.640 Y13.467 ;extruding 
G1 X34.993 Y13.952 ;extruding 
G1 X36.088 Y15.313 ;extruding 
G1 X36.236 Y15.239 ;extruding 
G1 X36.101 Y15.318 ;extruding 
G1 X36.552 Y16.706 ;extruding 
G1 X36.868 Y17.536 ;extruding 
G1 X37.053 Y18.107 ;extruding 
G1 X37.674 Y19.739 ;extruding 
G1 X37.838 Y19.715 ;extruding 
G1 X37.685 Y19.748 ;extruding 
G1 X37.685 Y21.208 ;extruding 
G1 X37.729 Y22.095 ;extruding 
G1 X37.729 Y22.695 ;extruding 
G1 X37.815 Y24.439 ;extruding 
G1 X37.978 Y24.467 ;extruding 
G1 X37.823 Y24.451 ;extruding 
G1 X37.372 Y25.839 ;extruding 
G1 X37.139 Y26.696 ;extruding 
G1 X36.954 Y27.267 ;extruding 
G1 X36.496 Y28.953 ;extruding 
G1 X36.643 Y29.029 ;extruding 
G1 X36.500 Y28.966 ;extruding 
G1 X35.646 Y30.142 ;extruding 
G1 X33.840 Y32.830 ;extruding 
G1 X33.964 Y32.956 ;extruding 
G1 X33.847 Y32.852 ;extruding 
G1 X32.666 Y33.710 ;extruding 
G1 X31.975 Y34.266 ;extruding 
G1 X31.489 Y34.619 ;extruding 
G1 X30.128 Y35.714 ;extruding 
G1 X30.202 Y35.862 ;extruding 
G1 X30.123 Y35.728 ;extruding 
G1 X28.735 Y36.179 ;extruding 
G1 X27.905 Y36.494 ;extruding 
G1 X27.335 Y36.679 ;extruding 
G1 X25.702 Y37.300 ;extruding 
G1 X25.726 Y37.464 ;extruding 
G1 X25.693 Y37.312 ;extruding 
G1 X24.233 Y37.312 ;extruding 
G1 X23.347 Y37.355 ;extruding 
G1 X22.747 Y37.355 ;extruding 
G1 X21.002 Y37.441 ;extruding 
G1 X20.975 Y37.604 ;extruding 
G1 X20.990 Y37.449 ;extruding 
G1 X19.602 Y36.998 ;extruding 
G1 X18.745 Y36.765 ;extruding 
G1 X18.174 Y36.580 ;extruding 
G1 X16.489 Y36.122 ;extruding 
G1 X16.412 Y36.269 ;extruding 
G1 X16.475 Y36.127 ;extruding 
G1 X15.299 Y35.272 ;extruding 
G1 X12.611 Y33.466 ;extruding 
G1 X12.485 Y33.590 ;extruding 
G1 X12.589 Y33.474 ;extruding 
G1 X11.735 Y32.298 ;extruding 
G1 X9.737 Y29.750 ;extruding 
G1 X9.579 Y29.828 ;extruding 
G1 X9.714 Y29.750 ;extruding 
G1 X9.262 Y28.361 ;extruding 
G1 X8.947 Y27.531 ;extruding 
G1 X8.762 Y26.961 ;extruding 
G1 X8.141 Y25.328 ;extruding 
G1 X7.977 Y25.352 ;extruding 
G1 X8.130 Y25.319 ;extruding 
G1 X8.130 Y23.859 ;extruding 
G1 X8.086 Y22.973 ;extruding 
G1 X8.086 Y22.373 ;extruding 
G1 X8.000 Y20.628 ;extruding 
G1 X7.837 Y20.601 ;extruding 
G1 X7.992 Y20.616 ;extruding 
G1 X8.443 Y19.228 ;extruding 
G1 X8.676 Y18.371 ;extruding 
G1 X8.861 Y17.801 ;extruding 
G1 X9.319 Y16.115 ;extruding 
G1 X9.172 Y16.038 ;extruding 
G1 X9.315 Y16.101 ;extruding 
G1 X10.169 Y14.925 ;extruding 
G1 X11.975 Y12.237 ;extruding 
G1 X11.851 Y12.112 ;extruding 
G1 X11.968 Y12.215 ;extruding 
G1 X12.961 Y11.493 ;extruding 
FILEWRITE $hFile"\x05\x02\x30\x34\x44\x49\x20\x20\x43\x46\x03"
DWELL 0.3
G1 X11.993 Y11.712 ;not extruding 
FILEWRITE $hFile"\x05\x02\x30\x34\x44\x49\x20\x20\x43\x46\x03"
DWELL 0.3
G1 X12.910 Y11.045 ;extruding 
G1 X13.602 Y10.489 ;extruding 
G1 X14.087 Y10.136 ;extruding 
G1 X15.194 Y9.246 ;extruding 
G1 X14.605 Y8.063 ;extruding 
G1 X14.026 Y7.034 ;extruding 
G1 X13.674 Y6.329 ;extruding 
G1 X13.402 Y5.844 ;extruding 
G1 X13.972 Y5.523 ;extruding 
G1 X14.643 Y6.689 ;extruding 
G1 X15.007 Y7.387 ;extruding 
G1 X15.871 Y8.869 ;extruding 
G1 X16.949 Y8.518 ;extruding 
G1 X17.779 Y8.203 ;extruding 
G1 X18.350 Y8.017 ;extruding 
G1 X19.678 Y7.513 ;extruding 
G1 X19.483 Y6.206 ;extruding 
G1 X19.250 Y5.048 ;extruding 
G1 X19.134 Y4.269 ;extruding 
G1 X19.024 Y3.724 ;extruding 
G1 X19.666 Y3.594 ;extruding 
G1 X19.944 Y4.911 ;extruding 
G1 X20.074 Y5.687 ;extruding 
G1 X20.438 Y7.363 ;extruding 
G1 X21.572 Y7.363 ;extruding 
G1 X22.459 Y7.319 ;extruding 
G1 X23.059 Y7.319 ;extruding 
G1 X24.478 Y7.250 ;extruding 
G1 X24.696 Y5.947 ;extruding 
G1 X24.833 Y4.773 ;extruding 
G1 X24.963 Y3.996 ;extruding 
G1 X25.026 Y3.450 ;extruding 
G1 X25.677 Y3.521 ;extruding 
G1 X25.535 Y4.857 ;extruding 
G1 X25.419 Y5.636 ;extruding 
G1 X25.247 Y7.343 ;extruding 
G1 X26.322 Y7.692 ;extruding 
G1 X29.121 Y8.489 ;extruding 
G1 X29.734 Y7.311 ;extruding 
G1 X30.227 Y6.237 ;extruding 
G1 X30.590 Y5.539 ;extruding 
G1 X30.822 Y5.034 ;extruding 
G1 X31.417 Y5.306 ;extruding 
G1 X30.869 Y6.534 ;extruding 
G1 X30.517 Y7.239 ;extruding 
G1 X29.827 Y8.809 ;extruding 
G1 X30.744 Y9.475 ;extruding 
G1 X31.487 Y9.961 ;extruding 
G1 X31.973 Y10.314 ;extruding 
G1 X33.162 Y11.092 ;extruding 
G1 X34.104 Y10.166 ;extruding 
G1 X34.904 Y9.297 ;extruding 
G1 X35.466 Y8.745 ;extruding 
G1 X35.843 Y8.336 ;extruding 
G1 X36.325 Y8.779 ;extruding 
G1 X35.423 Y9.778 ;extruding 
G1 X34.871 Y10.339 ;extruding 
G1 X33.730 Y11.619 ;extruding 
G1 X34.396 Y12.536 ;extruding 
G1 X34.952 Y13.228 ;extruding 
G1 X35.305 Y13.713 ;extruding 
G1 X36.196 Y14.821 ;extruding 
G1 X37.378 Y14.231 ;extruding 
G1 X38.408 Y13.652 ;extruding 
G1 X39.112 Y13.300 ;extruding 
G1 X39.597 Y13.028 ;extruding 
G1 X39.919 Y13.598 ;extruding 
G1 X38.752 Y14.269 ;extruding 
G1 X38.054 Y14.633 ;extruding 
G1 X36.573 Y15.497 ;extruding 
G1 X36.923 Y16.576 ;extruding 
G1 X37.238 Y17.405 ;extruding 
G1 X37.424 Y17.976 ;extruding 
G1 X37.929 Y19.304 ;extruding 
G1 X39.235 Y19.109 ;extruding 
G1 X40.394 Y18.876 ;extruding 
G1 X41.173 Y18.760 ;extruding 
G1 X41.717 Y18.651 ;extruding 
G1 X41.847 Y19.292 ;extruding 
G1 X40.531 Y19.570 ;extruding 
G1 X39.754 Y19.700 ;extruding 
G1 X38.078 Y20.065 ;extruding 
G1 X38.078 Y21.198 ;extruding 
G1 X38.122 Y22.085 ;extruding 
G1 X38.122 Y22.685 ;extruding 
G1 X38.191 Y24.104 ;extruding 
G1 X39.495 Y24.322 ;extruding 
G1 X40.668 Y24.459 ;extruding 
G1 X41.445 Y24.589 ;extruding 
G1 X41.997 Y24.653 ;extruding 
G1 X41.922 Y25.303 ;extruding 
G1 X40.584 Y25.161 ;extruding 
G1 X39.805 Y25.045 ;extruding 
G1 X38.099 Y24.873 ;extruding 
G1 X37.748 Y25.952 ;extruding 
G1 X37.516 Y26.808 ;extruding 
G1 X37.330 Y27.379 ;extruding 
G1 X36.958 Y28.750 ;extruding 
G1 X38.130 Y29.360 ;extruding 
G1 X39.204 Y29.853 ;extruding 
G1 X39.902 Y30.217 ;extruding 
G1 X40.407 Y30.448 ;extruding 
G1 X40.136 Y31.044 ;extruding 
G1 X38.907 Y30.495 ;extruding 
G1 X38.202 Y30.143 ;extruding 
G1 X36.632 Y29.453 ;extruding 
G1 X35.968 Y30.367 ;extruding 
G1 X34.345 Y32.783 ;extruding 
G1 X35.275 Y33.730 ;extruding 
G1 X36.144 Y34.531 ;extruding 
G1 X36.696 Y35.092 ;extruding 
G1 X37.105 Y35.469 ;extruding 
G1 X36.663 Y35.951 ;extruding 
G1 X35.664 Y35.049 ;extruding 
G1 X35.102 Y34.497 ;extruding 
G1 X33.822 Y33.356 ;extruding 
G1 X32.905 Y34.022 ;extruding 
G1 X32.213 Y34.578 ;extruding 
G1 X31.728 Y34.931 ;extruding 
G1 X30.621 Y35.822 ;extruding 
G1 X31.210 Y37.004 ;extruding 
G1 X31.789 Y38.034 ;extruding 
G1 X32.141 Y38.739 ;extruding 
G1 X32.413 Y39.223 ;extruding 
G1 X31.843 Y39.545 ;extruding 
G1 X31.172 Y38.379 ;extruding 
G1 X30.808 Y37.680 ;extruding 
G1 X29.944 Y36.199 ;extruding 
G1 X28.865 Y36.549 ;extruding 
G1 X28.036 Y36.865 ;extruding 
G1 X27.465 Y37.050 ;extruding 
G1 X26.137 Y37.555 ;extruding 
G1 X26.332 Y38.862 ;extruding 
G1 X26.565 Y40.020 ;extruding 
G1 X26.681 Y40.799 ;extruding 
G1 X26.791 Y41.344 ;extruding 
G1 X26.149 Y41.474 ;extruding 
G1 X25.871 Y40.157 ;extruding 
G1 X25.741 Y39.380 ;extruding 
G1 X25.377 Y37.704 ;extruding 
G1 X24.243 Y37.704 ;extruding 
G1 X23.356 Y37.748 ;extruding 
G1 X22.756 Y37.748 ;extruding 
G1 X21.337 Y37.818 ;extruding 
G1 X21.119 Y39.121 ;extruding 
G1 X20.982 Y40.294 ;extruding 
G1 X20.852 Y41.071 ;extruding 
G1 X20.788 Y41.623 ;extruding 
G1 X20.138 Y41.548 ;extruding 
G1 X20.280 Y40.210 ;extruding 
G1 X20.396 Y39.431 ;extruding 
G1 X20.568 Y37.725 ;extruding 
G1 X19.490 Y37.374 ;extruding 
G1 X18.633 Y37.142 ;extruding 
G1 X18.062 Y36.957 ;extruding 
G1 X16.691 Y36.584 ;extruding 
G1 X16.081 Y37.756 ;extruding 
G1 X15.588 Y38.830 ;extruding 
G1 X15.225 Y39.529 ;extruding 
G1 X14.993 Y40.034 ;extruding 
G1 X14.397 Y39.762 ;extruding 
G1 X14.946 Y38.533 ;extruding 
G1 X15.298 Y37.828 ;extruding 
G1 X15.988 Y36.258 ;extruding 
G1 X15.074 Y35.594 ;extruding 
G1 X12.658 Y33.971 ;extruding 
G1 X11.711 Y34.902 ;extruding 
G1 X10.911 Y35.771 ;extruding 
G1 X10.349 Y36.323 ;extruding 
G1 X9.972 Y36.731 ;extruding 
G1 X9.490 Y36.289 ;extruding 
G1 X10.392 Y35.290 ;extruding 
G1 X10.944 Y34.728 ;extruding 
G1 X12.085 Y33.448 ;extruding 
G1 X11.421 Y32.534 ;extruding 
G1 X9.625 Y30.244 ;extruding 
G1 X8.437 Y30.836 ;extruding 
G1 X7.407 Y31.416 ;extruding 
G1 X6.702 Y31.767 ;extruding 
G1 X6.218 Y32.039 ;extruding 
G1 X5.896 Y31.469 ;extruding 
G1 X7.063 Y30.798 ;extruding 
G1 X7.761 Y30.434 ;extruding 
G1 X9.242 Y29.570 ;extruding 
G1 X8.892 Y28.492 ;extruding 
G1 X8.577 Y27.662 ;extruding 
G1 X8.391 Y27.091 ;extruding 
G1 X7.886 Y25.763 ;extruding 
G1 X6.580 Y25.958 ;extruding 
G1 X5.421 Y26.191 ;extruding 
G1 X4.642 Y26.307 ;extruding 
G1 X4.098 Y26.417 ;extruding 
G1 X3.968 Y25.775 ;extruding 
G1 X5.284 Y25.497 ;extruding 
G1 X6.061 Y25.367 ;extruding 
G1 X7.737 Y25.003 ;extruding 
G1 X7.737 Y23.869 ;extruding 
G1 X7.693 Y22.982 ;extruding 
G1 X7.693 Y22.382 ;extruding 
G1 X7.624 Y20.963 ;extruding 
G1 X6.320 Y20.745 ;extruding 
G1 X5.147 Y20.608 ;extruding 
G1 X4.370 Y20.478 ;extruding 
G1 X3.818 Y20.414 ;extruding 
G1 X3.893 Y19.764 ;extruding 
G1 X5.231 Y19.906 ;extruding 
G1 X6.010 Y20.023 ;extruding 
G1 X7.716 Y20.194 ;extruding 
G1 X8.067 Y19.116 ;extruding 
G1 X8.299 Y18.259 ;extruding 
G1 X8.485 Y17.688 ;extruding 
G1 X8.857 Y16.317 ;extruding 
G1 X7.685 Y15.707 ;extruding 
G1 X6.611 Y15.214 ;extruding 
G1 X5.913 Y14.851 ;extruding 
G1 X5.407 Y14.619 ;extruding 
G1 X5.679 Y14.024 ;extruding 
G1 X6.908 Y14.573 ;extruding 
G1 X7.613 Y14.924 ;extruding 
G1 X9.183 Y15.614 ;extruding 
G1 X9.847 Y14.700 ;extruding 
G1 X11.470 Y12.284 ;extruding 
G1 X10.540 Y11.337 ;extruding 
G1 X9.671 Y10.537 ;extruding 
G1 X9.119 Y9.975 ;extruding 
G1 X8.710 Y9.599 ;extruding 
G1 X9.152 Y9.116 ;extruding 
G1 X10.151 Y10.018 ;extruding 
G1 X10.713 Y10.570 ;extruding 
G1 X11.928 Y11.654 ;extruding 
FILEWRITE $hFile"\x05\x02\x30\x34\x44\x49\x20\x20\x43\x46\x03"
DWELL 0.3
G1 X12.018 Y11.208 ;not extruding 
FILEWRITE $hFile"\x05\x02\x30\x34\x44\x49\x20\x20\x43\x46\x03"
DWELL 0.3
G1 X12.671 Y10.733 ;extruding 
G1 X14.702 Y9.138 ;extruding 
G1 X14.258 Y8.247 ;extruding 
G1 X13.679 Y7.218 ;extruding 
G1 X13.327 Y6.513 ;extruding 
G1 X12.867 Y5.695 ;extruding 
G1 X14.137 Y4.989 ;extruding 
G1 X14.392 Y5.479 ;extruding 
G1 X14.987 Y6.499 ;extruding 
G1 X15.351 Y7.198 ;extruding 
G1 X16.051 Y8.397 ;extruding 
G1 X16.819 Y8.148 ;extruding 
G1 X17.649 Y7.832 ;extruding 
G1 X18.219 Y7.647 ;extruding 
G1 X19.243 Y7.258 ;extruding 
G1 X19.096 Y6.274 ;extruding 
G1 X18.863 Y5.115 ;extruding 
G1 X18.747 Y4.336 ;extruding 
G1 X18.562 Y3.417 ;extruding 
G1 X19.988 Y3.138 ;extruding 
G1 X20.079 Y3.682 ;extruding 
G1 X20.330 Y4.836 ;extruding 
G1 X20.460 Y5.613 ;extruding 
G1 X20.755 Y6.970 ;extruding 
G1 X21.562 Y6.970 ;extruding 
G1 X24.143 Y6.873 ;extruding 
G1 X24.307 Y5.892 ;extruding 
G1 X24.444 Y4.718 ;extruding 
G1 X24.574 Y3.941 ;extruding 
G1 X24.682 Y3.014 ;extruding 
G1 X26.124 Y3.185 ;extruding 
G1 X26.043 Y3.730 ;extruding 
G1 X25.925 Y4.906 ;extruding 
G1 X25.808 Y5.685 ;extruding 
G1 X25.670 Y7.067 ;extruding 
G1 X26.436 Y7.316 ;extruding 
G1 X28.921 Y8.024 ;extruding 
G1 X29.381 Y7.139 ;extruding 
G1 X29.874 Y6.065 ;extruding 
G1 X30.238 Y5.366 ;extruding 
G1 X30.629 Y4.514 ;extruding 
G1 X31.946 Y5.126 ;extruding 
G1 X31.700 Y5.620 ;extruding 
G1 X31.224 Y6.701 ;extruding 
G1 X30.873 Y7.406 ;extruding 
G1 X30.314 Y8.677 ;extruding 
G1 X30.967 Y9.152 ;extruding 
G1 X33.112 Y10.590 ;extruding 
G1 X33.822 Y9.893 ;extruding 
G1 X34.622 Y9.024 ;extruding 
G1 X35.184 Y8.472 ;extruding 
G1 X35.819 Y7.782 ;extruding 
G1 X36.789 Y8.672 ;extruding 
G1 X36.883 Y8.771 ;extruding 
G1 X36.496 Y9.164 ;extruding 
G1 X35.710 Y10.046 ;extruding 
G1 X35.158 Y10.608 ;extruding 
G1 X34.233 Y11.644 ;extruding 
G1 X34.708 Y12.298 ;extruding 
G1 X36.303 Y14.328 ;extruding 
G1 X37.194 Y13.884 ;extruding 
G1 X38.224 Y13.305 ;extruding 
G1 X38.928 Y12.953 ;extruding 
G1 X39.746 Y12.494 ;extruding 
G1 X40.452 Y13.763 ;extruding 
G1 X39.962 Y14.018 ;extruding 
G1 X38.942 Y14.613 ;extruding 
G1 X38.243 Y14.977 ;extruding 
G1 X37.044 Y15.677 ;extruding 
G1 X37.293 Y16.445 ;extruding 
G1 X37.609 Y17.275 ;extruding 
G1 X37.794 Y17.846 ;extruding 
G1 X38.183 Y18.869 ;extruding 
G1 X39.168 Y18.722 ;extruding 
G1 X40.326 Y18.489 ;extruding 
G1 X41.105 Y18.373 ;extruding 
G1 X42.024 Y18.188 ;extruding 
G1 X42.304 Y19.614 ;extruding 
G1 X41.759 Y19.705 ;extruding 
G1 X40.605 Y19.956 ;extruding 
G1 X39.828 Y20.086 ;extruding 
G1 X38.471 Y20.381 ;extruding 
G1 X38.471 Y21.189 ;extruding 
G1 X38.568 Y23.769 ;extruding 
G1 X39.550 Y23.933 ;extruding 
G1 X40.723 Y24.070 ;extruding 
G1 X41.500 Y24.200 ;extruding 
G1 X42.432 Y24.308 ;extruding 
G1 X42.257 Y25.751 ;extruding 
G1 X41.711 Y25.669 ;extruding 
G1 X40.535 Y25.551 ;extruding 
G1 X39.756 Y25.434 ;extruding 
G1 X38.374 Y25.296 ;extruding 
G1 X38.125 Y26.064 ;extruding 
G1 X37.892 Y26.921 ;extruding 
G1 X37.707 Y27.491 ;extruding 
G1 X37.420 Y28.548 ;extruding 
G1 X38.303 Y29.008 ;extruding 
G1 X39.376 Y29.500 ;extruding 
G1 X40.075 Y29.864 ;extruding 
G1 X40.928 Y30.255 ;extruding 
G1 X40.316 Y31.572 ;extruding 
G1 X39.822 Y31.326 ;extruding 
G1 X38.740 Y30.851 ;extruding 
G1 X38.035 Y30.499 ;extruding 
G1 X36.764 Y29.940 ;extruding 
G1 X36.290 Y30.592 ;extruding 
G1 X34.849 Y32.736 ;extruding 
G1 X35.549 Y33.448 ;extruding 
G1 X36.418 Y34.248 ;extruding 
G1 X36.970 Y34.810 ;extruding 
G1 X37.660 Y35.446 ;extruding 
G1 X36.770 Y36.415 ;extruding 
G1 X36.670 Y36.509 ;extruding 
G1 X36.277 Y36.122 ;extruding 
G1 X35.395 Y35.336 ;extruding 
G1 X34.833 Y34.784 ;extruding 
G1 X33.797 Y33.859 ;extruding 
G1 X33.144 Y34.334 ;extruding 
G1 X31.113 Y35.930 ;extruding 
G1 X31.557 Y36.820 ;extruding 
G1 X32.136 Y37.850 ;extruding 
G1 X32.488 Y38.555 ;extruding 
G1 X32.948 Y39.372 ;extruding 
G1 X31.678 Y40.078 ;extruding 
G1 X31.423 Y39.589 ;extruding 
G1 X30.828 Y38.568 ;extruding 
G1 X30.464 Y37.870 ;extruding 
G1 X29.764 Y36.670 ;extruding 
G1 X28.996 Y36.920 ;extruding 
G1 X28.166 Y37.235 ;extruding 
G1 X27.596 Y37.420 ;extruding 
G1 X26.572 Y37.810 ;extruding 
G1 X26.719 Y38.794 ;extruding 
G1 X26.952 Y39.952 ;extruding 
G1 X27.068 Y40.731 ;extruding 
G1 X27.253 Y41.651 ;extruding 
G1 X25.827 Y41.930 ;extruding 
G1 X25.736 Y41.385 ;extruding 
G1 X25.485 Y40.231 ;extruding 
G1 X25.355 Y39.454 ;extruding 
G1 X25.060 Y38.097 ;extruding 
G1 X24.253 Y38.097 ;extruding 
G1 X21.672 Y38.194 ;extruding 
G1 X21.508 Y39.176 ;extruding 
G1 X21.371 Y40.349 ;extruding 
G1 X21.241 Y41.126 ;extruding 
G1 X21.133 Y42.058 ;extruding 
G1 X19.691 Y41.883 ;extruding 
G1 X19.772 Y41.337 ;extruding 
G1 X19.890 Y40.161 ;extruding 
G1 X20.007 Y39.382 ;extruding 
G1 X20.145 Y38.001 ;extruding 
G1 X19.377 Y37.751 ;extruding 
G1 X18.521 Y37.518 ;extruding 
G1 X17.950 Y37.333 ;extruding 
G1 X16.893 Y37.046 ;extruding 
G1 X16.434 Y37.929 ;extruding 
G1 X15.941 Y39.003 ;extruding 
G1 X15.577 Y39.701 ;extruding 
G1 X15.186 Y40.554 ;extruding 
G1 X13.869 Y39.942 ;extruding 
G1 X14.115 Y39.448 ;extruding 
G1 X14.591 Y38.366 ;extruding 
G1 X14.942 Y37.661 ;extruding 
G1 X15.501 Y36.390 ;extruding 
G1 X14.849 Y35.916 ;extruding 
G1 X12.705 Y34.475 ;extruding 
G1 X11.993 Y35.175 ;extruding 
G1 X11.193 Y36.044 ;extruding 
G1 X10.631 Y36.596 ;extruding 
G1 X9.996 Y37.286 ;extruding 
G1 X9.026 Y36.396 ;extruding 
G1 X8.932 Y36.297 ;extruding 
G1 X9.319 Y35.903 ;extruding 
G1 X10.105 Y35.021 ;extruding 
G1 X10.657 Y34.460 ;extruding 
G1 X11.582 Y33.423 ;extruding 
G1 X11.108 Y32.771 ;extruding 
G1 X9.514 Y30.738 ;extruding 
G1 X8.621 Y31.183 ;extruding 
G1 X7.591 Y31.763 ;extruding 
G1 X6.886 Y32.114 ;extruding 
G1 X6.069 Y32.574 ;extruding 
G1 X5.363 Y31.304 ;extruding 
G1 X5.853 Y31.050 ;extruding 
G1 X6.873 Y30.454 ;extruding 
G1 X7.571 Y30.090 ;extruding 
G1 X8.771 Y29.390 ;extruding 
G1 X8.521 Y28.622 ;extruding 
G1 X8.206 Y27.792 ;extruding 
G1 X8.021 Y27.222 ;extruding 
G1 X7.632 Y26.198 ;extruding 
G1 X6.647 Y26.345 ;extruding 
G1 X5.489 Y26.578 ;extruding 
G1 X4.710 Y26.694 ;extruding 
G1 X3.791 Y26.879 ;extruding 
G1 X3.511 Y25.454 ;extruding 
G1 X4.056 Y25.362 ;extruding 
G1 X5.210 Y25.111 ;extruding 
G1 X5.987 Y24.981 ;extruding 
G1 X7.344 Y24.686 ;extruding 
G1 X7.344 Y23.879 ;extruding 
G1 X7.247 Y21.298 ;extruding 
G1 X6.265 Y21.134 ;extruding 
G1 X5.092 Y20.997 ;extruding 
G1 X4.315 Y20.867 ;extruding 
G1 X3.383 Y20.759 ;extruding 
G1 X3.534 Y19.451 ;extruding 
G1 X3.558 Y19.317 ;extruding 
G1 X4.104 Y19.398 ;extruding 
G1 X5.280 Y19.516 ;extruding 
G1 X6.059 Y19.633 ;extruding 
G1 X7.441 Y19.772 ;extruding 
G1 X7.690 Y19.004 ;extruding 
G1 X8.395 Y16.519 ;extruding 
G1 X7.512 Y16.060 ;extruding 
G1 X6.439 Y15.567 ;extruding 
G1 X5.740 Y15.204 ;extruding 
G1 X4.887 Y14.812 ;extruding 
G1 X5.499 Y13.495 ;extruding 
G1 X5.993 Y13.741 ;extruding 
G1 X7.075 Y14.217 ;extruding 
G1 X7.780 Y14.568 ;extruding 
G1 X9.051 Y15.127 ;extruding 
G1 X9.525 Y14.475 ;extruding 
G1 X10.966 Y12.331 ;extruding 
G1 X10.266 Y11.619 ;extruding 
G1 X9.397 Y10.819 ;extruding 
G1 X8.845 Y10.257 ;extruding 
G1 X8.155 Y9.622 ;extruding 
G1 X9.045 Y8.652 ;extruding 
G1 X9.144 Y8.558 ;extruding 
G1 X9.538 Y8.945 ;extruding 
G1 X10.420 Y9.731 ;extruding 
G1 X10.982 Y10.283 ;extruding 
G1 X11.953 Y11.150 ;extruding 
FILEWRITE $hFile"\x05\x02\x30\x34\x44\x49\x20\x20\x43\x46\x03"
DWELL 0.3
G1 X12.389 Y11.654 ;not extruding 
G1 D-148.500 ;not extruding 
G1 X13.299 Y12.625 ;not extruding 
FILEWRITE $hFile"\x05\x02\x30\x34\x44\x49\x20\x20\x43\x46\x03"
DWELL 0.3
G1 X14.340 Y11.684 ;extruding 
G1 X15.862 Y10.639 ;extruding 
G1 X17.510 Y9.806 ;extruding 
G1 X19.255 Y9.200 ;extruding 
G1 X21.065 Y8.832 ;extruding 
G1 X22.907 Y8.709 ;extruding 
G1 X24.750 Y8.832 ;extruding 
G1 X26.560 Y9.200 ;extruding 
G1 X28.305 Y9.806 ;extruding 
G1 X29.953 Y10.639 ;extruding 
G1 X31.475 Y11.684 ;extruding 
G1 X32.845 Y12.923 ;extruding 
G1 X34.037 Y14.333 ;extruding 
G1 X35.031 Y15.890 ;extruding 
G1 X35.809 Y17.565 ;extruding 
G1 X36.356 Y19.329 ;extruding 
G1 X36.663 Y21.150 ;extruding 
G1 X36.725 Y22.996 ;extruding 
G1 X36.540 Y24.833 ;extruding 
G1 X36.112 Y26.630 ;extruding 
G1 X35.448 Y28.353 ;extruding 
G1 X34.560 Y29.973 ;extruding 
G1 X33.465 Y31.459 ;extruding 
G1 X32.181 Y32.787 ;extruding 
G1 X30.732 Y33.931 ;extruding 
G1 X29.143 Y34.873 ;extruding 
G1 X27.442 Y35.594 ;extruding 
G1 X25.661 Y36.082 ;extruding 
G1 X23.831 Y36.328 ;extruding 
G1 X21.984 Y36.328 ;extruding 
G1 X20.154 Y36.082 ;extruding 
G1 X18.373 Y35.594 ;extruding 
G1 X16.672 Y34.873 ;extruding 
G1 X15.083 Y33.931 ;extruding 
G1 X13.634 Y32.787 ;extruding 
G1 X12.350 Y31.459 ;extruding 
G1 X11.255 Y29.973 ;extruding 
G1 X10.367 Y28.353 ;extruding 
G1 X9.703 Y26.630 ;extruding 
G1 X9.275 Y24.833 ;extruding 
G1 X9.090 Y22.996 ;extruding 
G1 X9.152 Y21.150 ;extruding 
G1 X9.459 Y19.329 ;extruding 
G1 X10.006 Y17.565 ;extruding 
G1 X10.784 Y15.890 ;extruding 
G1 X11.778 Y14.333 ;extruding 
G1 X12.970 Y12.923 ;extruding 
G1 X13.235 Y12.683 ;extruding 
FILEWRITE $hFile"\x05\x02\x30\x34\x44\x49\x20\x20\x43\x46\x03"
DWELL 0.3
G1 X13.563 Y12.916 ;not extruding 
FILEWRITE $hFile"\x05\x02\x30\x34\x44\x49\x20\x20\x43\x46\x03"
DWELL 0.3
G1 X14.583 Y11.993 ;extruding 
G1 X16.063 Y10.977 ;extruding 
G1 X17.664 Y10.168 ;extruding 
G1 X19.359 Y9.580 ;extruding 
G1 X21.117 Y9.222 ;extruding 
G1 X22.907 Y9.102 ;extruding 
G1 X24.698 Y9.222 ;extruding 
G1 X26.456 Y9.580 ;extruding 
G1 X28.151 Y10.168 ;extruding 
G1 X29.752 Y10.977 ;extruding 
G1 X31.232 Y11.993 ;extruding 
G1 X32.562 Y13.196 ;extruding 
G1 X33.721 Y14.567 ;extruding 
G1 X34.686 Y16.079 ;extruding 
G1 X35.441 Y17.706 ;extruding 
G1 X35.973 Y19.420 ;extruding 
G1 X36.271 Y21.189 ;extruding 
G1 X36.331 Y22.983 ;extruding 
G1 X36.152 Y24.768 ;extruding 
G1 X35.736 Y26.513 ;extruding 
G1 X35.091 Y28.187 ;extruding 
G1 X34.229 Y29.761 ;extruding 
G1 X33.164 Y31.205 ;extruding 
G1 X31.917 Y32.495 ;extruding 
G1 X30.509 Y33.607 ;extruding 
G1 X28.965 Y34.521 ;extruding 
G1 X27.313 Y35.222 ;extruding 
G1 X25.583 Y35.696 ;extruding 
G1 X23.805 Y35.935 ;extruding 
G1 X22.010 Y35.935 ;extruding 
G1 X20.232 Y35.696 ;extruding 
G1 X18.502 Y35.222 ;extruding 
G1 X16.850 Y34.521 ;extruding 
G1 X15.306 Y33.607 ;extruding 
G1 X13.898 Y32.495 ;extruding 
G1 X12.651 Y31.205 ;extruding 
G1 X11.586 Y29.761 ;extruding 
G1 X10.724 Y28.187 ;extruding 
G1 X10.079 Y26.513 ;extruding 
G1 X9.663 Y24.768 ;extruding 
G1 X9.484 Y22.983 ;extruding 
G1 X9.544 Y21.189 ;extruding 
G1 X9.842 Y19.420 ;extruding 
G1 X10.374 Y17.706 ;extruding 
G1 X11.129 Y16.079 ;extruding 
G1 X12.094 Y14.567 ;extruding 
G1 X13.253 Y13.196 ;extruding 
G1 X13.498 Y12.974 ;extruding 
FILEWRITE $hFile"\x05\x02\x30\x34\x44\x49\x20\x20\x43\x46\x03"
DWELL 0.3
G1 X13.826 Y13.207 ;not extruding 
FILEWRITE $hFile"\x05\x02\x30\x34\x44\x49\x20\x20\x43\x46\x03"
DWELL 0.3
G1 X14.827 Y12.302 ;extruding 
G1 X16.263 Y11.316 ;extruding 
G1 X17.818 Y10.531 ;extruding 
G1 X19.463 Y9.959 ;extruding 
G1 X21.170 Y9.612 ;extruding 
G1 X22.907 Y9.496 ;extruding 
G1 X24.645 Y9.612 ;extruding 
G1 X26.352 Y9.959 ;extruding 
G1 X27.997 Y10.531 ;extruding 
G1 X29.552 Y11.316 ;extruding 
G1 X30.988 Y12.302 ;extruding 
G1 X32.279 Y13.470 ;extruding 
G1 X33.404 Y14.800 ;extruding 
G1 X34.341 Y16.268 ;extruding 
G1 X35.074 Y17.848 ;extruding 
G1 X35.590 Y19.511 ;extruding 
G1 X35.880 Y21.229 ;extruding 
G1 X35.938 Y22.969 ;extruding 
G1 X35.764 Y24.702 ;extruding 
G1 X35.360 Y26.396 ;extruding 
G1 X34.734 Y28.022 ;extruding 
G1 X33.897 Y29.549 ;extruding 
G1 X32.864 Y30.951 ;extruding 
G1 X31.653 Y32.203 ;extruding 
G1 X30.286 Y33.283 ;extruding 
G1 X28.788 Y34.170 ;extruding 
G1 X27.184 Y34.850 ;extruding 
G1 X25.504 Y35.310 ;extruding 
G1 X23.778 Y35.542 ;extruding 
G1 X22.037 Y35.542 ;extruding 
G1 X20.311 Y35.310 ;extruding 
G1 X18.631 Y34.850 ;extruding 
G1 X17.027 Y34.170 ;extruding 
G1 X15.529 Y33.283 ;extruding 
G1 X14.162 Y32.203 ;extruding 
G1 X12.951 Y30.951 ;extruding 
G1 X11.918 Y29.549 ;extruding 
G1 X11.081 Y28.022 ;extruding 
G1 X10.455 Y26.396 ;extruding 
G1 X10.051 Y24.702 ;extruding 
G1 X9.877 Y22.969 ;extruding 
G1 X9.935 Y21.229 ;extruding 
G1 X10.225 Y19.511 ;extruding 
G1 X10.741 Y17.848 ;extruding 
G1 X11.474 Y16.268 ;extruding 
G1 X12.411 Y14.800 ;extruding 
G1 X13.536 Y13.470 ;extruding 
G1 X13.762 Y13.266 ;extruding 
FILEWRITE $hFile"\x05\x02\x30\x34\x44\x49\x20\x20\x43\x46\x03"
DWELL 0.3
G1 X14.090 Y13.498 ;not extruding 
FILEWRITE $hFile"\x05\x02\x30\x34\x44\x49\x20\x20\x43\x46\x03"
DWELL 0.3
G1 X15.071 Y12.611 ;extruding 
G1 X16.464 Y11.655 ;extruding 
G1 X17.971 Y10.893 ;extruding 
G1 X19.567 Y10.339 ;extruding 
G1 X21.222 Y10.002 ;extruding 
G1 X22.907 Y9.890 ;extruding 
G1 X24.593 Y10.002 ;extruding 
G1 X26.248 Y10.339 ;extruding 
G1 X27.844 Y10.893 ;extruding 
G1 X29.351 Y11.655 ;extruding 
G1 X30.744 Y12.611 ;extruding 
G1 X31.996 Y13.744 ;extruding 
G1 X33.087 Y15.033 ;extruding 
G1 X33.996 Y16.457 ;extruding 
G1 X34.707 Y17.989 ;extruding 
G1 X35.207 Y19.603 ;extruding 
G1 X35.488 Y21.268 ;extruding 
G1 X35.545 Y22.956 ;extruding 
G1 X35.375 Y24.637 ;extruding 
G1 X34.984 Y26.280 ;extruding 
G1 X34.377 Y27.856 ;extruding 
G1 X33.565 Y29.337 ;extruding 
G1 X32.563 Y30.697 ;extruding 
G1 X31.389 Y31.911 ;extruding 
G1 X30.063 Y32.958 ;extruding 
G1 X28.610 Y33.819 ;extruding 
G1 X27.055 Y34.478 ;extruding 
G1 X25.426 Y34.924 ;extruding 
G1 X23.752 Y35.150 ;extruding 
G1 X22.063 Y35.150 ;extruding 
G1 X20.389 Y34.924 ;extruding 
G1 X18.760 Y34.478 ;extruding 
G1 X17.205 Y33.819 ;extruding 
G1 X15.752 Y32.958 ;extruding 
G1 X14.426 Y31.911 ;extruding 
G1 X13.252 Y30.697 ;extruding 
G1 X12.250 Y29.337 ;extruding 
G1 X11.438 Y27.856 ;extruding 
G1 X10.831 Y26.280 ;extruding 
G1 X10.439 Y24.637 ;extruding 
G1 X10.270 Y22.956 ;extruding 
G1 X10.327 Y21.268 ;extruding 
G1 X10.608 Y19.603 ;extruding 
G1 X11.108 Y17.989 ;extruding 
G1 X11.819 Y16.457 ;extruding 
G1 X12.728 Y15.033 ;extruding 
G1 X13.819 Y13.744 ;extruding 
G1 X14.025 Y13.557 ;extruding 
FILEWRITE $hFile"\x05\x02\x30\x34\x44\x49\x20\x20\x43\x46\x03"
DWELL 0.3
G1 X14.353 Y13.790 ;not extruding 
FILEWRITE $hFile"\x05\x02\x30\x34\x44\x49\x20\x20\x43\x46\x03"
DWELL 0.3
G1 X15.315 Y12.919 ;extruding 
G1 X16.664 Y11.993 ;extruding 
G1 X18.125 Y11.255 ;extruding 
G1 X19.671 Y10.718 ;extruding 
G1 X21.275 Y10.392 ;extruding 
G1 X22.907 Y10.283 ;extruding 
G1 X24.540 Y10.392 ;extruding 
G1 X26.144 Y10.718 ;extruding 
G1 X27.690 Y11.255 ;extruding 
G1 X29.151 Y11.993 ;extruding 
G1 X30.500 Y12.919 ;extruding 
G1 X31.713 Y14.017 ;extruding 
G1 X32.770 Y15.267 ;extruding 
G1 X33.651 Y16.646 ;extruding 
G1 X34.339 Y18.131 ;extruding 
G1 X34.824 Y19.694 ;extruding 
G1 X35.097 Y21.307 ;extruding 
G1 X35.151 Y22.943 ;extruding 
G1 X34.987 Y24.571 ;extruding 
G1 X34.608 Y26.163 ;extruding 
G1 X34.020 Y27.690 ;extruding 
G1 X33.233 Y29.126 ;extruding 
G1 X32.263 Y30.443 ;extruding 
G1 X31.125 Y31.619 ;extruding 
G1 X29.841 Y32.634 ;extruding 
G1 X28.433 Y33.468 ;extruding 
G1 X26.926 Y34.106 ;extruding 
G1 X25.348 Y34.539 ;extruding 
G1 X23.726 Y34.757 ;extruding 
G1 X22.089 Y34.757 ;extruding 
G1 X20.467 Y34.539 ;extruding 
G1 X18.889 Y34.106 ;extruding 
G1 X17.382 Y33.468 ;extruding 
G1 X15.974 Y32.634 ;extruding 
G1 X14.690 Y31.619 ;extruding 
G1 X13.552 Y30.443 ;extruding 
G1 X12.582 Y29.126 ;extruding 
G1 X11.795 Y27.690 ;extruding 
G1 X11.207 Y26.163 ;extruding 
G1 X10.828 Y24.571 ;extruding 
G1 X10.664 Y22.943 ;extruding 
G1 X10.718 Y21.307 ;extruding 
G1 X10.991 Y19.694 ;extruding 
G1 X11.476 Y18.131 ;extruding 
G1 X12.164 Y16.646 ;extruding 
G1 X13.045 Y15.267 ;extruding 
G1 X14.101 Y14.017 ;extruding 
G1 X14.289 Y13.848 ;extruding 
FILEWRITE $hFile"\x05\x02\x30\x34\x44\x49\x20\x20\x43\x46\x03"
DWELL 0.3
G1 X14.210 Y13.227 ;not extruding 
G1 X13.234 Y12.399 ;not extruding 
FILEWRITE $hFile"\x05\x02\x30\x34\x44\x49\x20\x20\x43\x46\x03"
DWELL 0.3
G1 X15.881 Y10.270 ;extruding 
G1 X20.014 Y8.699 ;extruding 
G1 X24.431 Y8.482 ;extruding 
G1 X28.698 Y9.641 ;extruding 
G1 X32.399 Y12.061 ;extruding 
G1 X35.171 Y15.507 ;extruding 
G1 X36.742 Y19.640 ;extruding 
G1 X36.959 Y24.057 ;extruding 
G1 X35.800 Y28.325 ;extruding 
G1 X33.380 Y32.025 ;extruding 
G1 X29.934 Y34.797 ;extruding 
G1 X25.801 Y36.368 ;extruding 
G1 X21.384 Y36.585 ;extruding 
G1 X17.117 Y35.427 ;extruding 
G1 X13.416 Y33.006 ;extruding 
G1 X10.644 Y29.560 ;extruding 
G1 X9.073 Y25.427 ;extruding 
G1 X8.856 Y21.010 ;extruding 
G1 X10.015 Y16.743 ;extruding 
G1 X12.435 Y13.042 ;extruding 
G1 X13.167 Y12.454 ;extruding 
FILEWRITE $hFile"\x05\x02\x30\x34\x44\x49\x20\x20\x43\x46\x03"
DWELL 0.3
G1 X12.988 Y12.093 ;not extruding 
FILEWRITE $hFile"\x05\x02\x30\x34\x44\x49\x20\x20\x43\x46\x03"
DWELL 0.3
G1 X15.683 Y9.925 ;extruding 
G1 X19.933 Y8.310 ;extruding 
G1 X24.474 Y8.087 ;extruding 
G1 X28.861 Y9.278 ;extruding 
G1 X32.666 Y11.767 ;extruding 
G1 X35.516 Y15.309 ;extruding 
G1 X37.131 Y19.559 ;extruding 
G1 X37.354 Y24.100 ;extruding 
G1 X36.163 Y28.488 ;extruding 
G1 X33.674 Y32.292 ;extruding 
G1 X30.132 Y35.142 ;extruding 
G1 X25.882 Y36.757 ;extruding 
G1 X21.341 Y36.980 ;extruding 
G1 X16.954 Y35.789 ;extruding 
G1 X13.149 Y33.301 ;extruding 
G1 X10.299 Y29.758 ;extruding 
G1 X8.684 Y25.508 ;extruding 
G1 X8.461 Y20.967 ;extruding 
G1 X9.652 Y16.580 ;extruding 
G1 X12.141 Y12.775 ;extruding 
G1 X12.921 Y12.148 ;extruding 
FILEWRITE $hFile"\x05\x02\x30\x34\x44\x49\x20\x20\x43\x46\x03"
DWELL 0.3
G1 X12.742 Y11.787 ;not extruding 
FILEWRITE $hFile"\x05\x02\x30\x34\x44\x49\x20\x20\x43\x46\x03"
DWELL 0.3
G1 X15.485 Y9.580 ;extruding 
G1 X19.851 Y7.921 ;extruding 
G1 X24.517 Y7.692 ;extruding 
G1 X29.024 Y8.915 ;extruding 
G1 X32.933 Y11.472 ;extruding 
G1 X35.861 Y15.112 ;extruding 
G1 X37.520 Y19.478 ;extruding 
G1 X37.749 Y24.143 ;extruding 
G1 X36.526 Y28.650 ;extruding 
G1 X33.969 Y32.559 ;extruding 
G1 X30.330 Y35.487 ;extruding 
G1 X25.964 Y37.146 ;extruding 
G1 X21.298 Y37.376 ;extruding 
G1 X16.791 Y36.152 ;extruding 
G1 X12.882 Y33.595 ;extruding 
G1 X9.954 Y29.956 ;extruding 
G1 X8.295 Y25.590 ;extruding 
G1 X8.066 Y20.925 ;extruding 
G1 X9.289 Y16.417 ;extruding 
G1 X11.846 Y12.508 ;extruding 
G1 X12.674 Y11.842 ;extruding 
FILEWRITE $hFile"\x05\x02\x30\x34\x44\x49\x20\x20\x43\x46\x03"
DWELL 0.3
G1 X11.842 Y12.007 ;not extruding 
FILEWRITE $hFile"\x05\x02\x30\x34\x44\x49\x20\x20\x43\x46\x03"
DWELL 0.3
G1 X14.997 Y9.470 ;extruding 
G1 X13.112 Y6.119 ;extruding 
G1 X13.699 Y5.782 ;extruding 
G1 X15.637 Y9.103 ;extruding 
G1 X19.421 Y7.665 ;extruding 
G1 X18.664 Y3.895 ;extruding 
G1 X19.326 Y3.756 ;extruding 
G1 X20.143 Y7.513 ;extruding 
G1 X24.186 Y7.315 ;extruding 
G1 X24.631 Y3.496 ;extruding 
G1 X25.304 Y3.569 ;extruding 
G1 X24.920 Y7.394 ;extruding 
G1 X28.827 Y8.455 ;extruding 
G1 X30.430 Y4.960 ;extruding 
G1 X31.047 Y5.238 ;extruding 
G1 X29.500 Y8.757 ;extruding 
G1 X32.887 Y10.973 ;extruding 
G1 X35.492 Y8.145 ;extruding 
G1 X35.994 Y8.599 ;extruding 
G1 X33.434 Y11.469 ;extruding 
G1 X35.971 Y14.623 ;extruding 
G1 X39.323 Y12.738 ;extruding 
G1 X39.659 Y13.325 ;extruding 
G1 X36.338 Y15.263 ;extruding 
G1 X37.777 Y19.047 ;extruding 
G1 X41.546 Y18.290 ;extruding 
G1 X41.685 Y18.953 ;extruding 
G1 X37.928 Y19.769 ;extruding 
G1 X38.126 Y23.812 ;extruding 
G1 X41.945 Y24.257 ;extruding 
G1 X41.872 Y24.930 ;extruding 
G1 X38.047 Y24.546 ;extruding 
G1 X36.986 Y28.453 ;extruding 
G1 X40.481 Y30.056 ;extruding 
G1 X40.204 Y30.673 ;extruding 
G1 X36.684 Y29.126 ;extruding 
G1 X34.468 Y32.514 ;extruding 
G1 X37.296 Y35.118 ;extruding 
G1 X36.842 Y35.620 ;extruding 
G1 X33.973 Y33.061 ;extruding 
G1 X30.818 Y35.598 ;extruding 
G1 X32.703 Y38.949 ;extruding 
G1 X32.116 Y39.285 ;extruding 
G1 X30.178 Y35.965 ;extruding 
G1 X26.394 Y37.403 ;extruding 
G1 X27.151 Y41.172 ;extruding 
G1 X26.489 Y41.311 ;extruding 
G1 X25.672 Y37.554 ;extruding 
G1 X21.629 Y37.753 ;extruding 
G1 X21.184 Y41.572 ;extruding 
G1 X20.511 Y41.499 ;extruding 
G1 X20.895 Y37.673 ;extruding 
G1 X16.988 Y36.613 ;extruding 
G1 X15.385 Y40.107 ;extruding 
G1 X14.768 Y39.830 ;extruding 
G1 X16.315 Y36.310 ;extruding 
G1 X12.928 Y34.094 ;extruding 
G1 X10.323 Y36.923 ;extruding 
G1 X9.821 Y36.468 ;extruding 
G1 X12.381 Y33.599 ;extruding 
G1 X9.844 Y30.445 ;extruding 
G1 X6.492 Y32.330 ;extruding 
G1 X6.156 Y31.742 ;extruding 
G1 X9.477 Y29.804 ;extruding 
G1 X8.038 Y26.020 ;extruding 
G1 X4.269 Y26.778 ;extruding 
G1 X4.130 Y26.115 ;extruding 
G1 X7.887 Y25.298 ;extruding 
G1 X7.689 Y21.255 ;extruding 
G1 X3.870 Y20.810 ;extruding 
G1 X3.943 Y20.137 ;extruding 
G1 X7.768 Y20.521 ;extruding 
G1 X8.829 Y16.615 ;extruding 
G1 X5.334 Y15.012 ;extruding 
G1 X5.611 Y14.394 ;extruding 
G1 X9.131 Y15.941 ;extruding 
G1 X11.347 Y12.554 ;extruding 
G1 X8.519 Y9.949 ;extruding 
G1 X8.973 Y9.447 ;extruding 
G1 X11.778 Y11.949 ;extruding 
FILEWRITE $hFile"\x05\x02\x30\x34\x44\x49\x20\x20\x43\x46\x03"
DWELL 0.3
G1 X11.856 Y11.492 ;not extruding 
FILEWRITE $hFile"\x05\x02\x30\x34\x44\x49\x20\x20\x43\x46\x03"
DWELL 0.3
G1 X14.491 Y9.372 ;extruding 
G1 X12.578 Y5.972 ;extruding 
G1 X13.842 Y5.248 ;extruding 
G1 X15.808 Y8.617 ;extruding 
G1 X18.970 Y7.416 ;extruding 
G1 X18.202 Y3.590 ;extruding 
G1 X19.627 Y3.292 ;extruding 
G1 X20.456 Y7.105 ;extruding 
G1 X23.835 Y6.939 ;extruding 
G1 X24.286 Y3.063 ;extruding 
G1 X25.734 Y3.220 ;extruding 
G1 X25.344 Y7.103 ;extruding 
G1 X28.608 Y7.989 ;extruding 
G1 X30.235 Y4.442 ;extruding 
G1 X31.564 Y5.039 ;extruding 
G1 X29.993 Y8.611 ;extruding 
G1 X32.824 Y10.462 ;extruding 
G1 X35.467 Y7.592 ;extruding 
G1 X36.546 Y8.570 ;extruding 
G1 X33.949 Y11.482 ;extruding 
G1 X36.069 Y14.117 ;extruding 
G1 X39.470 Y12.205 ;extruding 
G1 X40.194 Y13.468 ;extruding 
G1 X36.824 Y15.435 ;extruding 
G1 X38.026 Y18.596 ;extruding 
G1 X41.851 Y17.828 ;extruding 
G1 X42.149 Y19.253 ;extruding 
G1 X38.336 Y20.082 ;extruding 
G1 X38.502 Y23.461 ;extruding 
G1 X42.378 Y23.912 ;extruding 
G1 X42.221 Y25.360 ;extruding 
G1 X38.339 Y24.970 ;extruding 
G1 X37.453 Y28.235 ;extruding 
G1 X40.999 Y29.861 ;extruding 
G1 X40.402 Y31.190 ;extruding 
G1 X36.830 Y29.619 ;extruding 
G1 X34.979 Y32.450 ;extruding 
G1 X37.849 Y35.093 ;extruding 
G1 X36.871 Y36.172 ;extruding 
G1 X33.959 Y33.575 ;extruding 
G1 X31.324 Y35.695 ;extruding 
G1 X33.237 Y39.096 ;extruding 
G1 X31.973 Y39.820 ;extruding 
G1 X30.006 Y36.450 ;extruding 
G1 X26.845 Y37.652 ;extruding 
G1 X27.613 Y41.477 ;extruding 
G1 X26.188 Y41.775 ;extruding 
G1 X25.359 Y37.963 ;extruding 
G1 X21.980 Y38.128 ;extruding 
G1 X21.529 Y42.004 ;extruding 
G1 X20.081 Y41.847 ;extruding 
G1 X20.471 Y37.965 ;extruding 
G1 X17.207 Y37.079 ;extruding 
G1 X15.580 Y40.625 ;extruding 
G1 X14.251 Y40.028 ;extruding 
G1 X15.822 Y36.457 ;extruding 
G1 X12.991 Y34.605 ;extruding 
G1 X10.348 Y37.475 ;extruding 
G1 X9.269 Y36.497 ;extruding 
G1 X11.866 Y33.586 ;extruding 
G1 X9.746 Y30.950 ;extruding 
G1 X6.345 Y32.863 ;extruding 
G1 X5.621 Y31.599 ;extruding 
G1 X8.991 Y29.633 ;extruding 
G1 X7.789 Y26.471 ;extruding 
G1 X3.964 Y27.239 ;extruding 
G1 X3.666 Y25.814 ;extruding 
G1 X7.479 Y24.985 ;extruding 
G1 X7.313 Y21.607 ;extruding 
G1 X3.437 Y21.155 ;extruding 
G1 X3.594 Y19.707 ;extruding 
G1 X7.476 Y20.097 ;extruding 
G1 X8.362 Y16.833 ;extruding 
G1 X4.816 Y15.206 ;extruding 
G1 X5.413 Y13.878 ;extruding 
G1 X8.985 Y15.448 ;extruding 
G1 X10.836 Y12.617 ;extruding 
G1 X7.966 Y9.974 ;extruding 
G1 X8.944 Y8.895 ;extruding 
G1 X11.791 Y11.434 ;extruding 
FILEWRITE $hFile"\x05\x02\x30\x34\x44\x49\x20\x20\x43\x46\x03"
DWELL 0.3
G1 X12.292 Y11.875 ;not extruding 
G1 D-148.000 ;not extruding 
G1 X13.069 Y12.833 ;not extruding 
FILEWRITE $hFile"\x05\x02\x30\x34\x44\x49\x20\x20\x43\x46\x03"
DWELL 0.3
G1 X14.340 Y11.684 ;extruding 
G1 X15.862 Y10.639 ;extruding 
G1 X17.510 Y9.806 ;extruding 
G1 X19.255 Y9.200 ;extruding 
G1 X21.065 Y8.832 ;extruding 
G1 X22.907 Y8.709 ;extruding 
G1 X24.750 Y8.832 ;extruding 
G1 X26.560 Y9.200 ;extruding 
G1 X28.305 Y9.806 ;extruding 
G1 X29.953 Y10.639 ;extruding 
G1 X31.475 Y11.684 ;extruding 
G1 X32.845 Y12.923 ;extruding 
G1 X34.037 Y14.333 ;extruding 
G1 X35.031 Y15.890 ;extruding 
G1 X35.809 Y17.565 ;extruding 
G1 X36.356 Y19.329 ;extruding 
G1 X36.663 Y21.150 ;extruding 
G1 X36.725 Y22.996 ;extruding 
G1 X36.540 Y24.833 ;extruding 
G1 X36.112 Y26.630 ;extruding 
G1 X35.448 Y28.353 ;extruding 
G1 X34.560 Y29.973 ;extruding 
G1 X33.465 Y31.459 ;extruding 
G1 X32.181 Y32.787 ;extruding 
G1 X30.732 Y33.931 ;extruding 
G1 X29.143 Y34.873 ;extruding 
G1 X27.442 Y35.594 ;extruding 
G1 X25.661 Y36.082 ;extruding 
G1 X23.831 Y36.328 ;extruding 
G1 X21.984 Y36.328 ;extruding 
G1 X20.154 Y36.082 ;extruding 
G1 X18.373 Y35.594 ;extruding 
G1 X16.672 Y34.873 ;extruding 
G1 X15.083 Y33.931 ;extruding 
G1 X13.634 Y32.787 ;extruding 
G1 X12.350 Y31.459 ;extruding 
G1 X11.255 Y29.973 ;extruding 
G1 X10.367 Y28.353 ;extruding 
G1 X9.703 Y26.630 ;extruding 
G1 X9.275 Y24.833 ;extruding 
G1 X9.090 Y22.996 ;extruding 
G1 X9.152 Y21.150 ;extruding 
G1 X9.459 Y19.329 ;extruding 
G1 X10.006 Y17.565 ;extruding 
G1 X10.784 Y15.890 ;extruding 
G1 X11.778 Y14.333 ;extruding 
G1 X13.004 Y12.892 ;extruding 
FILEWRITE $hFile"\x05\x02\x30\x34\x44\x49\x20\x20\x43\x46\x03"
DWELL 0.3
G1 X13.332 Y13.125 ;not extruding 
FILEWRITE $hFile"\x05\x02\x30\x34\x44\x49\x20\x20\x43\x46\x03"
DWELL 0.3
G1 X14.583 Y11.993 ;extruding 
G1 X16.063 Y10.977 ;extruding 
G1 X17.664 Y10.168 ;extruding 
G1 X19.359 Y9.580 ;extruding 
G1 X21.117 Y9.222 ;extruding 
G1 X22.907 Y9.102 ;extruding 
G1 X24.698 Y9.222 ;extruding 
G1 X26.456 Y9.580 ;extruding 
G1 X28.151 Y10.168 ;extruding 
G1 X29.752 Y10.977 ;extruding 
G1 X31.232 Y11.993 ;extruding 
G1 X32.562 Y13.196 ;extruding 
G1 X33.721 Y14.567 ;extruding 
G1 X34.686 Y16.079 ;extruding 
G1 X35.441 Y17.706 ;extruding 
G1 X35.973 Y19.420 ;extruding 
G1 X36.271 Y21.189 ;extruding 
G1 X36.331 Y22.983 ;extruding 
G1 X36.152 Y24.768 ;extruding 
G1 X35.736 Y26.513 ;extruding 
G1 X35.091 Y28.187 ;extruding 
G1 X34.229 Y29.761 ;extruding 
G1 X33.164 Y31.205 ;extruding 
G1 X31.917 Y32.495 ;extruding 
G1 X30.509 Y33.607 ;extruding 
G1 X28.965 Y34.521 ;extruding 
G1 X27.313 Y35.222 ;extruding 
G1 X25.583 Y35.696 ;extruding 
G1 X23.805 Y35.935 ;extruding 
G1 X22.010 Y35.935 ;extruding 
G1 X20.232 Y35.696 ;extruding 
G1 X18.502 Y35.222 ;extruding 
G1 X16.850 Y34.521 ;extruding 
G1 X15.306 Y33.607 ;extruding 
G1 X13.898 Y32.495 ;extruding 
G1 X12.651 Y31.205 ;extruding 
G1 X11.586 Y29.761 ;extruding 
G1 X10.724 Y28.187 ;extruding 
G1 X10.079 Y26.513 ;extruding 
G1 X9.663 Y24.768 ;extruding 
G1 X9.484 Y22.983 ;extruding 
G1 X9.544 Y21.189 ;extruding 
G1 X9.842 Y19.420 ;extruding 
G1 X10.374 Y17.706 ;extruding 
G1 X11.129 Y16.079 ;extruding 
G1 X12.094 Y14.567 ;extruding 
G1 X13.267 Y13.183 ;extruding 
FILEWRITE $hFile"\x05\x02\x30\x34\x44\x49\x20\x20\x43\x46\x03"
DWELL 0.3
G1 X13.595 Y13.416 ;not extruding 
FILEWRITE $hFile"\x05\x02\x30\x34\x44\x49\x20\x20\x43\x46\x03"
DWELL 0.3
G1 X14.827 Y12.302 ;extruding 
G1 X16.263 Y11.316 ;extruding 
G1 X17.818 Y10.531 ;extruding 
G1 X19.463 Y9.959 ;extruding 
G1 X21.170 Y9.612 ;extruding 
G1 X22.907 Y9.496 ;extruding 
G1 X24.645 Y9.612 ;extruding 
G1 X26.352 Y9.959 ;extruding 
G1 X27.997 Y10.531 ;extruding 
G1 X29.552 Y11.316 ;extruding 
G1 X30.988 Y12.302 ;extruding 
G1 X32.279 Y13.470 ;extruding 
G1 X33.404 Y14.800 ;extruding 
G1 X34.341 Y16.268 ;extruding 
G1 X35.074 Y17.848 ;extruding 
G1 X35.590 Y19.511 ;extruding 
G1 X35.880 Y21.229 ;extruding 
G1 X35.938 Y22.969 ;extruding 
G1 X35.764 Y24.702 ;extruding 
G1 X35.360 Y26.396 ;extruding 
G1 X34.734 Y28.022 ;extruding 
G1 X33.897 Y29.549 ;extruding 
G1 X32.864 Y30.951 ;extruding 
G1 X31.653 Y32.203 ;extruding 
G1 X30.286 Y33.283 ;extruding 
G1 X28.788 Y34.170 ;extruding 
G1 X27.184 Y34.850 ;extruding 
G1 X25.504 Y35.310 ;extruding 
G1 X23.778 Y35.542 ;extruding 
G1 X22.037 Y35.542 ;extruding 
G1 X20.311 Y35.310 ;extruding 
G1 X18.631 Y34.850 ;extruding 
G1 X17.027 Y34.170 ;extruding 
G1 X15.529 Y33.283 ;extruding 
G1 X14.162 Y32.203 ;extruding 
G1 X12.951 Y30.951 ;extruding 
G1 X11.918 Y29.549 ;extruding 
G1 X11.081 Y28.022 ;extruding 
G1 X10.455 Y26.396 ;extruding 
G1 X10.051 Y24.702 ;extruding 
G1 X9.877 Y22.969 ;extruding 
G1 X9.935 Y21.229 ;extruding 
G1 X10.225 Y19.511 ;extruding 
G1 X10.741 Y17.848 ;extruding 
G1 X11.474 Y16.268 ;extruding 
G1 X12.411 Y14.800 ;extruding 
G1 X13.532 Y13.475 ;extruding 
FILEWRITE $hFile"\x05\x02\x30\x34\x44\x49\x20\x20\x43\x46\x03"
DWELL 0.3
G1 X13.859 Y13.707 ;not extruding 
FILEWRITE $hFile"\x05\x02\x30\x34\x44\x49\x20\x20\x43\x46\x03"
DWELL 0.3
G1 X15.071 Y12.611 ;extruding 
G1 X16.464 Y11.655 ;extruding 
G1 X17.971 Y10.893 ;extruding 
G1 X19.567 Y10.339 ;extruding 
G1 X21.222 Y10.002 ;extruding 
G1 X22.907 Y9.890 ;extruding 
G1 X24.593 Y10.002 ;extruding 
G1 X26.248 Y10.339 ;extruding 
G1 X27.844 Y10.893 ;extruding 
G1 X29.351 Y11.655 ;extruding 
G1 X30.744 Y12.611 ;extruding 
G1 X31.996 Y13.744 ;extruding 
G1 X33.087 Y15.033 ;extruding 
G1 X33.996 Y16.457 ;extruding 
G1 X34.707 Y17.989 ;extruding 
G1 X35.207 Y19.603 ;extruding 
G1 X35.488 Y21.268 ;extruding 
G1 X35.545 Y22.956 ;extruding 
G1 X35.375 Y24.637 ;extruding 
G1 X34.984 Y26.280 ;extruding 
G1 X34.377 Y27.856 ;extruding 
G1 X33.565 Y29.337 ;extruding 
G1 X32.563 Y30.697 ;extruding 
G1 X31.389 Y31.911 ;extruding 
G1 X30.063 Y32.958 ;extruding 
G1 X28.610 Y33.819 ;extruding 
G1 X27.055 Y34.478 ;extruding 
G1 X25.426 Y34.924 ;extruding 
G1 X23.752 Y35.150 ;extruding 
G1 X22.063 Y35.150 ;extruding 
G1 X20.389 Y34.924 ;extruding 
G1 X18.760 Y34.478 ;extruding 
G1 X17.205 Y33.819 ;extruding 
G1 X15.752 Y32.958 ;extruding 
G1 X14.426 Y31.911 ;extruding 
G1 X13.252 Y30.697 ;extruding 
G1 X12.250 Y29.337 ;extruding 
G1 X11.438 Y27.856 ;extruding 
G1 X10.831 Y26.280 ;extruding 
G1 X10.439 Y24.637 ;extruding 
G1 X10.270 Y22.956 ;extruding 
G1 X10.327 Y21.268 ;extruding 
G1 X10.608 Y19.603 ;extruding 
G1 X11.108 Y17.989 ;extruding 
G1 X11.819 Y16.457 ;extruding 
G1 X12.728 Y15.033 ;extruding 
G1 X13.797 Y13.769 ;extruding 
FILEWRITE $hFile"\x05\x02\x30\x34\x44\x49\x20\x20\x43\x46\x03"
DWELL 0.3
G1 X14.122 Y13.998 ;not extruding 
FILEWRITE $hFile"\x05\x02\x30\x34\x44\x49\x20\x20\x43\x46\x03"
DWELL 0.3
G1 X15.315 Y12.919 ;extruding 
G1 X16.664 Y11.993 ;extruding 
G1 X18.125 Y11.255 ;extruding 
G1 X19.671 Y10.718 ;extruding 
G1 X21.275 Y10.392 ;extruding 
G1 X22.907 Y10.283 ;extruding 
G1 X24.540 Y10.392 ;extruding 
G1 X26.144 Y10.718 ;extruding 
G1 X27.690 Y11.255 ;extruding 
G1 X29.151 Y11.993 ;extruding 
G1 X30.500 Y12.919 ;extruding 
G1 X31.713 Y14.017 ;extruding 
G1 X32.770 Y15.267 ;extruding 
G1 X33.651 Y16.646 ;extruding 
G1 X34.339 Y18.131 ;extruding 
G1 X34.824 Y19.694 ;extruding 
G1 X35.097 Y21.307 ;extruding 
G1 X35.151 Y22.943 ;extruding 
G1 X34.987 Y24.571 ;extruding 
G1 X34.608 Y26.163 ;extruding 
G1 X34.020 Y27.690 ;extruding 
G1 X33.233 Y29.126 ;extruding 
G1 X32.263 Y30.443 ;extruding 
G1 X31.125 Y31.619 ;extruding 
G1 X29.964 Y32.536 ;extruding 
G1 X29.841 Y32.634 ;extruding 
G1 X28.433 Y33.468 ;extruding 
G1 X26.926 Y34.106 ;extruding 
G1 X25.348 Y34.539 ;extruding 
G1 X23.726 Y34.757 ;extruding 
G1 X22.089 Y34.757 ;extruding 
G1 X20.467 Y34.539 ;extruding 
G1 X18.889 Y34.106 ;extruding 
G1 X17.382 Y33.468 ;extruding 
G1 X15.974 Y32.634 ;extruding 
G1 X14.690 Y31.619 ;extruding 
G1 X13.552 Y30.443 ;extruding 
G1 X12.582 Y29.126 ;extruding 
G1 X11.795 Y27.690 ;extruding 
G1 X11.207 Y26.163 ;extruding 
G1 X10.828 Y24.571 ;extruding 
G1 X10.664 Y22.943 ;extruding 
G1 X10.718 Y21.307 ;extruding 
G1 X10.965 Y19.849 ;extruding 
G1 X10.991 Y19.694 ;extruding 
G1 X11.476 Y18.131 ;extruding 
G1 X12.164 Y16.646 ;extruding 
G1 X13.045 Y15.267 ;extruding 
G1 X14.063 Y14.062 ;extruding 
FILEWRITE $hFile"\x05\x02\x30\x34\x44\x49\x20\x20\x43\x46\x03"
DWELL 0.3
G1 X13.963 Y13.441 ;not extruding 
G1 X13.070 Y12.690 ;not extruding 
FILEWRITE $hFile"\x05\x02\x30\x34\x44\x49\x20\x20\x43\x46\x03"
DWELL 0.3
G1 X13.563 Y12.294 ;extruding 
G1 X15.686 Y10.486 ;extruding 
G1 X18.578 Y9.347 ;extruding 
G1 X19.744 Y8.837 ;extruding 
G1 X21.367 Y8.757 ;extruding 
G1 X24.172 Y8.541 ;extruding 
G1 X25.699 Y8.955 ;extruding 
G1 X28.410 Y9.610 ;extruding 
G1 X31.031 Y11.280 ;extruding 
G1 X32.129 Y11.923 ;extruding 
G1 X33.148 Y13.189 ;extruding 
G1 X34.955 Y15.313 ;extruding 
G1 X36.094 Y18.204 ;extruding 
G1 X36.605 Y19.370 ;extruding 
G1 X36.684 Y20.993 ;extruding 
G1 X36.901 Y23.799 ;extruding 
G1 X36.486 Y25.326 ;extruding 
G1 X35.831 Y28.036 ;extruding 
G1 X34.162 Y30.657 ;extruding 
G1 X33.518 Y31.755 ;extruding 
G1 X32.252 Y32.774 ;extruding 
G1 X30.129 Y34.581 ;extruding 
G1 X27.237 Y35.721 ;extruding 
G1 X26.071 Y36.231 ;extruding 
G1 X24.448 Y36.310 ;extruding 
G1 X21.643 Y36.527 ;extruding 
G1 X20.115 Y36.112 ;extruding 
G1 X17.405 Y35.457 ;extruding 
G1 X14.784 Y33.788 ;extruding 
G1 X13.708 Y33.157 ;extruding 
G1 X11.704 Y30.727 ;extruding 
G1 X10.875 Y29.794 ;extruding 
G1 X9.721 Y26.864 ;extruding 
G1 X9.210 Y25.697 ;extruding 
G1 X9.131 Y24.074 ;extruding 
G1 X8.914 Y21.269 ;extruding 
G1 X9.329 Y19.742 ;extruding 
G1 X9.984 Y17.031 ;extruding 
G1 X11.653 Y14.410 ;extruding 
G1 X12.297 Y13.312 ;extruding 
G1 X13.002 Y12.745 ;extruding 
FILEWRITE $hFile"\x05\x02\x30\x34\x44\x49\x20\x20\x43\x46\x03"
DWELL 0.3
G1 X12.824 Y12.384 ;not extruding 
FILEWRITE $hFile"\x05\x02\x30\x34\x44\x49\x20\x20\x43\x46\x03"
DWELL 0.3
G1 X13.313 Y11.991 ;extruding 
G1 X15.482 Y10.145 ;extruding 
G1 X18.427 Y8.984 ;extruding 
G1 X19.652 Y8.448 ;extruding 
G1 X21.342 Y8.365 ;extruding 
G1 X24.210 Y8.144 ;extruding 
G1 X25.797 Y8.575 ;extruding 
G1 X28.566 Y9.244 ;extruding 
G1 X31.236 Y10.944 ;extruding 
G1 X32.390 Y11.621 ;extruding 
G1 X33.450 Y12.939 ;extruding 
G1 X35.297 Y15.108 ;extruding 
G1 X36.457 Y18.053 ;extruding 
G1 X36.993 Y19.279 ;extruding 
G1 X37.076 Y20.968 ;extruding 
G1 X37.297 Y23.836 ;extruding 
G1 X36.867 Y25.423 ;extruding 
G1 X36.197 Y28.192 ;extruding 
G1 X34.497 Y30.862 ;extruding 
G1 X33.820 Y32.016 ;extruding 
G1 X32.502 Y33.076 ;extruding 
G1 X30.333 Y34.923 ;extruding 
G1 X27.388 Y36.083 ;extruding 
G1 X26.163 Y36.619 ;extruding 
G1 X24.473 Y36.702 ;extruding 
G1 X21.605 Y36.924 ;extruding 
G1 X20.018 Y36.493 ;extruding 
G1 X17.249 Y35.823 ;extruding 
G1 X14.579 Y34.123 ;extruding 
G1 X13.449 Y33.461 ;extruding 
G1 X11.406 Y30.982 ;extruding 
G1 X10.536 Y30.003 ;extruding 
G1 X9.358 Y27.014 ;extruding 
G1 X8.822 Y25.789 ;extruding 
G1 X8.739 Y24.099 ;extruding 
G1 X8.518 Y21.231 ;extruding 
G1 X8.948 Y19.644 ;extruding 
G1 X9.618 Y16.876 ;extruding 
G1 X11.318 Y14.205 ;extruding 
G1 X11.995 Y13.051 ;extruding 
G1 X12.756 Y12.439 ;extruding 
FILEWRITE $hFile"\x05\x02\x30\x34\x44\x49\x20\x20\x43\x46\x03"
DWELL 0.3
G1 X12.578 Y12.078 ;not extruding 
FILEWRITE $hFile"\x05\x02\x30\x34\x44\x49\x20\x20\x43\x46\x03"
DWELL 0.3
G1 X13.062 Y11.688 ;extruding 
G1 X15.277 Y9.803 ;extruding 
G1 X18.276 Y8.621 ;extruding 
G1 X19.580 Y8.051 ;extruding 
G1 X21.317 Y7.973 ;extruding 
G1 X24.231 Y7.743 ;extruding 
G1 X25.895 Y8.194 ;extruding 
G1 X28.722 Y8.878 ;extruding 
G1 X31.441 Y10.609 ;extruding 
G1 X32.669 Y11.329 ;extruding 
G1 X33.753 Y12.689 ;extruding 
G1 X35.638 Y14.904 ;extruding 
G1 X36.820 Y17.902 ;extruding 
G1 X37.390 Y19.206 ;extruding 
G1 X37.468 Y20.944 ;extruding 
G1 X37.699 Y23.857 ;extruding 
G1 X37.247 Y25.521 ;extruding 
G1 X36.563 Y28.348 ;extruding 
G1 X34.832 Y31.067 ;extruding 
G1 X34.112 Y32.295 ;extruding 
G1 X32.753 Y33.379 ;extruding 
G1 X30.538 Y35.265 ;extruding 
G1 X27.539 Y36.446 ;extruding 
G1 X26.235 Y37.017 ;extruding 
G1 X24.498 Y37.094 ;extruding 
G1 X21.584 Y37.325 ;extruding 
G1 X19.920 Y36.873 ;extruding 
G1 X17.093 Y36.190 ;extruding 
G1 X14.374 Y34.458 ;extruding 
G1 X13.146 Y33.738 ;extruding 
G1 X13.158 Y33.724 ;extruding 
G1 X11.107 Y31.238 ;extruding 
G1 X10.162 Y30.174 ;extruding 
G1 X10.177 Y30.164 ;extruding 
G1 X8.995 Y27.165 ;extruding 
G1 X8.425 Y25.861 ;extruding 
G1 X8.347 Y24.124 ;extruding 
G1 X8.116 Y21.211 ;extruding 
G1 X8.568 Y19.547 ;extruding 
G1 X9.252 Y16.719 ;extruding 
G1 X10.983 Y14.001 ;extruding 
G1 X11.703 Y12.773 ;extruding 
G1 X12.510 Y12.133 ;extruding 
FILEWRITE $hFile"\x05\x02\x30\x34\x44\x49\x20\x20\x43\x46\x03"
DWELL 0.3
G1 X11.709 Y12.273 ;not extruding 
FILEWRITE $hFile"\x05\x02\x30\x34\x44\x49\x20\x20\x43\x46\x03"
DWELL 0.3
G1 X12.812 Y11.386 ;extruding 
G1 X14.786 Y9.705 ;extruding 
G1 X13.939 Y8.200 ;extruding 
G1 X13.520 Y7.534 ;extruding 
G1 X12.852 Y6.365 ;extruding 
G1 X13.401 Y6.043 ;extruding 
G1 X13.683 Y6.526 ;extruding 
G1 X14.113 Y7.186 ;extruding 
G1 X14.708 Y8.207 ;extruding 
G1 X15.432 Y9.320 ;extruding 
G1 X18.125 Y8.259 ;extruding 
G1 X19.145 Y7.812 ;extruding 
G1 X18.808 Y6.131 ;extruding 
G1 X18.614 Y5.367 ;extruding 
G1 X18.341 Y4.049 ;extruding 
G1 X18.962 Y3.913 ;extruding 
G1 X19.081 Y4.459 ;extruding 
G1 X19.286 Y5.220 ;extruding 
G1 X19.537 Y6.374 ;extruding 
G1 X19.879 Y7.650 ;extruding 
G1 X21.293 Y7.581 ;extruding 
G1 X23.877 Y7.382 ;extruding 
G1 X24.077 Y5.667 ;extruding 
G1 X24.129 Y4.881 ;extruding 
G1 X24.276 Y3.544 ;extruding 
G1 X24.909 Y3.609 ;extruding 
G1 X24.854 Y4.161 ;extruding 
G1 X24.813 Y4.948 ;extruding 
G1 X24.695 Y6.123 ;extruding 
G1 X24.627 Y7.443 ;extruding 
G1 X25.992 Y7.814 ;extruding 
G1 X28.512 Y8.423 ;extruding 
G1 X29.232 Y6.854 ;extruding 
G1 X29.524 Y6.122 ;extruding 
G1 X30.078 Y4.895 ;extruding 
G1 X30.661 Y5.150 ;extruding 
G1 X30.436 Y5.662 ;extruding 
G1 X30.154 Y6.398 ;extruding 
G1 X29.679 Y7.479 ;extruding 
G1 X29.203 Y8.719 ;extruding 
G1 X31.645 Y10.274 ;extruding 
G1 X32.606 Y10.837 ;extruding 
G1 X33.768 Y9.575 ;extruding 
G1 X34.272 Y8.970 ;extruding 
G1 X35.178 Y7.974 ;extruding 
G1 X35.269 Y8.049 ;extruding 
G1 X35.653 Y8.397 ;extruding 
G1 X35.281 Y8.814 ;extruding 
G1 X34.786 Y9.427 ;extruding 
G1 X33.999 Y10.308 ;extruding 
G1 X33.168 Y11.336 ;extruding 
G1 X34.055 Y12.438 ;extruding 
G1 X35.736 Y14.412 ;extruding 
G1 X37.241 Y13.566 ;extruding 
G1 X37.907 Y13.146 ;extruding 
G1 X39.077 Y12.478 ;extruding 
G1 X39.398 Y13.028 ;extruding 
G1 X38.915 Y13.309 ;extruding 
G1 X38.255 Y13.739 ;extruding 
G1 X37.234 Y14.334 ;extruding 
G1 X36.121 Y15.058 ;extruding 
G1 X37.183 Y17.752 ;extruding 
G1 X37.629 Y18.772 ;extruding 
G1 X39.310 Y18.434 ;extruding 
G1 X40.074 Y18.240 ;extruding 
G1 X41.393 Y17.967 ;extruding 
G1 X41.528 Y18.589 ;extruding 
G1 X40.982 Y18.707 ;extruding 
G1 X40.221 Y18.912 ;extruding 
G1 X39.067 Y19.163 ;extruding 
G1 X37.791 Y19.506 ;extruding 
G1 X37.860 Y20.919 ;extruding 
G1 X38.059 Y23.504 ;extruding 
G1 X39.775 Y23.703 ;extruding 
G1 X40.560 Y23.755 ;extruding 
G1 X41.897 Y23.903 ;extruding 
G1 X41.832 Y24.535 ;extruding 
G1 X41.280 Y24.480 ;extruding 
G1 X40.493 Y24.439 ;extruding 
G1 X39.318 Y24.321 ;extruding 
G1 X37.998 Y24.253 ;extruding 
G1 X37.627 Y25.618 ;extruding 
G1 X37.018 Y28.138 ;extruding 
G1 X38.588 Y28.858 ;extruding 
G1 X39.319 Y29.151 ;extruding 
G1 X40.546 Y29.704 ;extruding 
G1 X40.291 Y30.287 ;extruding 
G1 X39.779 Y30.062 ;extruding 
G1 X39.044 Y29.780 ;extruding 
G1 X37.962 Y29.305 ;extruding 
G1 X36.722 Y28.830 ;extruding 
G1 X35.167 Y31.272 ;extruding 
G1 X34.604 Y32.232 ;extruding 
G1 X35.866 Y33.394 ;extruding 
G1 X36.471 Y33.898 ;extruding 
G1 X37.467 Y34.804 ;extruding 
G1 X37.392 Y34.896 ;extruding 
G1 X37.044 Y35.280 ;extruding 
G1 X36.627 Y34.907 ;extruding 
G1 X36.015 Y34.412 ;extruding 
G1 X35.133 Y33.626 ;extruding 
G1 X34.106 Y32.795 ;extruding 
G1 X33.003 Y33.681 ;extruding 
G1 X31.029 Y35.362 ;extruding 
G1 X31.876 Y36.867 ;extruding 
G1 X32.295 Y37.533 ;extruding 
G1 X32.963 Y38.703 ;extruding 
G1 X32.414 Y39.024 ;extruding 
G1 X32.132 Y38.541 ;extruding 
G1 X31.702 Y37.881 ;extruding 
G1 X31.107 Y36.861 ;extruding 
G1 X30.383 Y35.747 ;extruding 
G1 X27.690 Y36.809 ;extruding 
G1 X26.670 Y37.255 ;extruding 
G1 X27.007 Y38.937 ;extruding 
G1 X27.201 Y39.700 ;extruding 
G1 X27.474 Y41.019 ;extruding 
G1 X26.853 Y41.155 ;extruding 
G1 X26.734 Y40.608 ;extruding 
G1 X26.529 Y39.848 ;extruding 
G1 X26.278 Y38.693 ;extruding 
G1 X25.936 Y37.417 ;extruding 
G1 X24.522 Y37.486 ;extruding 
G1 X21.938 Y37.686 ;extruding 
G1 X21.738 Y39.401 ;extruding 
G1 X21.686 Y40.187 ;extruding 
G1 X21.539 Y41.523 ;extruding 
G1 X20.906 Y41.459 ;extruding 
G1 X20.961 Y40.906 ;extruding 
G1 X21.002 Y40.119 ;extruding 
G1 X21.120 Y38.944 ;extruding 
G1 X21.188 Y37.624 ;extruding 
G1 X19.823 Y37.254 ;extruding 
G1 X17.303 Y36.644 ;extruding 
G1 X16.583 Y38.214 ;extruding 
G1 X16.291 Y38.945 ;extruding 
G1 X15.737 Y40.173 ;extruding 
G1 X15.154 Y39.917 ;extruding 
G1 X15.379 Y39.405 ;extruding 
G1 X15.661 Y38.670 ;extruding 
G1 X16.136 Y37.588 ;extruding 
G1 X16.612 Y36.348 ;extruding 
G1 X14.170 Y34.793 ;extruding 
G1 X13.209 Y34.230 ;extruding 
G1 X12.047 Y35.492 ;extruding 
G1 X11.543 Y36.097 ;extruding 
G1 X10.637 Y37.093 ;extruding 
G1 X10.545 Y37.018 ;extruding 
G1 X10.162 Y36.670 ;extruding 
G1 X10.534 Y36.253 ;extruding 
G1 X11.029 Y35.641 ;extruding 
G1 X11.816 Y34.759 ;extruding 
G1 X12.651 Y33.727 ;extruding 
G1 X10.809 Y31.493 ;extruding 
G1 X10.069 Y30.661 ;extruding 
G1 X8.574 Y31.502 ;extruding 
G1 X7.908 Y31.922 ;extruding 
G1 X6.738 Y32.589 ;extruding 
G1 X6.417 Y32.040 ;extruding 
G1 X6.900 Y31.758 ;extruding 
G1 X7.560 Y31.329 ;extruding 
G1 X8.581 Y30.733 ;extruding 
G1 X9.694 Y30.009 ;extruding 
G1 X8.632 Y27.316 ;extruding 
G1 X8.186 Y26.296 ;extruding 
G1 X6.504 Y26.634 ;extruding 
G1 X5.741 Y26.827 ;extruding 
G1 X4.422 Y27.100 ;extruding 
G1 X4.287 Y26.479 ;extruding 
G1 X4.833 Y26.360 ;extruding 
G1 X5.594 Y26.156 ;extruding 
G1 X6.748 Y25.905 ;extruding 
G1 X8.024 Y25.562 ;extruding 
G1 X7.955 Y24.149 ;extruding 
G1 X7.755 Y21.564 ;extruding 
G1 X6.040 Y21.364 ;extruding 
G1 X5.255 Y21.312 ;extruding 
G1 X3.918 Y21.165 ;extruding 
G1 X3.983 Y20.532 ;extruding 
G1 X4.535 Y20.587 ;extruding 
G1 X5.322 Y20.628 ;extruding 
G1 X6.497 Y20.746 ;extruding 
G1 X7.817 Y20.814 ;extruding 
G1 X8.188 Y19.449 ;extruding 
G1 X8.797 Y16.929 ;extruding 
G1 X7.227 Y16.209 ;extruding 
G1 X6.496 Y15.917 ;extruding 
G1 X5.269 Y15.363 ;extruding 
G1 X5.524 Y14.780 ;extruding 
G1 X6.036 Y15.005 ;extruding 
G1 X6.771 Y15.287 ;extruding 
G1 X7.853 Y15.763 ;extruding 
G1 X9.093 Y16.238 ;extruding 
G1 X10.648 Y13.796 ;extruding 
G1 X11.211 Y12.835 ;extruding 
G1 X9.949 Y11.673 ;extruding 
G1 X9.344 Y11.169 ;extruding 
G1 X8.348 Y10.263 ;extruding 
G1 X8.423 Y10.172 ;extruding 
G1 X8.771 Y9.788 ;extruding 
G1 X9.188 Y10.160 ;extruding 
G1 X9.800 Y10.655 ;extruding 
G1 X10.682 Y11.442 ;extruding 
G1 X11.642 Y12.218 ;extruding 
FILEWRITE $hFile"\x05\x02\x30\x34\x44\x49\x20\x20\x43\x46\x03"
DWELL 0.3
G1 X11.710 Y11.768 ;not extruding 
FILEWRITE $hFile"\x05\x02\x30\x34\x44\x49\x20\x20\x43\x46\x03"
DWELL 0.3
G1 X12.562 Y11.083 ;extruding 
G1 X14.285 Y9.616 ;extruding 
G1 X13.602 Y8.402 ;extruding 
G1 X13.182 Y7.735 ;extruding 
G1 X12.603 Y6.706 ;extruding 
G1 X12.312 Y6.244 ;extruding 
G1 X12.748 Y5.965 ;extruding 
G1 X13.544 Y5.509 ;extruding 
G1 X14.018 Y6.320 ;extruding 
G1 X14.447 Y6.980 ;extruding 
G1 X15.042 Y8.001 ;extruding 
G1 X15.586 Y8.837 ;extruding 
G1 X17.975 Y7.896 ;extruding 
G1 X18.698 Y7.580 ;extruding 
G1 X18.425 Y6.218 ;extruding 
G1 X18.231 Y5.454 ;extruding 
G1 X17.998 Y4.296 ;extruding 
G1 X17.864 Y3.767 ;extruding 
G1 X18.366 Y3.636 ;extruding 
G1 X19.263 Y3.449 ;extruding 
G1 X19.463 Y4.367 ;extruding 
G1 X19.667 Y5.127 ;extruding 
G1 X19.918 Y6.282 ;extruding 
G1 X20.176 Y7.243 ;extruding 
G1 X21.268 Y7.189 ;extruding 
G1 X23.525 Y7.015 ;extruding 
G1 X23.686 Y5.631 ;extruding 
G1 X23.738 Y4.845 ;extruding 
G1 X23.874 Y3.672 ;extruding 
G1 X23.911 Y3.121 ;extruding 
G1 X24.046 Y3.126 ;extruding 
G1 X25.339 Y3.258 ;extruding 
G1 X25.245 Y4.191 ;extruding 
G1 X25.205 Y4.978 ;extruding 
G1 X25.087 Y6.153 ;extruding 
G1 X25.035 Y7.147 ;extruding 
G1 X26.090 Y7.433 ;extruding 
G1 X28.290 Y7.965 ;extruding 
G1 X28.871 Y6.699 ;extruding 
G1 X29.163 Y5.967 ;extruding 
G1 X29.656 Y4.894 ;extruding 
G1 X29.858 Y4.387 ;extruding 
G1 X30.341 Y4.576 ;extruding 
G1 X31.177 Y4.952 ;extruding 
G1 X30.799 Y5.812 ;extruding 
G1 X30.517 Y6.547 ;extruding 
G1 X30.042 Y7.628 ;extruding 
G1 X29.685 Y8.560 ;extruding 
G1 X31.850 Y9.939 ;extruding 
G1 X32.531 Y10.338 ;extruding 
G1 X33.472 Y9.317 ;extruding 
G1 X33.976 Y8.711 ;extruding 
G1 X34.777 Y7.842 ;extruding 
G1 X35.126 Y7.423 ;extruding 
G1 X35.526 Y7.752 ;extruding 
G1 X36.206 Y8.368 ;extruding 
G1 X35.580 Y9.069 ;extruding 
G1 X35.085 Y9.681 ;extruding 
G1 X34.299 Y10.563 ;extruding 
G1 X33.673 Y11.336 ;extruding 
G1 X34.358 Y12.188 ;extruding 
G1 X35.825 Y13.911 ;extruding 
G1 X37.040 Y13.228 ;extruding 
G1 X37.706 Y12.808 ;extruding 
G1 X38.736 Y12.229 ;extruding 
G1 X39.197 Y11.938 ;extruding 
G1 X39.476 Y12.374 ;extruding 
G1 X39.932 Y13.170 ;extruding 
G1 X39.121 Y13.644 ;extruding 
G1 X38.461 Y14.073 ;extruding 
G1 X37.441 Y14.669 ;extruding 
G1 X36.604 Y15.212 ;extruding 
G1 X37.545 Y17.601 ;extruding 
G1 X37.862 Y18.324 ;extruding 
G1 X39.224 Y18.051 ;extruding 
G1 X39.987 Y17.857 ;extruding 
G1 X41.145 Y17.625 ;extruding 
G1 X41.674 Y17.491 ;extruding 
G1 X41.805 Y17.992 ;extruding 
G1 X41.993 Y18.890 ;extruding 
G1 X41.075 Y19.089 ;extruding 
G1 X40.314 Y19.293 ;extruding 
G1 X39.160 Y19.544 ;extruding 
G1 X38.199 Y19.803 ;extruding 
G1 X38.252 Y20.894 ;extruding 
G1 X38.426 Y23.151 ;extruding 
G1 X39.810 Y23.312 ;extruding 
G1 X40.596 Y23.364 ;extruding 
G1 X41.770 Y23.501 ;extruding 
G1 X42.320 Y23.537 ;extruding 
G1 X42.183 Y24.965 ;extruding 
G1 X41.250 Y24.872 ;extruding 
G1 X40.463 Y24.831 ;extruding 
G1 X39.288 Y24.713 ;extruding 
G1 X38.294 Y24.661 ;extruding 
G1 X38.008 Y25.716 ;extruding 
G1 X37.476 Y27.916 ;extruding 
G1 X38.743 Y28.497 ;extruding 
G1 X39.474 Y28.789 ;extruding 
G1 X40.548 Y29.282 ;extruding 
G1 X41.054 Y29.485 ;extruding 
G1 X40.865 Y29.967 ;extruding 
G1 X40.490 Y30.803 ;extruding 
G1 X39.630 Y30.425 ;extruding 
G1 X38.894 Y30.144 ;extruding 
G1 X37.813 Y29.668 ;extruding 
G1 X36.881 Y29.311 ;extruding 
G1 X35.502 Y31.476 ;extruding 
G1 X35.103 Y32.158 ;extruding 
G1 X36.125 Y33.099 ;extruding 
G1 X36.730 Y33.603 ;extruding 
G1 X37.599 Y34.403 ;extruding 
G1 X38.018 Y34.752 ;extruding 
G1 X37.690 Y35.152 ;extruding 
G1 X37.074 Y35.832 ;extruding 
G1 X36.373 Y35.207 ;extruding 
G1 X35.760 Y34.711 ;extruding 
G1 X34.879 Y33.925 ;extruding 
G1 X34.105 Y33.299 ;extruding 
G1 X33.253 Y33.984 ;extruding 
G1 X31.530 Y35.451 ;extruding 
G1 X32.213 Y36.666 ;extruding 
G1 X32.633 Y37.332 ;extruding 
G1 X33.212 Y38.362 ;extruding 
G1 X33.503 Y38.823 ;extruding 
G1 X33.067 Y39.103 ;extruding 
G1 X32.271 Y39.559 ;extruding 
G1 X31.797 Y38.747 ;extruding 
G1 X31.368 Y38.087 ;extruding 
G1 X30.773 Y37.067 ;extruding 
G1 X30.229 Y36.230 ;extruding 
G1 X27.840 Y37.171 ;extruding 
G1 X27.117 Y37.488 ;extruding 
G1 X27.390 Y38.850 ;extruding 
G1 X27.584 Y39.613 ;extruding 
G1 X27.817 Y40.771 ;extruding 
G1 X27.950 Y41.300 ;extruding 
G1 X27.449 Y41.431 ;extruding 
G1 X26.552 Y41.619 ;extruding 
G1 X26.352 Y40.701 ;extruding 
G1 X26.148 Y39.940 ;extruding 
G1 X25.897 Y38.786 ;extruding 
G1 X25.639 Y37.825 ;extruding 
G1 X24.547 Y37.878 ;extruding 
G1 X22.290 Y38.052 ;extruding 
G1 X22.129 Y39.437 ;extruding 
G1 X22.077 Y40.222 ;extruding 
G1 X21.940 Y41.396 ;extruding 
G1 X21.904 Y41.946 ;extruding 
G1 X20.476 Y41.809 ;extruding 
G1 X20.569 Y40.876 ;extruding 
G1 X20.610 Y40.090 ;extruding 
G1 X20.728 Y38.914 ;extruding 
G1 X20.780 Y37.920 ;extruding 
G1 X19.725 Y37.634 ;extruding 
G1 X17.525 Y37.102 ;extruding 
G1 X16.944 Y38.369 ;extruding 
G1 X16.652 Y39.100 ;extruding 
G1 X16.159 Y40.174 ;extruding 
G1 X15.957 Y40.680 ;extruding 
G1 X15.474 Y40.492 ;extruding 
G1 X14.638 Y40.116 ;extruding 
G1 X15.016 Y39.256 ;extruding 
G1 X15.298 Y38.520 ;extruding 
G1 X15.773 Y37.439 ;extruding 
G1 X16.130 Y36.507 ;extruding 
G1 X13.965 Y35.128 ;extruding 
G1 X13.284 Y34.729 ;extruding 
G1 X12.343 Y35.751 ;extruding 
G1 X11.839 Y36.356 ;extruding 
G1 X11.038 Y37.225 ;extruding 
G1 X10.689 Y37.644 ;extruding 
G1 X10.289 Y37.316 ;extruding 
G1 X9.609 Y36.700 ;extruding 
G1 X10.235 Y35.999 ;extruding 
G1 X10.730 Y35.386 ;extruding 
G1 X11.516 Y34.505 ;extruding 
G1 X12.144 Y33.729 ;extruding 
G1 X10.511 Y31.748 ;extruding 
G1 X9.986 Y31.158 ;extruding 
G1 X8.775 Y31.839 ;extruding 
G1 X8.109 Y32.259 ;extruding 
G1 X7.079 Y32.838 ;extruding 
G1 X6.618 Y33.129 ;extruding 
G1 X6.339 Y32.693 ;extruding 
G1 X5.883 Y31.897 ;extruding 
G1 X6.694 Y31.424 ;extruding 
G1 X7.354 Y30.994 ;extruding 
G1 X8.374 Y30.399 ;extruding 
G1 X9.211 Y29.855 ;extruding 
G1 X8.270 Y27.467 ;extruding 
G1 X7.953 Y26.743 ;extruding 
G1 X6.591 Y27.017 ;extruding 
G1 X5.828 Y27.210 ;extruding 
G1 X4.670 Y27.443 ;extruding 
G1 X4.141 Y27.577 ;extruding 
G1 X4.010 Y27.076 ;extruding 
G1 X3.822 Y26.178 ;extruding 
G1 X4.740 Y25.978 ;extruding 
G1 X5.501 Y25.774 ;extruding 
G1 X6.655 Y25.523 ;extruding 
G1 X7.616 Y25.265 ;extruding 
G1 X7.563 Y24.173 ;extruding 
G1 X7.389 Y21.917 ;extruding 
G1 X6.005 Y21.755 ;extruding 
G1 X5.219 Y21.703 ;extruding 
G1 X4.045 Y21.567 ;extruding 
G1 X3.495 Y21.530 ;extruding 
G1 X3.500 Y21.395 ;extruding 
G1 X3.632 Y20.102 ;extruding 
G1 X4.565 Y20.196 ;extruding 
G1 X5.352 Y20.236 ;extruding 
G1 X6.527 Y20.354 ;extruding 
G1 X7.521 Y20.406 ;extruding 
G1 X7.807 Y19.351 ;extruding 
G1 X8.339 Y17.151 ;extruding 
G1 X7.072 Y16.570 ;extruding 
G1 X6.341 Y16.278 ;extruding 
G1 X5.267 Y15.785 ;extruding 
G1 X4.761 Y15.583 ;extruding 
G1 X4.950 Y15.101 ;extruding 
G1 X5.325 Y14.264 ;extruding 
G1 X6.185 Y14.642 ;extruding 
G1 X6.921 Y14.924 ;extruding 
G1 X8.002 Y15.399 ;extruding 
G1 X8.934 Y15.756 ;extruding 
G1 X10.313 Y13.591 ;extruding 
G1 X10.712 Y12.910 ;extruding 
G1 X9.690 Y11.969 ;extruding 
G1 X9.085 Y11.465 ;extruding 
G1 X8.216 Y10.665 ;extruding 
G1 X7.797 Y10.315 ;extruding 
G1 X8.125 Y9.915 ;extruding 
G1 X8.741 Y9.235 ;extruding 
G1 X9.442 Y9.861 ;extruding 
G1 X10.055 Y10.356 ;extruding 
G1 X10.936 Y11.142 ;extruding 
G1 X11.643 Y11.714 ;extruding 
FILEWRITE $hFile"\x05\x02\x30\x34\x44\x49\x20\x20\x43\x46\x03"
DWELL 0.3
G1 X12.101 Y12.197 ;not extruding 
G1 D-147.500 ;not extruding 
G1 X13.253 Y13.196 ;not extruding 
FILEWRITE $hFile"\x05\x02\x30\x34\x44\x49\x20\x20\x43\x46\x03"
DWELL 0.3
G1 X14.583 Y11.993 ;extruding 
G1 X16.063 Y10.977 ;extruding 
G1 X17.664 Y10.168 ;extruding 
G1 X19.359 Y9.580 ;extruding 
G1 X21.117 Y9.222 ;extruding 
G1 X22.907 Y9.102 ;extruding 
G1 X24.698 Y9.222 ;extruding 
G1 X26.456 Y9.580 ;extruding 
G1 X28.151 Y10.168 ;extruding 
G1 X29.752 Y10.977 ;extruding 
G1 X31.232 Y11.993 ;extruding 
G1 X32.562 Y13.196 ;extruding 
G1 X33.721 Y14.567 ;extruding 
G1 X34.686 Y16.079 ;extruding 
G1 X35.441 Y17.706 ;extruding 
G1 X35.973 Y19.420 ;extruding 
G1 X36.271 Y21.189 ;extruding 
G1 X36.331 Y22.983 ;extruding 
G1 X36.152 Y24.768 ;extruding 
G1 X35.736 Y26.513 ;extruding 
G1 X35.091 Y28.187 ;extruding 
G1 X34.229 Y29.761 ;extruding 
G1 X33.164 Y31.205 ;extruding 
G1 X31.917 Y32.495 ;extruding 
G1 X30.509 Y33.607 ;extruding 
G1 X28.965 Y34.521 ;extruding 
G1 X27.313 Y35.222 ;extruding 
G1 X25.786 Y35.640 ;extruding 
G1 X25.583 Y35.696 ;extruding 
G1 X23.805 Y35.935 ;extruding 
G1 X22.010 Y35.935 ;extruding 
G1 X20.232 Y35.696 ;extruding 
G1 X18.502 Y35.222 ;extruding 
G1 X16.850 Y34.521 ;extruding 
G1 X15.306 Y33.607 ;extruding 
G1 X13.898 Y32.495 ;extruding 
G1 X12.651 Y31.205 ;extruding 
G1 X11.586 Y29.761 ;extruding 
G1 X10.724 Y28.187 ;extruding 
G1 X10.079 Y26.513 ;extruding 
G1 X9.663 Y24.768 ;extruding 
G1 X9.484 Y22.983 ;extruding 
G1 X9.544 Y21.189 ;extruding 
G1 X9.842 Y19.420 ;extruding 
G1 X10.374 Y17.706 ;extruding 
G1 X11.129 Y16.079 ;extruding 
G1 X12.094 Y14.567 ;extruding 
G1 X13.197 Y13.263 ;extruding 
FILEWRITE $hFile"\x05\x02\x30\x34\x44\x49\x20\x20\x43\x46\x03"
DWELL 0.3
G1 X13.536 Y13.470 ;not extruding 
FILEWRITE $hFile"\x05\x02\x30\x34\x44\x49\x20\x20\x43\x46\x03"
DWELL 0.3
