; generated by Slic3r 1.3.0 on 2023-07-03 at 12:12:23

; external perimeters extrusion width = 1.00mm (11.78mm^3/s)
; perimeters extrusion width = 1.00mm (11.78mm^3/s)
; infill extrusion width = 1.00mm (11.78mm^3/s)
; solid infill extrusion width = 1.00mm (11.78mm^3/s)
; top infill extrusion width = 1.00mm (11.78mm^3/s)


; Filament gcode

G21 ; set units to millimeters
G90 ; use absolute coordinates
G1 Z-148.500 F900.000
G1 X113.223 Y11.316 F900.000
G1 F900
G1 X114.091 Y10.448 0.00000
G1 X118.964 Y13.262 0.00000
G1 X123.836 Y10.448 0.00000
G1 X124.704 Y11.316 0.00000
G1 X121.891 Y16.189 0.00000
G1 X124.704 Y21.062 0.00000
G1 X123.836 Y21.930 0.00000
G1 X118.964 Y19.116 0.00000
G1 X114.091 Y21.930 0.00000
G1 X113.223 Y21.062 0.00000
G1 X116.036 Y16.189 0.00000
G1 X113.336 Y11.511 0.00000
G1 X113.438 Y16.189 F900.000
G1 F900
G1 X105.890 Y3.115 0.00000
G1 X118.964 Y10.663 0.00000
G1 X132.037 Y3.115 0.00000
G1 X124.489 Y16.189 0.00000
G1 X132.037 Y29.263 0.00000
G1 X118.964 Y21.715 0.00000
G1 X105.890 Y29.263 0.00000
G1 X113.326 Y16.384 0.00000
G1 X111.829 Y21.333 F900.000
G1 F900
G1 X109.109 Y26.044 0.00000
G1 X112.824 Y22.329 0.00000
G1 X113.819 Y23.324 0.00000
G1 X111.828 Y11.045 F900.000
G1 F900
G1 X113.819 Y9.054 0.00000
G1 X112.642 Y8.374 0.00000
G1 X111.149 Y9.867 0.00000
G1 X110.469 Y8.689 0.00000
G1 X111.464 Y7.694 0.00000
G1 X110.286 Y7.014 0.00000
G1 X109.789 Y7.512 0.00000
G1 X109.109 Y6.334 0.00000
G1 X124.108 Y9.054 F900.000
G1 F900
G1 X125.103 Y10.049 0.00000
G1 X128.819 Y6.334 0.00000
G1 X126.099 Y11.045 0.00000
G1 X126.099 Y21.333 F900.000
G1 F900
G1 X124.108 Y23.324 0.00000
G1 X125.286 Y24.004 0.00000
G1 X126.779 Y22.511 0.00000
G1 X127.459 Y23.689 0.00000
G1 X126.463 Y24.684 0.00000
G1 X127.641 Y25.364 0.00000
G1 X128.139 Y24.866 0.00000
G1 X128.819 Y26.044 0.00000
G1 X53.338 Y1.574 F900.000

G1 Z-148.500 F900.000
G1 X74.201 Y21.570 F900.000
G1 F900
G1 X73.333 Y22.438 0.00000
G1 X67.948 Y19.329 0.00000
G1 X62.563 Y22.438 0.00000
G1 X61.695 Y21.570 0.00000
G1 X64.804 Y16.185 0.00000
G1 X61.695 Y10.800 0.00000
G1 X62.563 Y9.932 0.00000
G1 X67.948 Y13.041 0.00000
G1 X73.333 Y9.932 0.00000
G1 X74.201 Y10.800 0.00000
G1 X71.092 Y16.185 0.00000
G1 X74.089 Y21.375 0.00000
G1 X73.257 Y16.185 F900.000
G1 F900
G1 X80.509 Y28.746 0.00000
G1 X67.948 Y21.494 0.00000
G1 X55.387 Y28.746 0.00000
G1 X62.639 Y16.185 0.00000
G1 X55.387 Y3.623 0.00000
G1 X67.948 Y10.876 0.00000
G1 X80.509 Y3.623 0.00000
G1 X73.370 Y15.990 0.00000
G1 X75.321 Y10.254 F900.000
G1 F900
G1 X75.321 Y10.254 0.00000
G1 X74.321 Y9.254 F900.000
G1 F900
G1 X75.972 Y7.604 0.00000
G1 X75.321 Y22.116 F900.000
G1 F900
G1 X73.879 Y23.558 0.00000
G1 X75.321 Y22.116 0.00000
G1 X75.978 Y23.253 0.00000
G1 X75.016 Y24.214 0.00000
G1 X76.154 Y24.871 0.00000
G1 X76.634 Y24.390 0.00000
G1 X77.291 Y25.527 0.00000
G1 X62.017 Y23.558 F900.000
G1 F900
G1 X61.017 Y22.558 0.00000
G1 X59.367 Y24.209 0.00000
G1 X60.575 Y22.116 0.00000
G1 X61.017 Y22.558 0.00000
G1 X60.575 Y10.254 F900.000
G1 F900
G1 X62.017 Y8.812 0.00000
G1 X60.880 Y8.155 0.00000
G1 X59.919 Y9.116 0.00000
G1 X59.262 Y7.979 0.00000
G1 X59.743 Y7.499 0.00000
G1 X58.606 Y6.842 0.00000
G1 X4.461 Y2.591 F900.000

G1 Z-148.500 F900.000
G1 X25.324 Y10.792 F900.000
G1 F900
G1 X21.920 Y16.689 0.00000
G1 X25.324 Y22.586 0.00000
G1 X24.456 Y23.454 0.00000
G1 X18.559 Y20.050 0.00000
G1 X12.662 Y23.454 0.00000
G1 X11.794 Y22.586 0.00000
G1 X15.199 Y16.689 0.00000
G1 X11.794 Y10.792 0.00000
G1 X12.662 Y9.924 0.00000
G1 X18.559 Y13.329 0.00000
G1 X24.456 Y9.924 0.00000
G1 X25.165 Y10.633 0.00000
G1 X23.652 Y16.689 F900.000
G1 F900
G1 X30.608 Y28.738 0.00000
G1 X18.559 Y21.782 0.00000
G1 X6.510 Y28.738 0.00000
G1 X13.467 Y16.689 0.00000
G1 X6.510 Y4.640 0.00000
G1 X18.559 Y11.597 0.00000
G1 X30.608 Y4.640 0.00000
G1 X23.764 Y16.494 0.00000
G1 X26.170 Y9.971 F900.000
G1 F900
G1 X26.170 Y9.971 0.00000
G1 X25.277 Y9.079 F900.000
G1 F900
G1 X25.277 Y9.078 0.00000
G1 X26.170 Y23.407 F900.000
G1 F900
G1 X25.277 Y24.300 0.00000
G1 X26.333 Y24.910 0.00000
G1 X26.780 Y24.463 0.00000
G1 X27.389 Y25.520 0.00000
G1 X11.841 Y24.300 F900.000
G1 F900
G1 X10.948 Y23.407 0.00000
G1 X10.948 Y9.971 F900.000
G1 F900
G1 X11.841 Y9.078 0.00000
G1 X10.785 Y8.469 0.00000
G1 X10.338 Y8.915 0.00000
G1 X9.729 Y7.859 0.00000
G1 X208.028 Y0.297 F900.000

G1 Z-148.500 F900.000
G1 X219.459 Y12.596 F900.000
G1 F900
G1 X220.327 Y11.728 0.00000
G1 X224.175 Y13.950 0.00000
G1 X228.023 Y11.728 0.00000
G1 X228.891 Y12.596 0.00000
G1 X226.670 Y16.444 0.00000
G1 X228.891 Y20.292 0.00000
G1 X228.023 Y21.160 0.00000
G1 X224.175 Y18.939 0.00000
G1 X220.327 Y21.160 0.00000
G1 X219.459 Y20.292 0.00000
G1 X221.681 Y16.444 0.00000
G1 X219.571 Y12.791 0.00000
G1 X218.217 Y16.444 F900.000
G1 F900
G1 X210.077 Y2.346 0.00000
G1 X224.175 Y10.486 0.00000
G1 X238.273 Y2.346 0.00000
G1 X230.134 Y16.444 0.00000
G1 X238.273 Y30.542 0.00000
G1 X224.175 Y22.403 0.00000
G1 X210.077 Y30.542 0.00000
G1 X218.104 Y16.639 0.00000
G1 X217.584 Y12.993 F900.000
G1 F900
G1 X218.197 Y14.054 0.00000
G1 X218.668 Y13.582 0.00000
G1 X219.281 Y14.644 0.00000
G1 X218.809 Y15.115 0.00000
G1 X219.422 Y16.176 0.00000
G1 X219.893 Y15.705 0.00000
G1 X220.320 Y16.444 0.00000
G1 X219.627 Y17.644 0.00000
G1 X217.868 Y19.403 0.00000
G1 X215.582 Y23.364 0.00000
G1 X218.223 Y20.723 0.00000
G1 X219.060 Y21.559 0.00000
G1 X213.296 Y27.324 0.00000
G1 X217.256 Y25.037 0.00000
G1 X219.897 Y22.396 0.00000
G1 X220.133 Y22.633 0.00000
G1 X222.975 Y20.992 0.00000
G1 X221.216 Y22.751 0.00000
G1 X224.175 Y21.042 0.00000
G1 X224.443 Y21.197 0.00000
G1 X224.915 Y20.726 0.00000
G1 X225.976 Y21.339 0.00000
G1 X225.504 Y21.810 0.00000
G1 X226.566 Y22.423 0.00000
G1 X227.037 Y21.951 0.00000
G1 X228.098 Y22.564 0.00000
G1 X227.627 Y23.035 0.00000
G1 X235.055 Y27.324 F900.000
G1 F900
G1 X234.442 Y26.263 0.00000
G1 X233.993 Y26.711 0.00000
G1 X232.932 Y26.098 0.00000
G1 X233.829 Y25.201 0.00000
G1 X233.217 Y24.140 0.00000
G1 X231.871 Y25.486 0.00000
G1 X230.810 Y24.873 0.00000
G1 X232.604 Y23.079 0.00000
G1 X231.991 Y22.018 0.00000
G1 X229.749 Y24.261 0.00000
G1 X228.688 Y23.648 0.00000
G1 X231.379 Y20.957 0.00000
G1 X230.766 Y19.896 0.00000
G1 X230.295 Y20.367 0.00000
G1 X229.682 Y19.306 0.00000
G1 X230.154 Y18.835 0.00000
G1 X229.541 Y17.774 0.00000
G1 X229.070 Y18.245 0.00000
G1 X228.457 Y17.184 0.00000
G1 X228.928 Y16.712 0.00000
G1 X228.773 Y16.444 0.00000
G1 X230.482 Y13.485 0.00000
G1 X228.723 Y15.244 0.00000
G1 X230.364 Y12.402 0.00000
G1 X230.127 Y12.166 0.00000
G1 X232.768 Y9.525 0.00000
G1 X235.055 Y5.565 0.00000
G1 X229.290 Y11.329 0.00000
G1 X228.453 Y10.492 0.00000
G1 X231.095 Y7.851 0.00000
G1 X227.134 Y10.138 0.00000
G1 X225.375 Y11.897 0.00000
G1 X224.175 Y12.590 0.00000
G1 X223.436 Y12.163 0.00000
G1 X223.907 Y11.691 0.00000
G1 X222.846 Y11.079 0.00000
G1 X222.374 Y11.550 0.00000
G1 X221.313 Y10.937 0.00000
G1 X221.785 Y10.466 0.00000
G1 X220.724 Y9.853 0.00000
G1 X220.252 Y10.325 0.00000
G1 X220.133 Y10.256 0.00000
G1 X217.987 Y12.402 0.00000
G1 X218.055 Y12.521 0.00000
G1 X217.584 Y12.993 0.00000
G1 X216.972 Y11.932 0.00000
G1 X219.662 Y9.241 0.00000
G1 X218.601 Y8.628 0.00000
G1 X216.359 Y10.870 0.00000
G1 X215.746 Y9.809 0.00000
G1 X217.540 Y8.015 0.00000
G1 X216.479 Y7.403 0.00000
G1 X215.134 Y8.748 0.00000
G1 X214.521 Y7.687 0.00000
G1 X215.418 Y6.790 0.00000
G1 X214.357 Y6.177 0.00000
G1 X213.908 Y6.626 0.00000
G1 X213.296 Y5.565 0.00000
G1 X154.922 Y0.855 F900.000

G1 Z-148.500 F900.000
G1 X175.786 Y12.130 F900.000
G1 F900
G1 X173.268 Y16.490 0.00000
G1 X175.786 Y20.850 0.00000
G1 X174.918 Y21.718 0.00000
G1 X170.557 Y19.201 0.00000
G1 X166.197 Y21.718 0.00000
G1 X165.329 Y20.850 0.00000
G1 X167.846 Y16.490 0.00000
G1 X165.329 Y12.130 0.00000
G1 X166.197 Y11.262 0.00000
G1 X170.557 Y13.779 0.00000
G1 X174.918 Y11.262 0.00000
G1 X175.627 Y11.970 0.00000
G1 X176.299 Y16.490 F900.000
G1 F900
G1 X184.143 Y30.076 0.00000
G1 X170.557 Y22.232 0.00000
G1 X156.971 Y30.076 0.00000
G1 X164.815 Y16.490 0.00000
G1 X156.971 Y2.904 0.00000
G1 X170.557 Y10.748 0.00000
G1 X184.143 Y2.904 0.00000
G1 X176.412 Y16.295 0.00000
G1 X176.933 Y20.481 F900.000
G1 F900
G1 X177.130 Y20.285 0.00000
G1 X176.497 Y19.189 0.00000
G1 X176.300 Y19.386 0.00000
G1 X175.668 Y18.291 0.00000
G1 X175.865 Y18.094 0.00000
G1 X175.232 Y16.998 0.00000
G1 X175.036 Y17.195 0.00000
G1 X174.628 Y16.490 0.00000
G1 X175.469 Y15.034 0.00000
G1 X176.204 Y14.299 0.00000
G1 X178.564 Y10.211 0.00000
G1 X177.049 Y11.726 0.00000
G1 X176.185 Y10.863 0.00000
G1 X180.924 Y6.123 0.00000
G1 X176.836 Y8.483 0.00000
G1 X175.321 Y9.999 0.00000
G1 X175.111 Y9.789 0.00000
G1 X172.014 Y11.578 0.00000
G1 X172.748 Y10.843 0.00000
G1 X170.557 Y12.108 0.00000
G1 X170.049 Y11.815 0.00000
G1 X169.852 Y12.012 0.00000
G1 X168.757 Y11.379 0.00000
G1 X168.953 Y11.182 0.00000
G1 X167.858 Y10.550 0.00000
G1 X167.661 Y10.747 0.00000
G1 X166.566 Y10.114 0.00000
G1 X166.763 Y9.917 0.00000
G1 X165.667 Y9.285 0.00000
G1 X163.352 Y11.600 0.00000
G1 X162.720 Y10.505 0.00000
G1 X164.572 Y8.653 0.00000
G1 X163.476 Y8.020 0.00000
G1 X162.087 Y9.409 0.00000
G1 X161.455 Y8.314 0.00000
G1 X162.381 Y7.388 0.00000
G1 X161.285 Y6.755 0.00000
G1 X160.822 Y7.218 0.00000
G1 X160.190 Y6.123 0.00000
G1 X164.181 Y12.499 F900.000
G1 F900
G1 X163.985 Y12.695 0.00000
G1 X164.617 Y13.791 0.00000
G1 X164.814 Y13.594 0.00000
G1 X165.446 Y14.689 0.00000
G1 X165.249 Y14.886 0.00000
G1 X165.882 Y15.982 0.00000
G1 X166.079 Y15.785 0.00000
G1 X166.486 Y16.490 0.00000
G1 X165.645 Y17.946 0.00000
G1 X164.911 Y18.681 0.00000
G1 X162.550 Y22.769 0.00000
G1 X164.066 Y21.254 0.00000
G1 X164.930 Y22.117 0.00000
G1 X160.190 Y26.857 0.00000
G1 X164.278 Y24.497 0.00000
G1 X165.794 Y22.981 0.00000
G1 X166.003 Y23.191 0.00000
G1 X169.101 Y21.402 0.00000
G1 X168.366 Y22.137 0.00000
G1 X170.557 Y20.872 0.00000
G1 X171.066 Y21.165 0.00000
G1 X171.262 Y20.968 0.00000
G1 X172.358 Y21.601 0.00000
G1 X172.161 Y21.798 0.00000
G1 X173.256 Y22.430 0.00000
G1 X173.453 Y22.233 0.00000
G1 X174.549 Y22.866 0.00000
G1 X174.352 Y23.063 0.00000
G1 X175.447 Y23.695 0.00000
G1 X177.762 Y21.380 0.00000
G1 X178.395 Y22.475 0.00000
G1 X176.543 Y24.327 0.00000
G1 X177.638 Y24.960 0.00000
G1 X179.027 Y23.571 0.00000
G1 X179.659 Y24.666 0.00000
G1 X178.733 Y25.592 0.00000
G1 X179.829 Y26.225 0.00000
G1 X180.292 Y25.762 0.00000
G1 X180.924 Y26.857 0.00000
; Filament-specific end gcode 
;END gcode for filament


M104 S0 ; set temperature
; filament used = 0.0mm (0.0cm3)
; total filament cost = 0.0

; avoid_crossing_perimeters = 0
; bed_shape = 0x0,250x0,250x250,0x250
; bed_temperature = 0
; before_layer_gcode = 
; between_objects_gcode = 
; bridge_acceleration = 0
; bridge_fan_speed = 0
; brim_connections_width = 0
; brim_width = 0
; complete_objects = 1
; cooling = 0
; default_acceleration = 0
; disable_fan_first_layers = 3
; duplicate_distance = 6
; end_filament_gcode = "; Filament-specific end gcode \n;END gcode for filament\n"
; end_gcode = 
; extruder_clearance_height = 20
; extruder_clearance_radius = 20
; extruder_offset = 0x0
; extrusion_axis = E
; extrusion_multiplier = 1
; fan_always_on = 0
; fan_below_layer_time = 60
; filament_colour = #FFFFFF
; filament_cost = 0
; filament_density = 0
; filament_diameter = 3
; filament_max_volumetric_speed = 0
; filament_notes = ""
; first_layer_acceleration = 0
; first_layer_bed_temperature = 0
; first_layer_extrusion_width = 100%
; first_layer_speed = 15
; first_layer_temperature = 0
; gcode_arcs = 0
; gcode_comments = 0
; gcode_flavor = no-extrusion
; has_heatbed = 0
; infill_acceleration = 0
; infill_first = 0
; interior_brim_width = 0
; layer_gcode = 
; max_fan_speed = 100
; max_layer_height = 10
; max_print_speed = 80
; max_volumetric_speed = 0
; min_fan_speed = 35
; min_layer_height = 0
; min_print_speed = 10
; min_skirt_length = 0
; notes = 
; nozzle_diameter = 1.5
; only_retract_when_crossing_perimeters = 0
; ooze_prevention = 0
; output_filename_format = [input_filename_base].gcode
; perimeter_acceleration = 0
; post_process = /Users/nathanbrown/Documents/School/Research/JohnsHopkins/Other/ArcWelderCode
; pressure_advance = 0
; printer_notes = 
; resolution = 0
; retract_before_travel = 2
; retract_layer_change = 0
; retract_length = 0
; retract_length_toolchange = 10
; retract_lift = 0
; retract_lift_above = 0
; retract_lift_below = 0
; retract_restart_extra = 0
; retract_restart_extra_toolchange = 0
; retract_speed = 40
; skirt_distance = 6
; skirt_height = 1
; skirts = 0
; slowdown_below_layer_time = 5
; spiral_vase = 0
; standby_temperature_delta = -5
; start_filament_gcode = "; Filament gcode\n"
; start_gcode = 
; temperature = 0
; threads = 16
; toolchange_gcode = 
; travel_speed = 15
; use_firmware_retraction = 0
; use_relative_e_distances = 0
; use_set_and_wait_bed = 0
; use_set_and_wait_extruder = 0
; use_volumetric_e = 0
; vibration_limit = 0
; wipe = 0
; z_offset = -150
; z_steps_per_mm = 0
; adaptive_slicing = 0
; adaptive_slicing_quality = 75%
; dont_support_bridges = 1
; extrusion_width = 100%
; first_layer_height = 1.5
; infill_only_where_needed = 0
; interface_shells = 0
; layer_height = 1.5
; match_horizontal_surfaces = 0
; raft_layers = 0
; regions_overlap = 0
; seam_position = aligned
; sequential_print_priority = 0
; support_material = 0
; support_material_angle = 0
; support_material_buildplate_only = 0
; support_material_contact_distance = 0.2
; support_material_enforce_layers = 0
; support_material_extruder = 1
; support_material_extrusion_width = 0
; support_material_interface_extruder = 1
; support_material_interface_extrusion_width = 0
; support_material_interface_layers = 3
; support_material_interface_spacing = 0
; support_material_interface_speed = 100%
; support_material_max_layers = 0
; support_material_pattern = pillars
; support_material_spacing = 2.5
; support_material_speed = 15
; support_material_threshold = 60%
; xy_size_compensation = 0
; bottom_infill_pattern = rectilinear
; bottom_solid_layers = 1
; bridge_flow_ratio = 1
; bridge_speed = 15
; external_perimeter_extrusion_width = 100%
; external_perimeter_speed = 15
; external_perimeters_first = 0
; extra_perimeters = 0
; fill_angle = 45
; fill_density = 0%
; fill_gaps = 0
; fill_pattern = rectilinear
; gap_fill_speed = 15
; infill_every_layers = 1
; infill_extruder = 1
; infill_extrusion_width = 100%
; infill_overlap = 0
; infill_speed = 15
; overhangs = 0
; perimeter_extruder = 1
; perimeter_extrusion_width = 100%
; perimeter_speed = 15
; perimeters = 1
; small_perimeter_speed = 15
; solid_infill_below_area = 50
; solid_infill_every_layers = 0
; solid_infill_extruder = 1
; solid_infill_extrusion_width = 100%
; solid_infill_speed = 15
; thin_walls = 0
; top_infill_extrusion_width = 100%
; top_infill_pattern = rectilinear
; top_solid_infill_speed = 15
; top_solid_layers = 1
