; Postprocessed by [ArcWelder](https://github.com/FormerLurker/ArcWelderLib)
; Copyright(C) 2021 - Brad Hochgesang
; Version: 1.2.0, Branch: master, BuildDate: 2021-11-22T09:56:32Z
; resolution=0.05mm
; path_tolerance=5.0%
; max_radius=9999.00mm
; default_xyz_precision=3
; default_e_precision=5
; extrusion_rate_variance_percent=5.0%

; generated by Slic3r 1.3.0 on 2023-04-20 at 09:33:58

; external perimeters extrusion width = 0.50mm (2.95mm^3/s)
; perimeters extrusion width = 0.50mm (2.95mm^3/s)
; infill extrusion width = 0.50mm (2.95mm^3/s)
; solid infill extrusion width = 0.50mm (2.95mm^3/s)
; top infill extrusion width = 0.50mm (2.95mm^3/s)


; Filament gcode

G21 ; set units to millimeters
G90 ; use absolute coordinates
M82 ; use absolute distances for extrusion
G92 E0
G1 Z-149.500 F900.000
G1 X36.639 Y83.561 F900.000
G1 F900
G1 X61.792 Y83.561 E0.69869
G1 X61.792 Y98.453 E1.11235
G1 X49.216 Y105.714 E1.51574
G1 X36.639 Y98.453 E1.91913
G1 X36.639 Y83.648 E2.33038
G1 X37.032 Y83.954 F900.000
G1 F900
G1 X61.399 Y83.954 E3.00725
G1 X61.399 Y98.227 E3.40370
G1 X49.216 Y105.261 E3.79450
G1 X37.032 Y98.227 E4.18529
G1 X37.032 Y84.041 E4.57933
G1 X36.932 Y83.383 F900.000
G92 E0
G1 X35.854 Y79.847 F900.000
G1 F900
G1 X22.493 Y56.704 E0.74230
G1 X35.854 Y33.561 E1.48460
G1 X62.577 Y33.561 E2.22691
G1 X75.939 Y56.704 E2.96921
G1 X62.577 Y79.847 E3.71151
G1 X35.941 Y79.847 E4.45140
G1 X36.081 Y79.454 F900.000
G1 F900
G1 X22.946 Y56.704 E5.18110
G1 X36.081 Y33.954 E5.91081
G1 X62.350 Y33.954 E6.64052
G1 X75.485 Y56.704 E7.37022
G1 X62.350 Y79.454 E8.09993
G1 X36.168 Y79.454 E8.82722
G1 X35.579 Y79.744 F900.000
G92 E0
G1 X36.225 Y80.204 F900.000
G1 X20.049 Y54.222 F900.000
G1 X19.668 Y54.167 F900.000
G1 F900
G1 X6.772 Y46.721 E0.41366
G1 X6.772 Y32.199 E0.81705
G1 X19.348 Y24.938 E1.22044
G1 X32.245 Y32.384 E1.63410
G1 X19.712 Y54.092 E2.33038
G1 X19.525 Y53.631 F900.000
G1 F900
G1 X7.164 Y46.494 E2.72683
G1 X7.164 Y32.426 E3.11762
G1 X19.348 Y25.392 E3.50842
G1 X31.708 Y32.528 E3.90487
G1 X19.568 Y53.555 E4.57933
G1 X19.327 Y54.176 F900.000
G92 E0
G1 X20.049 Y54.222 F900.000
G1 X65.948 Y32.686 F900.000
G1 X66.187 Y32.384 F900.000
G1 F900
G1 X79.083 Y24.938 E0.41366
G1 X91.660 Y32.199 E0.81705
G1 X91.660 Y46.721 E1.22044
G1 X78.763 Y54.167 E1.63410
G1 X66.230 Y32.459 E2.33038
G1 X66.723 Y32.528 F900.000
G1 F900
G1 X79.083 Y25.392 E2.72683
G1 X91.267 Y32.426 E3.11762
G1 X91.267 Y46.494 E3.50842
G1 X78.907 Y53.631 E3.90487
G1 X66.766 Y32.603 E4.57933
G1 X66.349 Y32.084 F900.000
G92 E0
G1 X79.083 Y24.690 F900.000
G1 F900
G1 X91.874 Y32.075 E0.41027
G1 X91.874 Y46.845 E0.82055
G1 X78.070 Y54.815 E1.26333
G1 X76.423 Y56.294 E1.32481
G1 X62.464 Y80.471 E2.10029
G1 X62.007 Y82.637 E2.16178
G1 X62.007 Y98.577 E2.60456
G1 X49.216 Y105.962 E3.01483
G1 X36.425 Y98.577 E3.42511
G1 X36.425 Y82.637 E3.86789
G1 X35.967 Y80.471 E3.92937
G1 X22.008 Y56.294 E4.70485
G1 X20.362 Y54.815 E4.76634
G1 X6.557 Y46.845 E5.20912
G1 X6.557 Y32.075 E5.61939
G1 X19.348 Y24.690 E6.02967
G1 X33.153 Y32.660 E6.47245
G1 X35.257 Y33.347 E6.53393
G1 X63.174 Y33.347 E7.30941
G1 X65.279 Y32.660 E7.37090
G1 X79.008 Y24.734 E7.81126
G1 X79.083 Y24.237 F900.000
G1 F900
G1 X92.267 Y31.849 E8.23413
G1 X92.267 Y47.072 E8.65700
G1 X78.302 Y55.135 E9.10494
G1 X76.732 Y56.545 E9.16355
G1 X62.836 Y80.614 E9.93556
G1 X62.399 Y82.678 E9.99417
G1 X62.399 Y98.804 E10.44211
G1 X49.216 Y106.416 E10.86498
G1 X36.032 Y98.804 E11.28785
G1 X36.032 Y82.678 E11.73579
G1 X35.596 Y80.614 E11.79440
G1 X21.699 Y56.545 E12.56641
G1 X20.130 Y55.135 E12.62502
G1 X6.164 Y47.072 E13.07296
G1 X6.164 Y31.849 E13.49583
G1 X19.348 Y24.237 E13.91870
G1 X33.314 Y32.300 E14.36664
G1 X35.320 Y32.954 E14.42525
G1 X63.112 Y32.954 E15.19726
G1 X65.118 Y32.300 E15.25587
G1 X79.008 Y24.280 E15.70139
G1 X79.277 Y24.783 F900.000
G92 E0
G1 X63.134 Y33.740 F900.000
G1 F900
G1 X63.337 Y34.093 E0.01133
G1 X63.911 Y33.520 E0.03386
G1 X64.738 Y33.250 E0.05803
G1 X63.541 Y34.446 E0.10504
G1 X63.745 Y34.800 E0.11637
G1 X65.640 Y32.905 E0.19079
G1 X65.935 Y32.735 E0.20027
G1 X66.094 Y33.009 E0.20907
G1 X63.949 Y35.153 E0.29330
G1 X64.153 Y35.506 E0.30464
G1 X66.298 Y33.362 E0.38887
G1 X66.502 Y33.715 E0.40021
G1 X64.357 Y35.860 E0.48445
G1 X64.561 Y36.213 E0.49578
G1 X66.706 Y34.069 E0.58002
G1 X66.910 Y34.422 E0.59135
G1 X64.765 Y36.566 E0.67559
G1 X64.969 Y36.920 E0.68692
G1 X67.114 Y34.775 E0.77116
G1 X67.318 Y35.129 E0.78249
G1 X65.173 Y37.273 E0.86673
G1 X65.377 Y37.626 E0.87806
G1 X67.522 Y35.482 E0.96230
G1 X67.726 Y35.835 E0.97364
G1 X65.581 Y37.980 E1.05787
G1 X65.785 Y38.333 E1.06921
G1 X67.930 Y36.189 E1.15344
G1 X68.134 Y36.542 E1.16478
G1 X65.989 Y38.686 E1.24902
G1 X66.193 Y39.040 E1.26035
G1 X68.338 Y36.895 E1.34459
G1 X68.542 Y37.249 E1.35592
G1 X66.397 Y39.393 E1.44016
G1 X66.601 Y39.746 E1.45149
G1 X68.746 Y37.602 E1.53573
G1 X68.950 Y37.955 E1.54706
G1 X66.805 Y40.100 E1.63130
G1 X67.009 Y40.453 E1.64263
G1 X69.154 Y38.309 E1.72687
G1 X69.358 Y38.662 E1.73820
G1 X67.213 Y40.807 E1.82244
G1 X67.417 Y41.160 E1.83378
G1 X69.562 Y39.016 E1.91801
G1 X69.766 Y39.369 E1.92935
G1 X67.621 Y41.513 E2.01358
G1 X67.825 Y41.867 E2.02492
G1 X69.970 Y39.722 E2.10916
G1 X70.174 Y40.076 E2.12049
G1 X68.029 Y42.220 E2.20473
G1 X68.233 Y42.573 E2.21606
G1 X70.378 Y40.429 E2.30030
G1 X70.582 Y40.782 E2.31163
G1 X68.437 Y42.927 E2.39587
G1 X68.641 Y43.280 E2.40720
G1 X70.786 Y41.136 E2.49144
G1 X70.990 Y41.489 E2.50277
G1 X68.845 Y43.633 E2.58701
G1 X69.049 Y43.987 E2.59834
G1 X71.194 Y41.842 E2.68258
G1 X71.398 Y42.196 E2.69391
G1 X69.253 Y44.340 E2.77815
G1 X69.457 Y44.693 E2.78949
G1 X71.602 Y42.549 E2.87372
G1 X71.806 Y42.902 E2.88506
G1 X69.661 Y45.047 E2.96929
G1 X69.865 Y45.400 E2.98063
G1 X72.010 Y43.256 E3.06487
G1 X72.214 Y43.609 E3.07620
G1 X70.069 Y45.753 E3.16044
G1 X70.273 Y46.107 E3.17177
G1 X72.418 Y43.962 E3.25601
G1 X72.622 Y44.316 E3.26734
G1 X70.477 Y46.460 E3.35158
G1 X70.681 Y46.813 E3.36291
G1 X72.826 Y44.669 E3.44715
G1 X73.030 Y45.022 E3.45848
G1 X70.885 Y47.167 E3.54272
G1 X71.089 Y47.520 E3.55405
G1 X73.234 Y45.376 E3.63829
G1 X73.438 Y45.729 E3.64963
G1 X71.293 Y47.873 E3.73386
G1 X71.497 Y48.227 E3.74520
G1 X73.642 Y46.082 E3.82943
G1 X73.846 Y46.436 E3.84077
G1 X71.701 Y48.580 E3.92501
G1 X71.905 Y48.933 E3.93634
G1 X74.050 Y46.789 E4.02058
G1 X74.254 Y47.142 E4.03191
G1 X72.109 Y49.287 E4.11615
G1 X72.313 Y49.640 E4.12748
G1 X74.458 Y47.496 E4.21172
G1 X74.662 Y47.849 E4.22305
G1 X72.517 Y49.993 E4.30729
G1 X72.721 Y50.347 E4.31862
G1 X74.866 Y48.202 E4.40286
G1 X75.070 Y48.556 E4.41419
G1 X72.925 Y50.700 E4.49843
G1 X73.129 Y51.053 E4.50977
G1 X75.274 Y48.909 E4.59400
G1 X75.478 Y49.262 E4.60534
G1 X73.333 Y51.407 E4.68957
G1 X73.537 Y51.760 E4.70091
G1 X75.682 Y49.616 E4.78514
G1 X75.886 Y49.969 E4.79648
G1 X73.741 Y52.113 E4.88072
G1 X73.945 Y52.467 E4.89205
G1 X76.090 Y50.322 E4.97629
G1 X76.294 Y50.676 E4.98762
G1 X74.149 Y52.820 E5.07186
G1 X74.353 Y53.173 E5.08319
G1 X76.498 Y51.029 E5.16743
G1 X76.702 Y51.382 E5.17876
G1 X74.557 Y53.527 E5.26300
G1 X74.761 Y53.880 E5.27433
G1 X76.906 Y51.736 E5.35857
G1 X77.110 Y52.089 E5.36990
G1 X74.965 Y54.233 E5.45414
G1 X75.169 Y54.587 E5.46548
G1 X77.314 Y52.442 E5.54971
G1 X77.518 Y52.796 E5.56105
G1 X75.373 Y54.940 E5.64528
G1 X75.577 Y55.293 E5.65662
G1 X77.722 Y53.149 E5.74086
G1 X77.926 Y53.502 E5.75219
G1 X75.781 Y55.647 E5.83643
G1 X75.985 Y56.000 E5.84776
G1 X78.130 Y53.856 E5.93200
G1 X78.334 Y54.209 E5.94333
G92 E0
G1 X61.614 Y83.169 F900.000
G1 F900
G1 X61.614 Y82.604 E0.01570
G1 X61.049 Y83.169 E0.03791
G1 X60.484 Y83.169 E0.05361
G1 X61.763 Y81.889 E0.10388
G1 X61.915 Y81.172 E0.12422
G1 X59.919 Y83.169 E0.20265
G1 X59.353 Y83.169 E0.21835
G1 X62.066 Y80.456 E0.32492
G3 X62.145 Y80.240 I0.366 J0.011 E0.33139
G1 X61.717 Y80.240 E0.34326
G1 X58.788 Y83.169 E0.45833
G1 X58.223 Y83.169 E0.47403
G1 X61.152 Y80.240 E0.58910
G1 X60.587 Y80.240 E0.60480
G1 X57.658 Y83.169 E0.71987
G1 X57.093 Y83.169 E0.73557
G1 X60.022 Y80.240 E0.85064
G1 X59.457 Y80.240 E0.86633
G1 X56.528 Y83.169 E0.98141
G1 X55.963 Y83.169 E0.99710
G1 X58.892 Y80.240 E1.11217
G1 X58.327 Y80.240 E1.12787
G1 X55.397 Y83.169 E1.24294
G1 X54.832 Y83.169 E1.25864
G1 X57.762 Y80.240 E1.37371
G1 X57.196 Y80.240 E1.38941
G1 X54.267 Y83.169 E1.50448
G1 X53.702 Y83.169 E1.52018
G1 X56.631 Y80.240 E1.63525
G1 X56.066 Y80.240 E1.65095
G1 X53.137 Y83.169 E1.76602
G1 X52.572 Y83.169 E1.78172
G1 X55.501 Y80.240 E1.89679
G1 X54.936 Y80.240 E1.91249
G1 X52.007 Y83.169 E2.02756
G1 X51.442 Y83.169 E2.04325
G1 X54.371 Y80.240 E2.15833
G1 X53.806 Y80.240 E2.17402
G1 X50.876 Y83.169 E2.28909
G1 X50.311 Y83.169 E2.30479
G1 X53.241 Y80.240 E2.41986
G1 X52.675 Y80.240 E2.43556
G1 X49.746 Y83.169 E2.55063
G1 X49.181 Y83.169 E2.56633
G1 X52.110 Y80.240 E2.68140
G1 X51.545 Y80.240 E2.69710
G1 X48.616 Y83.169 E2.81217
G1 X48.051 Y83.169 E2.82787
G1 X50.980 Y80.240 E2.94294
G1 X50.415 Y80.240 E2.95864
G1 X47.486 Y83.169 E3.07371
G1 X46.921 Y83.169 E3.08941
G1 X49.850 Y80.240 E3.20448
G1 X49.285 Y80.240 E3.22017
G1 X46.355 Y83.169 E3.33525
G1 X45.790 Y83.169 E3.35094
G1 X48.720 Y80.240 E3.46601
G1 X48.154 Y80.240 E3.48171
G1 X45.225 Y83.169 E3.59678
G1 X44.660 Y83.169 E3.61248
G1 X47.589 Y80.240 E3.72755
G1 X47.024 Y80.240 E3.74325
G1 X44.095 Y83.169 E3.85832
G1 X43.530 Y83.169 E3.87402
G1 X46.459 Y80.240 E3.98909
G1 X45.894 Y80.240 E4.00479
G1 X42.965 Y83.169 E4.11986
G1 X42.400 Y83.169 E4.13556
G1 X45.329 Y80.240 E4.25063
G1 X44.764 Y80.240 E4.26633
G1 X41.834 Y83.169 E4.38140
G1 X41.269 Y83.169 E4.39709
G1 X44.199 Y80.240 E4.51216
G1 X43.633 Y80.240 E4.52786
G1 X40.704 Y83.169 E4.64293
G1 X40.139 Y83.169 E4.65863
G1 X43.068 Y80.240 E4.77370
G1 X42.503 Y80.240 E4.78940
G1 X39.574 Y83.169 E4.90447
G1 X39.009 Y83.169 E4.92017
G1 X41.938 Y80.240 E5.03524
G1 X41.373 Y80.240 E5.05094
G1 X38.444 Y83.169 E5.16601
G1 X37.879 Y83.169 E5.18171
G1 X40.808 Y80.240 E5.29678
G1 X40.243 Y80.240 E5.31248
G1 X37.313 Y83.169 E5.42755
G1 X36.817 Y83.169 E5.44133
G1 X36.817 Y83.100 E5.44324
G1 X39.678 Y80.240 E5.55561
G1 X39.112 Y80.240 E5.57130
G1 X36.807 Y82.545 E5.66188
G1 X36.708 Y82.079 E5.67513
G1 X38.547 Y80.240 E5.74738
G1 X37.982 Y80.240 E5.76308
G1 X36.609 Y81.612 E5.81701
G1 X36.511 Y81.146 E5.83025
G1 X37.417 Y80.240 E5.86585
G1 X36.852 Y80.240 E5.88155
G1 X36.412 Y80.679 E5.89882
G2 X36.287 Y80.240 I-0.743 J-0.026 E5.91163
G92 E0
G1 X22.369 Y56.133 F900.000
G1 F900
G1 X23.157 Y54.768 E0.04380
G1 X22.088 Y55.838 E0.08582
G1 X21.784 Y55.565 E0.09718
G1 X23.946 Y53.403 E0.18211
G1 X24.734 Y52.037 E0.22590
G1 X21.480 Y55.292 E0.35373
G1 X21.176 Y55.018 E0.36508
G1 X25.522 Y50.672 E0.53583
G1 X26.310 Y49.307 E0.57962
G1 X20.872 Y54.745 E0.79327
G1 X20.562 Y54.478 E0.80463
G1 X27.098 Y47.942 E1.06139
G1 X27.887 Y46.576 E1.10518
G1 X20.197 Y54.266 E1.40728
G1 X20.097 Y54.209 E1.41046
G1 X20.672 Y53.214 E1.44238
G1 X28.675 Y45.211 E1.75676
G1 X29.463 Y43.846 E1.80055
G1 X21.460 Y51.849 E2.11493
G1 X22.249 Y50.483 E2.15872
G1 X30.251 Y42.481 E2.47310
G1 X31.040 Y41.115 E2.51689
G1 X23.037 Y49.118 E2.83127
G1 X23.825 Y47.753 E2.87506
G1 X31.828 Y39.750 E3.18944
G1 X32.616 Y38.385 E3.23323
G1 X24.613 Y46.388 E3.54761
G1 X25.402 Y45.022 E3.59140
G1 X33.404 Y37.019 E3.90578
G1 X34.193 Y35.654 E3.94957
G1 X26.190 Y43.657 E4.26395
G1 X26.978 Y42.292 E4.30774
G1 X34.981 Y34.289 E4.62212
G1 X35.298 Y33.740 E4.63974
G3 X35.013 Y33.680 I-0.052 J-0.462 E4.64793
G1 X27.766 Y40.926 E4.93260
G1 X28.554 Y39.561 E4.97639
G1 X34.577 Y33.538 E5.21299
G1 X34.142 Y33.396 E5.22571
G1 X29.343 Y38.196 E5.41425
G1 X30.131 Y36.831 E5.45805
G1 X33.707 Y33.254 E5.59854
G1 X33.272 Y33.112 E5.61125
G1 X30.919 Y35.465 E5.70369
G1 X31.707 Y34.100 E5.74748
G1 X32.862 Y32.946 E5.79283
G1 X32.496 Y32.735 E5.80456
G92 E0
G1 X62.649 Y101.258 F900.000
G1 X65.507 Y84.921 F900.000
G1 F900
G1 X75.369 Y90.615 E0.31632
G1 X65.507 Y96.309 E0.63264
G1 X65.507 Y85.008 E0.94654
G1 X65.899 Y85.601 F900.000
G1 F900
G1 X74.583 Y90.615 E1.22507
G1 X65.899 Y95.628 E1.50360
G1 X65.899 Y85.688 E1.77972
G1 X65.899 Y85.021 F900.000
G92 E0
G1 X66.187 Y81.024 F900.000
G1 F900
G1 X78.763 Y59.241 E0.69869
G1 X91.660 Y66.687 E1.11235
G1 X91.660 Y81.209 E1.51574
G1 X79.083 Y88.470 E1.91913
G1 X66.262 Y81.068 E2.33037
G1 X66.723 Y80.881 F900.000
G1 F900
G1 X78.907 Y59.778 E3.00725
G1 X91.267 Y66.914 E3.40370
G1 X91.267 Y80.983 E3.79450
G1 X79.083 Y88.017 E4.18529
G1 X66.798 Y80.924 E4.57933
G1 X66.178 Y80.682 F900.000
G92 E0
G1 X66.131 Y81.405 F900.000
G1 X79.065 Y59.003 F900.000
G1 X81.583 Y58.725 F900.000
G1 X81.583 Y56.993 F900.000
G1 X81.798 Y56.704 F900.000
G1 F900
G1 X91.660 Y51.010 E0.31632
G1 X91.660 Y62.398 E0.63264
G1 X81.873 Y56.748 E0.94654
G1 X82.583 Y56.704 F900.000
G1 F900
G1 X91.267 Y51.691 E1.22507
G1 X91.267 Y61.718 E1.50360
G1 X82.659 Y56.748 E1.77972
G1 X82.081 Y56.414 F900.000
G92 E0
G1 X91.874 Y50.639 F900.000
G1 F900
G1 X91.874 Y81.333 E0.85262
G1 X65.292 Y96.680 E1.70524
G1 X65.292 Y83.492 E2.07159
G1 X65.629 Y81.561 E2.12604
G1 X78.949 Y58.490 E2.86603
G1 X80.453 Y57.233 E2.92048
G1 X91.799 Y50.682 E3.28441
G1 X92.267 Y49.959 F900.000
G1 F900
G1 X92.267 Y81.560 E4.16222
G1 X64.899 Y97.361 E5.04003
G1 X64.899 Y83.458 E5.42622
G1 X65.254 Y81.425 E5.48355
G1 X78.644 Y58.234 E6.22740
G1 X80.227 Y56.910 E6.28473
G1 X92.192 Y50.002 E6.66850
G1 X92.073 Y50.505 F900.000
G92 E0
G1 X79.255 Y58.746 F900.000
G1 F900
G1 X80.678 Y57.556 E0.05153
G1 X81.452 Y57.109 E0.07634
G1 X79.404 Y59.158 E0.15681
G1 X79.759 Y59.363 E0.16820
G1 X81.903 Y57.219 E0.25244
G1 X82.258 Y57.424 E0.26383
G1 X80.114 Y59.568 E0.34807
G1 X80.469 Y59.773 E0.35947
G1 X82.614 Y57.629 E0.44370
G1 X82.969 Y57.834 E0.45510
G1 X80.825 Y59.978 E0.53933
G1 X81.180 Y60.183 E0.55073
G1 X83.324 Y58.039 E0.63497
G1 X83.679 Y58.244 E0.64636
G1 X81.535 Y60.388 E0.73060
G1 X81.890 Y60.593 E0.74199
G1 X84.035 Y58.449 E0.82623
G1 X84.390 Y58.654 E0.83762
G1 X82.246 Y60.799 E0.92186
G1 X82.601 Y61.004 E0.93326
G1 X84.745 Y58.859 E1.01749
G1 X85.100 Y59.064 E1.02889
G1 X82.956 Y61.209 E1.11312
G1 X83.311 Y61.414 E1.12452
G1 X85.456 Y59.269 E1.20876
G1 X85.811 Y59.475 E1.22015
G1 X83.666 Y61.619 E1.30439
G1 X84.022 Y61.824 E1.31578
G1 X86.166 Y59.680 E1.40002
G1 X86.521 Y59.885 E1.41141
G1 X84.377 Y62.029 E1.49565
G1 X84.732 Y62.234 E1.50705
G1 X86.876 Y60.090 E1.59128
G1 X87.232 Y60.295 E1.60268
G1 X85.087 Y62.439 E1.68691
G1 X85.443 Y62.644 E1.69831
G1 X87.587 Y60.500 E1.78255
G1 X87.942 Y60.705 E1.79394
G1 X85.798 Y62.849 E1.87818
G1 X86.153 Y63.055 E1.88957
G1 X88.297 Y60.910 E1.97381
G1 X88.653 Y61.115 E1.98520
G1 X86.508 Y63.260 E2.06944
G1 X86.863 Y63.465 E2.08083
G1 X89.008 Y61.320 E2.16507
G1 X89.363 Y61.525 E2.17647
G1 X87.219 Y63.670 E2.26070
G1 X87.574 Y63.875 E2.27210
G1 X89.718 Y61.731 E2.35634
G1 X90.074 Y61.936 E2.36773
G1 X87.929 Y64.080 E2.45197
G1 X88.284 Y64.285 E2.46336
G1 X90.429 Y62.141 E2.54760
G1 X90.784 Y62.346 E2.55899
G1 X88.640 Y64.490 E2.64323
G1 X88.995 Y64.695 E2.65463
G1 X91.139 Y62.551 E2.73886
G1 X91.482 Y62.749 E2.74984
G1 X91.482 Y62.769 E2.75041
G1 X89.350 Y64.900 E2.83414
G1 X89.705 Y65.105 E2.84553
G1 X91.482 Y63.329 E2.91531
G1 X91.482 Y63.890 E2.93088
G1 X90.061 Y65.311 E2.98670
G1 X90.416 Y65.516 E2.99809
G1 X91.482 Y64.450 E3.03996
G1 X91.482 Y65.010 E3.05552
G1 X90.771 Y65.721 E3.08344
G1 X91.126 Y65.926 E3.09483
G1 X91.482 Y65.570 E3.10879
G1 X91.481 Y66.131 E3.12436
G92 E0
G1 X90.017 Y63.594 F900.000
G1 X81.583 Y58.725 F900.000
G1 X79.065 Y59.003 F900.000
G1 X66.131 Y81.405 F900.000
G1 X67.149 Y83.725 F900.000
G1 X75.583 Y88.594 F900.000
G1 X78.512 Y88.594 F900.000
G1 F900
G1 X78.159 Y88.390 E0.01133
G1 X77.193 Y89.356 E0.04927
G1 X75.875 Y90.117 E0.09157
G1 X77.806 Y88.186 E0.16743
G1 X77.452 Y87.982 E0.17876
G1 X75.308 Y90.126 E0.26300
G1 X74.955 Y89.922 E0.27433
G1 X77.099 Y87.778 E0.35857
G1 X76.745 Y87.574 E0.36990
G1 X74.601 Y89.718 E0.45414
G1 X74.248 Y89.514 E0.46548
G1 X76.392 Y87.370 E0.54971
G1 X76.039 Y87.166 E0.56105
G1 X73.894 Y89.310 E0.64528
G1 X73.541 Y89.106 E0.65662
G1 X75.685 Y86.962 E0.74086
G1 X75.332 Y86.758 E0.75219
G1 X73.188 Y88.902 E0.83643
G1 X72.834 Y88.698 E0.84776
G1 X74.979 Y86.554 E0.93200
G1 X74.625 Y86.350 E0.94333
G1 X72.481 Y88.494 E1.02757
G1 X72.128 Y88.290 E1.03891
G1 X74.272 Y86.146 E1.12314
G1 X73.919 Y85.942 E1.13448
G1 X71.774 Y88.086 E1.21872
G1 X71.421 Y87.882 E1.23005
G1 X73.565 Y85.738 E1.31429
G1 X73.212 Y85.534 E1.32562
G1 X71.067 Y87.678 E1.40986
G1 X70.714 Y87.474 E1.42119
G1 X72.858 Y85.330 E1.50543
G1 X72.505 Y85.126 E1.51677
G1 X70.361 Y87.270 E1.60100
G1 X70.007 Y87.066 E1.61234
G1 X72.152 Y84.922 E1.69657
G1 X71.798 Y84.718 E1.70791
G1 X69.654 Y86.862 E1.79215
G1 X69.301 Y86.658 E1.80348
G1 X71.445 Y84.514 E1.88772
G1 X71.092 Y84.310 E1.89905
G1 X68.947 Y86.454 E1.98329
G1 X68.594 Y86.250 E1.99462
G1 X70.738 Y84.106 E2.07886
G1 X70.385 Y83.902 E2.09020
G1 X68.241 Y86.046 E2.17443
G1 X67.887 Y85.842 E2.18577
G1 X70.032 Y83.698 E2.27001
G1 X69.678 Y83.494 E2.28134
G1 X67.534 Y85.638 E2.36558
G1 X67.180 Y85.434 E2.37691
G1 X69.325 Y83.290 E2.46115
G1 X68.971 Y83.086 E2.47248
G1 X66.827 Y85.230 E2.55672
G1 X66.474 Y85.026 E2.56805
G1 X68.618 Y82.882 E2.65229
G1 X68.265 Y82.678 E2.66363
G1 X66.120 Y84.822 E2.74786
G1 X65.767 Y84.618 E2.75920
G1 X67.911 Y82.474 E2.84344
G1 X67.558 Y82.270 E2.85477
G1 X65.685 Y84.143 E2.92835
G1 X65.685 Y83.585 E2.94384
G1 X67.205 Y82.066 E3.00354
G1 X66.851 Y81.862 E3.01488
G1 X65.790 Y82.923 E3.05656
G1 X65.908 Y82.248 E3.07560
G1 X66.498 Y81.658 E3.09878
G1 X66.145 Y81.454 E3.11012
G92 E0
G1 X35.782 Y101.258 F900.000
G1 X32.925 Y84.921 F900.000
G1 F900
G1 X32.925 Y96.309 E0.31632
G1 X23.063 Y90.615 E0.63264
G1 X32.849 Y84.965 E0.94654
G1 X32.532 Y85.601 F900.000
G1 F900
G1 X32.532 Y95.628 E1.22507
G1 X23.848 Y90.615 E1.50360
G1 X32.457 Y85.645 E1.77972
G1 X33.103 Y85.501 F900.000
G92 E0
G1 X32.245 Y81.024 F900.000
G1 F900
G1 X19.348 Y88.470 E0.41366
G1 X6.772 Y81.209 E0.81705
G1 X6.772 Y66.687 E1.22044
G1 X19.668 Y59.241 E1.63410
G1 X32.201 Y80.949 E2.33038
G1 X31.708 Y80.881 F900.000
G1 F900
G1 X19.348 Y88.017 E2.72683
G1 X7.164 Y80.983 E3.11762
G1 X7.164 Y66.914 E3.50842
G1 X19.525 Y59.778 E3.90487
G1 X31.665 Y80.805 E4.57933
G1 X32.076 Y81.329 F900.000
G92 E0
G1 X32.300 Y81.405 F900.000
G1 X19.366 Y59.003 F900.000
G1 X16.848 Y58.725 F900.000
G1 X16.848 Y56.993 F900.000
G1 X16.634 Y56.704 F900.000
G1 F900
G1 X6.772 Y62.398 E0.31632
G1 X6.772 Y51.010 E0.63264
G1 X16.558 Y56.661 E0.94654
G1 X15.848 Y56.704 F900.000
G1 F900
G1 X7.164 Y61.718 E1.22507
G1 X7.164 Y51.691 E1.50360
G1 X15.773 Y56.661 E1.77972
G1 X16.350 Y56.994 F900.000
G92 E0
G1 X6.557 Y50.639 F900.000
G1 F900
G1 X17.979 Y57.233 E0.36635
G1 X19.482 Y58.490 E0.42080
G1 X32.802 Y81.561 E1.16079
G1 X33.139 Y83.492 E1.21524
G1 X33.139 Y96.680 E1.58158
G1 X6.557 Y81.333 E2.43420
G1 X6.557 Y50.726 E3.28441
G1 X6.164 Y49.959 F900.000
G1 F900
G1 X18.204 Y56.910 E3.67059
G1 X19.788 Y58.234 E3.72792
G1 X33.177 Y81.425 E4.47178
G1 X33.532 Y83.458 E4.52911
G1 X33.532 Y97.361 E4.91529
G1 X6.164 Y81.560 E5.79310
G1 X6.164 Y50.046 E6.66850
G1 X6.609 Y50.331 F900.000
G92 E0
G1 X6.950 Y62.748 F900.000
G1 F900
G1 X8.308 Y61.964 E0.04356
G1 X6.950 Y63.323 E0.09692
G1 X6.950 Y63.897 E0.11286
G1 X9.666 Y61.180 E0.21957
G1 X11.024 Y60.396 E0.26313
G1 X6.950 Y64.471 E0.42319
G1 X6.950 Y65.045 E0.43913
G1 X12.382 Y59.612 E0.65253
G1 X13.740 Y58.828 E0.69609
G1 X6.950 Y65.619 E0.96284
G1 X6.950 Y66.131 E0.97708
G1 X7.095 Y66.047 E0.98175
G1 X15.098 Y58.044 E1.29613
G1 X16.456 Y57.260 E1.33969
G1 X8.453 Y65.263 E1.65406
G1 X9.811 Y64.479 E1.69762
G1 X17.107 Y57.183 E1.98422
G1 X17.471 Y57.393 E1.99589
G1 X11.169 Y63.695 E2.24344
G1 X12.527 Y62.911 E2.28700
G1 X17.823 Y57.615 E2.49504
G1 X18.136 Y57.876 E2.50635
G1 X13.885 Y62.127 E2.67333
G1 X15.243 Y61.343 E2.71688
G1 X18.448 Y58.138 E2.84279
G1 X18.761 Y58.399 E2.85411
G1 X16.601 Y60.559 E2.93895
G1 X17.959 Y59.775 E2.98250
G1 X19.074 Y58.660 E3.02628
G3 X19.317 Y58.990 I-0.335 J0.501 E3.03783
G92 E0
G1 X32.300 Y81.405 F900.000
G1 X31.282 Y83.725 F900.000
G1 X32.746 Y84.571 F900.000
G1 F900
G1 X32.747 Y83.983 E0.01631
G1 X31.358 Y85.372 E0.07088
G1 X29.969 Y86.174 E0.11542
G1 X32.727 Y83.416 E0.22378
G1 X32.640 Y82.916 E0.23787
G1 X28.580 Y86.976 E0.39736
G1 X27.192 Y87.778 E0.44190
G1 X32.553 Y82.416 E0.65251
G1 X32.466 Y81.917 E0.66660
G1 X25.803 Y88.579 E0.92834
G1 X24.414 Y89.381 E0.97288
G1 X32.307 Y81.488 E1.28294
G1 X32.287 Y81.453 E1.28406
G1 X31.028 Y82.180 E1.32442
G1 X23.026 Y90.183 E1.63880
G1 X22.848 Y90.285 E1.64449
G1 X22.524 Y90.098 E1.65490
G1 X29.640 Y82.982 E1.93445
G1 X28.251 Y83.784 E1.97899
G1 X22.152 Y89.883 E2.21861
G1 X21.779 Y89.668 E2.23054
G1 X26.863 Y84.585 E2.43023
G1 X25.474 Y85.387 E2.47477
G1 X21.407 Y89.454 E2.63451
G1 X21.035 Y89.239 E2.64645
G1 X24.085 Y86.189 E2.76626
G1 X22.697 Y86.990 E2.81080
G1 X20.663 Y89.024 E2.89068
G1 X20.291 Y88.809 E2.90262
G1 X21.308 Y87.792 E2.94256
G1 X19.919 Y88.594 E2.98710
G92 E0
G1 X19.348 Y21.639 F900.000
G1 X36.639 Y29.847 F900.000
G1 F900
G1 X36.639 Y14.955 E0.41366
G1 X49.216 Y7.694 E0.81705
G1 X61.792 Y14.955 E1.22044
G1 X61.792 Y29.847 E1.63410
G1 X36.726 Y29.847 E2.33038
G1 X37.032 Y29.454 F900.000
G1 F900
G1 X37.032 Y15.182 E2.72683
G1 X49.216 Y8.148 E3.11762
G1 X61.399 Y15.182 E3.50842
G1 X61.399 Y29.454 E3.90487
G1 X37.119 Y29.454 E4.57933
G1 X36.461 Y29.556 F900.000
G92 E0
G1 X32.925 Y28.487 F900.000
G1 F900
G1 X23.063 Y22.794 E0.31632
G1 X32.925 Y17.100 E0.63264
G1 X32.925 Y28.400 E0.94654
G1 X32.532 Y27.807 F900.000
G1 F900
G1 X23.848 Y22.794 E1.22507
G1 X32.532 Y17.780 E1.50360
G1 X32.532 Y27.720 E1.77972
G1 X32.511 Y28.387 F900.000
G92 E0
G1 X33.282 Y28.529 F900.000
G1 X34.782 Y27.663 F900.000
G1 X36.282 Y29.704 F900.000
G1 X62.149 Y29.704 F900.000
G1 X63.649 Y27.663 F900.000
G1 X65.149 Y28.529 F900.000
G1 X65.507 Y28.487 F900.000
G1 F900
G1 X65.507 Y17.100 E0.31632
G1 X75.369 Y22.794 E0.63264
G1 X65.582 Y28.444 E0.94654
G1 X65.899 Y27.807 F900.000
G1 F900
G1 X65.899 Y17.780 E1.22507
G1 X74.583 Y22.794 E1.50360
G3 X65.397 Y28.097 I-2842.004 J-4912.388 E1.77972
G92 E0
G1 X75.798 Y22.794 F900.000
G1 F900
G1 X64.376 Y29.388 E0.36635
G1 X62.535 Y30.061 E0.42080
G1 X35.896 Y30.061 E1.16079
G1 X34.055 Y29.388 E1.21524
G1 X22.634 Y22.794 E1.58158
G1 X49.216 Y7.446 E2.43420
G1 X75.722 Y22.750 E3.28441
G1 X76.583 Y22.794 F900.000
G1 F900
G1 X64.543 Y29.745 E3.67059
G1 X62.605 Y30.454 E3.72792
G1 X35.826 Y30.454 E4.47178
G1 X33.888 Y29.745 E4.52911
G1 X21.848 Y22.794 E4.91529
G1 X49.216 Y6.993 E5.79310
G1 X76.508 Y22.750 E6.66850
G1 X76.012 Y22.894 F900.000
G92 E0
G1 X65.114 Y28.509 F900.000
G1 F900
G1 X65.114 Y27.935 E0.01593
G1 X63.908 Y29.141 E0.06331
G1 X63.004 Y29.472 E0.09005
G1 X65.114 Y27.362 E0.17294
G1 X65.114 Y26.789 E0.18886
G1 X62.234 Y29.669 E0.30201
G1 X62.185 Y29.669 E0.30337
G1 X62.185 Y29.145 E0.31793
G1 X65.114 Y26.215 E0.43300
G1 X65.114 Y25.642 E0.44893
G1 X62.185 Y28.571 E0.56400
G1 X62.185 Y27.998 E0.57992
G1 X65.114 Y25.069 E0.69499
G1 X65.114 Y24.496 E0.71091
G1 X62.185 Y27.425 E0.82598
G1 X62.185 Y26.852 E0.84190
G1 X65.114 Y23.923 E0.95698
G1 X65.114 Y23.349 E0.97290
G1 X62.185 Y26.279 E1.08797
G1 X62.185 Y25.705 E1.10389
G1 X65.114 Y22.776 E1.21896
G1 X65.114 Y22.203 E1.23488
G1 X62.185 Y25.132 E1.34995
G1 X62.185 Y24.559 E1.36588
G1 X65.114 Y21.630 E1.48095
G1 X65.114 Y21.057 E1.49687
G1 X62.185 Y23.986 E1.61194
G1 X62.185 Y23.413 E1.62786
G1 X65.114 Y20.483 E1.74293
G1 X65.114 Y19.910 E1.75886
G1 X62.185 Y22.839 E1.87393
G1 X62.185 Y22.266 E1.88985
G1 X65.114 Y19.337 E2.00492
G1 X65.114 Y18.764 E2.02084
G1 X62.185 Y21.693 E2.13591
G1 X62.185 Y21.120 E2.15184
G1 X65.114 Y18.190 E2.26691
G1 X65.114 Y17.617 E2.28283
G1 X62.185 Y20.546 E2.39790
G1 X62.185 Y19.973 E2.41382
G1 X65.092 Y17.066 E2.52803
G1 X64.729 Y16.856 E2.53969
G1 X62.185 Y19.400 E2.63962
G1 X62.185 Y18.827 E2.65554
G1 X64.365 Y16.646 E2.74120
G1 X64.002 Y16.437 E2.75286
G1 X62.185 Y18.254 E2.82424
G1 X62.185 Y17.680 E2.84016
G1 X63.638 Y16.227 E2.89727
G1 X63.275 Y16.017 E2.90892
G1 X62.185 Y17.107 E2.95175
G1 X62.185 Y16.534 E2.96768
G1 X62.912 Y15.807 E2.99623
G1 X62.548 Y15.597 E3.00789
G1 X62.185 Y15.961 E3.02217
G1 X62.185 Y15.388 E3.03809
G92 E0
G1 X63.649 Y17.924 F900.000
G1 X63.649 Y27.663 F900.000
G1 X62.149 Y29.704 F900.000
G1 X36.282 Y29.704 F900.000
G1 X34.782 Y27.663 F900.000
G1 X34.782 Y17.924 F900.000
G1 X33.318 Y17.078 F900.000
G1 F900
G1 X34.678 Y16.293 E0.04362
G1 X33.317 Y17.654 E0.09706
G1 X33.317 Y18.228 E0.11302
G1 X36.038 Y15.508 E0.21988
G1 X36.247 Y15.387 E0.22659
G1 X36.247 Y15.874 E0.24010
G1 X33.317 Y18.803 E0.35517
G1 X33.317 Y19.378 E0.37114
G1 X36.247 Y16.449 E0.48621
G1 X36.247 Y17.024 E0.50217
G1 X33.317 Y19.953 E0.61724
G1 X33.317 Y20.528 E0.63321
G1 X36.247 Y17.598 E0.74828
G1 X36.247 Y18.173 E0.76425
G1 X33.317 Y21.102 E0.87932
G1 X33.317 Y21.677 E0.89528
G1 X36.247 Y18.748 E1.01036
G1 X36.247 Y19.323 E1.02632
G1 X33.317 Y22.252 E1.14139
G1 X33.317 Y22.827 E1.15736
G1 X36.247 Y19.897 E1.27243
G1 X36.247 Y20.472 E1.28840
G1 X33.317 Y23.401 E1.40347
G1 X33.317 Y23.976 E1.41943
G1 X36.247 Y21.047 E1.53450
G1 X36.247 Y21.622 E1.55047
G1 X33.317 Y24.551 E1.66554
G1 X33.317 Y25.126 E1.68151
G1 X36.247 Y22.197 E1.79658
G1 X36.247 Y22.771 E1.81254
G1 X33.317 Y25.701 E1.92761
G1 X33.317 Y26.275 E1.94358
G1 X36.247 Y23.346 E2.05865
G1 X36.247 Y23.921 E2.07462
G1 X33.317 Y26.850 E2.18969
G1 X33.317 Y27.425 E2.20565
G1 X36.247 Y24.496 E2.32072
G1 X36.247 Y25.070 E2.33669
G1 X33.317 Y28.000 E2.45176
G1 X33.317 Y28.508 E2.46589
G1 X33.359 Y28.533 E2.46724
G1 X36.247 Y25.645 E2.58066
G1 X36.247 Y26.220 E2.59663
G1 X33.724 Y28.743 E2.69574
G1 X34.088 Y28.953 E2.70742
G1 X36.247 Y26.795 E2.79222
G1 X36.247 Y27.370 E2.80819
G1 X34.488 Y29.128 E2.87727
G1 X34.909 Y29.282 E2.88971
G1 X36.247 Y27.944 E2.94226
G1 X36.247 Y28.519 E2.95823
G1 X35.330 Y29.436 E2.99425
G1 X35.750 Y29.590 E3.00670
G1 X36.247 Y29.094 E3.02619
G1 X36.246 Y29.669 E3.04216
G1 Z-149.000 F900.000
G92 E0
G1 X35.782 Y101.258 F900.000
G1 X61.792 Y83.561 F900.000
G1 F900
G1 X61.792 Y98.453 E0.41366
G1 X49.216 Y105.714 E0.81705
G1 X36.639 Y98.453 E1.22044
G1 X36.639 Y83.561 E1.63410
G1 X61.705 Y83.561 E2.33038
G1 X61.399 Y83.954 F900.000
G1 F900
G1 X61.399 Y98.227 E2.72683
G1 X49.216 Y105.261 E3.11762
G1 X37.032 Y98.227 E3.50842
G1 X37.032 Y83.954 E3.90487
G1 X61.312 Y83.954 E4.57933
G1 X61.970 Y83.852 F900.000
G1 X62.007 Y83.347 F900.000
G1 F900
G1 X62.007 Y98.577 E5.00239
G1 X49.216 Y105.962 E5.41267
G1 X36.425 Y98.577 E5.82294
G1 X36.425 Y83.347 E6.24600
G1 X61.920 Y83.347 E6.95420
G1 X62.399 Y82.954 F900.000
G1 F900
G1 X62.399 Y98.804 E7.39447
G1 X49.216 Y106.416 E7.81734
G1 X36.032 Y98.804 E8.24021
G1 X36.032 Y82.954 E8.68048
G1 X62.312 Y82.954 E9.41049
G1 X62.204 Y83.500 F900.000
G92 E0
G1 X35.782 Y101.258 F900.000
G1 X32.925 Y84.921 F900.000
G1 F900
G1 X32.925 Y96.309 E0.31632
G1 X23.063 Y90.615 E0.63264
G1 X32.849 Y84.965 E0.94654
G1 X32.532 Y85.601 F900.000
G1 F900
G1 X32.532 Y95.628 E1.22507
G1 X23.848 Y90.615 E1.50360
G1 X32.457 Y85.645 E1.77972
G1 X33.103 Y85.501 F900.000
G1 X33.139 Y84.549 F900.000
G1 F900
G1 X33.139 Y96.680 E2.11669
G1 X22.634 Y90.615 E2.45366
G1 X33.064 Y84.593 E2.78821
G1 X33.532 Y83.869 F900.000
G1 F900
G1 X33.532 Y97.361 E3.16297
G1 X21.848 Y90.615 E3.53772
G1 X33.457 Y83.913 E3.91006
G1 X33.030 Y83.579 F900.000
G92 E0
G1 X19.348 Y91.770 F900.000
G1 X32.245 Y81.024 F900.000
G1 F900
G1 X19.348 Y88.470 E0.41366
G1 X6.772 Y81.209 E0.81705
G1 X6.772 Y66.687 E1.22044
G1 X19.668 Y59.241 E1.63410
G1 X32.201 Y80.949 E2.33037
G1 X31.708 Y80.881 F900.000
G1 F900
G1 X19.348 Y88.017 E2.72683
G1 X7.164 Y80.983 E3.11762
G1 X7.164 Y66.914 E3.50842
G1 X19.525 Y59.778 E3.90487
G1 X31.665 Y80.805 E4.57933
G1 X32.064 Y81.338 F900.000
G1 X32.538 Y81.103 F900.000
G1 F900
G1 X19.348 Y88.718 E5.00239
G1 X6.557 Y81.333 E5.41267
G1 X6.557 Y66.563 E5.82294
G1 X19.747 Y58.948 E6.24600
G1 X32.494 Y81.028 E6.95420
G1 X33.074 Y81.247 F900.000
G1 F900
G1 X19.348 Y89.172 E7.39447
G1 X6.164 Y81.560 E7.81734
G1 X6.164 Y66.337 E8.24021
G1 X19.891 Y58.412 E8.68047
G1 X33.031 Y81.171 E9.41049
G1 X32.494 Y81.247 F900.000
G92 E0
G1 X94.517 Y30.549 F900.000
G1 X16.634 Y56.704 F900.000
G1 F900
G1 X6.772 Y62.398 E0.31632
G1 X6.772 Y51.010 E0.63264
G1 X16.558 Y56.661 E0.94654
G1 X15.848 Y56.704 F900.000
G1 F900
G1 X7.164 Y61.718 E1.22507
G1 X7.164 Y51.691 E1.50360
G1 X15.773 Y56.661 E1.77972
G1 X16.350 Y56.994 F900.000
G1 X17.063 Y56.704 F900.000
G1 F900
G1 X6.557 Y62.770 E2.11669
G1 X6.557 Y50.639 E2.45366
G1 X16.987 Y56.661 E2.78821
G1 X17.848 Y56.704 F900.000
G1 F900
G1 X6.164 Y63.450 E3.16297
G1 X6.164 Y49.959 E3.53772
G1 X17.773 Y56.661 E3.91006
G1 X17.277 Y56.805 F900.000
G92 E0
G1 X17.348 Y22.794 F900.000
G1 X19.668 Y54.167 F900.000
G1 F900
G1 X6.772 Y46.721 E0.41366
G1 X6.772 Y32.199 E0.81705
G1 X19.348 Y24.938 E1.22044
G1 X32.245 Y32.384 E1.63410
G1 X19.712 Y54.092 E2.33038
G1 X19.525 Y53.631 F900.000
G1 F900
G1 X7.164 Y46.494 E2.72683
G1 X7.164 Y32.426 E3.11762
G1 X19.348 Y25.392 E3.50842
G1 X31.708 Y32.528 E3.90487
G1 X19.568 Y53.555 E4.57933
G1 X19.327 Y54.176 F900.000
G1 X19.747 Y54.460 F900.000
G1 F900
G1 X6.557 Y46.845 E5.00239
G1 X6.557 Y32.075 E5.41267
G1 X19.348 Y24.690 E5.82294
G1 X32.538 Y32.305 E6.24600
G1 X19.790 Y54.385 E6.95420
G1 X19.891 Y54.997 F900.000
G1 F900
G1 X6.164 Y47.072 E7.39447
G1 X6.164 Y31.849 E7.81734
G1 X19.348 Y24.237 E8.24021
G1 X33.074 Y32.162 E8.68048
G1 X19.934 Y54.921 E9.41049
G1 X19.589 Y54.501 F900.000
G92 E0
G1 X17.348 Y22.794 F900.000
G1 X32.925 Y28.487 F900.000
G1 F900
G1 X23.063 Y22.794 E0.31632
G1 X32.925 Y17.100 E0.63264
G1 X32.925 Y28.400 E0.94654
G1 X32.532 Y27.807 F900.000
G1 F900
G1 X23.848 Y22.794 E1.22507
G1 X32.532 Y17.780 E1.50360
G1 X32.532 Y27.720 E1.77972
G1 X32.481 Y28.385 F900.000
G1 X33.139 Y28.859 F900.000
G1 F900
G1 X22.634 Y22.794 E2.11669
G1 X33.139 Y16.728 E2.45366
G1 X33.139 Y28.772 E2.78821
G1 X33.532 Y29.539 F900.000
G1 F900
G1 X21.848 Y22.794 E3.16297
G1 X33.532 Y16.048 E3.53772
G1 X33.532 Y29.452 E3.91006
G1 X34.034 Y29.249 F900.000
G92 E0
G1 X33.782 Y13.305 F900.000
G1 X36.639 Y29.847 F900.000
G1 F900
G1 X36.639 Y14.955 E0.41366
G1 X49.216 Y7.694 E0.81705
G1 X61.792 Y14.955 E1.22044
G1 X61.792 Y29.847 E1.63410
G1 X36.726 Y29.847 E2.33038
G1 X37.032 Y29.454 F900.000
G1 F900
G1 X37.032 Y15.182 E2.72683
G1 X49.216 Y8.148 E3.11762
G1 X61.399 Y15.182 E3.50842
G1 X61.399 Y29.454 E3.90487
G1 X37.119 Y29.454 E4.57933
G1 X36.461 Y29.556 F900.000
G1 X36.425 Y30.061 F900.000
G1 F900
G1 X36.425 Y14.831 E5.00239
G1 X49.216 Y7.446 E5.41267
G1 X62.007 Y14.831 E5.82294
G1 X62.007 Y30.061 E6.24600
G1 X36.512 Y30.061 E6.95420
G1 X36.032 Y30.454 F900.000
G1 F900
G1 X36.032 Y14.605 E7.39447
G1 X49.216 Y6.993 E7.81734
G1 X62.399 Y14.605 E8.24021
G1 X62.399 Y30.454 E8.68048
G1 X36.119 Y30.454 E9.41049
G1 X36.227 Y29.908 F900.000
G92 E0
G1 X64.649 Y13.305 F900.000
G1 X65.507 Y28.487 F900.000
G1 F900
G1 X65.507 Y17.100 E0.31632
G1 X75.369 Y22.794 E0.63264
G1 X65.582 Y28.444 E0.94654
G1 X65.899 Y27.807 F900.000
G1 F900
G1 X65.899 Y17.780 E1.22507
G1 X74.583 Y22.794 E1.50360
G3 X65.397 Y28.097 I-2842.004 J-4912.388 E1.77972
G1 X65.292 Y28.859 F900.000
G1 F900
G1 X65.292 Y16.728 E2.11669
G1 X75.798 Y22.794 E2.45366
G1 X65.367 Y28.815 E2.78821
G1 X64.899 Y29.539 F900.000
G1 F900
G1 X64.899 Y16.048 E3.16297
G1 X76.583 Y22.794 E3.53772
G1 X64.975 Y29.496 E3.91006
G1 X65.056 Y28.981 F900.000
G92 E0
G1 X79.083 Y21.639 F900.000
G1 X66.187 Y32.384 F900.000
G1 F900
G1 X79.083 Y24.938 E0.41366
G1 X91.660 Y32.199 E0.81705
G1 X91.660 Y46.721 E1.22044
G1 X78.763 Y54.167 E1.63410
G1 X66.230 Y32.459 E2.33037
G1 X66.723 Y32.528 F900.000
G1 F900
G1 X79.083 Y25.392 E2.72683
G1 X91.267 Y32.426 E3.11762
G1 X91.267 Y46.494 E3.50842
G1 X78.907 Y53.631 E3.90487
G1 X66.766 Y32.603 E4.57933
G1 X66.349 Y32.084 F900.000
G1 X65.893 Y32.305 F900.000
G1 F900
G1 X79.083 Y24.690 E5.00239
G1 X91.874 Y32.075 E5.41267
G1 X91.874 Y46.845 E5.82294
G1 X78.684 Y54.460 E6.24600
G1 X65.937 Y32.381 E6.95420
G1 X65.357 Y32.162 F900.000
G1 F900
G1 X79.083 Y24.237 E7.39447
G1 X92.267 Y31.849 E7.81734
G1 X92.267 Y47.072 E8.24021
G1 X78.541 Y54.997 E8.68047
G1 X65.400 Y32.237 E9.41049
G1 X65.928 Y32.058 F900.000
G92 E0
G1 X3.914 Y82.859 F900.000
G1 X81.798 Y56.704 F900.000
G1 F900
G1 X91.660 Y51.010 E0.31632
G1 X91.660 Y62.398 E0.63264
G1 X81.873 Y56.748 E0.94654
G1 X82.583 Y56.704 F900.000
G1 F900
G1 X91.267 Y51.691 E1.22507
G1 X91.267 Y61.718 E1.50360
G1 X82.659 Y56.748 E1.77972
G1 X82.081 Y56.414 F900.000
G1 X81.369 Y56.704 F900.000
G1 F900
G1 X91.874 Y50.639 E2.11669
G1 X91.874 Y62.770 E2.45366
G1 X81.444 Y56.748 E2.78821
G1 X80.583 Y56.704 F900.000
G1 F900
G1 X92.267 Y49.959 E3.16297
G1 X92.267 Y63.450 E3.53772
G1 X80.659 Y56.748 E3.91006
G1 X80.583 Y57.284 F900.000
G92 E0
G1 X79.083 Y91.770 F900.000
G1 X78.763 Y59.241 F900.000
G1 F900
G1 X91.660 Y66.687 E0.41366
G1 X91.660 Y81.209 E0.81705
G1 X79.083 Y88.470 E1.22044
G1 X66.187 Y81.024 E1.63410
G1 X78.719 Y59.317 E2.33037
G1 X78.907 Y59.778 F900.000
G1 F900
G1 X91.267 Y66.914 E2.72683
G1 X91.267 Y80.983 E3.11762
G1 X79.083 Y88.017 E3.50842
G1 X66.723 Y80.881 E3.90487
G1 X78.863 Y59.853 E4.57933
G1 X79.197 Y59.275 F900.000
G1 X78.684 Y58.948 F900.000
G1 F900
G1 X91.874 Y66.563 E5.00239
G1 X91.874 Y81.333 E5.41267
G1 X79.083 Y88.718 E5.82294
G1 X65.893 Y81.103 E6.24600
G1 X78.641 Y59.024 E6.95420
G1 X78.541 Y58.412 F900.000
G1 F900
G1 X92.267 Y66.337 E7.39447
G1 X92.267 Y81.560 E7.81734
G1 X79.083 Y89.172 E8.24021
G1 X65.357 Y81.247 E8.68047
G1 X78.497 Y58.487 E9.41049
G1 X78.916 Y58.854 F900.000
G92 E0
G1 X79.083 Y91.770 F900.000
G1 X65.507 Y84.921 F900.000
G1 F900
G1 X75.369 Y90.615 E0.31632
G1 X65.507 Y96.309 E0.63264
G1 X65.507 Y85.008 E0.94654
G1 X65.899 Y85.601 F900.000
G1 F900
G1 X74.583 Y90.615 E1.22507
G1 X65.899 Y95.628 E1.50360
G1 X65.899 Y85.688 E1.77972
G1 X65.899 Y85.021 F900.000
G1 X65.292 Y84.549 F900.000
G1 F900
G1 X75.798 Y90.615 E2.11669
G1 X65.292 Y96.680 E2.45366
G1 X65.292 Y84.636 E2.78821
G1 X64.899 Y83.869 F900.000
G1 F900
G1 X76.583 Y90.615 E3.16297
G1 X64.899 Y97.361 E3.53772
G1 X64.899 Y83.956 E3.91006
G1 X65.402 Y84.159 F900.000
G92 E0
G1 X64.649 Y100.103 F900.000
G1 X62.577 Y79.847 F900.000
G1 F900
G1 X35.854 Y79.847 E0.74230
G1 X32.421 Y73.901 E0.93303
G1 X22.493 Y56.704 E1.48460
G1 X35.854 Y33.561 E2.22691
G1 X62.577 Y33.561 E2.96921
G1 X75.939 Y56.704 E3.71151
G1 X62.621 Y79.772 E4.45140
G1 X62.350 Y79.454 F900.000
G1 F900
G1 X36.081 Y79.454 E5.18110
G1 X32.761 Y73.704 E5.36554
G1 X22.946 Y56.704 E5.91081
G1 X36.081 Y33.954 E6.64052
G1 X62.350 Y33.954 E7.37022
G1 X75.485 Y56.704 E8.09993
G1 X62.394 Y79.379 E8.82722
G1 X62.350 Y80.034 F900.000
G1 X62.701 Y80.061 F900.000
G1 F900
G1 X35.730 Y80.061 E9.57641
G1 X22.245 Y56.704 E10.32559
G1 X35.730 Y33.347 E11.07478
G1 X62.701 Y33.347 E11.82396
G1 X76.186 Y56.704 E12.57315
G1 X62.744 Y79.986 E13.31992
G1 X62.928 Y80.454 F900.000
G1 F900
G1 X35.504 Y80.454 E14.08170
G1 X21.792 Y56.704 E14.84348
G1 X35.504 Y32.954 E15.60526
G1 X62.928 Y32.954 E16.36704
G1 X76.640 Y56.704 E17.12883
G1 X62.971 Y80.379 E17.88819
G1 X62.428 Y80.159 F900.000
G1 Z-148.500 F900.000
G92 E0
G1 X64.649 Y100.103 F900.000
G1 X61.792 Y83.561 F900.000
G1 F900
G1 X61.792 Y98.453 E0.41366
G1 X49.216 Y105.714 E0.81705
G1 X36.639 Y98.453 E1.22044
G1 X36.639 Y83.561 E1.63410
G1 X61.705 Y83.561 E2.33038
G1 X61.399 Y83.954 F900.000
G1 F900
G1 X61.399 Y98.227 E2.72683
G1 X49.216 Y105.261 E3.11762
G1 X37.032 Y98.227 E3.50842
G1 X37.032 Y83.954 E3.90487
G1 X61.312 Y83.954 E4.57933
G1 X61.970 Y83.852 F900.000
G1 X62.007 Y83.347 F900.000
G1 F900
G1 X62.007 Y98.577 E5.00239
G1 X49.216 Y105.962 E5.41267
G1 X36.425 Y98.577 E5.82294
G1 X36.425 Y83.347 E6.24600
G1 X61.920 Y83.347 E6.95420
G1 X62.399 Y82.954 F900.000
G1 F900
G1 X62.399 Y98.804 E7.39447
G1 X49.216 Y106.416 E7.81734
G1 X36.032 Y98.804 E8.24021
G1 X36.032 Y82.954 E8.68048
G1 X62.312 Y82.954 E9.41049
G1 X62.204 Y83.500 F900.000
G92 E0
G1 X64.649 Y100.103 F900.000
G1 X65.507 Y84.921 F900.000
G1 F900
G1 X75.369 Y90.615 E0.31632
G1 X65.507 Y96.309 E0.63264
G1 X65.507 Y85.008 E0.94654
G1 X65.899 Y85.601 F900.000
G1 F900
G1 X74.583 Y90.615 E1.22507
G1 X65.899 Y95.628 E1.50360
G1 X65.899 Y85.688 E1.77972
G1 X65.899 Y85.021 F900.000
G1 X65.292 Y84.549 F900.000
G1 F900
G1 X75.798 Y90.615 E2.11669
G1 X65.292 Y96.680 E2.45366
G1 X65.292 Y84.636 E2.78821
G1 X64.899 Y83.869 F900.000
G1 F900
G1 X76.583 Y90.615 E3.16297
G1 X64.899 Y97.361 E3.53772
G1 X64.899 Y83.956 E3.91006
G1 X64.397 Y84.159 F900.000
G92 E0
G1 X79.083 Y91.770 F900.000
G1 X66.187 Y81.024 F900.000
G1 F900
G1 X78.763 Y59.241 E0.69869
G1 X91.660 Y66.687 E1.11235
G1 X91.660 Y81.209 E1.51574
G1 X79.083 Y88.470 E1.91913
G1 X66.262 Y81.068 E2.33037
G1 X66.723 Y80.881 F900.000
G1 F900
G1 X78.907 Y59.778 E3.00725
G1 X91.267 Y66.914 E3.40370
G1 X91.267 Y80.983 E3.79450
G1 X79.083 Y88.017 E4.18529
G1 X66.798 Y80.924 E4.57933
G1 X66.178 Y80.682 F900.000
G1 X65.893 Y81.103 F900.000
G1 F900
G1 X78.684 Y58.948 E5.28994
G1 X91.874 Y66.563 E5.71301
G1 X91.874 Y81.333 E6.12328
G1 X79.083 Y88.718 E6.53355
G1 X65.969 Y81.146 E6.95420
G1 X65.357 Y81.247 F900.000
G1 F900
G1 X78.541 Y58.412 E7.68663
G1 X92.267 Y66.337 E8.12690
G1 X92.267 Y81.560 E8.54977
G1 X79.083 Y89.172 E8.97264
G1 X65.432 Y81.290 E9.41049
G1 X65.803 Y80.876 F900.000
G92 E0
G1 X3.914 Y30.549 F900.000
G1 X81.798 Y56.704 F900.000
G1 F900
G1 X91.660 Y51.010 E0.31632
G1 X91.660 Y62.398 E0.63264
G1 X81.873 Y56.748 E0.94654
G1 X82.583 Y56.704 F900.000
G1 F900
G1 X91.267 Y51.691 E1.22507
G1 X91.267 Y61.718 E1.50360
G1 X82.659 Y56.748 E1.77972
G1 X82.081 Y56.414 F900.000
G1 X81.369 Y56.704 F900.000
G1 F900
G1 X91.874 Y50.639 E2.11669
G1 X91.874 Y62.770 E2.45366
G1 X81.444 Y56.748 E2.78821
G1 X80.583 Y56.704 F900.000
G1 F900
G1 X92.267 Y49.959 E3.16297
G1 X92.267 Y63.450 E3.53772
G1 X80.659 Y56.748 E3.91006
G1 X80.583 Y57.284 F900.000
G92 E0
G1 X81.083 Y22.794 F900.000
G1 X78.763 Y54.167 F900.000
G1 F900
G1 X66.187 Y32.384 E0.69869
G1 X79.083 Y24.938 E1.11235
G1 X91.660 Y32.199 E1.51574
G1 X91.660 Y46.721 E1.91913
G1 X78.838 Y54.124 E2.33037
G1 X78.907 Y53.631 F900.000
G1 F900
G1 X66.723 Y32.528 E3.00725
G1 X79.083 Y25.392 E3.40370
G1 X91.267 Y32.426 E3.79450
G1 X91.267 Y46.494 E4.18529
G1 X78.982 Y53.587 E4.57933
G1 X78.462 Y54.003 F900.000
G1 X78.684 Y54.460 F900.000
G1 F900
G1 X65.893 Y32.305 E5.28994
G1 X79.083 Y24.690 E5.71301
G1 X91.874 Y32.075 E6.12328
G1 X91.874 Y46.845 E6.53355
G1 X78.760 Y54.417 E6.95420
G1 X78.541 Y54.997 F900.000
G1 F900
G1 X65.357 Y32.162 E7.68663
G1 X79.083 Y24.237 E8.12690
G1 X92.267 Y31.849 E8.54977
G1 X92.267 Y47.072 E8.97264
G1 X78.616 Y54.953 E9.41049
G1 X78.442 Y54.425 F900.000
G92 E0
G1 X72.902 Y18.070 F900.000
G1 X65.507 Y28.487 F900.000
G1 F900
G1 X65.507 Y17.100 E0.31632
G1 X75.369 Y22.794 E0.63264
G1 X65.582 Y28.444 E0.94654
G1 X65.899 Y27.807 F900.000
G1 F900
G1 X65.899 Y17.780 E1.22507
G1 X74.583 Y22.794 E1.50360
G3 X65.397 Y28.097 I-2842.004 J-4912.388 E1.77972
G1 X65.292 Y28.859 F900.000
G1 F900
G1 X65.292 Y16.728 E2.11669
G1 X75.798 Y22.794 E2.45366
G1 X65.367 Y28.815 E2.78821
G1 X64.899 Y29.539 F900.000
G1 F900
G1 X64.899 Y16.048 E3.16297
G1 X76.583 Y22.794 E3.53772
G1 X64.975 Y29.496 E3.91006
G1 X65.019 Y28.972 F900.000
G92 E0
G1 X64.649 Y13.305 F900.000
G1 X61.792 Y29.847 F900.000
G1 F900
G1 X36.639 Y29.847 E0.69869
G1 X36.639 Y14.955 E1.11235
G1 X49.216 Y7.694 E1.51574
G1 X61.792 Y14.955 E1.91913
G1 X61.792 Y29.760 E2.33038
G1 X61.399 Y29.454 F900.000
G1 F900
G1 X37.032 Y29.454 E3.00725
G1 X37.032 Y15.182 E3.40370
G1 X49.216 Y8.148 E3.79450
G1 X61.399 Y15.182 E4.18529
G1 X61.399 Y29.367 E4.57933
G1 X61.499 Y30.026 F900.000
G1 X62.007 Y30.061 F900.000
G1 F900
G1 X36.425 Y30.061 E5.28994
G1 X36.425 Y14.831 E5.71301
G1 X49.216 Y7.446 E6.12328
G1 X62.007 Y14.831 E6.53355
G1 X62.007 Y29.974 E6.95420
G1 X62.399 Y30.454 F900.000
G1 F900
G1 X36.032 Y30.454 E7.68663
G1 X36.032 Y14.605 E8.12690
G1 X49.216 Y6.993 E8.54977
G1 X62.399 Y14.605 E8.97264
G1 X62.399 Y30.367 E9.41049
G1 X61.878 Y30.201 F900.000
G92 E0
G1 X33.782 Y13.305 F900.000
G1 X32.925 Y28.487 F900.000
G1 F900
G1 X23.063 Y22.794 E0.31632
G1 X32.925 Y17.100 E0.63264
G1 X32.925 Y28.400 E0.94654
G1 X32.532 Y27.807 F900.000
G1 F900
G1 X23.848 Y22.794 E1.22507
G1 X32.532 Y17.780 E1.50360
G1 X32.532 Y27.720 E1.77972
G1 X32.448 Y28.381 F900.000
G1 X33.139 Y28.859 F900.000
G1 F900
G1 X22.634 Y22.794 E2.11669
G1 X33.139 Y16.728 E2.45366
G1 X33.139 Y28.772 E2.78821
G1 X33.532 Y29.539 F900.000
G1 F900
G1 X21.848 Y22.794 E3.16297
G1 X33.532 Y16.048 E3.53772
G1 X33.532 Y29.452 E3.91006
G1 X34.034 Y29.249 F900.000
G92 E0
G1 X19.348 Y21.639 F900.000
G1 X32.245 Y32.384 F900.000
G1 F900
G1 X19.668 Y54.167 E0.69869
G1 X6.772 Y46.721 E1.11235
G1 X6.772 Y32.199 E1.51574
G1 X19.348 Y24.938 E1.91913
G1 X32.169 Y32.341 E2.33038
G1 X31.708 Y32.528 F900.000
G1 F900
G1 X19.525 Y53.631 E3.00725
G1 X7.164 Y46.494 E3.40370
G1 X7.164 Y32.426 E3.79450
G1 X19.348 Y25.392 E4.18529
G1 X31.633 Y32.484 E4.57933
G1 X32.242 Y32.754 F900.000
G1 X32.538 Y32.305 F900.000
G1 F900
G1 X19.747 Y54.460 E5.28994
G1 X6.557 Y46.845 E5.71301
G1 X6.557 Y32.075 E6.12328
G1 X19.348 Y24.690 E6.53355
G1 X32.463 Y32.262 E6.95420
G1 X33.074 Y32.162 F900.000
G1 F900
G1 X19.891 Y54.997 E7.68663
G1 X6.164 Y47.072 E8.12690
G1 X6.164 Y31.849 E8.54977
G1 X19.348 Y24.237 E8.97264
G1 X32.999 Y32.118 E9.41049
G1 X32.572 Y32.452 F900.000
G92 E0
G1 X94.517 Y82.859 F900.000
G1 X16.634 Y56.704 F900.000
G1 F900
G1 X6.772 Y62.398 E0.31632
G1 X6.772 Y51.010 E0.63264
G1 X16.558 Y56.661 E0.94654
G1 X15.848 Y56.704 F900.000
G1 F900
G1 X7.164 Y61.718 E1.22507
G1 X7.164 Y51.691 E1.50360
G1 X15.773 Y56.661 E1.77972
G1 X16.350 Y56.994 F900.000
G1 X17.063 Y56.704 F900.000
G1 F900
G1 X6.557 Y62.770 E2.11669
G1 X6.557 Y50.639 E2.45366
G1 X16.987 Y56.661 E2.78821
G1 X17.848 Y56.704 F900.000
G1 F900
G1 X6.164 Y63.450 E3.16297
G1 X6.164 Y49.959 E3.53772
G1 X17.773 Y56.661 E3.91006
G1 X17.277 Y56.805 F900.000
G92 E0
G1 X19.348 Y91.770 F900.000
G1 X19.668 Y59.241 F900.000
G1 F900
G1 X32.245 Y81.024 E0.69869
G1 X19.348 Y88.470 E1.11235
G1 X6.772 Y81.209 E1.51574
G1 X6.772 Y66.687 E1.91913
G1 X19.593 Y59.285 E2.33037
G1 X19.525 Y59.778 F900.000
G1 F900
G1 X31.708 Y80.881 E3.00725
G1 X19.348 Y88.017 E3.40370
G1 X7.164 Y80.983 E3.79450
G1 X7.164 Y66.914 E4.18529
G3 X20.027 Y59.488 I3976.937 J6873.827 E4.57933
G1 X19.747 Y58.948 F900.000
G1 F900
G1 X32.538 Y81.103 E5.28994
G1 X19.348 Y88.718 E5.71301
G1 X6.557 Y81.333 E6.12328
G1 X6.557 Y66.563 E6.53355
G1 X19.672 Y58.992 E6.95420
G1 X19.891 Y58.412 F900.000
G1 F900
G1 X33.074 Y81.247 E7.68663
G1 X19.348 Y89.172 E8.12690
G1 X6.164 Y81.560 E8.54977
G1 X6.164 Y66.337 E8.97264
G1 X19.815 Y58.455 E9.41049
G1 X19.989 Y58.983 F900.000
G92 E0
G1 X19.348 Y91.770 F900.000
G1 X32.925 Y84.921 F900.000
G1 F900
G1 X32.925 Y96.309 E0.31632
G1 X23.063 Y90.615 E0.63264
G1 X32.849 Y84.965 E0.94654
G1 X32.532 Y85.601 F900.000
G1 F900
G1 X32.532 Y95.628 E1.22507
G1 X23.848 Y90.615 E1.50360
G1 X32.457 Y85.645 E1.77972
G1 X33.103 Y85.501 F900.000
G1 X33.139 Y84.549 F900.000
G1 F900
G1 X33.139 Y96.680 E2.11669
G1 X22.634 Y90.615 E2.45366
G1 X33.064 Y84.593 E2.78821
G1 X33.532 Y83.869 F900.000
G1 F900
G1 X33.532 Y97.361 E3.16297
G1 X21.848 Y90.615 E3.53772
G1 X33.457 Y83.913 E3.91006
G1 X33.030 Y83.579 F900.000
G92 E0
G1 X19.348 Y91.770 F900.000
G1 X35.854 Y79.847 F900.000
G1 F900
G1 X22.493 Y56.704 E0.74230
G1 X35.854 Y33.561 E1.48460
G1 X62.577 Y33.561 E2.22691
G1 X75.939 Y56.704 E2.96921
G1 X62.577 Y79.847 E3.71151
G1 X35.941 Y79.847 E4.45140
G1 X36.081 Y79.454 F900.000
G1 F900
G1 X22.946 Y56.704 E5.18110
G1 X36.081 Y33.954 E5.91081
G1 X62.350 Y33.954 E6.64052
G1 X75.485 Y56.704 E7.37022
G1 X62.350 Y79.454 E8.09993
G1 X36.168 Y79.454 E8.82722
G1 X35.579 Y79.744 F900.000
G1 X35.730 Y80.061 F900.000
G1 F900
G1 X22.245 Y56.704 E9.57641
G1 X35.730 Y33.347 E10.32559
G1 X62.701 Y33.347 E11.07478
G1 X76.186 Y56.704 E11.82396
G1 X62.701 Y80.061 E12.57315
G1 X35.817 Y80.061 E13.31992
G1 X35.504 Y80.454 F900.000
G1 F900
G1 X21.792 Y56.704 E14.08170
G1 X35.504 Y32.954 E14.84348
G1 X62.928 Y32.954 E15.60526
G1 X76.640 Y56.704 E16.36704
G1 X62.928 Y80.454 E17.12883
G1 X35.591 Y80.454 E17.88819
G1 X35.504 Y79.874 F900.000
G1 Z-148.000 F900.000
G92 E0
G1 X33.782 Y100.103 F900.000
G1 X36.639 Y83.561 F900.000
G1 F900
G1 X61.792 Y83.561 E0.69869
G1 X61.792 Y98.453 E1.11235
G1 X49.216 Y105.714 E1.51574
G1 X36.639 Y98.453 E1.91913
G1 X36.639 Y83.648 E2.33038
G1 X37.032 Y83.954 F900.000
G1 F900
G1 X61.399 Y83.954 E3.00725
G1 X61.399 Y98.227 E3.40370
G1 X49.216 Y105.261 E3.79450
G1 X37.032 Y98.227 E4.18529
G1 X37.032 Y84.041 E4.57933
G1 X36.932 Y83.383 F900.000
G1 X36.425 Y83.347 F900.000
G1 F900
G1 X62.007 Y83.347 E5.28994
G1 X62.007 Y98.577 E5.71301
G1 X49.216 Y105.962 E6.12328
G1 X36.425 Y98.577 E6.53355
G1 X36.425 Y83.434 E6.95420
G1 X36.032 Y82.954 F900.000
G1 F900
G1 X62.399 Y82.954 E7.68663
G1 X62.399 Y98.804 E8.12690
G1 X49.216 Y106.416 E8.54977
G1 X36.032 Y98.804 E8.97264
G1 X36.032 Y83.041 E9.41049
G1 X36.576 Y83.155 F900.000
G92 E0
G1 X62.649 Y101.258 F900.000
G1 X65.507 Y84.921 F900.000
G1 F900
G1 X75.369 Y90.615 E0.31632
G1 X65.507 Y96.309 E0.63264
G1 X65.507 Y85.008 E0.94654
G1 X65.899 Y85.601 F900.000
G1 F900
G1 X74.583 Y90.615 E1.22507
G1 X65.899 Y95.628 E1.50360
G1 X65.899 Y85.688 E1.77972
G1 X65.899 Y85.021 F900.000
G1 X65.292 Y84.549 F900.000
G1 F900
G1 X75.798 Y90.615 E2.11669
G1 X65.292 Y96.680 E2.45366
G1 X65.292 Y84.636 E2.78821
G1 X64.899 Y83.869 F900.000
G1 F900
G1 X76.583 Y90.615 E3.16297
G1 X64.899 Y97.361 E3.53772
G1 X64.899 Y83.956 E3.91006
G1 X65.402 Y84.159 F900.000
G92 E0
G1 X79.083 Y91.770 F900.000
G1 X66.187 Y81.024 F900.000
G1 F900
G1 X78.763 Y59.241 E0.69869
G1 X91.660 Y66.687 E1.11235
G1 X91.660 Y81.209 E1.51574
G1 X79.083 Y88.470 E1.91913
G1 X66.262 Y81.068 E2.33037
G1 X66.723 Y80.881 F900.000
G1 F900
G1 X78.907 Y59.778 E3.00725
G1 X91.267 Y66.914 E3.40370
G1 X91.267 Y80.983 E3.79450
G1 X79.083 Y88.017 E4.18529
G1 X66.798 Y80.924 E4.57933
G1 X66.178 Y80.682 F900.000
G1 X65.893 Y81.103 F900.000
G1 F900
G1 X78.684 Y58.948 E5.28994
G1 X91.874 Y66.563 E5.71301
G1 X91.874 Y81.333 E6.12328
G1 X79.083 Y88.718 E6.53355
G1 X65.969 Y81.146 E6.95420
G1 X65.357 Y81.247 F900.000
G1 F900
G1 X78.541 Y58.412 E7.68663
G1 X92.267 Y66.337 E8.12690
G1 X92.267 Y81.560 E8.54977
G1 X79.083 Y89.172 E8.97264
G1 X65.432 Y81.290 E9.41049
G1 X65.803 Y80.876 F900.000
G92 E0
G1 X3.914 Y30.549 F900.000
G1 X81.798 Y56.704 F900.000
G1 F900
G1 X91.660 Y51.010 E0.31632
G1 X91.660 Y62.398 E0.63264
G1 X81.873 Y56.748 E0.94654
G1 X82.583 Y56.704 F900.000
G1 F900
G1 X91.267 Y51.691 E1.22507
G1 X91.267 Y61.718 E1.50360
G1 X82.659 Y56.748 E1.77972
G1 X82.081 Y56.414 F900.000
G1 X81.369 Y56.704 F900.000
G1 F900
G1 X91.874 Y50.639 E2.11669
G1 X91.874 Y62.770 E2.45366
G1 X81.444 Y56.748 E2.78821
G1 X80.583 Y56.704 F900.000
G1 F900
G1 X92.267 Y49.959 E3.16297
G1 X92.267 Y63.450 E3.53772
G1 X80.659 Y56.748 E3.91006
G1 X80.583 Y57.284 F900.000
G92 E0
G1 X79.083 Y21.639 F900.000
G1 X78.763 Y54.167 F900.000
G1 F900
G1 X66.187 Y32.384 E0.69869
G1 X79.083 Y24.938 E1.11235
G1 X91.660 Y32.199 E1.51574
G1 X91.660 Y46.721 E1.91913
G1 X78.838 Y54.124 E2.33038
G1 X78.907 Y53.631 F900.000
G1 F900
G1 X66.723 Y32.528 E3.00725
G1 X79.083 Y25.392 E3.40370
G1 X91.267 Y32.426 E3.79450
G1 X91.267 Y46.494 E4.18529
G1 X78.982 Y53.587 E4.57933
G1 X78.462 Y54.003 F900.000
G1 X78.684 Y54.460 F900.000
G1 F900
G1 X65.893 Y32.305 E5.28994
G1 X79.083 Y24.690 E5.71301
G1 X91.874 Y32.075 E6.12328
G1 X91.874 Y46.845 E6.53355
G1 X78.760 Y54.417 E6.95420
G1 X78.541 Y54.997 F900.000
G1 F900
G1 X65.357 Y32.162 E7.68663
G1 X79.083 Y24.237 E8.12690
G1 X92.267 Y31.849 E8.54977
G1 X92.267 Y47.072 E8.97264
G1 X78.616 Y54.953 E9.41049
G1 X78.442 Y54.425 F900.000
G92 E0
G1 X79.083 Y21.639 F900.000
G1 X65.507 Y28.487 F900.000
G1 F900
G1 X65.507 Y17.100 E0.31632
G1 X75.369 Y22.794 E0.63264
G1 X65.582 Y28.444 E0.94654
G1 X65.899 Y27.807 F900.000
G1 F900
G1 X65.899 Y17.780 E1.22507
G1 X74.583 Y22.794 E1.50360
G3 X65.397 Y28.097 I-2842.004 J-4912.388 E1.77972
G1 X65.292 Y28.859 F900.000
G1 F900
G1 X65.292 Y16.728 E2.11669
G1 X75.798 Y22.794 E2.45366
G1 X65.367 Y28.815 E2.78821
G1 X64.899 Y29.539 F900.000
G1 F900
G1 X64.899 Y16.048 E3.16297
G1 X76.583 Y22.794 E3.53772
G1 X64.975 Y29.496 E3.91006
G1 X64.981 Y28.965 F900.000
G92 E0
G1 X64.649 Y13.305 F900.000
G1 X61.792 Y29.847 F900.000
G1 F900
G1 X36.639 Y29.847 E0.69869
G1 X36.639 Y14.955 E1.11235
G1 X49.216 Y7.694 E1.51574
G1 X61.792 Y14.955 E1.91913
G1 X61.792 Y29.760 E2.33038
G1 X61.399 Y29.454 F900.000
G1 F900
G1 X37.032 Y29.454 E3.00725
G1 X37.032 Y15.182 E3.40370
G1 X49.216 Y8.148 E3.79450
G1 X61.399 Y15.182 E4.18529
G1 X61.399 Y29.367 E4.57933
G1 X61.499 Y30.026 F900.000
G1 X62.007 Y30.061 F900.000
G1 F900
G1 X36.425 Y30.061 E5.28994
G1 X36.425 Y14.831 E5.71301
G1 X49.216 Y7.446 E6.12328
G1 X62.007 Y14.831 E6.53355
G1 X62.007 Y29.974 E6.95420
G1 X62.399 Y30.454 F900.000
G1 F900
G1 X36.032 Y30.454 E7.68663
G1 X36.032 Y14.605 E8.12690
G1 X49.216 Y6.993 E8.54977
G1 X62.399 Y14.605 E8.97264
G1 X62.399 Y30.367 E9.41049
G1 X61.855 Y30.254 F900.000
G92 E0
G1 X33.782 Y13.305 F900.000
G1 X32.925 Y28.487 F900.000
G1 F900
G1 X23.063 Y22.794 E0.31632
G1 X32.925 Y17.100 E0.63264
G1 X32.925 Y28.400 E0.94654
G1 X32.532 Y27.807 F900.000
G1 F900
G1 X23.848 Y22.794 E1.22507
G1 X32.532 Y17.780 E1.50360
G1 X32.532 Y27.720 E1.77972
G1 X32.415 Y28.375 F900.000
G1 X33.139 Y28.859 F900.000
G1 F900
G1 X22.634 Y22.794 E2.11669
G1 X33.139 Y16.728 E2.45366
G1 X33.139 Y28.772 E2.78821
G1 X33.532 Y29.539 F900.000
G1 F900
G1 X21.848 Y22.794 E3.16297
G1 X33.532 Y16.048 E3.53772
G1 X33.532 Y29.452 E3.91006
G1 X34.034 Y29.249 F900.000
G92 E0
G1 X19.348 Y21.639 F900.000
G1 X32.245 Y32.384 F900.000
G1 F900
G1 X19.668 Y54.167 E0.69869
G1 X6.772 Y46.721 E1.11235
G1 X6.772 Y32.199 E1.51574
G1 X19.348 Y24.938 E1.91913
G1 X32.169 Y32.341 E2.33038
G1 X31.708 Y32.528 F900.000
G1 F900
G1 X19.525 Y53.631 E3.00725
G1 X7.164 Y46.494 E3.40370
G1 X7.164 Y32.426 E3.79450
G1 X19.348 Y25.392 E4.18529
G1 X31.633 Y32.484 E4.57933
G1 X32.236 Y32.768 F900.000
G1 X32.538 Y32.305 F900.000
G1 F900
G1 X19.747 Y54.460 E5.28994
G1 X6.557 Y46.845 E5.71301
G1 X6.557 Y32.075 E6.12328
G1 X19.348 Y24.690 E6.53355
G1 X32.463 Y32.262 E6.95420
G1 X33.074 Y32.162 F900.000
G1 F900
G1 X19.891 Y54.997 E7.68663
G1 X6.164 Y47.072 E8.12690
G1 X6.164 Y31.849 E8.54977
G1 X19.348 Y24.237 E8.97264
G1 X32.999 Y32.118 E9.41049
G1 X32.572 Y32.452 F900.000
G92 E0
G1 X3.914 Y46.061 F900.000
G1 X16.634 Y56.704 F900.000
G1 F900
G1 X6.772 Y62.398 E0.31632
G1 X6.772 Y51.010 E0.63264
G1 X16.558 Y56.661 E0.94654
G1 X15.848 Y56.704 F900.000
G1 F900
G1 X7.164 Y61.718 E1.22507
G1 X7.164 Y51.691 E1.50360
G1 X15.773 Y56.661 E1.77972
G1 X16.350 Y56.994 F900.000
G1 X17.063 Y56.704 F900.000
G1 F900
G1 X6.557 Y62.770 E2.11669
G1 X6.557 Y50.639 E2.45366
G1 X16.987 Y56.661 E2.78821
G1 X17.848 Y56.704 F900.000
G1 F900
G1 X6.164 Y63.450 E3.16297
G1 X6.164 Y49.959 E3.53772
G1 X17.773 Y56.661 E3.91006
G1 X17.277 Y56.805 F900.000
G92 E0
G1 X3.914 Y65.038 F900.000
G1 X19.668 Y59.241 F900.000
G1 F900
G1 X32.245 Y81.024 E0.69869
G1 X19.348 Y88.470 E1.11235
G1 X6.772 Y81.209 E1.51574
G1 X6.772 Y66.687 E1.91913
G1 X19.593 Y59.285 E2.33038
G1 X19.525 Y59.778 F900.000
G1 F900
G1 X31.708 Y80.881 E3.00725
G1 X19.348 Y88.017 E3.40370
G1 X7.164 Y80.983 E3.79450
G1 X7.164 Y66.914 E4.18529
G3 X20.027 Y59.488 I3976.937 J6873.827 E4.57933
G1 X19.747 Y58.948 F900.000
G1 F900
G1 X32.538 Y81.103 E5.28994
G1 X19.348 Y88.718 E5.71301
G1 X6.557 Y81.333 E6.12328
G1 X6.557 Y66.563 E6.53355
G1 X19.672 Y58.992 E6.95420
G1 X19.891 Y58.412 F900.000
G1 F900
G1 X33.074 Y81.247 E7.68663
G1 X19.348 Y89.172 E8.12690
G1 X6.164 Y81.560 E8.54977
G1 X6.164 Y66.337 E8.97264
G1 X19.815 Y58.455 E9.41049
G1 X19.989 Y58.983 F900.000
G92 E0
G1 X19.348 Y91.770 F900.000
G1 X32.925 Y84.921 F900.000
G1 F900
G1 X32.925 Y96.309 E0.31632
G1 X23.063 Y90.615 E0.63264
G1 X32.849 Y84.965 E0.94654
G1 X32.532 Y85.601 F900.000
G1 F900
G1 X32.532 Y95.628 E1.22507
G1 X23.848 Y90.615 E1.50360
G1 X32.457 Y85.645 E1.77972
G1 X33.103 Y85.501 F900.000
G1 X33.139 Y84.549 F900.000
G1 F900
G1 X33.139 Y96.680 E2.11669
G1 X22.634 Y90.615 E2.45366
G1 X33.064 Y84.593 E2.78821
G1 X33.532 Y83.869 F900.000
G1 F900
G1 X33.532 Y97.361 E3.16297
G1 X21.848 Y90.615 E3.53772
G1 X33.457 Y83.913 E3.91006
G1 X33.030 Y83.579 F900.000
G92 E0
G1 X19.348 Y91.770 F900.000
G1 X35.854 Y79.847 F900.000
G1 F900
G1 X22.493 Y56.704 E0.74230
G1 X35.854 Y33.561 E1.48460
G1 X62.577 Y33.561 E2.22691
G1 X75.939 Y56.704 E2.96921
G1 X62.577 Y79.847 E3.71151
G1 X35.941 Y79.847 E4.45140
G1 X36.081 Y79.454 F900.000
G1 F900
G1 X22.946 Y56.704 E5.18110
G1 X36.081 Y33.954 E5.91081
G1 X62.350 Y33.954 E6.64052
G1 X75.485 Y56.704 E7.37022
G1 X62.350 Y79.454 E8.09993
G1 X36.168 Y79.454 E8.82722
G1 X35.579 Y79.744 F900.000
G1 X35.730 Y80.061 F900.000
G1 F900
G1 X22.245 Y56.704 E9.57641
G1 X35.730 Y33.347 E10.32559
G1 X62.701 Y33.347 E11.07478
G1 X76.186 Y56.704 E11.82396
G1 X62.701 Y80.061 E12.57315
G1 X35.817 Y80.061 E13.31992
G1 X35.504 Y80.454 F900.000
G1 F900
G1 X21.792 Y56.704 E14.08170
G1 X35.504 Y32.954 E14.84348
G1 X62.928 Y32.954 E15.60526
G1 X76.640 Y56.704 E16.36704
G1 X62.928 Y80.454 E17.12883
G1 X35.591 Y80.454 E17.88819
G1 X35.504 Y79.874 F900.000
G1 Z-147.500 F900.000
G92 E0
G1 X35.782 Y101.258 F900.000
G1 X36.639 Y83.561 F900.000
G1 F900
G1 X61.792 Y83.561 E0.69869
G1 X61.792 Y98.453 E1.11235
G1 X49.216 Y105.714 E1.51574
G1 X36.639 Y98.453 E1.91913
G1 X36.639 Y83.648 E2.33038
G1 X37.032 Y83.954 F900.000
G1 F900
G1 X61.399 Y83.954 E3.00725
G1 X61.399 Y98.227 E3.40370
G1 X49.216 Y105.261 E3.79450
G1 X37.032 Y98.227 E4.18529
G1 X37.032 Y84.041 E4.57933
G1 X36.932 Y83.383 F900.000
G1 X36.425 Y83.347 F900.000
G1 F900
G1 X62.007 Y83.347 E5.28994
G1 X62.007 Y98.577 E5.71301
G1 X49.216 Y105.962 E6.12328
G1 X36.425 Y98.577 E6.53355
G1 X36.425 Y83.434 E6.95420
G1 X36.032 Y82.954 F900.000
G1 F900
G1 X62.399 Y82.954 E7.68663
G1 X62.399 Y98.804 E8.12690
G1 X49.216 Y106.416 E8.54977
G1 X36.032 Y98.804 E8.97264
G1 X36.032 Y83.041 E9.41049
G1 X36.576 Y83.155 F900.000
G92 E0
G1 X35.782 Y101.258 F900.000
G1 X32.925 Y84.921 F900.000
G1 F900
G1 X32.925 Y96.309 E0.31632
G1 X23.063 Y90.615 E0.63264
G1 X32.849 Y84.965 E0.94654
G1 X32.532 Y85.601 F900.000
G1 F900
G1 X32.532 Y95.628 E1.22507
G1 X23.848 Y90.615 E1.50360
G1 X32.457 Y85.645 E1.77972
G1 X33.103 Y85.501 F900.000
G1 X33.139 Y84.549 F900.000
G1 F900
G1 X33.139 Y96.680 E2.11669
G1 X22.634 Y90.615 E2.45366
G1 X33.064 Y84.593 E2.78821
G1 X33.532 Y83.869 F900.000
G1 F900
G1 X33.532 Y97.361 E3.16297
G1 X21.848 Y90.615 E3.53772
G1 X33.457 Y83.913 E3.91006
G1 X33.030 Y83.579 F900.000
G92 E0
G1 X19.348 Y91.770 F900.000
G1 X32.245 Y81.024 F900.000
G1 F900
G1 X19.348 Y88.470 E0.41366
G1 X6.772 Y81.209 E0.81705
G1 X6.772 Y66.687 E1.22044
G1 X19.668 Y59.241 E1.63410
G1 X32.201 Y80.949 E2.33037
G1 X31.708 Y80.881 F900.000
G1 F900
G1 X19.348 Y88.017 E2.72683
G1 X7.164 Y80.983 E3.11762
G1 X7.164 Y66.914 E3.50842
G1 X19.525 Y59.778 E3.90487
G1 X31.665 Y80.805 E4.57933
G1 X32.023 Y81.368 F900.000
G1 X32.538 Y81.103 F900.000
G1 F900
G1 X19.348 Y88.718 E5.00239
G1 X6.557 Y81.333 E5.41267
G1 X6.557 Y66.563 E5.82294
G1 X19.747 Y58.948 E6.24600
G1 X32.494 Y81.028 E6.95420
G1 X33.074 Y81.247 F900.000
G1 F900
G1 X19.348 Y89.172 E7.39447
G1 X6.164 Y81.560 E7.81734
G1 X6.164 Y66.337 E8.24021
G1 X19.891 Y58.412 E8.68047
G1 X33.031 Y81.171 E9.41049
G1 X32.494 Y81.247 F900.000
G92 E0
G1 X94.517 Y30.549 F900.000
G1 X16.634 Y56.704 F900.000
G1 F900
G1 X6.772 Y62.398 E0.31632
G1 X6.772 Y51.010 E0.63264
G1 X16.558 Y56.661 E0.94654
G1 X15.848 Y56.704 F900.000
G1 F900
G1 X7.164 Y61.718 E1.22507
G1 X7.164 Y51.691 E1.50360
G1 X15.773 Y56.661 E1.77972
G1 X16.350 Y56.994 F900.000
G1 X17.063 Y56.704 F900.000
G1 F900
G1 X6.557 Y62.770 E2.11669
G1 X6.557 Y50.639 E2.45366
G1 X16.987 Y56.661 E2.78821
G1 X17.848 Y56.704 F900.000
G1 F900
G1 X6.164 Y63.450 E3.16297
G1 X6.164 Y49.959 E3.53772
G1 X17.773 Y56.661 E3.91006
G1 X17.277 Y56.805 F900.000
G92 E0
G1 X19.348 Y21.639 F900.000
G1 X19.668 Y54.167 F900.000
G1 F900
G1 X6.772 Y46.721 E0.41366
G1 X6.772 Y32.199 E0.81705
G1 X19.348 Y24.938 E1.22044
G1 X32.245 Y32.384 E1.63410
G1 X19.712 Y54.092 E2.33038
G1 X19.525 Y53.631 F900.000
G1 F900
G1 X7.164 Y46.494 E2.72683
G1 X7.164 Y32.426 E3.11762
G1 X19.348 Y25.392 E3.50842
G1 X31.708 Y32.528 E3.90487
G1 X19.568 Y53.555 E4.57933
G1 X19.327 Y54.176 F900.000
G1 X19.747 Y54.460 F900.000
G1 F900
G1 X6.557 Y46.845 E5.00239
G1 X6.557 Y32.075 E5.41267
G1 X19.348 Y24.690 E5.82294
G1 X32.538 Y32.305 E6.24600
G1 X19.790 Y54.385 E6.95420
G1 X19.891 Y54.997 F900.000
G1 F900
G1 X6.164 Y47.072 E7.39447
G1 X6.164 Y31.849 E7.81734
G1 X19.348 Y24.237 E8.24021
G1 X33.074 Y32.162 E8.68048
G1 X19.934 Y54.921 E9.41049
G1 X19.523 Y54.548 F900.000
G92 E0
G1 X19.348 Y21.639 F900.000
G1 X32.925 Y28.487 F900.000
G1 F900
G1 X23.063 Y22.794 E0.31632
G1 X32.925 Y17.100 E0.63264
G1 X32.925 Y28.400 E0.94654
G1 X32.532 Y27.807 F900.000
G1 F900
G1 X23.848 Y22.794 E1.22507
G1 X32.532 Y17.780 E1.50360
G1 X32.532 Y27.720 E1.77972
G1 X32.383 Y28.368 F900.000
G1 X33.139 Y28.859 F900.000
G1 F900
G1 X22.634 Y22.794 E2.11669
G1 X33.139 Y16.728 E2.45366
G1 X33.139 Y28.772 E2.78821
G1 X33.532 Y29.539 F900.000
G1 F900
G1 X21.848 Y22.794 E3.16297
G1 X33.532 Y16.048 E3.53772
G1 X33.532 Y29.452 E3.91006
G1 X34.034 Y29.249 F900.000
G92 E0
G1 X33.782 Y13.305 F900.000
G1 X36.639 Y29.847 F900.000
G1 F900
G1 X36.639 Y14.955 E0.41366
G1 X49.216 Y7.694 E0.81705
G1 X61.792 Y14.955 E1.22044
G1 X61.792 Y29.847 E1.63410
G1 X36.726 Y29.847 E2.33038
G1 X37.032 Y29.454 F900.000
G1 F900
G1 X37.032 Y15.182 E2.72683
G1 X49.216 Y8.148 E3.11762
G1 X61.399 Y15.182 E3.50842
G1 X61.399 Y29.454 E3.90487
G1 X37.119 Y29.454 E4.57933
G1 X36.461 Y29.556 F900.000
G1 X36.425 Y30.061 F900.000
G1 F900
G1 X36.425 Y14.831 E5.00239
G1 X49.216 Y7.446 E5.41267
G1 X62.007 Y14.831 E5.82294
G1 X62.007 Y30.061 E6.24600
G1 X36.512 Y30.061 E6.95420
G1 X36.032 Y30.454 F900.000
G1 F900
G1 X36.032 Y14.605 E7.39447
G1 X49.216 Y6.993 E7.81734
G1 X62.399 Y14.605 E8.24021
G1 X62.399 Y30.454 E8.68048
G1 X36.119 Y30.454 E9.41049
G1 X36.227 Y29.908 F900.000
G92 E0
G1 X68.758 Y15.677 F900.000
G1 X65.507 Y28.487 F900.000
G1 F900
G1 X65.507 Y17.100 E0.31632
G1 X75.369 Y22.794 E0.63264
G1 X65.582 Y28.444 E0.94654
G1 X65.899 Y27.807 F900.000
G1 F900
G1 X65.899 Y17.780 E1.22507
G1 X74.583 Y22.794 E1.50360
G3 X65.397 Y28.097 I-2842.004 J-4912.388 E1.77972
G1 X65.292 Y28.859 F900.000
G1 F900
G1 X65.292 Y16.728 E2.11669
G1 X75.798 Y22.794 E2.45366
G1 X65.367 Y28.815 E2.78821
G1 X64.899 Y29.539 F900.000
G1 F900
G1 X64.899 Y16.048 E3.16297
G1 X76.583 Y22.794 E3.53772
G1 X64.975 Y29.496 E3.91006
G1 X64.943 Y28.961 F900.000
G92 E0
G1 X81.083 Y22.794 F900.000
G1 X66.187 Y32.384 F900.000
G1 F900
G1 X79.083 Y24.938 E0.41366
G1 X91.660 Y32.199 E0.81705
G1 X91.660 Y46.721 E1.22044
G1 X78.763 Y54.167 E1.63410
G1 X66.230 Y32.459 E2.33038
G1 X66.723 Y32.528 F900.000
G1 F900
G1 X79.083 Y25.392 E2.72683
G1 X91.267 Y32.426 E3.11762
G1 X91.267 Y46.494 E3.50842
G1 X78.907 Y53.631 E3.90487
G1 X66.766 Y32.603 E4.57933
G1 X66.349 Y32.084 F900.000
G1 X65.893 Y32.305 F900.000
G1 F900
G1 X79.083 Y24.690 E5.00239
G1 X91.874 Y32.075 E5.41267
G1 X91.874 Y46.845 E5.82294
G1 X78.684 Y54.460 E6.24600
G1 X65.937 Y32.381 E6.95420
G1 X65.357 Y32.162 F900.000
G1 F900
G1 X79.083 Y24.237 E7.39447
G1 X92.267 Y31.849 E7.81734
G1 X92.267 Y47.072 E8.24021
G1 X78.541 Y54.997 E8.68047
G1 X65.400 Y32.237 E9.41049
G1 X65.928 Y32.058 F900.000
G92 E0
G1 X3.914 Y82.859 F900.000
G1 X81.798 Y56.704 F900.000
G1 F900
G1 X91.660 Y51.010 E0.31632
G1 X91.660 Y62.398 E0.63264
G1 X81.873 Y56.748 E0.94654
G1 X82.583 Y56.704 F900.000
G1 F900
G1 X91.267 Y51.691 E1.22507
G1 X91.267 Y61.718 E1.50360
G1 X82.659 Y56.748 E1.77972
G1 X82.081 Y56.414 F900.000
G1 X81.369 Y56.704 F900.000
G1 F900
G1 X91.874 Y50.639 E2.11669
G1 X91.874 Y62.770 E2.45366
G1 X81.444 Y56.748 E2.78821
G1 X80.583 Y56.704 F900.000
G1 F900
G1 X92.267 Y49.959 E3.16297
G1 X92.267 Y63.450 E3.53772
G1 X80.659 Y56.748 E3.91006
G1 X80.583 Y57.284 F900.000
G92 E0
G1 X79.083 Y91.770 F900.000
G1 X78.763 Y59.241 F900.000
G1 F900
G1 X91.660 Y66.687 E0.41366
G1 X91.660 Y81.209 E0.81705
G1 X79.083 Y88.470 E1.22044
G1 X66.187 Y81.024 E1.63410
G1 X78.719 Y59.317 E2.33037
G1 X78.907 Y59.778 F900.000
G1 F900
G1 X91.267 Y66.914 E2.72683
G1 X91.267 Y80.983 E3.11762
G1 X79.083 Y88.017 E3.50842
G1 X66.723 Y80.881 E3.90487
G1 X78.863 Y59.853 E4.57933
G1 X79.104 Y59.232 F900.000
G1 X78.684 Y58.948 F900.000
G1 F900
G1 X91.874 Y66.563 E5.00239
G1 X91.874 Y81.333 E5.41267
G1 X79.083 Y88.718 E5.82294
G1 X65.893 Y81.103 E6.24600
G1 X78.641 Y59.024 E6.95420
G1 X78.541 Y58.412 F900.000
G1 F900
G1 X92.267 Y66.337 E7.39447
G1 X92.267 Y81.560 E7.81734
G1 X79.083 Y89.172 E8.24021
G1 X65.357 Y81.247 E8.68047
G1 X78.497 Y58.487 E9.41049
G1 X78.916 Y58.854 F900.000
G92 E0
G1 X79.083 Y91.770 F900.000
G1 X65.507 Y84.921 F900.000
G1 F900
G1 X75.369 Y90.615 E0.31632
G1 X65.507 Y96.309 E0.63264
G1 X65.507 Y85.008 E0.94654
G1 X65.899 Y85.601 F900.000
G1 F900
G1 X74.583 Y90.615 E1.22507
G1 X65.899 Y95.628 E1.50360
G1 X65.899 Y85.688 E1.77972
G1 X65.899 Y85.021 F900.000
G1 X65.292 Y84.549 F900.000
G1 F900
G1 X75.798 Y90.615 E2.11669
G1 X65.292 Y96.680 E2.45366
G1 X65.292 Y84.636 E2.78821
G1 X64.899 Y83.869 F900.000
G1 F900
G1 X76.583 Y90.615 E3.16297
G1 X64.899 Y97.361 E3.53772
G1 X64.899 Y83.956 E3.91006
G1 X65.402 Y84.159 F900.000
G92 E0
G1 X79.083 Y91.770 F900.000
G1 X62.577 Y79.847 F900.000
G1 F900
G1 X35.854 Y79.847 E0.74230
G1 X22.493 Y56.704 E1.48460
G1 X35.854 Y33.561 E2.22691
G1 X62.577 Y33.561 E2.96921
G1 X75.939 Y56.704 E3.71151
G1 X62.621 Y79.772 E4.45140
G1 X62.350 Y79.454 F900.000
G1 F900
G1 X36.081 Y79.454 E5.18110
G1 X22.946 Y56.704 E5.91081
G1 X36.081 Y33.954 E6.64052
G1 X62.350 Y33.954 E7.37022
G1 X75.485 Y56.704 E8.09993
G1 X62.394 Y79.379 E8.82722
G1 X62.350 Y80.034 F900.000
G1 X62.701 Y80.061 F900.000
G1 F900
G1 X35.730 Y80.061 E9.57641
G1 X22.245 Y56.704 E10.32559
G1 X35.730 Y33.347 E11.07478
G1 X62.701 Y33.347 E11.82396
G1 X76.186 Y56.704 E12.57315
G1 X62.745 Y79.986 E13.31992
G1 X62.928 Y80.454 F900.000
G1 F900
G1 X35.504 Y80.454 E14.08170
G1 X21.792 Y56.704 E14.84348
G1 X35.504 Y32.954 E15.60526
G1 X62.928 Y32.954 E16.36704
G1 X76.640 Y56.704 E17.12883
G1 X62.971 Y80.379 E17.88819
G1 X62.457 Y80.115 F900.000
G1 Z-147.000 F900.000
G92 E0
G1 X79.083 Y91.770 F900.000
G1 X61.792 Y83.561 F900.000
G1 F900
G1 X61.792 Y98.453 E0.41366
G1 X49.216 Y105.714 E0.81705
G1 X36.639 Y98.453 E1.22044
G1 X36.639 Y83.561 E1.63410
G1 X61.705 Y83.561 E2.33038
G1 X61.399 Y83.954 F900.000
G1 F900
G1 X61.399 Y98.227 E2.72683
G1 X49.216 Y105.261 E3.11762
G1 X37.032 Y98.227 E3.50842
G1 X37.032 Y83.954 E3.90487
G1 X61.312 Y83.954 E4.57933
G1 X61.970 Y83.852 F900.000
G92 E0
G1 X62.149 Y83.704 F900.000
G1 X36.282 Y83.704 F900.000
G1 X34.782 Y85.746 F900.000
G1 X33.282 Y84.880 F900.000
G1 X32.925 Y84.921 F900.000
G1 F900
G1 X32.925 Y96.309 E0.31632
G1 X23.063 Y90.615 E0.63264
G1 X32.849 Y84.965 E0.94654
G1 X32.532 Y85.601 F900.000
G1 F900
G1 X32.532 Y95.628 E1.22507
G1 X23.848 Y90.615 E1.50360
G1 X32.457 Y85.645 E1.77972
G1 X33.103 Y85.501 F900.000
G92 E0
G1 X33.282 Y84.880 F900.000
G1 X34.782 Y85.746 F900.000
G1 X36.282 Y83.704 F900.000
G1 X62.149 Y83.704 F900.000
G1 X63.649 Y85.746 F900.000
G1 X65.149 Y84.880 F900.000
G1 X65.507 Y84.921 F900.000
G1 F900
G1 X75.369 Y90.615 E0.31632
G1 X65.507 Y96.309 E0.63264
G1 X65.507 Y85.008 E0.94654
G1 X65.899 Y85.601 F900.000
G1 F900
G1 X74.583 Y90.615 E1.22507
G1 X65.899 Y95.628 E1.50360
G1 X65.899 Y85.688 E1.77972
G1 X65.899 Y85.021 F900.000
G92 E0
G1 X75.798 Y90.615 F900.000
G1 F900
G1 X49.216 Y105.962 E0.85262
G1 X22.634 Y90.615 E1.70524
G1 X34.055 Y84.021 E2.07159
G1 X35.896 Y83.347 E2.12604
G1 X62.535 Y83.347 E2.86603
G1 X64.376 Y84.021 E2.92048
G1 X75.722 Y90.571 E3.28441
G1 X76.583 Y90.615 F900.000
G1 F900
G1 X49.216 Y106.416 E4.16222
G1 X21.848 Y90.615 E5.04004
G1 X33.888 Y83.664 E5.42622
G1 X35.826 Y82.954 E5.48355
G1 X62.605 Y82.954 E6.22740
G1 X64.543 Y83.664 E6.28473
G1 X76.508 Y90.571 E6.66850
G1 X76.013 Y90.720 F900.000
G92 E0
G1 X65.114 Y84.900 F900.000
G1 F900
G1 X64.209 Y84.378 E0.02902
G1 X63.908 Y84.267 E0.03793
G1 X65.114 Y85.473 E0.08530
G1 X65.114 Y86.047 E0.10123
G1 X63.004 Y83.937 E0.18412
G1 X62.466 Y83.740 E0.20003
G1 X62.234 Y83.740 E0.20648
G1 X65.114 Y86.620 E0.31963
G1 X65.114 Y87.193 E0.33555
G1 X62.185 Y84.264 E0.45062
G1 X62.185 Y84.837 E0.46654
G1 X65.114 Y87.766 E0.58161
G1 X65.114 Y88.339 E0.59754
G1 X62.185 Y85.410 E0.71261
G1 X62.185 Y85.983 E0.72853
G1 X65.114 Y88.913 E0.84360
G1 X65.114 Y89.486 E0.85952
G1 X62.185 Y86.557 E0.97459
G1 X62.185 Y87.130 E0.99052
G1 X65.114 Y90.059 E1.10559
G1 X65.114 Y90.632 E1.12151
G1 X62.185 Y87.703 E1.23658
G1 X62.185 Y88.276 E1.25250
G1 X65.114 Y91.205 E1.36757
G1 X65.114 Y91.779 E1.38349
G1 X62.185 Y88.849 E1.49857
G1 X62.185 Y89.423 E1.51449
G1 X65.114 Y92.352 E1.62956
G1 X65.114 Y92.925 E1.64548
G1 X62.185 Y89.996 E1.76055
G1 X62.185 Y90.569 E1.77647
G1 X65.114 Y93.498 E1.89154
G1 X65.114 Y94.071 E1.90747
G1 X62.185 Y91.142 E2.02254
G1 X62.185 Y91.715 E2.03846
G1 X65.114 Y94.645 E2.15353
G1 X65.114 Y95.218 E2.16945
G1 X62.185 Y92.289 E2.28452
G1 X62.185 Y92.862 E2.30045
G1 X65.114 Y95.791 E2.41552
G1 X65.114 Y96.330 E2.43048
G1 X65.092 Y96.342 E2.43118
G1 X62.185 Y93.435 E2.54539
G1 X62.185 Y94.008 E2.56131
G1 X64.729 Y96.552 E2.66125
G1 X64.365 Y96.762 E2.67290
G1 X62.185 Y94.582 E2.75856
G1 X62.185 Y95.155 E2.77448
G1 X64.002 Y96.972 E2.84586
G1 X63.638 Y97.182 E2.85752
G1 X62.185 Y95.728 E2.91463
G1 X62.185 Y96.301 E2.93055
G1 X63.275 Y97.391 E2.97338
G1 X62.912 Y97.601 E2.98504
G1 X62.185 Y96.874 E3.01359
G1 X62.185 Y97.448 E3.02951
G1 X62.548 Y97.811 E3.04379
G1 X62.185 Y98.021 E3.05545
G92 E0
G1 X63.649 Y95.484 F900.000
G1 X63.649 Y85.746 F900.000
G1 X62.149 Y83.704 F900.000
G1 X36.282 Y83.704 F900.000
G1 X34.782 Y85.746 F900.000
G1 X34.782 Y95.484 F900.000
G1 X33.317 Y96.330 F900.000
G1 F900
G1 X33.317 Y95.755 E0.01597
G1 X34.678 Y97.115 E0.06941
G1 X36.038 Y97.900 E0.11303
G1 X33.317 Y95.180 E0.21989
G1 X33.317 Y94.605 E0.23586
G1 X36.247 Y97.534 E0.35093
G1 X36.247 Y96.960 E0.36689
G1 X33.317 Y94.030 E0.48196
G1 X33.317 Y93.456 E0.49793
G1 X36.247 Y96.385 E0.61300
G1 X36.247 Y95.810 E0.62897
G1 X33.317 Y92.881 E0.74404
G1 X33.317 Y92.306 E0.76000
G1 X36.247 Y95.235 E0.87507
G1 X36.247 Y94.661 E0.89104
G1 X33.317 Y91.731 E1.00611
G1 X33.317 Y91.157 E1.02208
G1 X36.247 Y94.086 E1.13715
G1 X36.247 Y93.511 E1.15311
G1 X33.317 Y90.582 E1.26818
G1 X33.317 Y90.007 E1.28415
G1 X36.247 Y92.936 E1.39922
G1 X36.247 Y92.361 E1.41519
G1 X33.317 Y89.432 E1.53026
G1 X33.317 Y88.857 E1.54622
G1 X36.247 Y91.787 E1.66130
G1 X36.247 Y91.212 E1.67726
G1 X33.317 Y88.283 E1.79233
G1 X33.317 Y87.708 E1.80830
G1 X36.247 Y90.637 E1.92337
G1 X36.247 Y90.062 E1.93933
G1 X33.317 Y87.133 E2.05441
G1 X33.317 Y86.558 E2.07037
G1 X36.247 Y89.488 E2.18544
G1 X36.247 Y88.913 E2.20141
G1 X33.317 Y85.984 E2.31648
G1 X33.317 Y85.409 E2.33245
G1 X36.247 Y88.338 E2.44752
G1 X36.247 Y87.763 E2.46348
G1 X33.359 Y84.876 E2.57691
G1 X33.724 Y84.665 E2.58860
G1 X36.247 Y87.188 E2.68770
G1 X36.247 Y86.614 E2.70367
G1 X34.088 Y84.455 E2.78847
G3 X34.488 Y84.280 I0.714 J1.088 E2.80063
G1 X36.247 Y86.039 E2.86971
G1 X36.247 Y85.464 E2.88568
G1 X34.909 Y84.126 E2.93823
G1 X35.330 Y83.972 E2.95068
G1 X36.247 Y84.889 E2.98670
G1 X36.247 Y84.315 E3.00266
G1 X35.750 Y83.818 E3.02216
G3 X36.247 Y83.740 I0.356 J0.646 E3.03633
G92 E0
G1 X79.083 Y91.770 F900.000
G1 X62.577 Y79.847 F900.000
G1 F900
G1 X35.854 Y79.847 E0.74230
G1 X22.493 Y56.704 E1.48460
G1 X35.854 Y33.561 E2.22691
G1 X62.577 Y33.561 E2.96921
G1 X75.939 Y56.704 E3.71151
G1 X62.621 Y79.772 E4.45140
G1 X62.350 Y79.454 F900.000
G1 F900
G1 X36.081 Y79.454 E5.18110
G1 X22.946 Y56.704 E5.91081
G1 X36.081 Y33.954 E6.64052
G1 X62.350 Y33.954 E7.37022
G1 X75.485 Y56.704 E8.09993
G1 X62.394 Y79.379 E8.82722
G1 X62.350 Y80.034 F900.000
G1 X62.701 Y80.061 F900.000
G1 F900
G1 X35.730 Y80.061 E9.57641
G1 X22.245 Y56.704 E10.32559
G1 X35.730 Y33.347 E11.07478
G1 X62.701 Y33.347 E11.82396
G1 X76.186 Y56.704 E12.57315
G1 X62.745 Y79.986 E13.31992
G1 X62.928 Y80.454 F900.000
G1 F900
G1 X35.504 Y80.454 E14.08170
G1 X21.792 Y56.704 E14.84348
G1 X35.504 Y32.954 E15.60526
G1 X62.928 Y32.954 E16.36704
G1 X76.640 Y56.704 E17.12883
G1 X62.971 Y80.379 E17.88819
G1 X62.474 Y80.093 F900.000
G92 E0
G1 X3.914 Y65.038 F900.000
G1 X16.634 Y56.704 F900.000
G1 F900
G1 X6.772 Y62.398 E0.31632
G1 X6.772 Y51.010 E0.63264
G1 X16.558 Y56.661 E0.94654
G1 X15.848 Y56.704 F900.000
G1 F900
G1 X7.164 Y61.718 E1.22507
G1 X7.164 Y51.691 E1.50360
G1 X15.773 Y56.661 E1.77972
G1 X16.350 Y56.994 F900.000
G92 E0
G1 X19.668 Y54.167 F900.000
G1 F900
G1 X6.772 Y46.721 E0.41366
G1 X6.772 Y32.199 E0.81705
G1 X19.348 Y24.938 E1.22044
G1 X32.245 Y32.384 E1.63410
G1 X19.712 Y54.092 E2.33038
G1 X19.525 Y53.631 F900.000
G1 F900
G1 X7.164 Y46.494 E2.72683
G1 X7.164 Y32.426 E3.11762
G1 X19.348 Y25.392 E3.50842
G1 X31.708 Y32.528 E3.90487
G1 X19.568 Y53.555 E4.57933
G1 X19.327 Y54.176 F900.000
G92 E0
G1 X19.366 Y54.405 F900.000
G1 X32.300 Y32.003 F900.000
G1 X31.282 Y29.683 F900.000
G1 X32.782 Y28.817 F900.000
G1 X32.925 Y28.487 F900.000
G1 F900
G1 X23.063 Y22.794 E0.31632
G1 X32.925 Y17.100 E0.63264
G1 X32.925 Y28.400 E0.94654
G1 X32.532 Y27.807 F900.000
G1 F900
G1 X23.848 Y22.794 E1.22507
G1 X32.532 Y17.780 E1.50360
G1 X32.532 Y27.720 E1.77972
G1 X32.354 Y28.359 F900.000
G92 E0
G1 X33.139 Y16.728 F900.000
G1 F900
G1 X33.139 Y29.917 E0.36635
G1 X32.802 Y31.848 E0.42080
G1 X19.482 Y54.918 E1.16079
G1 X17.979 Y56.175 E1.21524
G1 X6.557 Y62.770 E1.58158
G1 X6.557 Y32.075 E2.43420
G1 X33.064 Y16.772 E3.28441
G1 X33.532 Y16.048 F900.000
G1 F900
G1 X33.532 Y29.950 E3.67059
G1 X33.177 Y31.984 E3.72792
G1 X19.788 Y55.175 E4.47178
G1 X18.204 Y56.499 E4.52911
G1 X6.164 Y63.450 E4.91529
G1 X6.164 Y31.849 E5.79310
G1 X33.457 Y16.091 E6.66850
G1 X33.431 Y16.619 F900.000
G92 E0
G1 X32.747 Y28.838 F900.000
G1 F900
G1 X31.358 Y28.036 E0.04455
G1 X32.747 Y29.425 E0.09912
G3 X32.727 Y29.993 I-1.572 J0.229 E0.11493
G1 X29.969 Y27.234 E0.22329
G1 X28.580 Y26.432 E0.26784
G1 X32.640 Y30.492 E0.42732
G1 X32.553 Y30.992 E0.44141
G1 X27.192 Y25.631 E0.65203
G1 X25.803 Y24.829 E0.69657
G1 X32.466 Y31.492 E0.95831
G3 X32.307 Y31.920 I-0.675 J-0.007 E0.97119
G1 X24.414 Y24.027 E1.28125
G1 X23.026 Y23.226 E1.32579
G1 X31.028 Y31.228 E1.64017
G1 X29.640 Y30.427 E1.68471
G1 X22.524 Y23.310 E1.96426
G1 X22.152 Y23.525 E1.97619
G1 X28.251 Y29.625 E2.21581
G1 X26.863 Y28.823 E2.26035
G1 X21.779 Y23.740 E2.46003
G1 X21.407 Y23.955 E2.47196
G1 X25.474 Y28.021 E2.63171
G1 X24.085 Y27.220 E2.67625
G1 X21.035 Y24.170 E2.79607
G1 X20.663 Y24.385 E2.80800
G1 X22.697 Y26.418 E2.88788
G1 X21.308 Y25.616 E2.93242
G1 X20.291 Y24.599 E2.97236
G1 X19.919 Y24.814 E2.98430
G92 E0
G1 X22.848 Y24.814 F900.000
G1 X31.282 Y29.683 F900.000
G1 X32.300 Y32.003 F900.000
G1 X19.366 Y54.405 F900.000
G1 X16.848 Y54.683 F900.000
G1 X8.414 Y49.814 F900.000
G1 X6.950 Y50.660 F900.000
G1 F900
G1 X6.950 Y50.086 E0.01594
G1 X8.308 Y51.444 E0.06931
G1 X9.666 Y52.228 E0.11286
G1 X6.950 Y49.512 E0.21957
G1 X6.950 Y48.938 E0.23552
G1 X11.024 Y53.012 E0.39557
G1 X12.382 Y53.796 E0.43913
G1 X6.950 Y48.364 E0.65253
G1 X6.950 Y47.790 E0.66848
G1 X13.740 Y54.580 E0.93523
G1 X15.098 Y55.364 E0.97879
G1 X7.095 Y47.362 E1.29317
G1 X8.453 Y48.146 E1.33672
G1 X16.456 Y56.148 E1.65110
G1 X16.848 Y56.375 E1.66368
G1 X17.107 Y56.225 E1.67198
G1 X9.811 Y48.930 E1.95858
G1 X11.169 Y49.714 E2.00213
G1 X17.471 Y56.015 E2.24968
G1 X17.823 Y55.794 E2.26124
G1 X12.527 Y50.498 E2.46928
G1 X13.885 Y51.282 E2.51284
G1 X18.136 Y55.532 E2.67981
G1 X18.448 Y55.271 E2.69113
G1 X15.243 Y52.066 E2.81704
G1 X16.601 Y52.850 E2.86059
G1 X18.761 Y55.009 E2.94543
G1 X19.074 Y54.748 E2.95675
G1 X17.959 Y53.634 E3.00052
G1 X19.318 Y54.418 E3.04409
G92 E0
G1 X3.914 Y65.038 F900.000
G1 X19.668 Y59.241 F900.000
G1 F900
G1 X32.245 Y81.024 E0.69869
G1 X19.348 Y88.470 E1.11235
G1 X6.772 Y81.209 E1.51574
G1 X6.772 Y66.687 E1.91913
G1 X19.593 Y59.285 E2.33037
G1 X19.525 Y59.778 F900.000
G1 F900
G1 X31.708 Y80.881 E3.00725
G1 X19.348 Y88.017 E3.40370
G1 X7.164 Y80.983 E3.79450
G1 X7.164 Y66.914 E4.18529
G3 X20.027 Y59.488 I3976.937 J6873.827 E4.57933
G1 X19.747 Y58.948 F900.000
G1 F900
G1 X32.538 Y81.103 E5.28994
G1 X19.348 Y88.718 E5.71301
G1 X6.557 Y81.333 E6.12328
G1 X6.557 Y66.563 E6.53355
G1 X19.672 Y58.992 E6.95420
G1 X19.891 Y58.412 F900.000
G1 F900
G1 X33.074 Y81.247 E7.68663
G1 X19.348 Y89.172 E8.12690
G1 X6.164 Y81.560 E8.54977
G1 X6.164 Y66.337 E8.97264
G1 X19.815 Y58.455 E9.41049
G1 X19.989 Y58.983 F900.000
G92 E0
G1 X79.083 Y91.770 F900.000
G1 X66.187 Y81.024 F900.000
G1 F900
G1 X78.763 Y59.241 E0.69869
G1 X91.660 Y66.687 E1.11235
G1 X91.660 Y81.209 E1.51574
G1 X79.083 Y88.470 E1.91913
G1 X66.262 Y81.068 E2.33037
G1 X66.723 Y80.881 F900.000
G1 F900
G1 X78.907 Y59.778 E3.00725
G1 X91.267 Y66.914 E3.40370
G1 X91.267 Y80.983 E3.79450
G1 X79.083 Y88.017 E4.18529
G1 X66.798 Y80.924 E4.57933
G1 X66.178 Y80.682 F900.000
G1 X65.893 Y81.103 F900.000
G1 F900
G1 X78.684 Y58.948 E5.28994
G1 X91.874 Y66.563 E5.71301
G1 X91.874 Y81.333 E6.12328
G1 X79.083 Y88.718 E6.53355
G1 X65.969 Y81.146 E6.95420
G1 X65.357 Y81.247 F900.000
G1 F900
G1 X78.541 Y58.412 E7.68663
G1 X92.267 Y66.337 E8.12690
G1 X92.267 Y81.560 E8.54977
G1 X79.083 Y89.172 E8.97264
G1 X65.432 Y81.290 E9.41049
G1 X65.803 Y80.876 F900.000
G92 E0
G1 X94.517 Y65.038 F900.000
G1 X81.798 Y56.704 F900.000
G1 F900
G1 X91.660 Y51.010 E0.31632
G1 X91.660 Y62.398 E0.63264
G1 X81.873 Y56.748 E0.94654
G1 X82.583 Y56.704 F900.000
G1 F900
G1 X91.267 Y51.691 E1.22507
G1 X91.267 Y61.718 E1.50360
G1 X82.659 Y56.748 E1.77972
G1 X82.081 Y56.414 F900.000
G92 E0
G1 X78.763 Y54.167 F900.000
G1 F900
G1 X66.187 Y32.384 E0.69869
G1 X79.083 Y24.938 E1.11235
G1 X91.660 Y32.199 E1.51574
G1 X91.660 Y46.721 E1.91913
G1 X78.838 Y54.124 E2.33037
G1 X78.907 Y53.631 F900.000
G1 F900
G1 X66.723 Y32.528 E3.00725
G1 X79.083 Y25.392 E3.40370
G1 X91.267 Y32.426 E3.79450
G1 X91.267 Y46.494 E4.18529
G1 X78.982 Y53.587 E4.57933
G1 X78.462 Y54.003 F900.000
G92 E0
G1 X79.065 Y54.405 F900.000
G1 X66.131 Y32.003 F900.000
G1 X67.149 Y29.683 F900.000
G1 X65.649 Y28.817 F900.000
G1 X65.507 Y28.487 F900.000
G1 F900
G1 X65.507 Y17.100 E0.31632
G1 X75.369 Y22.794 E0.63264
G1 X65.582 Y28.444 E0.94654
G1 X65.899 Y27.807 F900.000
G1 F900
G1 X65.899 Y17.780 E1.22507
G1 X74.583 Y22.794 E1.50360
G3 X65.397 Y28.097 I-2842.004 J-4912.388 E1.77972
G92 E0
G1 X65.364 Y16.770 F900.000
G1 F900
G1 X91.874 Y32.075 E0.85031
G1 X91.874 Y62.770 E1.70293
G1 X80.453 Y56.175 E2.06928
G1 X78.949 Y54.918 E2.12373
G1 X65.629 Y31.848 E2.86372
G1 X65.292 Y29.917 E2.91817
G1 X65.292 Y16.732 E3.28441
G1 X64.899 Y16.048 F900.000
G1 F900
G1 X92.267 Y31.849 E4.16222
G1 X92.267 Y63.450 E5.04003
G1 X80.227 Y56.499 E5.42622
G1 X78.644 Y55.175 E5.48355
G1 X65.254 Y31.984 E6.22740
G1 X64.899 Y29.950 E6.28473
G1 X64.899 Y16.135 E6.66850
G1 X65.276 Y16.489 F900.000
G92 E0
G1 X66.144 Y31.955 F900.000
G1 F900
G1 X66.004 Y31.711 E0.00780
G1 X65.908 Y31.161 E0.02333
G1 X66.498 Y31.751 E0.04651
G1 X66.851 Y31.547 E0.05784
G1 X65.790 Y30.486 E0.09953
G1 X65.685 Y29.823 E0.11816
G1 X67.205 Y31.343 E0.17787
G1 X67.558 Y31.139 E0.18920
G1 X65.685 Y29.266 E0.26279
G1 X65.685 Y28.838 E0.27467
G1 X65.767 Y28.790 E0.27731
G1 X67.911 Y30.935 E0.36154
G1 X68.265 Y30.731 E0.37288
G1 X66.120 Y28.586 E0.45712
G1 X66.474 Y28.382 E0.46845
G1 X68.618 Y30.527 E0.55269
G1 X68.971 Y30.323 E0.56402
G1 X66.827 Y28.178 E0.64826
G1 X67.180 Y27.974 E0.65959
G1 X69.325 Y30.119 E0.74383
G1 X69.678 Y29.915 E0.75517
G1 X67.534 Y27.770 E0.83940
G1 X67.887 Y27.566 E0.85074
G1 X70.032 Y29.711 E0.93497
G1 X70.385 Y29.507 E0.94631
G1 X68.241 Y27.362 E1.03055
G1 X68.594 Y27.158 E1.04188
G1 X70.738 Y29.303 E1.12612
G1 X71.092 Y29.099 E1.13745
G1 X68.947 Y26.954 E1.22169
G1 X69.301 Y26.750 E1.23302
G1 X71.445 Y28.895 E1.31726
G1 X71.798 Y28.691 E1.32860
G1 X69.654 Y26.546 E1.41283
G1 X70.007 Y26.342 E1.42417
G1 X72.152 Y28.487 E1.50841
G1 X72.505 Y28.283 E1.51974
G1 X70.361 Y26.138 E1.60398
G1 X70.714 Y25.934 E1.61531
G1 X72.858 Y28.079 E1.69955
G1 X73.212 Y27.875 E1.71088
G1 X71.067 Y25.730 E1.79512
G1 X71.421 Y25.526 E1.80646
G1 X73.565 Y27.671 E1.89069
G1 X73.919 Y27.466 E1.90203
G1 X71.774 Y25.322 E1.98627
G1 X72.128 Y25.118 E1.99760
G1 X74.272 Y27.262 E2.08184
G1 X74.625 Y27.058 E2.09317
G1 X72.481 Y24.914 E2.17741
G1 X72.834 Y24.710 E2.18874
G1 X74.979 Y26.854 E2.27298
G1 X75.332 Y26.650 E2.28431
G1 X73.188 Y24.506 E2.36855
G1 X73.541 Y24.302 E2.37989
G1 X75.685 Y26.446 E2.46412
G1 X76.039 Y26.242 E2.47546
G1 X73.894 Y24.098 E2.55970
G1 X74.248 Y23.894 E2.57103
G1 X76.392 Y26.038 E2.65527
G1 X76.745 Y25.834 E2.66660
G1 X74.601 Y23.690 E2.75084
G1 X74.955 Y23.486 E2.76217
G1 X77.099 Y25.630 E2.84641
G1 X77.452 Y25.426 E2.85775
G1 X75.308 Y23.282 E2.94198
G1 X75.583 Y23.123 E2.95081
G1 X75.875 Y23.291 E2.96016
G1 X77.806 Y25.222 E3.03602
G1 X78.159 Y25.018 E3.04735
G1 X77.193 Y24.053 E3.08529
G1 X78.512 Y24.814 E3.12760
G92 E0
G1 X75.583 Y24.814 F900.000
G1 X67.149 Y29.683 F900.000
G1 X66.131 Y32.003 F900.000
G1 X79.065 Y54.405 F900.000
G1 X81.583 Y54.683 F900.000
G1 X90.017 Y49.814 F900.000
G1 X91.482 Y47.278 F900.000
G1 F900
G1 X91.126 Y47.483 E0.01139
G1 X91.482 Y47.838 E0.02535
G1 X91.482 Y48.398 E0.04092
G1 X90.771 Y47.688 E0.06883
G1 X90.416 Y47.893 E0.08022
G1 X91.482 Y48.959 E0.12209
G1 X91.482 Y49.519 E0.13766
G1 X90.061 Y48.098 E0.19348
G1 X89.705 Y48.303 E0.20487
G1 X91.482 Y50.079 E0.27465
G1 X91.482 Y50.640 E0.29021
G1 X89.350 Y48.508 E0.37395
G1 X88.995 Y48.713 E0.38534
G1 X91.139 Y50.857 E0.46958
G1 X90.784 Y51.063 E0.48097
G1 X88.640 Y48.918 E0.56521
G1 X88.284 Y49.123 E0.57660
G1 X90.429 Y51.268 E0.66084
G1 X90.074 Y51.473 E0.67224
G1 X87.929 Y49.328 E0.75647
G1 X87.574 Y49.534 E0.76787
G1 X89.718 Y51.678 E0.85210
G1 X89.363 Y51.883 E0.86350
G1 X87.219 Y49.739 E0.94774
G1 X86.863 Y49.944 E0.95913
G1 X89.008 Y52.088 E1.04337
G1 X88.653 Y52.293 E1.05476
G1 X86.508 Y50.149 E1.13900
G1 X86.153 Y50.354 E1.15039
G1 X88.297 Y52.498 E1.23463
G1 X87.942 Y52.703 E1.24602
G1 X85.798 Y50.559 E1.33026
G1 X85.443 Y50.764 E1.34166
G1 X87.587 Y52.908 E1.42589
G1 X87.232 Y53.113 E1.43729
G1 X85.087 Y50.969 E1.52153
G1 X84.732 Y51.174 E1.53292
G1 X86.876 Y53.319 E1.61716
G1 X86.521 Y53.524 E1.62855
G1 X84.377 Y51.379 E1.71279
G1 X84.022 Y51.584 E1.72418
G1 X86.166 Y53.729 E1.80842
G1 X85.811 Y53.934 E1.81981
G1 X83.666 Y51.790 E1.90405
G1 X83.311 Y51.995 E1.91545
G1 X85.456 Y54.139 E1.99968
G1 X85.100 Y54.344 E2.01108
G1 X82.956 Y52.200 E2.09531
G1 X82.601 Y52.405 E2.10671
G1 X84.745 Y54.549 E2.19095
G1 X84.390 Y54.754 E2.20234
G1 X82.246 Y52.610 E2.28658
G1 X81.890 Y52.815 E2.29797
G1 X84.035 Y54.959 E2.38221
G1 X83.679 Y55.164 E2.39360
G1 X81.535 Y53.020 E2.47784
G1 X81.180 Y53.225 E2.48923
G1 X83.324 Y55.369 E2.57347
G1 X82.969 Y55.575 E2.58487
G1 X80.825 Y53.430 E2.66910
G1 X80.469 Y53.635 E2.68050
G1 X82.614 Y55.780 E2.76474
G1 X82.258 Y55.985 E2.77613
G1 X80.114 Y53.840 E2.86037
G1 X79.759 Y54.046 E2.87176
G1 X81.903 Y56.190 E2.95600
G1 X81.583 Y56.375 E2.96627
G1 X81.452 Y56.299 E2.97047
G1 X79.404 Y54.251 E3.05094
G1 X79.114 Y54.418 E3.06024
G1 X79.254 Y54.661 E3.06804
G92 E0
G1 X64.649 Y13.305 F900.000
G1 X61.792 Y14.955 F900.000
G1 F900
G1 X61.792 Y29.847 E0.41366
G1 X36.639 Y29.847 E1.11235
G1 X36.639 Y14.955 E1.52601
G1 X49.216 Y7.694 E1.92940
G1 X61.717 Y14.912 E2.33038
G1 X61.399 Y15.182 F900.000
G1 F900
G1 X61.399 Y29.454 E2.72683
G1 X37.032 Y29.454 E3.40370
G1 X37.032 Y15.182 E3.80016
G1 X49.216 Y8.148 E4.19095
G1 X61.324 Y15.138 E4.57933
G1 X61.973 Y15.268 F900.000
G1 X62.007 Y14.831 F900.000
G1 F900
G1 X62.007 Y30.061 E5.00239
G1 X36.425 Y30.061 E5.71301
G1 X36.425 Y14.831 E6.13607
G1 X49.216 Y7.446 E6.54634
G1 X61.931 Y14.788 E6.95420
G1 X62.399 Y14.605 F900.000
G1 F900
G1 X62.399 Y30.454 E7.39447
G1 X36.032 Y30.454 E8.12690
G1 X36.032 Y14.605 E8.56717
G1 X49.216 Y6.993 E8.99004
G1 X62.324 Y14.561 E9.41049
G1 X62.027 Y15.049 F900.000
G92 E0
; Filament-specific end gcode 
;END gcode for filament


M104 S0 ; set temperature
; filament used = 618.8mm (4.4cm3)
; total filament cost = 0.0

; avoid_crossing_perimeters = 1
; bed_shape = 0x0,250x0,250x250,0x250
; bed_temperature = 0
; before_layer_gcode = 
; between_objects_gcode = 
; bridge_acceleration = 0
; bridge_fan_speed = 0
; brim_connections_width = 0
; brim_width = 0
; complete_objects = 1
; cooling = 0
; default_acceleration = 0
; disable_fan_first_layers = 3
; duplicate_distance = 6
; end_filament_gcode = "; Filament-specific end gcode \n;END gcode for filament\n"
; end_gcode = 
; extruder_clearance_height = 20
; extruder_clearance_radius = 20
; extruder_offset = 0x0
; extrusion_axis = E
; extrusion_multiplier = 1
; fan_always_on = 0
; fan_below_layer_time = 60
; filament_colour = #FFFFFF
; filament_cost = 0
; filament_density = 0
; filament_diameter = 3
; filament_max_volumetric_speed = 0
; filament_notes = ""
; first_layer_acceleration = 0
; first_layer_bed_temperature = 0
; first_layer_extrusion_width = 100%
; first_layer_speed = 15
; first_layer_temperature = 0
; gcode_arcs = 0
; gcode_comments = 0
; gcode_flavor = reprap
; has_heatbed = 0
; infill_acceleration = 0
; infill_first = 0
; interior_brim_width = 0
; layer_gcode = 
; max_fan_speed = 100
; max_layer_height = 10
; max_print_speed = 80
; max_volumetric_speed = 0
; min_fan_speed = 35
; min_layer_height = 0
; min_print_speed = 10
; min_skirt_length = 0
; notes = 
; nozzle_diameter = 0.58
; only_retract_when_crossing_perimeters = 0
; ooze_prevention = 0
; output_filename_format = [input_filename_base].gcode
; perimeter_acceleration = 0
; post_process = /Users/nathanbrown/Downloads/macOS/ArcWelder
; pressure_advance = 0
; printer_notes = 
; resolution = 0
; retract_before_travel = 2
; retract_layer_change = 0
; retract_length = 0
; retract_length_toolchange = 10
; retract_lift = 0
; retract_lift_above = 0
; retract_lift_below = 0
; retract_restart_extra = 0
; retract_restart_extra_toolchange = 0
; retract_speed = 40
; skirt_distance = 6
; skirt_height = 1
; skirts = 0
; slowdown_below_layer_time = 5
; spiral_vase = 0
; standby_temperature_delta = -5
; start_filament_gcode = "; Filament gcode\n"
; start_gcode = 
; temperature = 0
; threads = 16
; toolchange_gcode = 
; travel_speed = 15
; use_firmware_retraction = 0
; use_relative_e_distances = 0
; use_set_and_wait_bed = 0
; use_set_and_wait_extruder = 0
; use_volumetric_e = 0
; vibration_limit = 0
; wipe = 0
; z_offset = -150
; z_steps_per_mm = 0
; adaptive_slicing = 0
; adaptive_slicing_quality = 75%
; dont_support_bridges = 1
; extrusion_width = 100%
; first_layer_height = 0.5
; infill_only_where_needed = 0
; interface_shells = 0
; layer_height = 0.5
; match_horizontal_surfaces = 0
; raft_layers = 0
; regions_overlap = 0
; seam_position = aligned
; sequential_print_priority = 0
; support_material = 0
; support_material_angle = 0
; support_material_buildplate_only = 0
; support_material_contact_distance = 0.2
; support_material_enforce_layers = 0
; support_material_extruder = 1
; support_material_extrusion_width = 0
; support_material_interface_extruder = 1
; support_material_interface_extrusion_width = 0
; support_material_interface_layers = 3
; support_material_interface_spacing = 0
; support_material_interface_speed = 100%
; support_material_max_layers = 0
; support_material_pattern = pillars
; support_material_spacing = 2.5
; support_material_speed = 15
; support_material_threshold = 60%
; xy_size_compensation = 0
; bottom_infill_pattern = rectilinear
; bottom_solid_layers = 0
; bridge_flow_ratio = 1
; bridge_speed = 15
; external_perimeter_extrusion_width = 100%
; external_perimeter_speed = 15
; external_perimeters_first = 0
; extra_perimeters = 0
; fill_angle = 45
; fill_density = 100%
; fill_gaps = 0
; fill_pattern = rectilinear
; gap_fill_speed = 15
; infill_every_layers = 1
; infill_extruder = 1
; infill_extrusion_width = 100%
; infill_overlap = 0
; infill_speed = 15
; overhangs = 0
; perimeter_extruder = 1
; perimeter_extrusion_width = 100%
; perimeter_speed = 15
; perimeters = 2
; small_perimeter_speed = 15
; solid_infill_below_area = 50
; solid_infill_every_layers = 0
; solid_infill_extruder = 1
; solid_infill_extrusion_width = 100%
; solid_infill_speed = 15
; thin_walls = 0
; top_infill_extrusion_width = 100%
; top_infill_pattern = rectilinear
; top_solid_infill_speed = 15
; top_solid_layers = 0
