; Postprocessed by [ArcWelder](https://github.com/FormerLurker/ArcWelderLib)
; Copyright(C) 2021 - Brad Hochgesang
; Version: 1.2.0, Branch: master, BuildDate: 2021-11-22T09:56:32Z
; resolution=0.05mm
; path_tolerance=5.0%
; max_radius=9999.00mm
; default_xyz_precision=3
; default_e_precision=5
; extrusion_rate_variance_percent=5.0%

; generated by Slic3r 1.3.0 on 2023-04-20 at 09:20:08

; external perimeters extrusion width = 0.50mm (2.95mm^3/s)
; perimeters extrusion width = 0.50mm (2.95mm^3/s)
; infill extrusion width = 0.50mm (2.95mm^3/s)
; solid infill extrusion width = 0.50mm (2.95mm^3/s)
; top infill extrusion width = 0.50mm (2.95mm^3/s)


; Filament gcode

G21 ; set units to millimeters
G90 ; use absolute coordinates
M82 ; use absolute distances for extrusion
G92 E0
G1 Z-149.500 F900.000
G1 X31.131 Y59.129 F900.000
G1 F900
G1 X49.124 Y59.129 E0.49980
G1 X49.124 Y69.337 E0.78337
G1 X40.127 Y74.531 E1.07193
G1 X31.131 Y69.337 E1.36049
G1 X31.131 Y59.216 E1.64165
G1 X31.524 Y59.521 F900.000
G1 F900
G1 X48.731 Y59.521 E2.11963
G1 X48.731 Y69.111 E2.38600
G1 X40.127 Y74.078 E2.66196
G1 X31.524 Y69.111 E2.93792
G1 X31.524 Y59.608 E3.20187
G1 X31.421 Y58.950 F900.000
G92 E0
G1 X30.663 Y56.914 F900.000
G1 F900
G1 X21.199 Y40.521 E0.52580
G1 X30.663 Y24.129 E1.05159
G1 X49.592 Y24.129 E1.57739
G1 X59.056 Y40.521 E2.10318
G1 X49.592 Y56.914 E2.62898
G1 X30.750 Y56.914 E3.15236
G1 X30.890 Y56.521 F900.000
G1 F900
G1 X21.652 Y40.521 E3.66556
G1 X30.890 Y24.521 E4.17876
G1 X49.365 Y24.521 E4.69196
G1 X58.603 Y40.521 E5.20516
G1 X49.365 Y56.521 E5.71836
G1 X30.977 Y56.521 E6.22914
G1 X30.388 Y56.811 F900.000
G92 E0
G1 X19.515 Y39.009 F900.000
G1 F900
G1 X10.674 Y33.904 E0.28358
G1 X10.674 Y23.516 E0.57213
G1 X19.670 Y18.322 E0.86069
G1 X28.511 Y23.427 E1.14427
G1 X19.558 Y38.933 E1.64165
G1 X19.371 Y38.472 F900.000
G1 F900
G1 X11.067 Y33.678 E1.90802
G1 X11.067 Y23.743 E2.18398
G1 X19.670 Y18.776 E2.45994
G1 X27.975 Y23.570 E2.72631
G1 X19.415 Y38.397 E3.20187
G1 X19.170 Y39.016 F900.000
G92 E0
G1 X19.896 Y39.064 F900.000
G1 X51.506 Y23.729 F900.000
G1 X51.744 Y23.427 F900.000
G1 F900
G1 X60.585 Y18.322 E0.28358
G1 X69.581 Y23.516 E0.57213
G1 X69.581 Y33.904 E0.86069
G1 X60.740 Y39.009 E1.14427
G1 X51.787 Y23.502 E1.64165
G1 X52.280 Y23.570 F900.000
G1 F900
G1 X60.585 Y18.776 E1.90802
G1 X69.188 Y23.743 E2.18398
G1 X69.188 Y33.678 E2.45994
G1 X60.884 Y38.472 E2.72631
G1 X52.324 Y23.646 E3.20187
G1 X51.910 Y23.124 F900.000
G92 E0
G1 X51.506 Y23.729 F900.000
G1 X69.796 Y23.392 F900.000
G1 F900
G1 X69.796 Y34.028 E0.29544
G1 X60.047 Y39.657 E0.60814
G1 X59.540 Y40.111 E0.62704
G1 X49.479 Y57.538 E1.18601
G1 X49.338 Y58.204 E1.20491
G1 X49.338 Y69.461 E1.51761
G1 X40.127 Y74.779 E1.81305
G1 X30.916 Y69.461 E2.10849
G1 X30.916 Y58.204 E2.42119
G1 X30.776 Y57.538 E2.44008
G1 X20.714 Y40.111 E2.99906
G1 X20.208 Y39.657 E3.01796
G1 X10.459 Y34.028 E3.33065
G1 X10.459 Y23.392 E3.62609
G1 X19.670 Y18.074 E3.92153
G1 X29.419 Y23.703 E4.23423
G1 X30.066 Y23.914 E4.25313
G1 X50.189 Y23.914 E4.81210
G1 X50.836 Y23.703 E4.83100
G1 X60.585 Y18.074 E5.14370
G1 X69.720 Y23.349 E5.43672
G1 X70.188 Y23.166 F900.000
G1 F900
G1 X70.188 Y34.255 E5.74476
G1 X60.279 Y39.976 E6.06262
G1 X59.849 Y40.362 E6.07864
G1 X49.850 Y57.681 E6.63414
G1 X49.731 Y58.245 E6.65017
G1 X49.731 Y69.688 E6.96802
G1 X40.127 Y75.233 E7.27606
G1 X30.524 Y69.688 E7.58410
G1 X30.524 Y58.245 E7.90195
G1 X30.404 Y57.681 E7.91798
G1 X20.405 Y40.362 E8.47348
G1 X19.976 Y39.976 E8.48951
G1 X10.067 Y34.255 E8.80736
G1 X10.067 Y23.166 E9.11540
G1 X19.670 Y17.621 E9.42343
G1 X29.580 Y23.342 E9.74129
G1 X30.128 Y23.521 E9.75732
G1 X50.126 Y23.521 E10.31282
G1 X50.675 Y23.342 E10.32884
G1 X60.585 Y17.621 E10.64670
G1 X70.113 Y23.122 E10.95232
G1 X69.815 Y23.610 F900.000
G92 E0
G1 X51.506 Y23.729 F900.000
G1 X51.224 Y24.741 F900.000
G1 X59.342 Y38.802 F900.000
G1 X60.311 Y39.051 F900.000
G1 F900
G1 X60.104 Y38.692 E0.01151
G1 X59.057 Y39.738 E0.05261
G1 X58.850 Y39.379 E0.06413
G1 X59.896 Y38.333 E0.10523
G1 X59.689 Y37.974 E0.11674
G1 X58.643 Y39.020 E0.15784
G1 X58.436 Y38.662 E0.16935
G1 X59.482 Y37.615 E0.21045
G1 X59.275 Y37.256 E0.22196
G1 X58.229 Y38.303 E0.26306
G1 X58.021 Y37.944 E0.27457
G1 X59.068 Y36.898 E0.31567
G1 X58.860 Y36.539 E0.32718
G1 X57.814 Y37.585 E0.36829
G1 X57.607 Y37.226 E0.37980
G1 X58.653 Y36.180 E0.42090
G1 X58.446 Y35.821 E0.43241
G1 X57.400 Y36.867 E0.47351
G1 X57.193 Y36.508 E0.48502
G1 X58.239 Y35.462 E0.52612
G1 X58.032 Y35.103 E0.53763
G1 X56.985 Y36.149 E0.57873
G1 X56.778 Y35.791 E0.59024
G1 X57.824 Y34.744 E0.63135
G1 X57.617 Y34.385 E0.64286
G1 X56.571 Y35.432 E0.68396
G1 X56.364 Y35.073 E0.69547
G1 X57.410 Y34.027 E0.73657
G1 X57.203 Y33.668 E0.74808
G1 X56.157 Y34.714 E0.78918
G1 X55.949 Y34.355 E0.80069
G1 X56.996 Y33.309 E0.84179
G1 X56.789 Y32.950 E0.85330
G1 X55.742 Y33.996 E0.89440
G1 X55.535 Y33.637 E0.90592
G1 X56.581 Y32.591 E0.94702
G1 X56.374 Y32.232 E0.95853
G1 X55.328 Y33.278 E0.99963
G1 X55.121 Y32.920 E1.01114
G1 X56.167 Y31.873 E1.05224
G1 X55.960 Y31.514 E1.06375
G1 X54.913 Y32.561 E1.10485
G1 X54.706 Y32.202 E1.11636
G1 X55.753 Y31.156 E1.15746
G1 X55.545 Y30.797 E1.16897
G1 X54.499 Y31.843 E1.21008
G1 X54.292 Y31.484 E1.22159
G1 X55.338 Y30.438 E1.26269
G1 X55.131 Y30.079 E1.27420
G1 X54.085 Y31.125 E1.31530
G1 X53.878 Y30.766 E1.32681
G1 X54.924 Y29.720 E1.36791
G1 X54.717 Y29.361 E1.37942
G1 X53.670 Y30.408 E1.42052
G1 X53.463 Y30.049 E1.43203
G1 X54.509 Y29.002 E1.47314
G1 X54.302 Y28.644 E1.48465
G1 X53.256 Y29.690 E1.52575
G1 X53.049 Y29.331 E1.53726
G1 X54.095 Y28.285 E1.57836
G1 X53.888 Y27.926 E1.58987
G1 X52.842 Y28.972 E1.63097
G1 X52.634 Y28.613 E1.64248
G1 X53.681 Y27.567 E1.68358
G1 X53.473 Y27.208 E1.69509
G1 X52.427 Y28.254 E1.73620
G1 X52.220 Y27.895 E1.74771
G1 X53.266 Y26.849 E1.78881
G1 X53.059 Y26.490 E1.80032
G1 X52.013 Y27.537 E1.84142
G1 X51.806 Y27.178 E1.85293
G1 X52.852 Y26.131 E1.89403
G1 X52.645 Y25.773 E1.90554
G1 X51.598 Y26.819 E1.94664
G1 X51.391 Y26.460 E1.95815
G1 X52.437 Y25.414 E1.99926
G1 X52.230 Y25.055 E2.01077
G1 X51.184 Y26.101 E2.05187
G1 X50.977 Y25.742 E2.06338
G1 X52.023 Y24.696 E2.10448
G1 X51.816 Y24.337 E2.11599
G1 X50.770 Y25.383 E2.15709
G1 X50.562 Y25.025 E2.16860
G1 X51.609 Y23.978 E2.20970
G1 X51.493 Y23.777 E2.21615
G1 X50.938 Y24.083 E2.23373
G1 X50.355 Y24.666 E2.25664
G1 X50.148 Y24.307 E2.26815
G92 E0
G1 X28.762 Y23.777 F900.000
G1 F900
G1 X29.121 Y23.984 E0.01150
G1 X27.989 Y25.116 E0.05596
G1 X27.216 Y26.454 E0.09889
G1 X29.522 Y24.149 E0.18945
G1 X29.948 Y24.289 E0.20191
G1 X26.444 Y27.793 E0.33957
G1 X25.671 Y29.131 E0.38251
G1 X29.576 Y25.227 E0.53590
G1 X28.803 Y26.565 E0.57883
G1 X24.898 Y30.470 E0.73222
G1 X24.125 Y31.808 E0.77515
G1 X28.030 Y27.904 E0.92855
G1 X27.257 Y29.242 E0.97148
G1 X23.353 Y33.147 E1.12487
G1 X22.580 Y34.485 E1.16780
G1 X26.484 Y30.581 E1.32119
G1 X25.712 Y31.919 E1.36413
G1 X21.807 Y35.824 E1.51752
G1 X21.034 Y37.162 E1.56045
G1 X24.939 Y33.258 E1.71384
G1 X24.166 Y34.596 E1.75677
G1 X20.261 Y38.501 E1.91017
G1 X19.944 Y39.051 E1.92780
G1 X20.155 Y39.173 E1.93458
G1 X23.393 Y35.935 E2.06178
G1 X22.621 Y37.273 E2.10472
G1 X20.501 Y39.392 E2.18797
G1 X20.799 Y39.660 E2.19909
G1 X21.848 Y38.612 E2.24028
G1 X21.075 Y39.950 E2.28322
G92 E0
G1 X31.096 Y57.307 F900.000
G1 F900
G3 X31.221 Y57.748 I-0.618 J0.414 E0.01285
G1 X31.663 Y57.307 E0.03019
G1 X32.230 Y57.307 E0.04594
G1 X31.309 Y58.227 E0.08210
G1 X31.309 Y58.736 E0.09623
G1 X31.367 Y58.736 E0.09785
G1 X32.797 Y57.307 E0.15399
G1 X33.364 Y57.307 E0.16975
G1 X31.935 Y58.736 E0.22589
G1 X32.502 Y58.736 E0.24164
G1 X33.931 Y57.307 E0.29779
G1 X34.498 Y57.307 E0.31354
G1 X33.069 Y58.736 E0.36968
G1 X33.636 Y58.736 E0.38543
G1 X35.065 Y57.307 E0.44158
G1 X35.632 Y57.307 E0.45733
G1 X34.203 Y58.736 E0.51348
G1 X34.770 Y58.736 E0.52923
G1 X36.199 Y57.307 E0.58537
G1 X36.766 Y57.307 E0.60112
G1 X35.337 Y58.736 E0.65727
G1 X35.904 Y58.736 E0.67302
G1 X37.333 Y57.307 E0.72916
G1 X37.900 Y57.307 E0.74492
G1 X36.471 Y58.736 E0.80106
G1 X37.038 Y58.736 E0.81681
G1 X38.467 Y57.307 E0.87296
G1 X39.034 Y57.307 E0.88871
G1 X37.605 Y58.736 E0.94485
G1 X38.172 Y58.736 E0.96060
G1 X39.601 Y57.307 E1.01675
G1 X40.168 Y57.307 E1.03250
G1 X38.739 Y58.736 E1.08865
G1 X39.306 Y58.736 E1.10440
G1 X40.735 Y57.307 E1.16054
G1 X41.302 Y57.307 E1.17629
G1 X39.873 Y58.736 E1.23244
G1 X40.440 Y58.736 E1.24819
G1 X41.869 Y57.307 E1.30433
G1 X42.436 Y57.307 E1.32008
G1 X41.007 Y58.736 E1.37623
G1 X41.574 Y58.736 E1.39198
G1 X43.003 Y57.307 E1.44813
G1 X43.570 Y57.307 E1.46388
G1 X42.141 Y58.736 E1.52002
G1 X42.708 Y58.736 E1.53577
G1 X44.137 Y57.307 E1.59192
G1 X44.704 Y57.307 E1.60767
G1 X43.275 Y58.736 E1.66382
G1 X43.842 Y58.736 E1.67957
G1 X45.271 Y57.307 E1.73571
G1 X45.838 Y57.307 E1.75146
G1 X44.409 Y58.736 E1.80761
G1 X44.976 Y58.736 E1.82336
G1 X46.406 Y57.307 E1.87950
G1 X46.973 Y57.307 E1.89525
G1 X45.543 Y58.736 E1.95140
G1 X46.110 Y58.736 E1.96715
G1 X47.540 Y57.307 E2.02330
G1 X48.107 Y57.307 E2.03905
G1 X46.677 Y58.736 E2.09519
G1 X47.244 Y58.736 E2.11094
G1 X48.674 Y57.307 E2.16709
G1 X49.159 Y57.307 E2.18058
G1 X49.096 Y57.451 E2.18497
G1 X47.811 Y58.736 E2.23543
G1 X48.378 Y58.736 E2.25118
G1 X48.946 Y58.169 E2.27346
G1 X48.946 Y58.736 E2.28922
G92 E0
G1 X7.817 Y59.176 F900.000
G1 X28.916 Y59.939 F900.000
G1 F900
G1 X28.916 Y68.059 E0.22554
G1 X21.885 Y63.999 E0.45109
G1 X28.841 Y59.983 E0.67421
G1 X28.524 Y60.619 F900.000
G1 F900
G1 X28.524 Y67.379 E0.86197
G1 X22.670 Y63.999 E1.04972
G1 X28.448 Y60.663 E1.23506
G1 X29.095 Y60.519 F900.000
G92 E0
G1 X28.511 Y57.616 F900.000
G1 F900
G1 X19.670 Y62.720 E0.28358
G1 X10.674 Y57.526 E0.57213
G1 X10.674 Y47.138 E0.86069
G1 X19.515 Y42.034 E1.14427
G1 X28.468 Y57.541 E1.64165
G1 X27.975 Y57.472 F900.000
G1 F900
G1 X19.670 Y62.267 E1.90802
G1 X11.067 Y57.300 E2.18398
G1 X11.067 Y47.365 E2.45994
G1 X19.371 Y42.570 E2.72631
G1 X27.931 Y57.397 E3.20187
G1 X28.339 Y57.923 F900.000
G92 E0
G1 X28.566 Y57.997 F900.000
G1 X19.213 Y41.796 F900.000
G1 X17.848 Y41.718 F900.000
G1 X17.854 Y40.848 F900.000
G1 X17.706 Y40.521 F900.000
G1 F900
G1 X10.674 Y44.581 E0.22554
G1 X10.674 Y36.462 E0.45109
G1 X17.630 Y40.478 E0.67421
G1 X16.920 Y40.521 F900.000
G1 F900
G1 X11.067 Y43.901 E0.86197
G1 X11.067 Y37.142 E1.04972
G1 X16.845 Y40.478 E1.23506
G1 X17.422 Y40.811 F900.000
G92 E0
G1 X10.459 Y36.090 F900.000
G1 F900
G1 X19.051 Y41.050 E0.27557
G1 X19.329 Y41.283 E0.28565
G1 X29.069 Y58.152 E0.82674
G1 X29.131 Y58.510 E0.83682
G1 X29.131 Y68.430 E1.11239
G1 X10.459 Y57.650 E1.71129
G1 X10.459 Y36.177 E2.30778
G1 X10.067 Y35.410 F900.000
G1 F900
G1 X19.276 Y40.727 E2.60318
G1 X19.634 Y41.026 E2.61614
G1 X29.444 Y58.016 E3.16110
G1 X29.524 Y58.476 E3.17406
G1 X29.524 Y69.111 E3.46947
G1 X10.067 Y57.877 E4.09356
G1 X10.067 Y35.497 E4.71524
G1 X10.511 Y35.782 F900.000
G92 E0
G1 X10.852 Y44.931 F900.000
G1 F900
G1 X12.210 Y44.148 E0.04354
G1 X10.852 Y45.506 E0.09687
G1 X10.852 Y46.079 E0.11281
G1 X13.567 Y43.364 E0.21947
G1 X14.924 Y42.580 E0.26301
G1 X11.020 Y46.485 E0.41640
G1 X12.377 Y45.701 E0.45994
G1 X16.282 Y41.797 E0.61333
G1 X17.639 Y41.013 E0.65687
G1 X13.734 Y44.918 E0.81026
G1 X15.092 Y44.134 E0.85380
G1 X18.209 Y41.017 E0.97623
G1 X18.572 Y41.227 E0.98790
G1 X16.449 Y43.350 E1.07130
G1 X17.807 Y42.567 E1.11484
G1 X18.920 Y41.453 E1.15859
G3 X19.164 Y41.783 I-0.318 J0.490 E1.17014
G92 E0
G1 X28.566 Y57.997 F900.000
G1 X27.942 Y59.223 F900.000
G1 X28.738 Y59.589 F900.000
G1 F900
G1 X28.738 Y59.006 E0.01619
G1 X27.360 Y60.384 E0.07033
G1 X25.982 Y61.180 E0.11453
G1 X28.721 Y58.442 E0.22210
G2 X28.553 Y58.045 I-0.629 J0.032 E0.23422
G1 X28.509 Y58.071 E0.23564
G1 X24.604 Y61.975 E0.38904
G1 X23.226 Y62.771 E0.43323
G1 X27.131 Y58.866 E0.58663
G1 X25.753 Y59.662 E0.63082
G1 X21.848 Y63.567 E0.78422
G1 X21.670 Y63.669 E0.78993
G1 X21.349 Y63.484 E0.80024
G1 X24.375 Y60.457 E0.91913
G1 X22.997 Y61.253 E0.96333
G1 X20.979 Y63.271 E1.04259
G1 X20.610 Y63.057 E1.05444
G1 X21.619 Y62.048 E1.09407
G1 X20.241 Y62.844 E1.13827
G92 E0
G1 X40.127 Y3.212 F900.000
G1 X31.131 Y21.914 F900.000
G1 F900
G1 X31.131 Y11.705 E0.28358
G1 X40.127 Y6.511 E0.57213
G1 X49.124 Y11.705 E0.86069
G1 X49.124 Y21.914 E1.14427
G1 X31.218 Y21.914 E1.64165
G1 X31.524 Y21.521 F900.000
G1 F900
G1 X31.524 Y11.932 E1.90802
G1 X40.127 Y6.965 E2.18398
G1 X48.731 Y11.932 E2.45994
G1 X48.731 Y21.521 E2.72631
G1 X31.611 Y21.521 E3.20187
G1 X30.952 Y21.619 F900.000
G92 E0
G1 X28.916 Y21.103 F900.000
G1 F900
G1 X21.885 Y17.044 E0.22554
G1 X28.916 Y12.984 E0.45109
G1 X28.916 Y21.016 E0.67421
G1 X28.524 Y20.423 F900.000
G1 F900
G1 X22.670 Y17.044 E0.86197
G1 X28.524 Y13.664 E1.04972
G1 X28.524 Y20.336 E1.23506
G1 X28.499 Y21.003 F900.000
G92 E0
G1 X29.274 Y21.055 F900.000
G1 X30.024 Y20.618 F900.000
G1 X30.774 Y21.771 F900.000
G1 X49.481 Y21.771 F900.000
G1 X50.231 Y20.618 F900.000
G1 X51.338 Y21.103 F900.000
G1 F900
G1 X51.338 Y12.984 E0.22554
G1 X58.370 Y17.044 E0.45109
G1 X51.414 Y21.060 E0.67421
G1 X51.731 Y20.423 F900.000
G1 F900
G1 X51.731 Y13.664 E0.86197
G1 X57.585 Y17.044 E1.04972
G1 X51.806 Y20.380 E1.23506
G1 X51.229 Y20.713 F900.000
G92 E0
G1 X58.799 Y17.044 F900.000
G1 F900
G1 X50.208 Y22.004 E0.27557
G1 X49.867 Y22.129 E0.28565
G1 X30.388 Y22.129 E0.82674
G1 X30.047 Y22.004 E0.83682
G1 X21.456 Y17.044 E1.11239
G1 X40.127 Y6.263 E1.71129
G1 X58.724 Y17.000 E2.30778
G1 X59.585 Y17.044 F900.000
G1 F900
G1 X50.375 Y22.361 E2.60318
G1 X49.937 Y22.521 E2.61614
G1 X30.318 Y22.521 E3.16110
G1 X29.880 Y22.361 E3.17406
G1 X20.670 Y17.044 E3.46947
G1 X40.127 Y5.810 E4.09356
G1 X59.509 Y17.000 E4.71524
G1 X59.013 Y17.144 F900.000
G92 E0
G1 X50.945 Y21.125 F900.000
G1 F900
G1 X50.946 Y20.546 E0.01608
G1 X49.755 Y21.736 E0.06284
G1 X49.516 Y21.736 E0.06948
G1 X49.516 Y21.396 E0.07891
G1 X50.946 Y19.967 E0.13506
G1 X50.946 Y19.388 E0.15113
G1 X49.516 Y20.818 E0.20728
G1 X49.516 Y20.239 E0.22335
G1 X50.946 Y18.810 E0.27950
G1 X50.946 Y18.231 E0.29557
G1 X49.516 Y19.660 E0.35172
G1 X49.516 Y19.082 E0.36779
G1 X50.946 Y17.652 E0.42394
G1 X50.946 Y17.074 E0.44001
G1 X49.516 Y18.503 E0.49615
G1 X49.516 Y17.924 E0.51223
G1 X50.946 Y16.495 E0.56837
G1 X50.946 Y15.916 E0.58445
G1 X49.516 Y17.346 E0.64059
G1 X49.516 Y16.767 E0.65667
G1 X50.946 Y15.338 E0.71281
G1 X50.946 Y14.759 E0.72889
G1 X49.516 Y16.188 E0.78503
G1 X49.516 Y15.610 E0.80110
G1 X50.946 Y14.180 E0.85725
G1 X50.946 Y13.602 E0.87332
G1 X49.516 Y15.031 E0.92947
G1 X49.516 Y14.452 E0.94554
G1 X50.946 Y13.023 E1.00169
G1 X50.946 Y12.963 E1.00336
G1 X50.617 Y12.773 E1.01390
G1 X49.516 Y13.874 E1.05714
G1 X49.516 Y13.295 E1.07322
G1 X50.250 Y12.561 E1.10204
G1 X49.883 Y12.349 E1.11381
G1 X49.516 Y12.716 E1.12822
G1 X49.517 Y12.138 E1.14430
G92 E0
G1 X50.231 Y13.375 F900.000
G1 X50.231 Y20.618 F900.000
G1 X49.481 Y21.771 F900.000
G1 X30.774 Y21.771 F900.000
G1 X30.024 Y20.618 F900.000
G1 X30.024 Y13.375 F900.000
G1 X29.310 Y12.963 F900.000
G1 F900
G1 X29.309 Y13.530 E0.01575
G1 X30.651 Y12.188 E0.06845
G1 X30.738 Y12.138 E0.07127
G1 X30.738 Y12.667 E0.08598
G1 X29.309 Y14.096 E0.14212
G1 X29.309 Y14.663 E0.15787
G1 X30.738 Y13.234 E0.21401
G1 X30.738 Y13.801 E0.22976
G1 X29.309 Y15.230 E0.28590
G1 X29.309 Y15.797 E0.30165
G1 X30.738 Y14.368 E0.35779
G1 X30.738 Y14.934 E0.37354
G1 X29.309 Y16.364 E0.42968
G1 X29.309 Y16.930 E0.44543
G1 X30.738 Y15.501 E0.50157
G1 X30.738 Y16.068 E0.51731
G1 X29.309 Y17.497 E0.57346
G1 X29.309 Y18.064 E0.58920
G1 X30.738 Y16.635 E0.64535
G1 X30.738 Y17.202 E0.66109
G1 X29.309 Y18.631 E0.71724
G1 X29.309 Y19.198 E0.73298
G1 X30.738 Y17.768 E0.78913
G1 X30.738 Y18.335 E0.80487
G1 X29.309 Y19.764 E0.86102
G1 X29.309 Y20.331 E0.87676
G1 X30.738 Y18.902 E0.93291
G1 X30.738 Y19.469 E0.94865
G1 X29.309 Y20.898 E1.00480
G1 X29.309 Y21.124 E1.01109
G1 X29.525 Y21.249 E1.01801
G1 X30.738 Y20.035 E1.06568
G1 X30.738 Y20.602 E1.08142
G1 X29.884 Y21.456 E1.11498
G1 X30.248 Y21.659 E1.12656
G1 X30.738 Y21.169 E1.14582
G1 X30.738 Y21.736 E1.16157
G92 E0
G1 X72.438 Y59.176 F900.000
G1 X51.338 Y59.939 F900.000
G1 F900
G1 X58.370 Y63.999 E0.22554
G1 X51.338 Y68.059 E0.45109
G1 X51.338 Y60.026 E0.67421
G1 X51.731 Y60.619 F900.000
G1 F900
G1 X57.585 Y63.999 E0.86197
G1 X51.731 Y67.379 E1.04972
G1 X51.731 Y60.706 E1.23506
G1 X51.731 Y60.039 F900.000
G92 E0
G1 X51.744 Y57.616 F900.000
G1 F900
G1 X60.740 Y42.034 E0.49980
G1 X69.581 Y47.138 E0.78337
G1 X69.581 Y57.526 E1.07193
G1 X60.585 Y62.720 E1.36049
G1 X51.819 Y57.659 E1.64165
G1 X52.280 Y57.472 F900.000
G1 F900
G1 X60.884 Y42.570 E2.11963
G1 X69.188 Y47.365 E2.38600
G1 X69.188 Y57.300 E2.66196
G1 X60.585 Y62.267 E2.93792
G1 X52.355 Y57.516 E3.20187
G1 X51.734 Y57.276 F900.000
G92 E0
G1 X51.689 Y57.997 F900.000
G1 X61.042 Y41.796 F900.000
G1 X62.416 Y41.723 F900.000
G1 X62.549 Y40.521 F900.000
G1 F900
G1 X69.581 Y36.462 E0.22554
G1 X69.581 Y44.581 E0.45109
G1 X62.625 Y40.565 E0.67421
G1 X63.335 Y40.521 F900.000
G1 F900
G1 X69.188 Y37.142 E0.86197
G1 X69.188 Y43.901 E1.04972
G1 X63.410 Y40.565 E1.23506
G1 X63.837 Y40.231 F900.000
G92 E0
G1 X69.796 Y36.090 F900.000
G1 F900
G1 X69.796 Y57.650 E0.59890
G1 X51.124 Y68.430 E1.19780
G1 X51.124 Y58.510 E1.47337
G1 X51.186 Y58.152 E1.48345
G1 X60.926 Y41.283 E2.02454
G1 X61.204 Y41.050 E2.03462
G1 X69.720 Y36.133 E2.30778
G1 X70.188 Y35.410 F900.000
G1 F900
G1 X70.188 Y57.877 E2.93187
G1 X50.731 Y69.111 E3.55596
G1 X50.731 Y58.476 E3.85137
G1 X50.811 Y58.016 E3.86433
G1 X60.621 Y41.026 E4.40929
G1 X60.978 Y40.727 E4.42225
G1 X70.113 Y35.453 E4.71524
G1 X69.991 Y35.955 F900.000
G92 E0
G1 X61.232 Y41.539 F900.000
G1 F900
G1 X61.430 Y41.373 E0.00716
G1 X62.335 Y40.851 E0.03618
G1 X62.436 Y40.909 E0.03943
G1 X61.390 Y41.956 E0.08053
G1 X61.754 Y42.166 E0.09221
G1 X62.800 Y41.120 E0.13331
G1 X63.164 Y41.330 E0.14500
G1 X62.118 Y42.376 E0.18610
G1 X62.482 Y42.586 E0.19778
G1 X63.529 Y41.540 E0.23888
G1 X63.893 Y41.750 E0.25057
G1 X62.847 Y42.797 E0.29167
G1 X63.211 Y43.007 E0.30335
G1 X64.257 Y41.961 E0.34445
G1 X64.621 Y42.171 E0.35613
G1 X63.575 Y43.217 E0.39723
G1 X63.939 Y43.428 E0.40892
G1 X64.986 Y42.381 E0.45002
G1 X65.350 Y42.592 E0.46170
G1 X64.304 Y43.638 E0.50280
G1 X64.668 Y43.848 E0.51449
G1 X65.714 Y42.802 E0.55559
G1 X66.078 Y43.012 E0.56727
G1 X65.032 Y44.058 E0.60837
G1 X65.396 Y44.269 E0.62005
G1 X66.443 Y43.222 E0.66115
G1 X66.807 Y43.433 E0.67284
G1 X65.760 Y44.479 E0.71394
G1 X66.125 Y44.689 E0.72562
G1 X67.171 Y43.643 E0.76672
G1 X67.535 Y43.853 E0.77841
G1 X66.489 Y44.900 E0.81951
G1 X66.853 Y45.110 E0.83119
G1 X67.899 Y44.064 E0.87229
G1 X68.264 Y44.274 E0.88397
G1 X67.217 Y45.320 E0.92507
G1 X67.582 Y45.530 E0.93676
G1 X68.628 Y44.484 E0.97786
G1 X68.992 Y44.695 E0.98954
G1 X67.946 Y45.741 E1.03064
G1 X68.310 Y45.951 E1.04233
G1 X69.356 Y44.905 E1.08343
G1 X69.403 Y44.932 E1.08492
G1 X69.403 Y45.433 E1.09884
G1 X68.674 Y46.161 E1.12746
G1 X69.039 Y46.372 E1.13914
G1 X69.403 Y46.007 E1.15345
G1 X69.403 Y46.582 E1.16942
G92 E0
G1 X68.688 Y45.344 F900.000
G1 X62.416 Y41.723 F900.000
G1 X61.042 Y41.796 F900.000
G1 X51.689 Y57.997 F900.000
G1 X52.312 Y59.223 F900.000
G1 X58.585 Y62.844 F900.000
G1 X60.014 Y62.844 F900.000
G1 F900
G1 X59.652 Y62.636 E0.01159
G1 X58.665 Y63.623 E0.05039
G1 X58.585 Y63.669 E0.05296
G1 X58.245 Y63.473 E0.06386
G1 X59.291 Y62.427 E0.10496
G1 X58.930 Y62.218 E0.11655
G1 X57.883 Y63.265 E0.15765
G1 X57.522 Y63.056 E0.16925
G1 X58.568 Y62.010 E0.21035
G1 X58.207 Y61.801 E0.22194
G1 X57.161 Y62.847 E0.26304
G1 X56.799 Y62.639 E0.27463
G1 X57.845 Y61.592 E0.31573
G1 X57.484 Y61.384 E0.32732
G1 X56.438 Y62.430 E0.36843
G1 X56.076 Y62.221 E0.38002
G1 X57.123 Y61.175 E0.42112
G1 X56.761 Y60.966 E0.43271
G1 X55.715 Y62.013 E0.47381
G1 X55.354 Y61.804 E0.48540
G1 X56.400 Y60.758 E0.52651
G1 X56.038 Y60.549 E0.53810
G1 X54.992 Y61.595 E0.57920
G1 X54.631 Y61.387 E0.59079
G1 X55.677 Y60.340 E0.63189
G1 X55.316 Y60.132 E0.64348
G1 X54.269 Y61.178 E0.68458
G1 X53.908 Y60.969 E0.69618
G1 X54.954 Y59.923 E0.73728
G1 X54.593 Y59.714 E0.74887
G1 X53.547 Y60.761 E0.78997
G1 X53.185 Y60.552 E0.80156
G1 X54.231 Y59.506 E0.84266
G1 X53.870 Y59.297 E0.85426
G1 X52.824 Y60.343 E0.89536
G1 X52.462 Y60.135 E0.90695
G1 X53.509 Y59.088 E0.94805
G1 X53.147 Y58.880 E0.95964
G1 X52.101 Y59.926 E1.00074
G1 X51.740 Y59.717 E1.01233
G1 X52.786 Y58.671 E1.05344
G1 X52.424 Y58.462 E1.06503
G1 X51.516 Y59.370 E1.10070
G1 X51.516 Y58.800 E1.11653
G1 X52.063 Y58.254 E1.13800
G1 X51.702 Y58.045 E1.14960
G1 Z-149.000 F900.000
G92 E0
G1 X40.127 Y77.831 F900.000
G1 X49.124 Y59.129 F900.000
G1 F900
G1 X49.124 Y69.337 E0.28358
G1 X40.127 Y74.531 E0.57213
G1 X31.131 Y69.337 E0.86069
G1 X31.131 Y59.129 E1.14427
G1 X49.037 Y59.129 E1.64165
G1 X48.731 Y59.521 F900.000
G1 F900
G1 X48.731 Y69.111 E1.90802
G1 X40.127 Y74.078 E2.18398
G1 X31.524 Y69.111 E2.45994
G1 X31.524 Y59.521 E2.72631
G1 X48.644 Y59.521 E3.20187
G1 X49.303 Y59.423 F900.000
G1 X49.338 Y58.914 F900.000
G1 F900
G1 X49.338 Y69.461 E3.49485
G1 X40.127 Y74.779 E3.79029
G1 X30.916 Y69.461 E4.08573
G1 X30.916 Y58.914 E4.37871
G1 X49.251 Y58.914 E4.88801
G1 X49.731 Y58.521 F900.000
G1 F900
G1 X49.731 Y69.688 E5.19820
G1 X40.127 Y75.233 E5.50624
G1 X30.524 Y69.688 E5.81427
G1 X30.524 Y58.521 E6.12446
G1 X49.644 Y58.521 E6.65558
G1 X49.533 Y59.067 F900.000
G92 E0
G1 X51.981 Y70.987 F900.000
G1 X51.338 Y59.939 F900.000
G1 F900
G1 X58.370 Y63.999 E0.22554
G1 X51.338 Y68.059 E0.45109
G1 X51.338 Y60.026 E0.67421
G1 X51.731 Y60.619 F900.000
G1 F900
G1 X57.585 Y63.999 E0.86197
G1 X51.731 Y67.379 E1.04972
G1 X51.731 Y60.706 E1.23506
G1 X51.731 Y60.039 F900.000
G1 X51.124 Y59.567 F900.000
G1 F900
G1 X58.799 Y63.999 E1.48125
G1 X51.124 Y68.430 E1.72745
G1 X51.124 Y59.654 E1.97122
G1 X50.731 Y58.887 F900.000
G1 F900
G1 X59.585 Y63.999 E2.25520
G1 X50.731 Y69.111 E2.53918
G1 X50.731 Y58.974 E2.82075
G1 X50.229 Y59.177 F900.000
G1 X51.744 Y57.616 F900.000
G1 F900
G1 X60.740 Y42.034 E3.32054
G1 X69.581 Y47.138 E3.60412
G1 X69.581 Y57.526 E3.89268
G1 X60.585 Y62.720 E4.18123
G1 X51.819 Y57.659 E4.46239
G1 X52.280 Y57.472 F900.000
G1 F900
G1 X60.884 Y42.570 E4.94037
G1 X69.188 Y47.365 E5.20674
G1 X69.188 Y57.300 E5.48270
G1 X60.585 Y62.267 E5.75867
G1 X52.355 Y57.516 E6.02262
G1 X51.734 Y57.276 F900.000
G1 X51.450 Y57.695 F900.000
G1 F900
G1 X60.661 Y41.741 E6.53434
G1 X69.796 Y47.014 E6.82732
G1 X69.796 Y57.650 E7.12276
G1 X60.585 Y62.968 E7.41820
G1 X51.526 Y57.738 E7.70876
G1 X50.914 Y57.838 F900.000
G1 F900
G1 X60.518 Y41.204 E8.24230
G1 X70.188 Y46.788 E8.55248
G1 X70.188 Y57.877 E8.86052
G1 X60.585 Y63.422 E9.16855
G1 X50.989 Y57.882 E9.47632
G1 X51.359 Y57.466 F900.000
G92 E0
G1 X7.817 Y21.867 F900.000
G1 X62.549 Y40.521 F900.000
G1 F900
G1 X69.581 Y36.462 E0.22554
G1 X69.581 Y44.581 E0.45109
G1 X62.625 Y40.565 E0.67421
G1 X63.335 Y40.521 F900.000
G1 F900
G1 X69.188 Y37.142 E0.86197
G1 X69.188 Y43.901 E1.04972
G3 X62.832 Y40.231 I4968.185 J-8611.640 E1.23506
G1 X62.120 Y40.521 F900.000
G1 F900
G1 X69.796 Y36.090 E1.48125
G1 X69.796 Y44.953 E1.72745
G1 X62.195 Y40.565 E1.97122
G1 X61.335 Y40.521 F900.000
G1 F900
G1 X70.188 Y35.410 E2.25520
G1 X70.188 Y45.633 E2.53918
G1 X61.410 Y40.565 E2.82075
G1 X61.335 Y41.101 F900.000
G1 X60.740 Y39.009 F900.000
G1 F900
G1 X51.744 Y23.427 E3.32054
G1 X60.585 Y18.322 E3.60412
G1 X69.581 Y23.516 E3.89268
G1 X69.581 Y33.904 E4.18123
G1 X60.815 Y38.965 E4.46239
G1 X60.884 Y38.472 F900.000
G1 F900
G1 X52.280 Y23.570 E4.94037
G1 X60.585 Y18.776 E5.20674
G1 X69.188 Y23.743 E5.48270
G1 X69.188 Y33.678 E5.75867
G1 X60.959 Y38.429 E6.02262
G1 X60.441 Y38.847 F900.000
G1 X60.661 Y39.302 F900.000
G1 F900
G1 X51.450 Y23.348 E6.53434
G1 X60.585 Y18.074 E6.82732
G1 X69.796 Y23.392 E7.12276
G1 X69.796 Y34.028 E7.41820
G1 X60.737 Y39.258 E7.70876
G1 X60.518 Y39.838 F900.000
G1 F900
G1 X50.914 Y23.204 E8.24229
G1 X60.585 Y17.621 E8.55248
G1 X70.188 Y23.166 E8.86052
G1 X70.188 Y34.255 E9.16855
G1 X60.593 Y39.795 E9.47632
G1 X60.417 Y39.267 F900.000
G92 E0
G1 X58.684 Y13.925 F900.000
G1 X51.338 Y21.103 F900.000
G1 F900
G1 X51.338 Y12.984 E0.22554
G1 X58.370 Y17.044 E0.45109
G1 X51.414 Y21.060 E0.67421
G1 X51.731 Y20.423 F900.000
G1 F900
G1 X51.731 Y13.664 E0.86197
G1 X57.585 Y17.044 E1.04972
G1 X51.806 Y20.380 E1.23506
G1 X51.229 Y20.713 F900.000
G1 X51.124 Y21.475 F900.000
G1 F900
G1 X51.124 Y12.612 E1.48125
G1 X58.799 Y17.044 E1.72745
G1 X51.199 Y21.432 E1.97122
G1 X50.731 Y22.155 F900.000
G1 F900
G1 X50.731 Y11.932 E2.25520
G1 X59.585 Y17.044 E2.53918
G1 X50.806 Y22.112 E2.82075
G1 X50.889 Y21.597 F900.000
G1 X49.124 Y21.914 F900.000
G1 F900
G1 X31.131 Y21.914 E3.32054
G1 X31.131 Y11.705 E3.60412
G1 X40.127 Y6.511 E3.89268
G1 X49.124 Y11.705 E4.18123
G1 X49.124 Y21.827 E4.46239
G1 X48.731 Y21.521 F900.000
G1 F900
G1 X31.524 Y21.521 E4.94037
G1 X31.524 Y11.932 E5.20674
G1 X40.127 Y6.965 E5.48270
G1 X48.731 Y11.932 E5.75867
G1 X48.731 Y21.434 E6.02262
G1 X48.834 Y22.092 F900.000
G1 X49.338 Y22.129 F900.000
G1 F900
G1 X30.916 Y22.129 E6.53434
G1 X30.916 Y11.581 E6.82732
G1 X40.127 Y6.263 E7.12276
G1 X49.338 Y11.581 E7.41820
G1 X49.338 Y22.042 E7.70876
G1 X49.731 Y22.521 F900.000
G1 F900
G1 X30.524 Y22.521 E8.24230
G1 X30.524 Y11.355 E8.55248
G1 X40.127 Y5.810 E8.86052
G1 X49.731 Y11.355 E9.16855
G1 X49.731 Y22.434 E9.47632
G1 X49.222 Y22.244 F900.000
G92 E0
G1 X28.274 Y10.056 F900.000
G1 X28.916 Y21.103 F900.000
G1 F900
G1 X21.885 Y17.044 E0.22554
G1 X28.916 Y12.984 E0.45109
G1 X28.916 Y21.016 E0.67421
G1 X28.524 Y20.423 F900.000
G1 F900
G1 X22.670 Y17.044 E0.86197
G1 X28.524 Y13.664 E1.04972
G1 X28.524 Y20.336 E1.23506
G1 X28.470 Y21.001 F900.000
G1 X29.131 Y21.475 F900.000
G1 F900
G1 X21.456 Y17.044 E1.48125
G1 X29.131 Y12.612 E1.72745
G1 X29.131 Y21.388 E1.97122
G1 X29.524 Y22.155 F900.000
G1 F900
G1 X20.670 Y17.044 E2.25520
G1 X29.524 Y11.932 E2.53918
G1 X29.524 Y22.068 E2.82075
G1 X30.026 Y21.865 F900.000
G1 X28.511 Y23.427 F900.000
G1 F900
G1 X19.515 Y39.009 E3.32054
G1 X10.674 Y33.904 E3.60412
G1 X10.674 Y23.516 E3.89268
G1 X19.670 Y18.322 E4.18123
G1 X28.436 Y23.383 E4.46239
G1 X27.975 Y23.570 F900.000
G1 F900
G1 X19.371 Y38.472 E4.94037
G1 X11.067 Y33.678 E5.20674
G1 X11.067 Y23.743 E5.48270
G1 X19.670 Y18.776 E5.75867
G1 X27.899 Y23.527 E6.02262
G1 X28.515 Y23.782 F900.000
G1 X28.804 Y23.348 F900.000
G1 F900
G1 X19.593 Y39.302 E6.53434
G1 X10.459 Y34.028 E6.82732
G1 X10.459 Y23.392 E7.12276
G1 X19.670 Y18.074 E7.41820
G1 X28.729 Y23.305 E7.70876
G1 X29.341 Y23.204 F900.000
G1 F900
G1 X19.737 Y39.838 E8.24230
G1 X10.067 Y34.255 E8.55248
G1 X10.067 Y23.166 E8.86052
G1 X19.670 Y17.621 E9.16855
G1 X29.265 Y23.161 E9.47632
G1 X28.838 Y23.494 F900.000
G92 E0
G1 X72.438 Y59.176 F900.000
G1 X17.706 Y40.521 F900.000
G1 F900
G1 X10.674 Y44.581 E0.22554
G1 X10.674 Y36.462 E0.45109
G1 X17.630 Y40.478 E0.67421
G1 X16.920 Y40.521 F900.000
G1 F900
G1 X11.067 Y43.901 E0.86197
G1 X11.067 Y37.142 E1.04972
G1 X16.845 Y40.478 E1.23506
G1 X17.422 Y40.811 F900.000
G1 X17.898 Y40.385 F900.000
G1 F900
G1 X18.135 Y40.521 E1.24264
G1 X10.459 Y44.953 E1.48884
G1 X10.459 Y36.090 E1.73503
G1 X17.823 Y40.341 E1.97122
G1 X18.920 Y40.521 F900.000
G1 F900
G1 X10.067 Y45.633 E2.25520
G1 X10.067 Y35.410 E2.53918
G1 X18.845 Y40.478 E2.82075
G1 X18.349 Y40.622 F900.000
G1 X19.515 Y42.034 F900.000
G1 F900
G1 X28.511 Y57.616 E3.32054
G1 X19.670 Y62.720 E3.60412
G1 X10.674 Y57.526 E3.89268
G1 X10.674 Y47.138 E4.18123
G1 X19.440 Y42.077 E4.46239
G1 X19.371 Y42.570 F900.000
G1 F900
G1 X27.975 Y57.472 E4.94037
G1 X19.670 Y62.267 E5.20674
G1 X11.067 Y57.300 E5.48270
G1 X11.067 Y47.365 E5.75867
G2 X19.873 Y42.280 I-2245.444 J-3898.737 E6.02262
G1 X19.593 Y41.741 F900.000
G1 F900
G1 X28.804 Y57.695 E6.53434
G1 X19.670 Y62.968 E6.82732
G1 X10.459 Y57.650 E7.12276
G1 X10.459 Y47.014 E7.41820
G1 X19.518 Y41.784 E7.70876
G1 X19.737 Y41.204 F900.000
G1 F900
G1 X29.341 Y57.838 E8.24230
G1 X19.670 Y63.422 E8.55248
G1 X10.067 Y57.877 E8.86052
G1 X10.067 Y46.788 E9.16855
G1 X19.662 Y41.248 E9.47632
G1 X19.837 Y41.776 F900.000
G92 E0
G1 X28.274 Y70.987 F900.000
G1 X28.916 Y59.939 F900.000
G1 F900
G1 X28.916 Y68.059 E0.22554
G1 X21.885 Y63.999 E0.45109
G1 X28.841 Y59.983 E0.67421
G1 X28.524 Y60.619 F900.000
G1 F900
G1 X28.524 Y67.379 E0.86197
G1 X22.670 Y63.999 E1.04972
G1 X28.448 Y60.663 E1.23506
G1 X29.095 Y60.519 F900.000
G1 X29.131 Y59.567 F900.000
G1 F900
G1 X29.131 Y68.430 E1.48125
G1 X21.456 Y63.999 E1.72745
G1 X29.056 Y59.611 E1.97122
G1 X29.524 Y58.887 F900.000
G1 F900
G1 X29.524 Y69.111 E2.25520
G1 X20.670 Y63.999 E2.53918
G1 X29.448 Y58.931 E2.82075
G1 X29.021 Y58.597 F900.000
G92 E0
G1 X40.127 Y3.212 F900.000
G1 X30.663 Y56.914 F900.000
G1 F900
G1 X21.199 Y40.521 E0.52580
G1 X30.663 Y24.129 E1.05159
G1 X49.592 Y24.129 E1.57739
G1 X59.056 Y40.521 E2.10318
G1 X49.592 Y56.914 E2.62898
G1 X30.750 Y56.914 E3.15236
G1 X30.890 Y56.521 F900.000
G1 F900
G1 X21.652 Y40.521 E3.66556
G1 X30.890 Y24.521 E4.17876
G1 X49.365 Y24.521 E4.69196
G1 X58.603 Y40.521 E5.20516
G1 X49.365 Y56.521 E5.71836
G1 X30.977 Y56.521 E6.22914
G1 X30.388 Y56.811 F900.000
G1 X30.539 Y57.129 F900.000
G1 F900
G1 X20.951 Y40.521 E6.76182
G1 X30.539 Y23.914 E7.29450
G1 X49.716 Y23.914 E7.82718
G1 X59.304 Y40.521 E8.35986
G1 X49.716 Y57.129 E8.89254
G1 X30.626 Y57.129 E9.42280
G1 X30.312 Y57.521 F900.000
G1 F900
G1 X20.498 Y40.521 E9.96808
G1 X30.312 Y23.521 E10.51336
G1 X49.942 Y23.521 E11.05863
G1 X59.757 Y40.521 E11.60391
G1 X49.942 Y57.521 E12.14918
G1 X30.399 Y57.521 E12.69204
G1 X30.312 Y56.941 F900.000
G1 Z-148.500 F900.000
G1 X31.131 Y59.129 F900.000
G1 F900
G1 X49.124 Y59.129 E13.19184
G1 X49.124 Y69.337 E13.47541
G1 X40.127 Y74.531 E13.76397
G1 X31.131 Y69.337 E14.05253
G1 X31.131 Y59.216 E14.33369
G1 X31.524 Y59.521 F900.000
G1 F900
G1 X48.731 Y59.521 E14.81167
G1 X48.731 Y69.111 E15.07804
G1 X40.127 Y74.078 E15.35400
G1 X31.524 Y69.111 E15.62996
G1 X31.524 Y59.608 E15.89391
G1 X31.421 Y58.950 F900.000
G1 X30.916 Y58.914 F900.000
G1 F900
G1 X49.338 Y58.914 E16.40563
G1 X49.338 Y69.461 E16.69861
G1 X40.127 Y74.779 E16.99405
G1 X30.916 Y69.461 E17.28949
G1 X30.916 Y59.001 E17.58005
G1 X30.524 Y58.521 F900.000
G1 F900
G1 X49.731 Y58.521 E18.11359
G1 X49.731 Y69.688 E18.42377
G1 X40.127 Y75.233 E18.73181
G1 X30.524 Y69.688 E19.03985
G1 X30.524 Y58.608 E19.34761
G1 X31.069 Y58.720 F900.000
G92 E0
G1 X28.274 Y70.987 F900.000
G1 X28.916 Y59.939 F900.000
G1 F900
G1 X28.916 Y68.059 E0.22554
G1 X21.885 Y63.999 E0.45109
G1 X28.841 Y59.983 E0.67421
G1 X28.524 Y60.619 F900.000
G1 F900
G1 X28.524 Y67.379 E0.86197
G1 X22.670 Y63.999 E1.04972
G1 X28.448 Y60.663 E1.23506
G1 X29.095 Y60.519 F900.000
G1 X29.131 Y59.567 F900.000
G1 F900
G1 X29.131 Y68.430 E1.48125
G1 X21.456 Y63.999 E1.72745
G1 X29.056 Y59.611 E1.97122
G1 X29.524 Y58.887 F900.000
G1 F900
G1 X29.524 Y69.111 E2.25520
G1 X20.670 Y63.999 E2.53918
G1 X29.448 Y58.931 E2.82075
G1 X29.021 Y58.597 F900.000
G1 X28.511 Y57.616 F900.000
G1 F900
G1 X19.670 Y62.720 E3.10432
G1 X10.674 Y57.526 E3.39288
G1 X10.674 Y47.138 E3.68144
G1 X19.515 Y42.034 E3.96501
G1 X28.468 Y57.541 E4.46239
G1 X27.975 Y57.472 F900.000
G1 F900
G1 X19.670 Y62.267 E4.72876
G1 X11.067 Y57.300 E5.00473
G1 X11.067 Y47.365 E5.28069
G1 X19.371 Y42.570 E5.54706
G1 X27.931 Y57.397 E6.02262
G1 X28.316 Y57.941 F900.000
G1 X28.804 Y57.695 F900.000
G1 F900
G1 X19.670 Y62.968 E6.31560
G1 X10.459 Y57.650 E6.61104
G1 X10.459 Y47.014 E6.90648
G1 X19.593 Y41.741 E7.19946
G1 X28.761 Y57.619 E7.70876
G1 X29.341 Y57.838 F900.000
G1 F900
G1 X19.670 Y63.422 E8.01895
G1 X10.067 Y57.877 E8.32698
G1 X10.067 Y46.788 E8.63502
G1 X19.737 Y41.204 E8.94520
G1 X29.297 Y57.763 E9.47632
G1 X28.761 Y57.838 F900.000
G92 E0
G1 X72.438 Y21.867 F900.000
G1 X17.706 Y40.521 F900.000
G1 F900
G1 X10.674 Y44.581 E0.22554
G1 X10.674 Y36.462 E0.45109
G1 X17.630 Y40.478 E0.67421
G1 X16.920 Y40.521 F900.000
G1 F900
G1 X11.067 Y43.901 E0.86197
G1 X11.067 Y37.142 E1.04972
G1 X16.845 Y40.478 E1.23506
G1 X17.422 Y40.811 F900.000
G1 X18.135 Y40.521 F900.000
G1 F900
G1 X10.459 Y44.953 E1.48125
G1 X10.459 Y36.090 E1.72745
G1 X18.059 Y40.478 E1.97122
G1 X18.920 Y40.521 F900.000
G1 F900
G1 X10.067 Y45.633 E2.25520
G1 X10.067 Y35.410 E2.53918
G1 X18.845 Y40.478 E2.82075
G1 X18.349 Y40.622 F900.000
G1 X19.515 Y39.009 F900.000
G1 F900
G1 X10.674 Y33.904 E3.10432
G1 X10.674 Y23.516 E3.39288
G1 X19.670 Y18.322 E3.68144
G1 X28.511 Y23.427 E3.96501
G1 X19.558 Y38.933 E4.46239
G1 X19.371 Y38.472 F900.000
G1 F900
G1 X11.067 Y33.678 E4.72876
G1 X11.067 Y23.743 E5.00472
G1 X19.670 Y18.776 E5.28069
G1 X27.975 Y23.570 E5.54706
G1 X19.415 Y38.397 E6.02262
G1 X19.170 Y39.016 F900.000
G1 X19.593 Y39.302 F900.000
G1 F900
G1 X10.459 Y34.028 E6.31560
G1 X10.459 Y23.392 E6.61104
G1 X19.670 Y18.074 E6.90648
G1 X28.804 Y23.348 E7.19946
G1 X19.637 Y39.226 E7.70876
G1 X19.737 Y39.838 F900.000
G1 F900
G1 X10.067 Y34.255 E8.01894
G1 X10.067 Y23.166 E8.32698
G1 X19.670 Y17.621 E8.63502
G1 X29.341 Y23.204 E8.94520
G1 X19.781 Y39.763 E9.47632
G1 X19.413 Y39.357 F900.000
G92 E0
G1 X19.670 Y15.023 F900.000
G1 X28.916 Y21.103 F900.000
G1 F900
G1 X21.885 Y17.044 E0.22554
G1 X28.916 Y12.984 E0.45109
G1 X28.916 Y21.016 E0.67421
G1 X28.524 Y20.423 F900.000
G1 F900
G1 X22.670 Y17.044 E0.86197
G1 X28.524 Y13.664 E1.04972
G1 X28.524 Y20.336 E1.23506
G1 X28.439 Y20.997 F900.000
G1 X29.131 Y21.475 F900.000
G1 F900
G1 X21.456 Y17.044 E1.48125
G1 X29.131 Y12.612 E1.72745
G1 X29.131 Y21.388 E1.97122
G1 X29.524 Y22.155 F900.000
G1 F900
G1 X20.670 Y17.044 E2.25520
G1 X29.524 Y11.932 E2.53918
G1 X29.524 Y22.068 E2.82075
G1 X30.026 Y21.865 F900.000
G1 X31.131 Y21.914 F900.000
G1 F900
G1 X31.131 Y11.705 E3.10432
G1 X40.127 Y6.511 E3.39288
G1 X49.124 Y11.705 E3.68144
G1 X49.124 Y21.914 E3.96501
G1 X31.218 Y21.914 E4.46239
G1 X31.524 Y21.521 F900.000
G1 F900
G1 X31.524 Y11.932 E4.72876
G1 X40.127 Y6.965 E5.00472
G1 X48.731 Y11.932 E5.28069
G1 X48.731 Y21.521 E5.54706
G1 X31.611 Y21.521 E6.02262
G1 X30.952 Y21.619 F900.000
G1 X30.916 Y22.129 F900.000
G1 F900
G1 X30.916 Y11.581 E6.31560
G1 X40.127 Y6.263 E6.61104
G1 X49.338 Y11.581 E6.90648
G1 X49.338 Y22.129 E7.19946
G1 X31.003 Y22.129 E7.70876
G1 X30.524 Y22.521 F900.000
G1 F900
G1 X30.524 Y11.355 E8.01895
G1 X40.127 Y5.810 E8.32698
G1 X49.731 Y11.355 E8.63502
G1 X49.731 Y22.521 E8.94520
G1 X30.611 Y22.521 E9.47632
G1 X30.722 Y21.976 F900.000
G92 E0
G1 X51.981 Y10.056 F900.000
G1 X51.338 Y21.103 F900.000
G1 F900
G1 X51.338 Y12.984 E0.22554
G1 X58.370 Y17.044 E0.45109
G1 X51.414 Y21.060 E0.67421
G1 X51.731 Y20.423 F900.000
G1 F900
G1 X51.731 Y13.664 E0.86197
G1 X57.585 Y17.044 E1.04972
G1 X51.806 Y20.380 E1.23506
G1 X51.229 Y20.713 F900.000
G1 X51.124 Y21.475 F900.000
G1 F900
G1 X51.124 Y12.612 E1.48125
G1 X58.799 Y17.044 E1.72745
G1 X51.199 Y21.432 E1.97122
G1 X50.731 Y22.155 F900.000
G1 F900
G1 X50.731 Y11.932 E2.25520
G1 X59.585 Y17.044 E2.53918
G1 X50.806 Y22.112 E2.82075
G1 X50.851 Y21.588 F900.000
G1 X51.744 Y23.427 F900.000
G1 F900
G1 X60.585 Y18.322 E3.10432
G1 X69.581 Y23.516 E3.39288
G1 X69.581 Y33.904 E3.68144
G1 X60.740 Y39.009 E3.96501
G1 X51.787 Y23.502 E4.46239
G1 X52.280 Y23.570 F900.000
G1 F900
G1 X60.585 Y18.776 E4.72876
G1 X69.188 Y23.743 E5.00473
G1 X69.188 Y33.678 E5.28069
G1 X60.884 Y38.472 E5.54706
G1 X52.324 Y23.646 E6.02262
G1 X51.910 Y23.124 F900.000
G1 X51.450 Y23.348 F900.000
G1 F900
G1 X60.585 Y18.074 E6.31560
G1 X69.796 Y23.392 E6.61104
G1 X69.796 Y34.028 E6.90648
G1 X60.661 Y39.302 E7.19946
G1 X51.494 Y23.423 E7.70876
G1 X50.914 Y23.204 F900.000
G1 F900
G1 X60.585 Y17.621 E8.01895
G1 X70.188 Y23.166 E8.32698
G1 X70.188 Y34.255 E8.63502
G1 X60.518 Y39.838 E8.94520
G1 X50.958 Y23.280 E9.47632
G1 X51.485 Y23.103 F900.000
G92 E0
G1 X7.817 Y59.176 F900.000
G1 X62.549 Y40.521 F900.000
G1 F900
G1 X69.581 Y36.462 E0.22554
G1 X69.581 Y44.581 E0.45109
G1 X62.625 Y40.565 E0.67421
G1 X63.335 Y40.521 F900.000
G1 F900
G1 X69.188 Y37.142 E0.86197
G1 X69.188 Y43.901 E1.04972
G3 X62.832 Y40.231 I4968.185 J-8611.640 E1.23506
G1 X62.120 Y40.521 F900.000
G1 F900
G1 X69.796 Y36.090 E1.48125
G1 X69.796 Y44.953 E1.72745
G1 X62.195 Y40.565 E1.97122
G1 X61.335 Y40.521 F900.000
G1 F900
G1 X70.188 Y35.410 E2.25520
G1 X70.188 Y45.633 E2.53918
G1 X61.410 Y40.565 E2.82075
G1 X61.335 Y41.101 F900.000
G1 X60.740 Y42.034 F900.000
G1 F900
G1 X69.581 Y47.138 E3.10432
G1 X69.581 Y57.526 E3.39288
G1 X60.585 Y62.720 E3.68144
G1 X51.744 Y57.616 E3.96501
G1 X60.696 Y42.109 E4.46239
G1 X60.884 Y42.570 F900.000
G1 F900
G1 X69.188 Y47.365 E4.72876
G1 X69.188 Y57.300 E5.00472
G1 X60.585 Y62.267 E5.28069
G1 X52.280 Y57.472 E5.54706
G1 X60.840 Y42.646 E6.02262
G1 X61.174 Y42.068 F900.000
G1 X60.661 Y41.741 F900.000
G1 F900
G1 X69.796 Y47.014 E6.31560
G1 X69.796 Y57.650 E6.61104
G1 X60.585 Y62.968 E6.90648
G1 X51.450 Y57.695 E7.19946
G1 X60.618 Y41.816 E7.70876
G1 X60.518 Y41.204 F900.000
G1 F900
G1 X70.188 Y46.788 E8.01895
G1 X70.188 Y57.877 E8.32698
G1 X60.585 Y63.422 E8.63502
G1 X50.914 Y57.838 E8.94520
G1 X60.474 Y41.280 E9.47632
G1 X60.891 Y41.648 F900.000
G92 E0
G1 X60.585 Y66.020 F900.000
G1 X51.338 Y59.939 F900.000
G1 F900
G1 X58.370 Y63.999 E0.22554
G1 X51.338 Y68.059 E0.45109
G1 X51.338 Y60.026 E0.67421
G1 X51.731 Y60.619 F900.000
G1 F900
G1 X57.585 Y63.999 E0.86197
G1 X51.731 Y67.379 E1.04972
G1 X51.731 Y60.706 E1.23506
G1 X51.731 Y60.039 F900.000
G1 X51.124 Y59.567 F900.000
G1 F900
G1 X58.799 Y63.999 E1.48125
G1 X51.124 Y68.430 E1.72745
G1 X51.124 Y59.654 E1.97122
G1 X50.731 Y58.887 F900.000
G1 F900
G1 X59.585 Y63.999 E2.25520
G1 X50.731 Y69.111 E2.53918
G1 X50.731 Y58.974 E2.82075
G1 X51.233 Y59.177 F900.000
G92 E0
G1 X7.817 Y21.867 F900.000
G1 X49.592 Y56.914 F900.000
G1 F900
G1 X30.663 Y56.914 E0.52580
G1 X26.689 Y50.030 E0.74660
G1 X21.199 Y40.521 E1.05159
G1 X30.663 Y24.129 E1.57739
G1 X49.592 Y24.129 E2.10318
G1 X59.056 Y40.521 E2.62898
G1 X49.635 Y56.839 E3.15236
G1 X49.365 Y56.521 F900.000
G1 F900
G1 X30.890 Y56.521 E3.66556
G1 X27.029 Y49.834 E3.88006
G1 X21.652 Y40.521 E4.17876
G1 X30.890 Y24.521 E4.69196
G1 X49.365 Y24.521 E5.20516
G1 X58.603 Y40.521 E5.71836
G1 X49.409 Y56.446 E6.22914
G1 X49.365 Y57.101 F900.000
G1 X49.716 Y57.129 F900.000
G1 F900
G1 X30.539 Y57.129 E6.76182
G1 X20.951 Y40.521 E7.29450
G1 X30.539 Y23.914 E7.82718
G1 X49.716 Y23.914 E8.35986
G1 X59.304 Y40.521 E8.89254
G1 X49.759 Y57.053 E9.42280
G1 X49.942 Y57.521 F900.000
G1 F900
G1 X30.312 Y57.521 E9.96808
G1 X20.498 Y40.521 E10.51336
G1 X30.312 Y23.521 E11.05863
G1 X49.942 Y23.521 E11.60391
G1 X59.757 Y40.521 E12.14918
G1 X49.986 Y57.446 E12.69204
G1 X49.450 Y57.215 F900.000
G1 Z-148.000 F900.000
G1 X49.124 Y59.129 F900.000
G1 F900
G1 X49.124 Y69.337 E12.97562
G1 X40.127 Y74.531 E13.26417
G1 X31.131 Y69.337 E13.55273
G1 X31.131 Y59.129 E13.83631
G1 X49.037 Y59.129 E14.33369
G1 X48.731 Y59.521 F900.000
G1 F900
G1 X48.731 Y69.111 E14.60006
G1 X40.127 Y74.078 E14.87602
G1 X31.524 Y69.111 E15.15198
G1 X31.524 Y59.521 E15.41835
G1 X48.644 Y59.521 E15.89391
G1 X49.303 Y59.423 F900.000
G1 X49.338 Y58.914 F900.000
G1 F900
G1 X49.338 Y69.461 E16.18689
G1 X40.127 Y74.779 E16.48233
G1 X30.916 Y69.461 E16.77777
G1 X30.916 Y58.914 E17.07075
G1 X49.251 Y58.914 E17.58005
G1 X49.731 Y58.521 F900.000
G1 F900
G1 X49.731 Y69.688 E17.89024
G1 X40.127 Y75.233 E18.19827
G1 X30.524 Y69.688 E18.50631
G1 X30.524 Y58.521 E18.81650
G1 X49.644 Y58.521 E19.34761
G1 X49.533 Y59.067 F900.000
G92 E0
G1 X28.274 Y70.987 F900.000
G1 X28.916 Y59.939 F900.000
G1 F900
G1 X28.916 Y68.059 E0.22554
G1 X21.885 Y63.999 E0.45109
G1 X28.841 Y59.983 E0.67421
G1 X28.524 Y60.619 F900.000
G1 F900
G1 X28.524 Y67.379 E0.86197
G1 X22.670 Y63.999 E1.04972
G1 X28.448 Y60.663 E1.23506
G1 X29.095 Y60.519 F900.000
G1 X29.131 Y59.567 F900.000
G1 F900
G1 X29.131 Y68.430 E1.48125
G1 X21.456 Y63.999 E1.72745
G1 X29.056 Y59.611 E1.97122
G1 X29.524 Y58.887 F900.000
G1 F900
G1 X29.524 Y69.111 E2.25520
G1 X20.670 Y63.999 E2.53918
G1 X29.448 Y58.931 E2.82075
G1 X29.021 Y58.597 F900.000
G1 X28.511 Y57.616 F900.000
G1 F900
G1 X19.670 Y62.720 E3.10432
G1 X10.674 Y57.526 E3.39288
G1 X10.674 Y47.138 E3.68144
G1 X19.515 Y42.034 E3.96501
G1 X28.468 Y57.541 E4.46239
G1 X27.975 Y57.472 F900.000
G1 F900
G1 X19.670 Y62.267 E4.72876
G1 X11.067 Y57.300 E5.00473
G1 X11.067 Y47.365 E5.28069
G1 X19.371 Y42.570 E5.54706
G1 X27.931 Y57.397 E6.02262
G1 X28.303 Y57.951 F900.000
G1 X28.804 Y57.695 F900.000
G1 F900
G1 X19.670 Y62.968 E6.31560
G1 X10.459 Y57.650 E6.61104
G1 X10.459 Y47.014 E6.90648
G1 X19.593 Y41.741 E7.19946
G1 X28.761 Y57.619 E7.70876
G1 X29.341 Y57.838 F900.000
G1 F900
G1 X19.670 Y63.422 E8.01895
G1 X10.067 Y57.877 E8.32698
G1 X10.067 Y46.788 E8.63502
G1 X19.737 Y41.204 E8.94520
G1 X29.297 Y57.763 E9.47632
G1 X28.770 Y57.940 F900.000
G92 E0
G1 X7.817 Y45.489 F900.000
G1 X17.706 Y40.521 F900.000
G1 F900
G1 X10.674 Y44.581 E0.22554
G1 X10.674 Y36.462 E0.45109
G1 X17.630 Y40.478 E0.67421
G1 X16.920 Y40.521 F900.000
G1 F900
G1 X11.067 Y43.901 E0.86197
G1 X11.067 Y37.142 E1.04972
G1 X16.845 Y40.478 E1.23506
G1 X17.422 Y40.811 F900.000
G1 X18.135 Y40.521 F900.000
G1 F900
G1 X10.459 Y44.953 E1.48125
G1 X10.459 Y36.090 E1.72745
G1 X18.059 Y40.478 E1.97122
G1 X18.920 Y40.521 F900.000
G1 F900
G1 X10.067 Y45.633 E2.25520
G1 X10.067 Y35.410 E2.53918
G1 X18.845 Y40.478 E2.82075
G1 X18.349 Y40.622 F900.000
G1 X19.515 Y39.009 F900.000
G1 F900
G1 X10.674 Y33.904 E3.10432
G1 X10.674 Y23.516 E3.39288
G1 X19.670 Y18.322 E3.68144
G1 X28.511 Y23.427 E3.96501
G1 X19.558 Y38.933 E4.46239
G1 X19.371 Y38.472 F900.000
G1 F900
G1 X11.067 Y33.678 E4.72876
G1 X11.067 Y23.743 E5.00472
G1 X19.670 Y18.776 E5.28069
G1 X27.975 Y23.570 E5.54706
G1 X19.415 Y38.397 E6.02262
G1 X19.170 Y39.016 F900.000
G1 X19.593 Y39.302 F900.000
G1 F900
G1 X10.459 Y34.028 E6.31560
G1 X10.459 Y23.392 E6.61104
G1 X19.670 Y18.074 E6.90648
G1 X28.804 Y23.348 E7.19946
G1 X19.637 Y39.226 E7.70876
G1 X19.737 Y39.838 F900.000
G1 F900
G1 X10.067 Y34.255 E8.01894
G1 X10.067 Y23.166 E8.32698
G1 X19.670 Y17.621 E8.63502
G1 X29.341 Y23.204 E8.94520
G1 X19.781 Y39.763 E9.47632
G1 X19.391 Y39.373 F900.000
G92 E0
G1 X19.670 Y15.023 F900.000
G1 X28.916 Y21.103 F900.000
G1 F900
G1 X21.885 Y17.044 E0.22554
G1 X28.916 Y12.984 E0.45109
G1 X28.916 Y21.016 E0.67421
G1 X28.524 Y20.423 F900.000
G1 F900
G1 X22.670 Y17.044 E0.86197
G1 X28.524 Y13.664 E1.04972
G1 X28.524 Y20.336 E1.23506
G1 X28.407 Y20.991 F900.000
G1 X29.131 Y21.475 F900.000
G1 F900
G1 X21.456 Y17.044 E1.48125
G1 X29.131 Y12.612 E1.72745
G1 X29.131 Y21.388 E1.97122
G1 X29.524 Y22.155 F900.000
G1 F900
G1 X20.670 Y17.044 E2.25520
G1 X29.524 Y11.932 E2.53918
G1 X29.524 Y22.068 E2.82075
G1 X30.026 Y21.865 F900.000
G1 X31.131 Y21.914 F900.000
G1 F900
G1 X31.131 Y11.705 E3.10432
G1 X40.127 Y6.511 E3.39288
G1 X49.124 Y11.705 E3.68144
G1 X49.124 Y21.914 E3.96501
G1 X31.218 Y21.914 E4.46239
G1 X31.524 Y21.521 F900.000
G1 F900
G1 X31.524 Y11.932 E4.72876
G1 X40.127 Y6.965 E5.00473
G1 X48.731 Y11.932 E5.28069
G1 X48.731 Y21.521 E5.54706
G1 X31.611 Y21.521 E6.02262
G1 X30.952 Y21.619 F900.000
G1 X30.916 Y22.129 F900.000
G1 F900
G1 X30.916 Y11.581 E6.31560
G1 X40.127 Y6.263 E6.61104
G1 X49.338 Y11.581 E6.90648
G1 X49.338 Y22.129 E7.19946
G1 X31.003 Y22.129 E7.70876
G1 X30.524 Y22.521 F900.000
G1 F900
G1 X30.524 Y11.355 E8.01895
G1 X40.127 Y5.810 E8.32698
G1 X49.731 Y11.355 E8.63502
G1 X49.731 Y22.521 E8.94520
G1 X30.611 Y22.521 E9.47632
G1 X30.722 Y21.976 F900.000
G92 E0
G1 X51.981 Y10.056 F900.000
G1 X51.338 Y21.103 F900.000
G1 F900
G1 X51.338 Y12.984 E0.22554
G1 X58.370 Y17.044 E0.45109
G1 X51.414 Y21.060 E0.67421
G1 X51.731 Y20.423 F900.000
G1 F900
G1 X51.731 Y13.664 E0.86197
G1 X57.585 Y17.044 E1.04972
G1 X51.806 Y20.380 E1.23506
G1 X51.229 Y20.713 F900.000
G1 X51.124 Y21.475 F900.000
G1 F900
G1 X51.124 Y12.612 E1.48125
G1 X58.799 Y17.044 E1.72745
G1 X51.199 Y21.432 E1.97122
G1 X50.731 Y22.155 F900.000
G1 F900
G1 X50.731 Y11.932 E2.25520
G1 X59.585 Y17.044 E2.53918
G1 X50.806 Y22.112 E2.82075
G1 X50.812 Y21.581 F900.000
G1 X51.744 Y23.427 F900.000
G1 F900
G1 X60.585 Y18.322 E3.10432
G1 X69.581 Y23.516 E3.39288
G1 X69.581 Y33.904 E3.68144
G1 X60.740 Y39.009 E3.96501
G1 X51.787 Y23.502 E4.46239
G1 X52.280 Y23.570 F900.000
G1 F900
G1 X60.585 Y18.776 E4.72876
G1 X69.188 Y23.743 E5.00472
G1 X69.188 Y33.678 E5.28069
G1 X60.884 Y38.472 E5.54706
G1 X52.324 Y23.646 E6.02262
G1 X51.910 Y23.124 F900.000
G1 X51.450 Y23.348 F900.000
G1 F900
G1 X60.585 Y18.074 E6.31560
G1 X69.796 Y23.392 E6.61104
G1 X69.796 Y34.028 E6.90648
G1 X60.661 Y39.302 E7.19946
G1 X51.494 Y23.423 E7.70876
G1 X50.914 Y23.204 F900.000
G1 F900
G1 X60.585 Y17.621 E8.01895
G1 X70.188 Y23.166 E8.32698
G1 X70.188 Y34.255 E8.63502
G1 X60.518 Y39.838 E8.94520
G1 X50.958 Y23.280 E9.47632
G1 X51.485 Y23.103 F900.000
G92 E0
G1 X7.817 Y59.176 F900.000
G1 X62.549 Y40.521 F900.000
G1 F900
G1 X69.581 Y36.462 E0.22554
G1 X69.581 Y44.581 E0.45109
G1 X62.625 Y40.565 E0.67421
G1 X63.335 Y40.521 F900.000
G1 F900
G1 X69.188 Y37.142 E0.86197
G1 X69.188 Y43.901 E1.04972
G3 X62.832 Y40.231 I4968.185 J-8611.640 E1.23506
G1 X62.120 Y40.521 F900.000
G1 F900
G1 X69.796 Y36.090 E1.48125
G1 X69.796 Y44.953 E1.72745
G1 X62.195 Y40.565 E1.97122
G1 X61.335 Y40.521 F900.000
G1 F900
G1 X70.188 Y35.410 E2.25520
G1 X70.188 Y45.633 E2.53918
G1 X61.410 Y40.565 E2.82075
G1 X61.335 Y41.101 F900.000
G1 X60.740 Y42.034 F900.000
G1 F900
G1 X69.581 Y47.138 E3.10432
G1 X69.581 Y57.526 E3.39288
G1 X60.585 Y62.720 E3.68144
G1 X51.744 Y57.616 E3.96501
G1 X60.696 Y42.109 E4.46239
G1 X60.884 Y42.570 F900.000
G1 F900
G1 X69.188 Y47.365 E4.72876
G1 X69.188 Y57.300 E5.00472
G1 X60.585 Y62.267 E5.28069
G1 X52.280 Y57.472 E5.54706
G1 X60.840 Y42.646 E6.02262
G1 X61.174 Y42.068 F900.000
G1 X60.661 Y41.741 F900.000
G1 F900
G1 X69.796 Y47.014 E6.31560
G1 X69.796 Y57.650 E6.61104
G1 X60.585 Y62.968 E6.90648
G1 X51.450 Y57.695 E7.19946
G1 X60.618 Y41.816 E7.70876
G1 X60.518 Y41.204 F900.000
G1 F900
G1 X70.188 Y46.788 E8.01895
G1 X70.188 Y57.877 E8.32698
G1 X60.585 Y63.422 E8.63502
G1 X50.914 Y57.838 E8.94520
G1 X60.474 Y41.280 E9.47632
G1 X60.891 Y41.648 F900.000
G92 E0
G1 X7.817 Y21.867 F900.000
G1 X51.338 Y59.939 F900.000
G1 F900
G1 X58.370 Y63.999 E0.22554
G1 X51.338 Y68.059 E0.45109
G1 X51.338 Y60.026 E0.67421
G1 X51.731 Y60.619 F900.000
G1 F900
G1 X57.585 Y63.999 E0.86197
G1 X51.731 Y67.379 E1.04972
G1 X51.731 Y60.706 E1.23506
G1 X51.731 Y60.039 F900.000
G1 X51.124 Y59.567 F900.000
G1 F900
G1 X58.799 Y63.999 E1.48125
G1 X51.124 Y68.430 E1.72745
G1 X51.124 Y59.654 E1.97122
G1 X50.731 Y58.887 F900.000
G1 F900
G1 X59.585 Y63.999 E2.25520
G1 X50.731 Y69.111 E2.53918
G1 X50.731 Y58.974 E2.82075
G1 X50.229 Y59.177 F900.000
G92 E0
G1 X40.127 Y77.831 F900.000
G1 X49.592 Y56.914 F900.000
G1 F900
G1 X30.663 Y56.914 E0.52580
G1 X21.199 Y40.521 E1.05159
G1 X30.663 Y24.129 E1.57739
G1 X49.592 Y24.129 E2.10318
G1 X59.056 Y40.521 E2.62898
G1 X49.635 Y56.839 E3.15236
G1 X49.365 Y56.521 F900.000
G1 F900
G1 X30.890 Y56.521 E3.66556
G1 X21.652 Y40.521 E4.17876
G1 X30.890 Y24.521 E4.69196
G1 X49.365 Y24.521 E5.20516
G1 X58.603 Y40.521 E5.71836
G1 X49.409 Y56.446 E6.22914
G1 X49.365 Y57.101 F900.000
G1 X49.716 Y57.129 F900.000
G1 F900
G1 X30.539 Y57.129 E6.76182
G1 X20.951 Y40.521 E7.29450
G1 X30.539 Y23.914 E7.82718
G1 X49.716 Y23.914 E8.35986
G1 X59.304 Y40.521 E8.89254
G1 X49.759 Y57.053 E9.42280
G1 X49.942 Y57.521 F900.000
G1 F900
G1 X30.312 Y57.521 E9.96808
G1 X20.498 Y40.521 E10.51336
G1 X30.312 Y23.521 E11.05863
G1 X49.942 Y23.521 E11.60391
G1 X59.757 Y40.521 E12.14918
G1 X49.986 Y57.446 E12.69204
G1 X49.440 Y57.231 F900.000
G1 Z-147.500 F900.000
G1 X49.124 Y59.129 F900.000
G1 F900
G1 X49.124 Y69.337 E12.97562
G1 X40.127 Y74.531 E13.26417
G1 X31.131 Y69.337 E13.55273
G1 X31.131 Y59.129 E13.83631
G1 X49.037 Y59.129 E14.33369
G1 X48.731 Y59.521 F900.000
G1 F900
G1 X48.731 Y69.111 E14.60006
G1 X40.127 Y74.078 E14.87602
G1 X31.524 Y69.111 E15.15198
G1 X31.524 Y59.521 E15.41835
G1 X48.644 Y59.521 E15.89391
G1 X49.303 Y59.423 F900.000
G1 X49.338 Y58.914 F900.000
G1 F900
G1 X49.338 Y69.461 E16.18689
G1 X40.127 Y74.779 E16.48233
G1 X30.916 Y69.461 E16.77777
G1 X30.916 Y58.914 E17.07075
G1 X49.251 Y58.914 E17.58005
G1 X49.731 Y58.521 F900.000
G1 F900
G1 X49.731 Y69.688 E17.89024
G1 X40.127 Y75.233 E18.19827
G1 X30.524 Y69.688 E18.50631
G1 X30.524 Y58.521 E18.81650
G1 X49.644 Y58.521 E19.34761
G1 X49.533 Y59.067 F900.000
G92 E0
G1 X40.127 Y3.212 F900.000
G1 X51.338 Y59.939 F900.000
G1 F900
G1 X58.370 Y63.999 E0.22554
G1 X51.338 Y68.059 E0.45109
G1 X51.338 Y60.026 E0.67421
G1 X51.731 Y60.619 F900.000
G1 F900
G1 X57.585 Y63.999 E0.86197
G1 X51.731 Y67.379 E1.04972
G1 X51.731 Y60.706 E1.23506
G1 X51.731 Y60.039 F900.000
G1 X51.360 Y59.704 F900.000
G1 F900
G1 X58.799 Y63.999 E1.47367
G1 X51.124 Y68.430 E1.71986
G1 X51.124 Y59.567 E1.96606
G1 X51.285 Y59.660 E1.97122
G1 X50.731 Y58.887 F900.000
G1 F900
G1 X59.585 Y63.999 E2.25520
G1 X50.731 Y69.111 E2.53918
G1 X50.731 Y58.974 E2.82075
G1 X50.229 Y59.177 F900.000
G1 X51.744 Y57.616 F900.000
G1 F900
G1 X60.740 Y42.034 E3.32054
G1 X69.581 Y47.138 E3.60412
G1 X69.581 Y57.526 E3.89268
G1 X60.585 Y62.720 E4.18123
G1 X51.819 Y57.659 E4.46239
G1 X52.280 Y57.472 F900.000
G1 F900
G1 X60.884 Y42.570 E4.94037
G1 X69.188 Y47.365 E5.20674
G1 X69.188 Y57.300 E5.48270
G1 X60.585 Y62.267 E5.75867
G1 X52.355 Y57.516 E6.02262
G1 X51.734 Y57.276 F900.000
G1 X51.450 Y57.695 F900.000
G1 F900
G1 X60.661 Y41.741 E6.53434
G1 X69.796 Y47.014 E6.82732
G1 X69.796 Y57.650 E7.12276
G1 X60.585 Y62.968 E7.41820
G1 X51.526 Y57.738 E7.70876
G1 X50.914 Y57.838 F900.000
G1 F900
G1 X60.518 Y41.204 E8.24230
G1 X70.188 Y46.788 E8.55248
G1 X70.188 Y57.877 E8.86052
G1 X60.585 Y63.422 E9.16855
G1 X50.989 Y57.882 E9.47632
G1 X51.359 Y57.466 F900.000
G92 E0
G1 X7.817 Y21.867 F900.000
G1 X62.549 Y40.521 F900.000
G1 F900
G1 X69.581 Y36.462 E0.22554
G1 X69.581 Y44.581 E0.45109
G1 X62.625 Y40.565 E0.67421
G1 X63.335 Y40.521 F900.000
G1 F900
G1 X69.188 Y37.142 E0.86197
G1 X69.188 Y43.901 E1.04972
G1 X63.410 Y40.565 E1.23506
G1 X63.837 Y40.231 F900.000
G1 X62.120 Y40.521 F900.000
G1 F900
G1 X69.796 Y36.090 E1.48125
G1 X69.796 Y44.953 E1.72745
G1 X62.195 Y40.565 E1.97122
G1 X61.335 Y40.521 F900.000
G1 F900
G1 X70.188 Y35.410 E2.25520
G1 X70.188 Y45.633 E2.53918
G1 X61.410 Y40.565 E2.82075
G1 X61.335 Y41.101 F900.000
G1 X60.740 Y39.009 F900.000
G1 F900
G1 X51.744 Y23.427 E3.32054
G1 X60.585 Y18.322 E3.60412
G1 X69.581 Y23.516 E3.89268
G1 X69.581 Y33.904 E4.18123
G1 X60.815 Y38.965 E4.46239
G1 X60.884 Y38.472 F900.000
G1 F900
G1 X52.280 Y23.570 E4.94037
G1 X60.585 Y18.776 E5.20674
G1 X69.188 Y23.743 E5.48270
G1 X69.188 Y33.678 E5.75867
G1 X60.959 Y38.429 E6.02262
G1 X60.441 Y38.847 F900.000
G1 X60.661 Y39.302 F900.000
G1 F900
G1 X51.450 Y23.348 E6.53434
G1 X60.585 Y18.074 E6.82732
G1 X69.796 Y23.392 E7.12276
G1 X69.796 Y34.028 E7.41820
G1 X60.737 Y39.258 E7.70876
G1 X60.518 Y39.838 F900.000
G1 F900
G1 X50.914 Y23.204 E8.24229
G1 X60.585 Y17.621 E8.55248
G1 X70.188 Y23.166 E8.86052
G1 X70.188 Y34.255 E9.16855
G1 X60.593 Y39.795 E9.47632
G1 X60.417 Y39.267 F900.000
G92 E0
G1 X60.585 Y15.023 F900.000
G1 X51.338 Y21.103 F900.000
G1 F900
G1 X51.338 Y12.984 E0.22554
G1 X58.370 Y17.044 E0.45109
G1 X51.414 Y21.060 E0.67421
G1 X51.731 Y20.423 F900.000
G1 F900
G1 X51.731 Y13.664 E0.86197
G1 X57.585 Y17.044 E1.04972
G1 X51.806 Y20.380 E1.23506
G1 X51.229 Y20.713 F900.000
G1 X51.124 Y21.475 F900.000
G1 F900
G1 X51.124 Y12.612 E1.48125
G1 X58.799 Y17.044 E1.72745
G1 X51.199 Y21.432 E1.97122
G1 X50.731 Y22.155 F900.000
G1 F900
G1 X50.731 Y11.932 E2.25520
G1 X59.585 Y17.044 E2.53918
G1 X50.806 Y22.112 E2.82075
G1 X50.774 Y21.577 F900.000
G1 X49.124 Y21.914 F900.000
G1 F900
G1 X31.131 Y21.914 E3.32054
G1 X31.131 Y11.705 E3.60412
G1 X40.127 Y6.511 E3.89268
G1 X49.124 Y11.705 E4.18123
G1 X49.124 Y21.827 E4.46239
G1 X48.731 Y21.521 F900.000
G1 F900
G1 X31.524 Y21.521 E4.94037
G1 X31.524 Y11.932 E5.20674
G1 X40.127 Y6.965 E5.48270
G1 X48.731 Y11.932 E5.75867
G1 X48.731 Y21.434 E6.02262
G1 X48.834 Y22.092 F900.000
G1 X49.338 Y22.129 F900.000
G1 F900
G1 X30.916 Y22.129 E6.53434
G1 X30.916 Y11.581 E6.82732
G1 X40.127 Y6.263 E7.12276
G1 X49.338 Y11.581 E7.41820
G1 X49.338 Y22.042 E7.70876
G1 X49.731 Y22.521 F900.000
G1 F900
G1 X30.524 Y22.521 E8.24230
G1 X30.524 Y11.355 E8.55248
G1 X40.127 Y5.810 E8.86052
G1 X49.731 Y11.355 E9.16855
G1 X49.731 Y22.434 E9.47632
G1 X49.193 Y22.305 F900.000
G92 E0
G1 X28.274 Y10.056 F900.000
G1 X28.916 Y21.103 F900.000
G1 F900
G1 X21.885 Y17.044 E0.22554
G1 X28.916 Y12.984 E0.45109
G1 X28.916 Y21.016 E0.67421
G1 X28.524 Y20.423 F900.000
G1 F900
G1 X22.670 Y17.044 E0.86197
G1 X28.524 Y13.664 E1.04972
G1 X28.524 Y20.336 E1.23506
G1 X28.377 Y20.984 F900.000
G1 X29.131 Y21.475 F900.000
G1 F900
G1 X21.456 Y17.044 E1.48125
G1 X29.131 Y12.612 E1.72745
G1 X29.131 Y21.388 E1.97122
G1 X29.524 Y22.155 F900.000
G1 F900
G1 X20.670 Y17.044 E2.25520
G1 X29.524 Y11.932 E2.53918
G1 X29.524 Y22.068 E2.82075
G1 X30.026 Y21.865 F900.000
G1 X28.511 Y23.427 F900.000
G1 F900
G1 X19.515 Y39.009 E3.32054
G1 X10.674 Y33.904 E3.60412
G1 X10.674 Y23.516 E3.89268
G1 X19.670 Y18.322 E4.18123
G1 X28.436 Y23.383 E4.46239
G1 X27.975 Y23.570 F900.000
G1 F900
G1 X19.371 Y38.472 E4.94037
G1 X11.067 Y33.678 E5.20674
G1 X11.067 Y23.743 E5.48270
G1 X19.670 Y18.776 E5.75867
G1 X27.899 Y23.527 E6.02262
G1 X28.495 Y23.826 F900.000
G1 X28.804 Y23.348 F900.000
G1 F900
G1 X19.593 Y39.302 E6.53434
G1 X10.459 Y34.028 E6.82732
G1 X10.459 Y23.392 E7.12276
G1 X19.670 Y18.074 E7.41820
G1 X28.729 Y23.305 E7.70876
G1 X29.341 Y23.204 F900.000
G1 F900
G1 X19.737 Y39.838 E8.24229
G1 X10.067 Y34.255 E8.55248
G1 X10.067 Y23.166 E8.86052
G1 X19.670 Y17.621 E9.16855
G1 X29.265 Y23.161 E9.47632
G1 X28.838 Y23.494 F900.000
G92 E0
G1 X7.817 Y35.554 F900.000
G1 X17.706 Y40.521 F900.000
G1 F900
G1 X10.674 Y44.581 E0.22554
G1 X10.674 Y36.462 E0.45109
G1 X17.630 Y40.478 E0.67421
G1 X16.920 Y40.521 F900.000
G1 F900
G1 X11.067 Y43.901 E0.86197
G1 X11.067 Y37.142 E1.04972
G1 X16.845 Y40.478 E1.23506
G1 X17.422 Y40.811 F900.000
G1 X18.135 Y40.521 F900.000
G1 F900
G1 X10.459 Y44.953 E1.48125
G1 X10.459 Y36.090 E1.72745
G1 X18.059 Y40.478 E1.97122
G1 X18.920 Y40.521 F900.000
G1 F900
G1 X10.067 Y45.633 E2.25520
G1 X10.067 Y35.410 E2.53918
G1 X18.845 Y40.478 E2.82075
G1 X18.349 Y40.622 F900.000
G1 X19.515 Y42.034 F900.000
G1 F900
G1 X28.511 Y57.616 E3.32054
G1 X19.670 Y62.720 E3.60412
G1 X10.674 Y57.526 E3.89268
G1 X10.674 Y47.138 E4.18123
G1 X19.440 Y42.077 E4.46239
G1 X19.371 Y42.570 F900.000
G1 F900
G1 X27.975 Y57.472 E4.94037
G1 X19.670 Y62.267 E5.20674
G1 X11.067 Y57.300 E5.48270
G1 X11.067 Y47.365 E5.75867
G2 X19.873 Y42.280 I-2245.444 J-3898.737 E6.02262
G1 X19.593 Y41.741 F900.000
G1 F900
G1 X28.804 Y57.695 E6.53434
G1 X19.670 Y62.968 E6.82732
G1 X10.459 Y57.650 E7.12276
G1 X10.459 Y47.014 E7.41820
G1 X19.518 Y41.784 E7.70876
G1 X19.737 Y41.204 F900.000
G1 F900
G1 X29.341 Y57.838 E8.24229
G1 X19.670 Y63.422 E8.55248
G1 X10.067 Y57.877 E8.86052
G1 X10.067 Y46.788 E9.16855
G1 X19.662 Y41.248 E9.47632
G1 X19.837 Y41.776 F900.000
G92 E0
G1 X28.274 Y70.987 F900.000
G1 X28.916 Y59.939 F900.000
G1 F900
G1 X28.916 Y68.059 E0.22554
G1 X21.885 Y63.999 E0.45109
G1 X28.841 Y59.983 E0.67421
G1 X28.524 Y60.619 F900.000
G1 F900
G1 X28.524 Y67.379 E0.86197
G1 X22.670 Y63.999 E1.04972
G1 X28.448 Y60.663 E1.23506
G1 X29.095 Y60.519 F900.000
G1 X29.131 Y59.567 F900.000
G1 F900
G1 X29.131 Y68.430 E1.48125
G1 X21.456 Y63.999 E1.72745
G1 X29.056 Y59.611 E1.97122
G1 X29.524 Y58.887 F900.000
G1 F900
G1 X29.524 Y69.111 E2.25520
G1 X20.670 Y63.999 E2.53918
G1 X29.448 Y58.931 E2.82075
G1 X29.021 Y58.597 F900.000
G92 E0
G1 X40.127 Y3.212 F900.000
G1 X30.663 Y56.914 F900.000
G1 F900
G1 X21.199 Y40.521 E0.52580
G1 X30.663 Y24.129 E1.05159
G1 X49.592 Y24.129 E1.57739
G1 X59.056 Y40.521 E2.10318
G1 X49.592 Y56.914 E2.62898
G1 X30.750 Y56.914 E3.15236
G1 X30.890 Y56.521 F900.000
G1 F900
G1 X21.652 Y40.521 E3.66556
G1 X30.890 Y24.521 E4.17876
G1 X49.365 Y24.521 E4.69196
G1 X58.603 Y40.521 E5.20516
G1 X49.365 Y56.521 E5.71836
G1 X30.977 Y56.521 E6.22914
G1 X30.388 Y56.811 F900.000
G1 X30.539 Y57.129 F900.000
G1 F900
G1 X20.951 Y40.521 E6.76182
G1 X30.539 Y23.914 E7.29450
G1 X49.716 Y23.914 E7.82718
G1 X59.304 Y40.521 E8.35986
G1 X49.716 Y57.129 E8.89254
G1 X30.626 Y57.129 E9.42280
G1 X30.312 Y57.521 F900.000
G1 F900
G1 X20.498 Y40.521 E9.96808
G1 X30.312 Y23.521 E10.51336
G1 X49.942 Y23.521 E11.05863
G1 X59.757 Y40.521 E11.60391
G1 X49.942 Y57.521 E12.14918
G1 X30.399 Y57.521 E12.69204
G1 X30.312 Y56.941 F900.000
G1 Z-147.000 F900.000
G1 X31.131 Y59.129 F900.000
G1 F900
G1 X49.124 Y59.129 E13.19184
G1 X49.124 Y69.337 E13.47541
G1 X40.127 Y74.531 E13.76397
G1 X31.131 Y69.337 E14.05253
G1 X31.131 Y59.216 E14.33369
G1 X31.524 Y59.521 F900.000
G1 F900
G1 X48.731 Y59.521 E14.81167
G1 X48.731 Y69.111 E15.07804
G1 X40.127 Y74.078 E15.35400
G1 X31.524 Y69.111 E15.62996
G1 X31.524 Y59.608 E15.89391
G1 X31.421 Y58.950 F900.000
G92 E0
G1 X28.916 Y59.939 F900.000
G1 F900
G1 X28.916 Y68.059 E0.22554
G1 X21.885 Y63.999 E0.45109
G1 X28.841 Y59.983 E0.67421
G1 X28.524 Y60.619 F900.000
G1 F900
G1 X28.524 Y67.379 E0.86197
G1 X22.670 Y63.999 E1.04972
G1 X28.448 Y60.663 E1.23506
G1 X29.095 Y60.519 F900.000
G92 E0
G1 X29.274 Y59.988 F900.000
G1 X30.024 Y60.425 F900.000
G1 X30.774 Y59.274 F900.000
G1 X49.481 Y59.359 F900.000
G1 X50.231 Y60.379 F900.000
G1 X50.981 Y59.944 F900.000
G1 X51.338 Y59.939 F900.000
G1 F900
G1 X58.370 Y63.999 E0.22554
G1 X51.338 Y68.059 E0.45109
G1 X51.338 Y60.026 E0.67421
G1 X51.731 Y60.619 F900.000
G1 F900
G1 X57.585 Y63.999 E0.86197
G1 X51.731 Y67.379 E1.04972
G1 X51.731 Y60.706 E1.23506
G1 X51.731 Y60.039 F900.000
G92 E0
G1 X58.799 Y63.999 F900.000
G1 F900
G1 X40.127 Y74.779 E0.59890
G1 X21.456 Y63.999 E1.19780
G1 X30.047 Y59.039 E1.47337
G1 X30.388 Y58.914 E1.48345
G1 X49.867 Y58.914 E2.02454
G1 X50.208 Y59.039 E2.03462
G1 X58.724 Y63.955 E2.30778
G1 X59.585 Y63.999 F900.000
G1 F900
G1 X40.127 Y75.233 E2.93187
G1 X20.670 Y63.999 E3.55596
G1 X29.880 Y58.682 E3.85137
G1 X30.318 Y58.521 E3.86433
G1 X49.937 Y58.521 E4.40929
G1 X50.375 Y58.682 E4.42225
G1 X59.509 Y63.955 E4.71524
G1 X59.014 Y64.100 F900.000
G92 E0
G1 X50.946 Y60.497 F900.000
G1 F900
G1 X49.755 Y59.307 E0.04676
G1 X49.516 Y59.307 E0.05340
G1 X49.516 Y59.646 E0.06283
G1 X50.946 Y61.076 E0.11898
G1 X50.946 Y61.654 E0.13505
G1 X49.516 Y60.225 E0.19119
G1 X49.516 Y60.804 E0.20727
G1 X50.946 Y62.233 E0.26341
G1 X50.946 Y62.812 E0.27949
G1 X49.516 Y61.382 E0.33563
G1 X49.516 Y61.961 E0.35171
G1 X50.946 Y63.390 E0.40785
G1 X50.946 Y63.969 E0.42393
G1 X49.516 Y62.540 E0.48007
G1 X49.516 Y63.118 E0.49614
G1 X50.946 Y64.547 E0.55229
G1 X50.946 Y65.126 E0.56836
G1 X49.516 Y63.697 E0.62451
G1 X49.516 Y64.276 E0.64058
G1 X50.946 Y65.705 E0.69673
G1 X50.946 Y66.283 E0.71280
G1 X49.516 Y64.854 E0.76895
G1 X49.516 Y65.433 E0.78502
G1 X50.946 Y66.862 E0.84117
G1 X50.946 Y67.441 E0.85724
G1 X49.516 Y66.012 E0.91339
G1 X49.516 Y66.590 E0.92946
G1 X50.946 Y68.019 E0.98560
G1 X50.946 Y68.080 E0.98728
G1 X50.617 Y68.270 E0.99782
G1 X49.516 Y67.169 E1.04106
G1 X49.516 Y67.748 E1.05713
G1 X50.250 Y68.481 E1.08596
G1 X49.883 Y68.693 E1.09773
G1 X49.516 Y68.326 E1.11214
G1 X49.516 Y68.905 E1.12821
G92 E0
G1 X50.946 Y59.918 F900.000
G1 F900
G1 X50.946 Y59.918 E0.00000
G1 X50.231 Y60.379 F900.000
G1 X49.481 Y59.359 F900.000
G1 X30.738 Y59.307 F900.000
G1 F900
G2 X30.248 Y59.383 I-0.140 J0.712 E0.01400
G1 X30.738 Y59.874 E0.03326
G1 X30.738 Y60.440 E0.04900
G1 X29.884 Y59.586 E0.08256
G1 X29.525 Y59.794 E0.09409
G1 X30.738 Y61.007 E0.14176
G1 X30.738 Y61.574 E0.15750
G1 X29.309 Y60.145 E0.21365
G1 X29.309 Y60.711 E0.22939
G1 X30.738 Y62.141 E0.28554
G1 X30.738 Y62.708 E0.30128
G1 X29.309 Y61.278 E0.35743
G1 X29.309 Y61.845 E0.37317
G1 X30.738 Y63.274 E0.42932
G1 X30.738 Y63.841 E0.44506
G1 X29.309 Y62.412 E0.50121
G1 X29.309 Y62.979 E0.51695
G1 X30.738 Y64.408 E0.57310
G1 X30.738 Y64.975 E0.58884
G1 X29.309 Y63.545 E0.64498
G1 X29.309 Y64.112 E0.66073
G1 X30.738 Y65.541 E0.71687
G1 X30.738 Y66.108 E0.73262
G1 X29.309 Y64.679 E0.78876
G1 X29.309 Y65.246 E0.80451
G1 X30.738 Y66.675 E0.86065
G1 X30.738 Y67.242 E0.87640
G1 X29.309 Y65.813 E0.93254
G1 X29.309 Y66.379 E0.94829
G1 X30.738 Y67.809 E1.00443
G1 X30.738 Y68.375 E1.02017
G1 X29.309 Y66.946 E1.07632
G1 X29.309 Y67.513 E1.09206
G1 X30.651 Y68.854 E1.14476
G1 X29.309 Y68.080 E1.18779
G92 E0
G1 X40.127 Y3.212 F900.000
G1 X49.592 Y56.914 F900.000
G1 F900
G1 X30.663 Y56.914 E0.52580
G1 X21.199 Y40.521 E1.05159
G1 X30.663 Y24.129 E1.57739
G1 X49.592 Y24.129 E2.10318
G1 X59.056 Y40.521 E2.62898
G1 X49.635 Y56.839 E3.15236
G1 X49.365 Y56.521 F900.000
G1 F900
G1 X30.890 Y56.521 E3.66556
G1 X21.652 Y40.521 E4.17876
G1 X30.890 Y24.521 E4.69196
G1 X49.365 Y24.521 E5.20516
G1 X58.603 Y40.521 E5.71836
G1 X49.409 Y56.446 E6.22914
G1 X49.365 Y57.101 F900.000
G1 X49.716 Y57.129 F900.000
G1 F900
G1 X30.539 Y57.129 E6.76182
G1 X20.951 Y40.521 E7.29450
G1 X30.539 Y23.914 E7.82718
G1 X49.716 Y23.914 E8.35986
G1 X59.304 Y40.521 E8.89254
G1 X49.759 Y57.053 E9.42280
G1 X49.942 Y57.521 F900.000
G1 F900
G1 X30.312 Y57.521 E9.96808
G1 X20.498 Y40.521 E10.51336
G1 X30.312 Y23.521 E11.05863
G1 X49.942 Y23.521 E11.60391
G1 X59.757 Y40.521 E12.14918
G1 X49.986 Y57.446 E12.69204
G1 X49.489 Y57.160 F900.000
G92 E0
G1 X28.274 Y10.056 F900.000
G1 X17.706 Y40.521 F900.000
G1 F900
G1 X10.674 Y44.581 E0.22554
G1 X10.674 Y36.462 E0.45109
G1 X17.630 Y40.478 E0.67421
G1 X16.920 Y40.521 F900.000
G1 F900
G1 X11.067 Y43.901 E0.86197
G1 X11.067 Y37.142 E1.04972
G1 X16.845 Y40.478 E1.23506
G1 X17.422 Y40.811 F900.000
G92 E0
G1 X19.515 Y39.009 F900.000
G1 F900
G1 X10.674 Y33.904 E0.28358
G1 X10.674 Y23.516 E0.57213
G1 X19.670 Y18.322 E0.86069
G1 X28.511 Y23.427 E1.14427
G1 X19.558 Y38.933 E1.64165
G1 X19.371 Y38.472 F900.000
G1 F900
G1 X11.067 Y33.678 E1.90802
G1 X11.067 Y23.743 E2.18398
G1 X19.670 Y18.776 E2.45994
G1 X27.975 Y23.570 E2.72631
G1 X19.415 Y38.397 E3.20187
G1 X19.170 Y39.016 F900.000
G92 E0
G1 X19.213 Y39.247 F900.000
G1 X28.566 Y23.046 F900.000
G1 X28.024 Y21.867 F900.000
G1 X28.774 Y21.434 F900.000
G1 X28.916 Y21.103 F900.000
G1 F900
G1 X21.885 Y17.044 E0.22554
G1 X28.916 Y12.984 E0.45109
G1 X28.916 Y21.016 E0.67421
G1 X28.524 Y20.423 F900.000
G1 F900
G1 X22.670 Y17.044 E0.86197
G1 X28.524 Y13.664 E1.04972
G1 X28.524 Y20.336 E1.23506
G1 X28.349 Y20.976 F900.000
G92 E0
G1 X29.131 Y12.612 F900.000
G1 F900
G1 X29.131 Y22.533 E0.27557
G1 X29.069 Y22.890 E0.28565
G1 X19.329 Y39.760 E0.82674
G1 X19.051 Y39.993 E0.83682
G1 X10.459 Y44.953 E1.11239
G1 X10.459 Y23.392 E1.71129
G1 X29.056 Y12.656 E2.30778
G1 X29.524 Y11.932 F900.000
G1 F900
G1 X29.524 Y22.567 E2.60318
G1 X29.444 Y23.026 E2.61614
G1 X19.634 Y40.016 E3.16110
G1 X19.276 Y40.316 E3.17406
G1 X10.067 Y45.633 E3.46947
G1 X10.067 Y23.166 E4.09356
G1 X29.448 Y11.975 E4.71524
G1 X29.423 Y12.503 F900.000
G92 E0
G1 X28.738 Y21.454 F900.000
G1 F900
G1 X27.360 Y20.658 E0.04421
G1 X28.731 Y22.030 E0.09808
G1 X28.461 Y22.300 E0.10871
G1 X28.738 Y22.300 E0.11643
G1 X28.721 Y22.601 E0.12480
G1 X25.982 Y19.863 E0.23237
G1 X24.604 Y19.067 E0.27657
G1 X28.509 Y22.972 E0.42996
G1 X27.131 Y22.176 E0.47416
G1 X23.226 Y18.272 E0.62755
G1 X21.848 Y17.476 E0.67175
G1 X25.753 Y21.381 E0.82514
G1 X24.375 Y20.585 E0.86934
G1 X21.349 Y17.559 E0.98823
G1 X21.206 Y17.641 E0.99282
G1 X21.206 Y17.998 E1.00272
G1 X22.997 Y19.790 E1.07310
G1 X21.619 Y18.994 E1.11730
G1 X20.610 Y17.985 E1.15694
G1 X20.241 Y18.198 E1.16878
G92 E0
G1 X21.670 Y18.198 F900.000
G1 X28.024 Y21.867 F900.000
G1 X28.566 Y23.046 F900.000
G1 X19.213 Y39.247 F900.000
G1 X17.839 Y39.320 F900.000
G1 X11.567 Y35.698 F900.000
G1 X10.852 Y36.111 F900.000
G1 F900
G1 X10.852 Y35.537 E0.01594
G1 X12.210 Y36.895 E0.06927
G1 X13.567 Y37.678 E0.11281
G1 X10.852 Y34.963 E0.21947
G1 X10.852 Y34.461 E0.23344
G1 X11.020 Y34.557 E0.23882
G1 X14.924 Y38.462 E0.39221
G1 X16.282 Y39.246 E0.43575
G1 X12.377 Y35.341 E0.58914
G1 X13.734 Y36.125 E0.63268
G1 X17.639 Y40.030 E0.78607
G1 X17.920 Y40.192 E0.79508
G1 X18.209 Y40.025 E0.80433
G1 X15.092 Y36.908 E0.92677
G1 X16.449 Y37.692 E0.97031
G1 X18.572 Y39.815 E1.05371
G2 X18.920 Y39.590 I-0.480 J-1.124 E1.06527
G1 X17.807 Y38.476 E1.10902
G1 X19.164 Y39.260 E1.15257
G92 E0
G1 X7.817 Y59.176 F900.000
G1 X19.515 Y42.034 F900.000
G1 F900
G1 X28.511 Y57.616 E0.49980
G1 X19.670 Y62.720 E0.78337
G1 X10.674 Y57.526 E1.07193
G1 X10.674 Y47.138 E1.36049
G1 X19.440 Y42.077 E1.64165
G1 X19.371 Y42.570 F900.000
G1 F900
G1 X27.975 Y57.472 E2.11963
G1 X19.670 Y62.267 E2.38600
G1 X11.067 Y57.300 E2.66196
G1 X11.067 Y47.365 E2.93792
G2 X19.873 Y42.280 I-2245.444 J-3898.737 E3.20187
G1 X19.593 Y41.741 F900.000
G1 F900
G1 X28.804 Y57.695 E3.71359
G1 X19.670 Y62.968 E4.00657
G1 X10.459 Y57.650 E4.30201
G1 X10.459 Y47.014 E4.59745
G1 X19.518 Y41.784 E4.88801
G1 X19.737 Y41.204 F900.000
G1 F900
G1 X29.341 Y57.838 E5.42155
G1 X19.670 Y63.422 E5.73173
G1 X10.067 Y57.877 E6.03977
G1 X10.067 Y46.788 E6.34781
G1 X19.662 Y41.248 E6.65558
G1 X19.837 Y41.776 F900.000
G92 E0
G1 X40.127 Y3.212 F900.000
G1 X31.131 Y21.914 F900.000
G1 F900
G1 X31.131 Y11.705 E0.28358
G1 X40.127 Y6.511 E0.57213
G1 X49.124 Y11.705 E0.86069
G1 X49.124 Y21.914 E1.14427
G1 X31.218 Y21.914 E1.64165
G1 X31.524 Y21.521 F900.000
G1 F900
G1 X31.524 Y11.932 E1.90802
G1 X40.127 Y6.965 E2.18398
G1 X48.731 Y11.932 E2.45994
G1 X48.731 Y21.521 E2.72631
G1 X31.611 Y21.521 E3.20187
G1 X30.952 Y21.619 F900.000
G1 X30.916 Y22.129 F900.000
G1 F900
G1 X30.916 Y11.581 E3.49485
G1 X40.127 Y6.263 E3.79029
G1 X49.338 Y11.581 E4.08573
G1 X49.338 Y22.129 E4.37871
G1 X31.003 Y22.129 E4.88801
G1 X30.524 Y22.521 F900.000
G1 F900
G1 X30.524 Y11.355 E5.19820
G1 X40.127 Y5.810 E5.50624
G1 X49.731 Y11.355 E5.81427
G1 X49.731 Y22.521 E6.12446
G1 X30.611 Y22.521 E6.65558
G1 X30.722 Y21.976 F900.000
G92 E0
G1 X72.438 Y21.867 F900.000
G1 X62.549 Y40.521 F900.000
G1 F900
G1 X69.581 Y36.462 E0.22554
G1 X69.581 Y44.581 E0.45109
G1 X62.625 Y40.565 E0.67421
G1 X63.335 Y40.521 F900.000
G1 F900
G1 X69.188 Y37.142 E0.86197
G1 X69.188 Y43.901 E1.04972
G3 X62.832 Y40.231 I4968.185 J-8611.640 E1.23506
G92 E0
G1 X60.740 Y39.009 F900.000
G1 F900
G1 X51.744 Y23.427 E0.49980
G1 X60.585 Y18.322 E0.78337
G1 X69.581 Y23.516 E1.07193
G1 X69.581 Y33.904 E1.36049
G1 X60.815 Y38.965 E1.64165
G1 X60.884 Y38.472 F900.000
G1 F900
G1 X52.280 Y23.570 E2.11963
G1 X60.585 Y18.776 E2.38600
G1 X69.188 Y23.743 E2.66196
G1 X69.188 Y33.678 E2.93792
G1 X60.959 Y38.429 E3.20187
G1 X60.441 Y38.847 F900.000
G92 E0
G1 X61.042 Y39.247 F900.000
G1 X51.689 Y23.046 F900.000
G1 X52.312 Y21.820 F900.000
G1 X51.338 Y21.103 F900.000
G1 F900
G1 X51.338 Y12.984 E0.22554
G1 X58.370 Y17.044 E0.45109
G1 X51.414 Y21.060 E0.67421
G1 X51.731 Y20.423 F900.000
G1 F900
G1 X51.731 Y13.664 E0.86197
G1 X57.585 Y17.044 E1.04972
G1 X51.806 Y20.380 E1.23506
G1 X51.229 Y20.713 F900.000
G92 E0
G1 X51.124 Y12.612 F900.000
G1 F900
G1 X69.796 Y23.392 E0.59890
G1 X69.796 Y44.953 E1.19780
G1 X61.204 Y39.993 E1.47337
G1 X60.926 Y39.760 E1.48345
G1 X51.186 Y22.890 E2.02454
G1 X51.124 Y22.533 E2.03462
G1 X51.124 Y12.699 E2.30778
G1 X50.731 Y11.932 F900.000
G1 F900
G1 X70.188 Y23.166 E2.93187
G1 X70.188 Y45.633 E3.55596
G1 X60.978 Y40.316 E3.85137
G1 X60.621 Y40.016 E3.86433
G1 X50.811 Y23.026 E4.40929
G1 X50.731 Y22.567 E4.42225
G1 X50.731 Y12.019 E4.71524
G1 X51.048 Y12.307 F900.000
G92 E0
G1 X58.245 Y17.569 F900.000
G1 F900
G1 X58.585 Y17.373 E0.01090
G1 X58.665 Y17.419 E0.01347
G1 X59.049 Y17.804 E0.02858
G1 X60.014 Y18.198 F900.000
G1 F900
G1 X59.278 Y17.773 E0.05218
G1 X59.148 Y17.903 E0.05727
G1 X59.652 Y18.407 E0.07707
G1 X59.291 Y18.616 E0.08866
G1 X58.245 Y17.569 E0.12977
G1 X57.883 Y17.778 E0.14136
G1 X58.930 Y18.824 E0.18246
G1 X58.568 Y19.033 E0.19405
G1 X57.522 Y17.987 E0.23515
G1 X57.161 Y18.195 E0.24674
G1 X58.207 Y19.242 E0.28784
G1 X57.845 Y19.450 E0.29944
G1 X56.799 Y18.404 E0.34054
G1 X56.438 Y18.613 E0.35213
G1 X57.484 Y19.659 E0.39323
G1 X57.123 Y19.868 E0.40482
G1 X56.076 Y18.821 E0.44592
G1 X55.715 Y19.030 E0.45752
G1 X56.761 Y20.076 E0.49862
G1 X56.400 Y20.285 E0.51021
G1 X55.354 Y19.239 E0.55131
G1 X54.992 Y19.447 E0.56290
G1 X56.038 Y20.494 E0.60400
G1 X55.677 Y20.702 E0.61559
G1 X54.631 Y19.656 E0.65670
G1 X54.269 Y19.865 E0.66829
G1 X55.316 Y20.911 E0.70939
G1 X54.954 Y21.120 E0.72098
G1 X53.908 Y20.073 E0.76208
G1 X53.547 Y20.282 E0.77367
G1 X54.593 Y21.328 E0.81477
G1 X54.231 Y21.537 E0.82637
G1 X53.185 Y20.491 E0.86747
G1 X52.824 Y20.699 E0.87906
G1 X53.870 Y21.745 E0.92016
G1 X53.509 Y21.954 E0.93175
G1 X52.462 Y20.908 E0.97285
G1 X52.101 Y21.117 E0.98445
G1 X53.147 Y22.163 E1.02555
G1 X52.786 Y22.371 E1.03714
G1 X51.740 Y21.325 E1.07824
G1 X51.516 Y21.454 E1.08540
G1 X51.516 Y21.672 E1.09145
G1 X52.424 Y22.580 E1.12712
G1 X52.063 Y22.789 E1.13872
G1 X51.516 Y22.242 E1.16019
G2 X51.701 Y22.997 I0.905 J0.178 E1.18231
G92 E0
G1 X61.231 Y39.503 F900.000
G1 F900
G1 X61.091 Y39.260 E0.00780
G1 X61.390 Y39.087 E0.01739
G1 X62.436 Y40.133 E0.05849
G1 X62.800 Y39.923 E0.07017
G1 X61.754 Y38.877 E0.11128
G1 X62.118 Y38.666 E0.12296
G1 X63.164 Y39.713 E0.16406
G1 X63.529 Y39.502 E0.17574
G1 X62.482 Y38.456 E0.21684
G1 X62.847 Y38.246 E0.22853
G1 X63.893 Y39.292 E0.26963
G1 X64.257 Y39.082 E0.28131
G1 X63.211 Y38.036 E0.32241
G1 X63.575 Y37.825 E0.33410
G1 X64.621 Y38.872 E0.37520
G1 X64.986 Y38.661 E0.38688
G1 X63.939 Y37.615 E0.42798
G1 X64.304 Y37.405 E0.43966
G1 X65.350 Y38.451 E0.48076
G1 X65.714 Y38.241 E0.49245
G1 X64.668 Y37.194 E0.53355
G1 X65.032 Y36.984 E0.54523
G1 X66.078 Y38.030 E0.58633
G1 X66.442 Y37.820 E0.59802
G1 X65.396 Y36.774 E0.63912
G1 X65.760 Y36.564 E0.65080
G1 X66.807 Y37.610 E0.69190
G1 X67.171 Y37.400 E0.70358
G1 X66.125 Y36.353 E0.74469
G1 X66.489 Y36.143 E0.75637
G1 X67.535 Y37.189 E0.79747
G1 X67.899 Y36.979 E0.80915
G1 X66.853 Y35.933 E0.85025
G1 X67.217 Y35.722 E0.86194
G1 X68.264 Y36.769 E0.90304
G1 X68.628 Y36.558 E0.91472
G1 X67.582 Y35.512 E0.95582
G1 X67.946 Y35.302 E0.96750
G1 X68.992 Y36.348 E1.00861
G1 X69.356 Y36.138 E1.02029
G1 X68.310 Y35.091 E1.06139
G1 X68.674 Y34.881 E1.07307
G1 X69.403 Y35.610 E1.10169
G1 X69.403 Y35.035 E1.11765
G1 X69.039 Y34.671 E1.13196
G1 X69.403 Y34.461 E1.14365
G92 E0
G1 X72.438 Y59.176 F900.000
G1 X60.740 Y42.034 F900.000
G1 F900
G1 X69.581 Y47.138 E0.28358
G1 X69.581 Y57.526 E0.57213
G1 X60.585 Y62.720 E0.86069
G1 X51.744 Y57.616 E1.14427
G1 X60.696 Y42.109 E1.64165
G1 X60.884 Y42.570 F900.000
G1 F900
G1 X69.188 Y47.365 E1.90802
G1 X69.188 Y57.300 E2.18398
G1 X60.585 Y62.267 E2.45994
G1 X52.280 Y57.472 E2.72631
G1 X60.840 Y42.646 E3.20187
G1 X61.174 Y42.068 F900.000
G1 X60.661 Y41.741 F900.000
G1 F900
G1 X69.796 Y47.014 E3.49485
G1 X69.796 Y57.650 E3.79029
G1 X60.585 Y62.968 E4.08573
G1 X51.450 Y57.695 E4.37871
G1 X60.618 Y41.816 E4.88801
G1 X60.518 Y41.204 F900.000
G1 F900
G1 X70.188 Y46.788 E5.19820
G1 X70.188 Y57.877 E5.50623
G1 X60.585 Y63.422 E5.81427
G1 X50.914 Y57.838 E6.12446
G1 X60.474 Y41.280 E6.65557
G1 X60.891 Y41.648 F900.000
G92 E0
; Filament-specific end gcode 
;END gcode for filament


M104 S0 ; set temperature
; filament used = 420.7mm (3.0cm3)
; total filament cost = 0.0

; avoid_crossing_perimeters = 1
; bed_shape = 0x0,250x0,250x250,0x250
; bed_temperature = 0
; before_layer_gcode = 
; between_objects_gcode = 
; bridge_acceleration = 0
; bridge_fan_speed = 0
; brim_connections_width = 0
; brim_width = 0
; complete_objects = 1
; cooling = 0
; default_acceleration = 0
; disable_fan_first_layers = 3
; duplicate_distance = 6
; end_filament_gcode = "; Filament-specific end gcode \n;END gcode for filament\n"
; end_gcode = 
; extruder_clearance_height = 20
; extruder_clearance_radius = 20
; extruder_offset = 0x0
; extrusion_axis = E
; extrusion_multiplier = 1
; fan_always_on = 0
; fan_below_layer_time = 60
; filament_colour = #FFFFFF
; filament_cost = 0
; filament_density = 0
; filament_diameter = 3
; filament_max_volumetric_speed = 0
; filament_notes = ""
; first_layer_acceleration = 0
; first_layer_bed_temperature = 0
; first_layer_extrusion_width = 100%
; first_layer_speed = 15
; first_layer_temperature = 0
; gcode_arcs = 0
; gcode_comments = 0
; gcode_flavor = reprap
; has_heatbed = 0
; infill_acceleration = 0
; infill_first = 0
; interior_brim_width = 0
; layer_gcode = 
; max_fan_speed = 100
; max_layer_height = 10
; max_print_speed = 80
; max_volumetric_speed = 0
; min_fan_speed = 35
; min_layer_height = 0
; min_print_speed = 10
; min_skirt_length = 0
; notes = 
; nozzle_diameter = 0.58
; only_retract_when_crossing_perimeters = 0
; ooze_prevention = 0
; output_filename_format = [input_filename_base].gcode
; perimeter_acceleration = 0
; post_process = /Users/nathanbrown/Downloads/macOS/ArcWelder
; pressure_advance = 0
; printer_notes = 
; resolution = 0
; retract_before_travel = 2
; retract_layer_change = 0
; retract_length = 0
; retract_length_toolchange = 10
; retract_lift = 0
; retract_lift_above = 0
; retract_lift_below = 0
; retract_restart_extra = 0
; retract_restart_extra_toolchange = 0
; retract_speed = 40
; skirt_distance = 6
; skirt_height = 1
; skirts = 0
; slowdown_below_layer_time = 5
; spiral_vase = 0
; standby_temperature_delta = -5
; start_filament_gcode = "; Filament gcode\n"
; start_gcode = 
; temperature = 0
; threads = 16
; toolchange_gcode = 
; travel_speed = 15
; use_firmware_retraction = 0
; use_relative_e_distances = 0
; use_set_and_wait_bed = 0
; use_set_and_wait_extruder = 0
; use_volumetric_e = 0
; vibration_limit = 0
; wipe = 0
; z_offset = -150
; z_steps_per_mm = 0
; adaptive_slicing = 0
; adaptive_slicing_quality = 75%
; dont_support_bridges = 1
; extrusion_width = 100%
; first_layer_height = 0.5
; infill_only_where_needed = 0
; interface_shells = 0
; layer_height = 0.5
; match_horizontal_surfaces = 0
; raft_layers = 0
; regions_overlap = 0
; seam_position = aligned
; sequential_print_priority = 0
; support_material = 0
; support_material_angle = 0
; support_material_buildplate_only = 0
; support_material_contact_distance = 0.2
; support_material_enforce_layers = 0
; support_material_extruder = 1
; support_material_extrusion_width = 0
; support_material_interface_extruder = 1
; support_material_interface_extrusion_width = 0
; support_material_interface_layers = 3
; support_material_interface_spacing = 0
; support_material_interface_speed = 100%
; support_material_max_layers = 0
; support_material_pattern = pillars
; support_material_spacing = 2.5
; support_material_speed = 15
; support_material_threshold = 60%
; xy_size_compensation = 0
; bottom_infill_pattern = rectilinear
; bottom_solid_layers = 0
; bridge_flow_ratio = 1
; bridge_speed = 15
; external_perimeter_extrusion_width = 100%
; external_perimeter_speed = 15
; external_perimeters_first = 0
; extra_perimeters = 0
; fill_angle = 45
; fill_density = 100%
; fill_gaps = 0
; fill_pattern = rectilinear
; gap_fill_speed = 15
; infill_every_layers = 1
; infill_extruder = 1
; infill_extrusion_width = 100%
; infill_overlap = 0
; infill_speed = 15
; overhangs = 0
; perimeter_extruder = 1
; perimeter_extrusion_width = 100%
; perimeter_speed = 15
; perimeters = 2
; small_perimeter_speed = 15
; solid_infill_below_area = 50
; solid_infill_every_layers = 0
; solid_infill_extruder = 1
; solid_infill_extrusion_width = 100%
; solid_infill_speed = 15
; thin_walls = 0
; top_infill_extrusion_width = 100%
; top_infill_pattern = rectilinear
; top_solid_infill_speed = 15
; top_solid_layers = 0
