; generated by Slic3r 1.3.0 on 2023-03-24 at 19:19:54

; external perimeters extrusion width = 0.50mm (2.95mm^3/s)
; perimeters extrusion width = 0.50mm (2.95mm^3/s)
; infill extrusion width = 0.50mm (2.95mm^3/s)
; solid infill extrusion width = 0.50mm (2.95mm^3/s)
; top infill extrusion width = 0.50mm (2.95mm^3/s)


; Filament gcode

G21 ; set units to millimeters
G90 ; use absolute coordinates
G1 Z-149.500 F900.000
G1 X12.970 Y12.923 F900.000
G1 F900
G1 X14.340 Y11.684 0.00000
G1 X15.844 Y10.651 0.00000
G1 X17.509 Y9.806 0.00000
G1 X19.255 Y9.200 0.00000
G1 X21.065 Y8.832 0.00000
G1 X22.886 Y8.710 0.00000
G1 X24.749 Y8.832 0.00000
G1 X26.560 Y9.200 0.00000
G1 X28.305 Y9.806 0.00000
G1 X29.953 Y10.639 0.00000
G1 X31.475 Y11.684 0.00000
G1 X32.845 Y12.923 0.00000
G1 X34.037 Y14.333 0.00000
G1 X35.031 Y15.890 0.00000
G1 X35.809 Y17.565 0.00000
G1 X36.356 Y19.329 0.00000
G1 X36.663 Y21.150 0.00000
G1 X36.725 Y22.996 0.00000
G1 X36.540 Y24.833 0.00000
G1 X36.112 Y26.630 0.00000
G1 X35.448 Y28.353 0.00000
G1 X34.560 Y29.973 0.00000
G1 X33.465 Y31.459 0.00000
G1 X32.181 Y32.787 0.00000
G1 X30.749 Y33.918 0.00000
G1 X29.144 Y34.872 0.00000
G1 X27.442 Y35.594 0.00000
G1 X25.661 Y36.082 0.00000
G1 X23.831 Y36.328 0.00000
G1 X21.984 Y36.328 0.00000
G1 X20.154 Y36.082 0.00000
G1 X18.373 Y35.594 0.00000
G1 X16.672 Y34.873 0.00000
G1 X15.083 Y33.931 0.00000
G1 X13.634 Y32.787 0.00000
G1 X12.350 Y31.459 0.00000
G1 X11.255 Y29.973 0.00000
G1 X10.367 Y28.353 0.00000
G1 X9.703 Y26.630 0.00000
G1 X9.275 Y24.833 0.00000
G1 X9.090 Y22.996 0.00000
G1 X9.152 Y21.150 0.00000
G1 X9.456 Y19.350 0.00000
G1 X10.006 Y17.566 0.00000
G1 X10.784 Y15.890 0.00000
G1 X11.778 Y14.333 0.00000
G1 X12.914 Y12.989 0.00000
G1 X13.253 Y13.196 F900.000
G1 F900
G1 X14.583 Y11.993 0.00000
G1 X16.045 Y10.989 0.00000
G1 X17.663 Y10.169 0.00000
G1 X19.359 Y9.580 0.00000
G1 X21.117 Y9.222 0.00000
G1 X22.886 Y9.104 0.00000
G1 X24.697 Y9.222 0.00000
G1 X26.456 Y9.580 0.00000
G1 X28.151 Y10.168 0.00000
G1 X29.752 Y10.977 0.00000
G1 X31.232 Y11.993 0.00000
G1 X32.562 Y13.196 0.00000
G1 X33.721 Y14.567 0.00000
G1 X34.686 Y16.079 0.00000
G1 X35.441 Y17.706 0.00000
G1 X35.973 Y19.420 0.00000
G1 X36.271 Y21.189 0.00000
G1 X36.331 Y22.983 0.00000
G1 X36.152 Y24.768 0.00000
G1 X35.736 Y26.513 0.00000
G1 X35.091 Y28.187 0.00000
G1 X34.229 Y29.761 0.00000
G1 X33.164 Y31.205 0.00000
G1 X31.917 Y32.495 0.00000
G1 X30.526 Y33.594 0.00000
G1 X28.966 Y34.521 0.00000
G1 X27.313 Y35.222 0.00000
G1 X25.583 Y35.696 0.00000
G1 X23.805 Y35.935 0.00000
G1 X22.010 Y35.935 0.00000
G1 X20.232 Y35.696 0.00000
G1 X18.502 Y35.222 0.00000
G1 X16.850 Y34.521 0.00000
G1 X15.306 Y33.607 0.00000
G1 X13.898 Y32.495 0.00000
G1 X12.651 Y31.205 0.00000
G1 X11.586 Y29.761 0.00000
G1 X10.724 Y28.187 0.00000
G1 X10.079 Y26.513 0.00000
G1 X9.663 Y24.768 0.00000
G1 X9.484 Y22.983 0.00000
G1 X9.544 Y21.189 0.00000
G1 X9.839 Y19.441 0.00000
G1 X10.373 Y17.707 0.00000
G1 X11.129 Y16.079 0.00000
G1 X12.094 Y14.567 0.00000
G1 X13.197 Y13.263 0.00000
G1 X13.536 Y13.470 F900.000
G1 F900
G1 X14.827 Y12.302 0.00000
G1 X16.246 Y11.328 0.00000
G1 X17.817 Y10.531 0.00000
G1 X19.463 Y9.959 0.00000
G1 X21.170 Y9.612 0.00000
G1 X22.887 Y9.497 0.00000
G1 X24.644 Y9.612 0.00000
G1 X26.352 Y9.959 0.00000
G1 X27.997 Y10.531 0.00000
G1 X29.552 Y11.316 0.00000
G1 X30.988 Y12.302 0.00000
G1 X32.279 Y13.470 0.00000
G1 X33.404 Y14.800 0.00000
G1 X34.341 Y16.268 0.00000
G1 X35.074 Y17.848 0.00000
G1 X35.590 Y19.511 0.00000
G1 X35.880 Y21.229 0.00000
G1 X35.938 Y22.969 0.00000
G1 X35.764 Y24.702 0.00000
G1 X35.360 Y26.396 0.00000
G1 X34.734 Y28.022 0.00000
G1 X33.897 Y29.549 0.00000
G1 X32.864 Y30.951 0.00000
G1 X31.653 Y32.203 0.00000
G1 X30.303 Y33.270 0.00000
G1 X28.788 Y34.170 0.00000
G1 X27.184 Y34.850 0.00000
G1 X25.504 Y35.310 0.00000
G1 X23.778 Y35.542 0.00000
G1 X22.037 Y35.542 0.00000
G1 X20.311 Y35.310 0.00000
G1 X18.631 Y34.850 0.00000
G1 X17.027 Y34.170 0.00000
G1 X15.529 Y33.283 0.00000
G1 X14.162 Y32.203 0.00000
G1 X12.951 Y30.951 0.00000
G1 X11.918 Y29.549 0.00000
G1 X11.081 Y28.022 0.00000
G1 X10.455 Y26.396 0.00000
G1 X10.051 Y24.702 0.00000
G1 X9.877 Y22.969 0.00000
G1 X9.935 Y21.229 0.00000
G1 X10.221 Y19.532 0.00000
G1 X10.741 Y17.849 0.00000
G1 X11.474 Y16.268 0.00000
G1 X12.411 Y14.800 0.00000
G1 X13.480 Y13.536 0.00000
G1 X13.819 Y13.744 F900.000
G1 F900
G1 X15.071 Y12.611 0.00000
G1 X16.447 Y11.666 0.00000
G1 X17.971 Y10.893 0.00000
G1 X19.567 Y10.339 0.00000
G1 X21.222 Y10.002 0.00000
G1 X22.887 Y9.891 0.00000
G1 X24.592 Y10.002 0.00000
G1 X26.248 Y10.339 0.00000
G1 X27.844 Y10.893 0.00000
G1 X29.351 Y11.655 0.00000
G1 X30.744 Y12.611 0.00000
G1 X31.996 Y13.744 0.00000
G1 X33.087 Y15.033 0.00000
G1 X33.996 Y16.457 0.00000
G1 X34.707 Y17.989 0.00000
G1 X35.207 Y19.603 0.00000
G1 X35.488 Y21.268 0.00000
G1 X35.545 Y22.956 0.00000
G1 X35.375 Y24.637 0.00000
G1 X34.984 Y26.280 0.00000
G1 X34.377 Y27.856 0.00000
G1 X33.565 Y29.337 0.00000
G1 X32.563 Y30.697 0.00000
G1 X31.389 Y31.911 0.00000
G1 X30.080 Y32.945 0.00000
G1 X28.611 Y33.819 0.00000
G1 X27.055 Y34.478 0.00000
G1 X25.426 Y34.924 0.00000
G1 X23.752 Y35.150 0.00000
G1 X22.063 Y35.150 0.00000
G1 X20.389 Y34.924 0.00000
G1 X18.760 Y34.478 0.00000
G1 X17.205 Y33.819 0.00000
G1 X15.752 Y32.958 0.00000
G1 X14.426 Y31.911 0.00000
G1 X13.252 Y30.697 0.00000
G1 X12.250 Y29.337 0.00000
G1 X11.438 Y27.856 0.00000
G1 X10.831 Y26.280 0.00000
G1 X10.439 Y24.637 0.00000
G1 X10.270 Y22.956 0.00000
G1 X10.327 Y21.268 0.00000
G1 X10.604 Y19.623 0.00000
G1 X11.108 Y17.990 0.00000
G1 X11.819 Y16.457 0.00000
G1 X12.728 Y15.033 0.00000
G1 X13.762 Y13.810 0.00000
G1 X14.101 Y14.017 F900.000
G1 F900
G1 X15.315 Y12.919 0.00000
G1 X16.648 Y12.005 0.00000
G1 X18.125 Y11.255 0.00000
G1 X19.671 Y10.718 0.00000
G1 X21.275 Y10.392 0.00000
G1 X22.887 Y10.284 0.00000
G1 X24.540 Y10.392 0.00000
G1 X26.144 Y10.718 0.00000
G1 X27.690 Y11.255 0.00000
G1 X29.151 Y11.993 0.00000
G1 X30.500 Y12.919 0.00000
G1 X31.713 Y14.017 0.00000
G1 X32.770 Y15.267 0.00000
G1 X33.651 Y16.646 0.00000
G1 X34.339 Y18.131 0.00000
G1 X34.824 Y19.694 0.00000
G1 X35.097 Y21.307 0.00000
G1 X35.151 Y22.943 0.00000
G1 X34.987 Y24.571 0.00000
G1 X34.608 Y26.163 0.00000
G1 X34.020 Y27.690 0.00000
G1 X33.233 Y29.126 0.00000
G1 X32.263 Y30.443 0.00000
G1 X31.125 Y31.619 0.00000
G1 X29.857 Y32.621 0.00000
G1 X28.433 Y33.467 0.00000
G1 X26.926 Y34.106 0.00000
G1 X25.348 Y34.539 0.00000
G1 X23.726 Y34.757 0.00000
G1 X22.089 Y34.757 0.00000
G1 X20.467 Y34.539 0.00000
G1 X18.889 Y34.106 0.00000
G1 X17.382 Y33.468 0.00000
G1 X15.974 Y32.634 0.00000
G1 X14.690 Y31.619 0.00000
G1 X13.552 Y30.443 0.00000
G1 X12.582 Y29.126 0.00000
G1 X11.795 Y27.690 0.00000
G1 X11.207 Y26.163 0.00000
G1 X10.828 Y24.571 0.00000
G1 X10.664 Y22.943 0.00000
G1 X10.718 Y21.307 0.00000
G1 X10.987 Y19.714 0.00000
G1 X11.475 Y18.131 0.00000
G1 X12.164 Y16.646 0.00000
G1 X13.045 Y15.267 0.00000
G1 X14.045 Y14.084 0.00000
G1 X14.101 Y14.017 F900.000
G1 X12.403 Y12.906 F900.000
G1 F900
G1 X12.628 Y12.563 0.00000
G1 X16.296 Y9.842 0.00000
G1 X19.582 Y8.755 0.00000
G1 X20.452 Y8.425 0.00000
G1 X25.009 Y8.380 0.00000
G1 X29.279 Y9.722 0.00000
G1 X32.926 Y12.318 0.00000
G1 X35.599 Y15.923 0.00000
G1 X36.686 Y19.208 0.00000
G1 X37.017 Y20.078 0.00000
G1 X37.061 Y24.635 0.00000
G1 X35.716 Y28.915 0.00000
G1 X33.697 Y31.726 0.00000
G1 X33.187 Y32.505 0.00000
G1 X29.519 Y35.225 0.00000
G1 X26.233 Y36.312 0.00000
G1 X25.363 Y36.643 0.00000
G1 X20.806 Y36.687 0.00000
G1 X16.526 Y35.342 0.00000
G1 X13.715 Y33.323 0.00000
G1 X12.936 Y32.814 0.00000
G1 X10.216 Y29.145 0.00000
G1 X9.129 Y25.859 0.00000
G1 X8.798 Y24.989 0.00000
G1 X8.754 Y20.433 0.00000
G1 X10.099 Y16.152 0.00000
G1 X12.118 Y13.342 0.00000
G1 X12.355 Y12.979 0.00000
G1 X12.074 Y12.691 F900.000
G1 F900
G1 X12.337 Y12.289 0.00000
G1 X16.113 Y9.489 0.00000
G1 X19.450 Y8.385 0.00000
G1 X20.378 Y8.033 0.00000
G1 X25.067 Y7.987 0.00000
G1 X29.456 Y9.366 0.00000
G1 X33.205 Y12.035 0.00000
G1 X35.952 Y15.739 0.00000
G1 X37.056 Y19.076 0.00000
G1 X37.409 Y20.004 0.00000
G1 X37.454 Y24.693 0.00000
G1 X36.072 Y29.093 0.00000
G1 X34.021 Y31.948 0.00000
G1 X33.478 Y32.778 0.00000
G1 X29.702 Y35.578 0.00000
G1 X26.365 Y36.682 0.00000
G1 X25.437 Y37.035 0.00000
G1 X20.748 Y37.080 0.00000
G1 X16.348 Y35.698 0.00000
G1 X13.493 Y33.647 0.00000
G1 X12.663 Y33.104 0.00000
G1 X9.863 Y29.328 0.00000
G1 X8.759 Y25.991 0.00000
G1 X8.406 Y25.063 0.00000
G1 X8.361 Y20.374 0.00000
G1 X9.743 Y15.974 0.00000
G1 X11.794 Y13.119 0.00000
G1 X12.027 Y12.764 0.00000
G1 X12.144 Y11.944 F900.000
G1 F900
G1 X15.925 Y9.140 0.00000
G1 X15.789 Y8.871 0.00000
G1 X15.942 Y9.133 0.00000
G1 X19.319 Y8.015 0.00000
G1 X20.396 Y7.606 0.00000
G1 X20.349 Y7.293 0.00000
G1 X20.424 Y7.639 0.00000
G1 X25.126 Y7.594 0.00000
G1 X25.184 Y7.248 0.00000
G1 X25.149 Y7.601 0.00000
G1 X29.634 Y9.011 0.00000
G1 X29.796 Y8.700 0.00000
G1 X29.653 Y9.024 0.00000
G1 X33.488 Y11.754 0.00000
G1 X33.702 Y11.541 0.00000
G1 X33.498 Y11.770 0.00000
G1 X36.301 Y15.551 0.00000
G1 X36.571 Y15.415 0.00000
G1 X36.309 Y15.568 0.00000
G1 X37.426 Y18.945 0.00000
G1 X37.837 Y20.026 0.00000
G1 X38.102 Y19.985 0.00000
G1 X37.802 Y20.051 0.00000
G1 X37.847 Y24.752 0.00000
G1 X38.193 Y24.810 0.00000
G1 X37.840 Y24.775 0.00000
G1 X36.431 Y29.260 0.00000
G1 X36.742 Y29.422 0.00000
G1 X36.420 Y29.281 0.00000
G1 X34.345 Y32.170 0.00000
G1 X33.711 Y33.138 0.00000
G1 X33.900 Y33.328 0.00000
G1 X33.671 Y33.124 0.00000
G1 X29.890 Y35.927 0.00000
G1 X30.026 Y36.197 0.00000
G1 X29.873 Y35.935 0.00000
G1 X26.496 Y37.052 0.00000
G1 X25.415 Y37.463 0.00000
G1 X25.456 Y37.728 0.00000
G1 X25.391 Y37.428 0.00000
G1 X20.689 Y37.474 0.00000
G1 X20.631 Y37.819 0.00000
G1 X20.666 Y37.466 0.00000
G1 X16.181 Y36.057 0.00000
G1 X16.019 Y36.368 0.00000
G1 X16.160 Y36.046 0.00000
G1 X13.271 Y33.971 0.00000
G1 X12.303 Y33.338 0.00000
G1 X12.113 Y33.526 0.00000
G1 X12.317 Y33.297 0.00000
G1 X9.514 Y29.516 0.00000
G1 X9.244 Y29.653 0.00000
G1 X9.506 Y29.500 0.00000
G1 X8.389 Y26.123 0.00000
G1 X7.978 Y25.041 0.00000
G1 X7.713 Y25.082 0.00000
G1 X8.013 Y25.017 0.00000
G1 X7.968 Y20.315 0.00000
G1 X7.622 Y20.257 0.00000
G1 X7.975 Y20.293 0.00000
G1 X9.386 Y15.802 0.00000
G1 X9.117 Y15.664 0.00000
G1 X9.395 Y15.786 0.00000
G1 X11.470 Y12.897 0.00000
G1 X12.104 Y11.929 0.00000
G1 X11.915 Y11.739 0.00000
G1 X12.079 Y11.886 0.00000
G1 X12.167 Y11.438 F900.000
G1 F900
G1 X15.425 Y9.022 0.00000
G1 X13.684 Y5.577 0.00000
G1 X14.278 Y5.259 0.00000
G1 X15.651 Y7.856 0.00000
G1 X16.120 Y8.660 0.00000
G1 X19.187 Y7.645 0.00000
G1 X19.961 Y7.351 0.00000
G1 X19.374 Y3.557 0.00000
G1 X20.038 Y3.438 0.00000
G1 X20.542 Y6.332 0.00000
G1 X20.740 Y7.244 0.00000
G1 X24.793 Y7.204 0.00000
G1 X25.410 Y3.399 0.00000
G1 X26.083 Y3.486 0.00000
G1 X25.664 Y6.396 0.00000
G1 X25.571 Y7.322 0.00000
G1 X29.438 Y8.537 0.00000
G1 X31.203 Y5.105 0.00000
G1 X31.811 Y5.398 0.00000
G1 X30.517 Y8.036 0.00000
G1 X30.141 Y8.890 0.00000
G1 X33.446 Y11.242 0.00000
G1 X36.184 Y8.522 0.00000
G1 X36.577 Y8.891 0.00000
G1 X36.672 Y8.991 0.00000
G1 X34.623 Y11.099 0.00000
G1 X34.004 Y11.793 0.00000
G1 X36.419 Y15.051 0.00000
G1 X39.864 Y13.310 0.00000
G1 X40.182 Y13.904 0.00000
G1 X37.585 Y15.278 0.00000
G1 X36.781 Y15.746 0.00000
G1 X37.796 Y18.813 0.00000
G1 X38.091 Y19.590 0.00000
G1 X41.884 Y19.001 0.00000
G1 X42.003 Y19.665 0.00000
G1 X39.109 Y20.168 0.00000
G1 X38.198 Y20.366 0.00000
G1 X38.237 Y24.419 0.00000
G1 X42.047 Y25.037 0.00000
G1 X41.955 Y25.709 0.00000
G1 X39.045 Y25.290 0.00000
G1 X38.119 Y25.197 0.00000
G1 X36.904 Y29.064 0.00000
G1 X40.337 Y30.829 0.00000
G1 X40.041 Y31.440 0.00000
G1 X37.403 Y30.142 0.00000
G1 X36.553 Y29.769 0.00000
G1 X34.669 Y32.392 0.00000
G1 X34.214 Y33.087 0.00000
G1 X36.919 Y35.810 0.00000
G1 X36.550 Y36.204 0.00000
G1 X36.450 Y36.298 0.00000
G1 X34.343 Y34.249 0.00000
G1 X33.648 Y33.630 0.00000
G1 X30.390 Y36.046 0.00000
G1 X32.131 Y39.490 0.00000
G1 X31.537 Y39.808 0.00000
G1 X30.164 Y37.211 0.00000
G1 X29.695 Y36.408 0.00000
G1 X26.628 Y37.422 0.00000
G1 X25.852 Y37.718 0.00000
G1 X26.440 Y41.510 0.00000
G1 X25.777 Y41.630 0.00000
G1 X25.273 Y38.735 0.00000
G1 X25.075 Y37.824 0.00000
G1 X21.022 Y37.863 0.00000
G1 X20.404 Y41.673 0.00000
G1 X19.735 Y41.582 0.00000
G1 X20.151 Y38.673 0.00000
G1 X20.244 Y37.745 0.00000
G1 X16.377 Y36.530 0.00000
G1 X14.612 Y39.963 0.00000
G1 X14.001 Y39.667 0.00000
G1 X15.299 Y37.029 0.00000
G1 X15.673 Y36.180 0.00000
G1 X13.049 Y34.295 0.00000
G1 X12.354 Y33.840 0.00000
G1 X9.631 Y36.546 0.00000
G1 X9.238 Y36.176 0.00000
G1 X9.143 Y36.077 0.00000
G1 X11.192 Y33.969 0.00000
G1 X11.811 Y33.274 0.00000
G1 X9.396 Y30.016 0.00000
G1 X5.951 Y31.757 0.00000
G1 X5.633 Y31.163 0.00000
G1 X8.230 Y29.790 0.00000
G1 X9.034 Y29.321 0.00000
G1 X8.019 Y26.254 0.00000
G1 X7.724 Y25.478 0.00000
G1 X3.931 Y26.066 0.00000
G1 X3.812 Y25.403 0.00000
G1 X6.706 Y24.899 0.00000
G1 X7.617 Y24.701 0.00000
G1 X7.578 Y20.648 0.00000
G1 X3.768 Y20.030 0.00000
G1 X3.860 Y19.358 0.00000
G1 X6.770 Y19.777 0.00000
G1 X7.696 Y19.870 0.00000
G1 X8.912 Y16.000 0.00000
G1 X5.479 Y14.237 0.00000
G1 X5.774 Y13.628 0.00000
G1 X8.412 Y14.925 0.00000
G1 X9.262 Y15.299 0.00000
G1 X11.146 Y12.675 0.00000
G1 X11.601 Y11.980 0.00000
G1 X8.896 Y9.258 0.00000
G1 X9.265 Y8.864 0.00000
G1 X9.365 Y8.769 0.00000
G1 X11.472 Y10.818 0.00000
G1 X12.102 Y11.380 0.00000
G1 X12.190 Y10.932 F900.000
G1 F900
G1 X14.925 Y8.904 0.00000
G1 X13.157 Y5.420 0.00000
G1 X13.977 Y4.968 0.00000
G1 X14.451 Y4.741 0.00000
G1 X15.995 Y7.667 0.00000
G1 X16.299 Y8.187 0.00000
G1 X19.056 Y7.275 0.00000
G1 X19.526 Y7.096 0.00000
G1 X18.923 Y3.244 0.00000
G1 X19.842 Y3.068 0.00000
G1 X20.363 Y2.999 0.00000
G1 X20.928 Y6.258 0.00000
G1 X21.056 Y6.848 0.00000
G1 X24.460 Y6.815 0.00000
G1 X25.078 Y2.959 0.00000
G1 X26.010 Y3.074 0.00000
G1 X26.526 Y3.169 0.00000
G1 X26.054 Y6.444 0.00000
G1 X25.994 Y7.043 0.00000
G1 X29.242 Y8.064 0.00000
G1 X31.022 Y4.586 0.00000
G1 X31.870 Y4.984 0.00000
G1 X32.331 Y5.234 0.00000
G1 X30.872 Y8.203 0.00000
G1 X30.630 Y8.755 0.00000
G1 X33.404 Y10.730 0.00000
G1 X36.171 Y7.972 0.00000
G1 X36.854 Y8.612 0.00000
G1 X37.217 Y8.994 0.00000
G1 X34.910 Y11.366 0.00000
G1 X34.509 Y11.816 0.00000
G1 X36.538 Y14.551 0.00000
G1 X40.022 Y12.783 0.00000
G1 X40.474 Y13.603 0.00000
G1 X40.700 Y14.077 0.00000
G1 X37.775 Y15.622 0.00000
G1 X37.254 Y15.925 0.00000
G1 X38.166 Y18.682 0.00000
G1 X38.345 Y19.153 0.00000
G1 X42.197 Y18.549 0.00000
G1 X42.373 Y19.469 0.00000
G1 X42.443 Y19.989 0.00000
G1 X39.183 Y20.554 0.00000
G1 X38.593 Y20.682 0.00000
G1 X38.626 Y24.086 0.00000
G1 X42.484 Y24.705 0.00000
G1 X42.368 Y25.634 0.00000
G1 X42.272 Y26.152 0.00000
G1 X38.997 Y25.680 0.00000
G1 X38.398 Y25.620 0.00000
G1 X37.377 Y28.868 0.00000
G1 X40.855 Y30.648 0.00000
G1 X40.457 Y31.496 0.00000
G1 X40.207 Y31.959 0.00000
G1 X37.238 Y30.498 0.00000
G1 X36.687 Y30.256 0.00000
G1 X34.993 Y32.614 0.00000
G1 X34.717 Y33.036 0.00000
G1 X37.470 Y35.797 0.00000
G1 X36.829 Y36.480 0.00000
G1 X36.447 Y36.843 0.00000
G1 X34.075 Y34.537 0.00000
G1 X33.625 Y34.136 0.00000
G1 X30.890 Y36.164 0.00000
G1 X32.658 Y39.648 0.00000
G1 X31.838 Y40.100 0.00000
G1 X31.364 Y40.326 0.00000
G1 X29.820 Y37.401 0.00000
G1 X29.516 Y36.880 0.00000
G1 X26.759 Y37.793 0.00000
G1 X26.288 Y37.972 0.00000
G1 X26.892 Y41.823 0.00000
G1 X25.972 Y42.000 0.00000
G1 X25.452 Y42.069 0.00000
G1 X24.887 Y38.809 0.00000
G1 X24.759 Y38.220 0.00000
G1 X21.355 Y38.253 0.00000
G1 X20.737 Y42.111 0.00000
G1 X19.807 Y41.994 0.00000
G1 X19.291 Y41.899 0.00000
G1 X19.761 Y38.624 0.00000
G1 X19.821 Y38.024 0.00000
G1 X16.573 Y37.003 0.00000
G1 X14.793 Y40.482 0.00000
G1 X13.945 Y40.084 0.00000
G1 X13.482 Y39.833 0.00000
G1 X14.943 Y36.864 0.00000
G1 X15.185 Y36.313 0.00000
G1 X12.827 Y34.619 0.00000
G1 X12.405 Y34.343 0.00000
G1 X9.644 Y37.096 0.00000
G1 X8.961 Y36.455 0.00000
G1 X8.598 Y36.074 0.00000
G1 X10.904 Y33.701 0.00000
G1 X11.306 Y33.251 0.00000
G1 X9.277 Y30.516 0.00000
G1 X5.793 Y32.284 0.00000
G1 X5.341 Y31.464 0.00000
G1 X5.115 Y30.990 0.00000
G1 X8.040 Y29.446 0.00000
G1 X8.561 Y29.142 0.00000
G1 X7.649 Y26.386 0.00000
G1 X7.470 Y25.915 0.00000
G1 X3.618 Y26.519 0.00000
G1 X3.442 Y25.599 0.00000
G1 X3.372 Y25.078 0.00000
G1 X6.632 Y24.513 0.00000
G1 X7.222 Y24.385 0.00000
G1 X7.189 Y20.981 0.00000
G1 X3.331 Y20.363 0.00000
G1 X3.447 Y19.433 0.00000
G1 X3.543 Y18.916 0.00000
G1 X6.818 Y19.387 0.00000
G1 X7.417 Y19.447 0.00000
G1 X8.438 Y16.199 0.00000
G1 X4.960 Y14.419 0.00000
G1 X5.358 Y13.572 0.00000
G1 X5.608 Y13.109 0.00000
G1 X8.577 Y14.569 0.00000
G1 X9.128 Y14.811 0.00000
G1 X10.822 Y12.453 0.00000
G1 X11.098 Y12.031 0.00000
G1 X8.345 Y9.270 0.00000
G1 X8.986 Y8.587 0.00000
G1 X9.368 Y8.224 0.00000
G1 X11.740 Y10.531 0.00000
G1 X12.125 Y10.874 0.00000
G1 X12.561 Y11.378 F900.000
G1 Z-149.000 F900.000
G1 X13.531 Y12.415 F900.000
G1 F900
G1 X14.340 Y11.684 0.00000
G1 X15.862 Y10.639 0.00000
G1 X17.510 Y9.806 0.00000
G1 X19.255 Y9.200 0.00000
G1 X21.065 Y8.832 0.00000
G1 X22.843 Y8.713 0.00000
G1 X24.746 Y8.831 0.00000
G1 X26.560 Y9.200 0.00000
G1 X28.305 Y9.806 0.00000
G1 X29.895 Y10.610 0.00000
G1 X31.472 Y11.681 0.00000
G1 X32.845 Y12.923 0.00000
G1 X34.037 Y14.333 0.00000
G1 X35.031 Y15.890 0.00000
G1 X35.809 Y17.565 0.00000
G1 X36.356 Y19.329 0.00000
G1 X36.663 Y21.150 0.00000
G1 X36.725 Y22.996 0.00000
G1 X36.540 Y24.833 0.00000
G1 X36.112 Y26.630 0.00000
G1 X35.448 Y28.353 0.00000
G1 X34.591 Y29.916 0.00000
G1 X33.468 Y31.456 0.00000
G1 X32.181 Y32.787 0.00000
G1 X30.732 Y33.931 0.00000
G1 X29.143 Y34.873 0.00000
G1 X27.442 Y35.594 0.00000
G1 X25.661 Y36.082 0.00000
G1 X23.831 Y36.328 0.00000
G1 X21.984 Y36.328 0.00000
G1 X20.154 Y36.082 0.00000
G1 X18.373 Y35.594 0.00000
G1 X16.672 Y34.873 0.00000
G1 X15.083 Y33.931 0.00000
G1 X13.634 Y32.787 0.00000
G1 X12.350 Y31.459 0.00000
G1 X11.293 Y30.025 0.00000
G1 X10.369 Y28.357 0.00000
G1 X9.698 Y26.617 0.00000
G1 X9.275 Y24.832 0.00000
G1 X9.090 Y22.996 0.00000
G1 X9.152 Y21.150 0.00000
G1 X9.459 Y19.329 0.00000
G1 X10.006 Y17.565 0.00000
G1 X10.784 Y15.890 0.00000
G1 X11.743 Y14.387 0.00000
G1 X12.967 Y12.926 0.00000
G1 X13.467 Y12.473 0.00000
G1 X13.795 Y12.706 F900.000
G1 F900
G1 X14.583 Y11.993 0.00000
G1 X16.063 Y10.977 0.00000
G1 X17.664 Y10.168 0.00000
G1 X19.359 Y9.580 0.00000
G1 X21.117 Y9.222 0.00000
G1 X22.844 Y9.107 0.00000
G1 X24.694 Y9.222 0.00000
G1 X26.456 Y9.580 0.00000
G1 X28.151 Y10.168 0.00000
G1 X29.696 Y10.949 0.00000
G1 X31.229 Y11.991 0.00000
G1 X32.562 Y13.196 0.00000
G1 X33.721 Y14.567 0.00000
G1 X34.686 Y16.079 0.00000
G1 X35.441 Y17.706 0.00000
G1 X35.973 Y19.420 0.00000
G1 X36.271 Y21.189 0.00000
G1 X36.331 Y22.983 0.00000
G1 X36.152 Y24.768 0.00000
G1 X35.736 Y26.513 0.00000
G1 X35.091 Y28.187 0.00000
G1 X34.259 Y29.705 0.00000
G1 X33.167 Y31.203 0.00000
G1 X31.917 Y32.495 0.00000
G1 X30.509 Y33.607 0.00000
G1 X28.965 Y34.521 0.00000
G1 X27.313 Y35.222 0.00000
G1 X25.583 Y35.696 0.00000
G1 X23.805 Y35.935 0.00000
G1 X22.010 Y35.935 0.00000
G1 X20.232 Y35.696 0.00000
G1 X18.502 Y35.222 0.00000
G1 X16.850 Y34.521 0.00000
G1 X15.306 Y33.607 0.00000
G1 X13.898 Y32.495 0.00000
G1 X12.651 Y31.205 0.00000
G1 X11.624 Y29.812 0.00000
G1 X10.725 Y28.191 0.00000
G1 X10.074 Y26.501 0.00000
G1 X9.663 Y24.767 0.00000
G1 X9.484 Y22.983 0.00000
G1 X9.544 Y21.189 0.00000
G1 X9.842 Y19.420 0.00000
G1 X10.374 Y17.706 0.00000
G1 X11.129 Y16.079 0.00000
G1 X12.060 Y14.620 0.00000
G1 X13.250 Y13.199 0.00000
G1 X13.730 Y12.765 0.00000
G1 X14.058 Y12.998 F900.000
G1 F900
G1 X14.827 Y12.302 0.00000
G1 X16.263 Y11.316 0.00000
G1 X17.818 Y10.531 0.00000
G1 X19.463 Y9.959 0.00000
G1 X21.170 Y9.612 0.00000
G1 X22.845 Y9.500 0.00000
G1 X24.643 Y9.612 0.00000
G1 X26.352 Y9.959 0.00000
G1 X27.997 Y10.531 0.00000
G1 X29.496 Y11.288 0.00000
G1 X30.986 Y12.300 0.00000
G1 X32.279 Y13.470 0.00000
G1 X33.404 Y14.800 0.00000
G1 X34.341 Y16.268 0.00000
G1 X35.074 Y17.848 0.00000
G1 X35.590 Y19.511 0.00000
G1 X35.880 Y21.229 0.00000
G1 X35.938 Y22.969 0.00000
G1 X35.764 Y24.702 0.00000
G1 X35.360 Y26.396 0.00000
G1 X34.734 Y28.022 0.00000
G1 X33.927 Y29.494 0.00000
G1 X32.866 Y30.949 0.00000
G1 X31.653 Y32.203 0.00000
G1 X30.286 Y33.283 0.00000
G1 X28.788 Y34.170 0.00000
G1 X27.184 Y34.850 0.00000
G1 X25.504 Y35.310 0.00000
G1 X23.778 Y35.542 0.00000
G1 X22.037 Y35.542 0.00000
G1 X20.311 Y35.310 0.00000
G1 X18.631 Y34.850 0.00000
G1 X17.027 Y34.170 0.00000
G1 X15.529 Y33.283 0.00000
G1 X14.162 Y32.203 0.00000
G1 X12.951 Y30.951 0.00000
G1 X11.955 Y29.599 0.00000
G1 X11.082 Y28.024 0.00000
G1 X10.450 Y26.384 0.00000
G1 X10.051 Y24.702 0.00000
G1 X9.877 Y22.969 0.00000
G1 X9.935 Y21.229 0.00000
G1 X10.225 Y19.511 0.00000
G1 X10.741 Y17.848 0.00000
G1 X11.474 Y16.268 0.00000
G1 X12.378 Y14.853 0.00000
G1 X13.534 Y13.472 0.00000
G1 X13.994 Y13.056 0.00000
G1 X14.321 Y13.289 F900.000
G1 F900
G1 X15.071 Y12.611 0.00000
G1 X16.464 Y11.655 0.00000
G1 X17.971 Y10.893 0.00000
G1 X19.567 Y10.339 0.00000
G1 X21.222 Y10.002 0.00000
G1 X22.846 Y9.894 0.00000
G1 X24.591 Y10.002 0.00000
G1 X26.248 Y10.339 0.00000
G1 X27.844 Y10.893 0.00000
G1 X29.296 Y11.627 0.00000
G1 X30.743 Y12.610 0.00000
G1 X31.996 Y13.744 0.00000
G1 X33.087 Y15.033 0.00000
G1 X33.996 Y16.457 0.00000
G1 X34.707 Y17.989 0.00000
G1 X35.207 Y19.603 0.00000
G1 X35.488 Y21.268 0.00000
G1 X35.545 Y22.956 0.00000
G1 X35.375 Y24.637 0.00000
G1 X34.984 Y26.280 0.00000
G1 X34.377 Y27.856 0.00000
G1 X33.595 Y29.283 0.00000
G1 X32.564 Y30.696 0.00000
G1 X31.389 Y31.911 0.00000
G1 X30.063 Y32.958 0.00000
G1 X28.610 Y33.819 0.00000
G1 X27.055 Y34.478 0.00000
G1 X25.426 Y34.924 0.00000
G1 X23.752 Y35.150 0.00000
G1 X22.063 Y35.150 0.00000
G1 X20.389 Y34.924 0.00000
G1 X18.760 Y34.478 0.00000
G1 X17.205 Y33.819 0.00000
G1 X15.752 Y32.958 0.00000
G1 X14.426 Y31.911 0.00000
G1 X13.252 Y30.697 0.00000
G1 X12.286 Y29.387 0.00000
G1 X11.439 Y27.858 0.00000
G1 X10.826 Y26.268 0.00000
G1 X10.439 Y24.636 0.00000
G1 X10.270 Y22.956 0.00000
G1 X10.327 Y21.268 0.00000
G1 X10.608 Y19.603 0.00000
G1 X11.108 Y17.989 0.00000
G1 X11.819 Y16.457 0.00000
G1 X12.695 Y15.085 0.00000
G1 X13.817 Y13.745 0.00000
G1 X14.257 Y13.347 0.00000
G1 X14.585 Y13.580 F900.000
G1 F900
G1 X15.315 Y12.919 0.00000
G1 X16.664 Y11.993 0.00000
G1 X18.125 Y11.255 0.00000
G1 X19.671 Y10.718 0.00000
G1 X21.275 Y10.392 0.00000
G1 X22.847 Y10.287 0.00000
G1 X24.540 Y10.392 0.00000
G1 X26.144 Y10.718 0.00000
G1 X27.690 Y11.255 0.00000
G1 X29.096 Y11.966 0.00000
G1 X30.499 Y12.919 0.00000
G1 X31.713 Y14.017 0.00000
G1 X32.770 Y15.267 0.00000
G1 X33.651 Y16.646 0.00000
G1 X34.339 Y18.131 0.00000
G1 X34.824 Y19.694 0.00000
G1 X35.097 Y21.307 0.00000
G1 X35.151 Y22.943 0.00000
G1 X34.987 Y24.571 0.00000
G1 X34.608 Y26.163 0.00000
G1 X34.020 Y27.690 0.00000
G1 X33.263 Y29.072 0.00000
G1 X32.263 Y30.443 0.00000
G1 X31.125 Y31.619 0.00000
G1 X29.841 Y32.634 0.00000
G1 X28.433 Y33.468 0.00000
G1 X26.926 Y34.106 0.00000
G1 X25.348 Y34.539 0.00000
G1 X23.726 Y34.757 0.00000
G1 X22.089 Y34.757 0.00000
G1 X20.467 Y34.539 0.00000
G1 X18.889 Y34.106 0.00000
G1 X17.382 Y33.468 0.00000
G1 X15.974 Y32.634 0.00000
G1 X14.690 Y31.619 0.00000
G1 X13.552 Y30.443 0.00000
G1 X12.618 Y29.174 0.00000
G1 X11.795 Y27.691 0.00000
G1 X11.202 Y26.151 0.00000
G1 X10.828 Y24.571 0.00000
G1 X10.664 Y22.943 0.00000
G1 X10.718 Y21.307 0.00000
G1 X10.991 Y19.694 0.00000
G1 X11.476 Y18.131 0.00000
G1 X12.164 Y16.646 0.00000
G1 X13.012 Y15.318 0.00000
G1 X14.101 Y14.018 0.00000
G1 X14.520 Y13.638 0.00000
G1 X14.444 Y13.017 F900.000
G1 X13.493 Y12.078 F900.000
G1 F900
G1 X14.318 Y11.425 0.00000
G1 X14.803 Y11.072 0.00000
G1 X16.092 Y10.036 0.00000
G1 X17.341 Y9.630 0.00000
G1 X18.171 Y9.314 0.00000
G1 X18.741 Y9.129 0.00000
G1 X20.288 Y8.541 0.00000
G1 X21.601 Y8.541 0.00000
G1 X22.488 Y8.498 0.00000
G1 X23.088 Y8.498 0.00000
G1 X24.740 Y8.416 0.00000
G1 X25.978 Y8.819 0.00000
G1 X29.034 Y9.689 0.00000
G1 X30.075 Y10.446 0.00000
G1 X30.818 Y10.931 0.00000
G1 X31.303 Y11.284 0.00000
G1 X32.688 Y12.190 0.00000
G1 X33.460 Y13.252 0.00000
G1 X34.016 Y13.944 0.00000
G1 X34.369 Y14.429 0.00000
G1 X35.406 Y15.718 0.00000
G1 X35.811 Y16.967 0.00000
G1 X36.127 Y17.797 0.00000
G1 X36.312 Y18.368 0.00000
G1 X36.900 Y19.914 0.00000
G1 X36.900 Y21.227 0.00000
G1 X36.944 Y22.114 0.00000
G1 X36.944 Y22.714 0.00000
G1 X37.025 Y24.366 0.00000
G1 X36.619 Y25.615 0.00000
G1 X36.386 Y26.472 0.00000
G1 X36.201 Y27.042 0.00000
G1 X35.768 Y28.639 0.00000
G1 X35.002 Y29.692 0.00000
G1 X33.230 Y32.330 0.00000
G1 X32.189 Y33.086 0.00000
G1 X31.497 Y33.642 0.00000
G1 X31.012 Y33.995 0.00000
G1 X29.723 Y35.032 0.00000
G1 X28.474 Y35.438 0.00000
G1 X27.644 Y35.753 0.00000
G1 X27.074 Y35.938 0.00000
G1 X25.527 Y36.526 0.00000
G1 X24.214 Y36.526 0.00000
G1 X23.327 Y36.570 0.00000
G1 X22.727 Y36.570 0.00000
G1 X21.075 Y36.651 0.00000
G1 X19.826 Y36.245 0.00000
G1 X18.969 Y36.013 0.00000
G1 X18.399 Y35.827 0.00000
G1 X16.802 Y35.394 0.00000
G1 X15.749 Y34.628 0.00000
G1 X13.112 Y32.856 0.00000
G1 X12.362 Y31.824 0.00000
G1 X10.401 Y29.324 0.00000
G1 X10.003 Y28.100 0.00000
G1 X9.688 Y27.270 0.00000
G1 X9.503 Y26.700 0.00000
G1 X8.915 Y25.153 0.00000
G1 X8.915 Y23.840 0.00000
G1 X8.871 Y22.954 0.00000
G1 X8.871 Y22.354 0.00000
G1 X8.790 Y20.701 0.00000
G1 X9.196 Y19.452 0.00000
G1 X9.429 Y18.596 0.00000
G1 X9.614 Y18.025 0.00000
G1 X10.047 Y16.429 0.00000
G1 X10.813 Y15.375 0.00000
G1 X12.585 Y12.738 0.00000
G1 X13.423 Y12.129 0.00000
G1 X13.263 Y11.760 F900.000
G1 F900
G1 X14.079 Y11.113 0.00000
G1 X14.564 Y10.760 0.00000
G1 X15.902 Y9.684 0.00000
G1 X17.211 Y9.259 0.00000
G1 X18.040 Y8.944 0.00000
G1 X18.611 Y8.758 0.00000
G1 X20.216 Y8.148 0.00000
G1 X21.591 Y8.148 0.00000
G1 X22.478 Y8.105 0.00000
G1 X23.078 Y8.105 0.00000
G1 X24.793 Y8.021 0.00000
G1 X26.093 Y8.443 0.00000
G1 X29.209 Y9.331 0.00000
G1 X30.298 Y10.122 0.00000
G1 X31.041 Y10.608 0.00000
G1 X31.526 Y10.961 0.00000
G1 X32.963 Y11.900 0.00000
G1 X33.772 Y13.014 0.00000
G1 X34.328 Y13.705 0.00000
G1 X34.681 Y14.191 0.00000
G1 X35.757 Y15.528 0.00000
G1 X36.182 Y16.837 0.00000
G1 X36.497 Y17.666 0.00000
G1 X36.683 Y18.237 0.00000
G1 X37.293 Y19.842 0.00000
G1 X37.293 Y21.218 0.00000
G1 X37.336 Y22.104 0.00000
G1 X37.336 Y22.704 0.00000
G1 X37.421 Y24.419 0.00000
G1 X36.995 Y25.727 0.00000
G1 X36.763 Y26.584 0.00000
G1 X36.577 Y27.155 0.00000
G1 X36.128 Y28.811 0.00000
G1 X35.324 Y29.917 0.00000
G1 X33.517 Y32.606 0.00000
G1 X32.428 Y33.398 0.00000
G1 X31.736 Y33.954 0.00000
G1 X31.251 Y34.307 0.00000
G1 X29.913 Y35.383 0.00000
G1 X28.604 Y35.808 0.00000
G1 X27.775 Y36.124 0.00000
G1 X27.204 Y36.309 0.00000
G1 X25.599 Y36.919 0.00000
G1 X24.224 Y36.919 0.00000
G1 X23.337 Y36.963 0.00000
G1 X22.737 Y36.963 0.00000
G1 X21.022 Y37.047 0.00000
G1 X19.714 Y36.622 0.00000
G1 X18.857 Y36.389 0.00000
G1 X18.287 Y36.204 0.00000
G1 X16.630 Y35.754 0.00000
G1 X15.524 Y34.950 0.00000
G1 X12.835 Y33.144 0.00000
G1 X12.048 Y32.061 0.00000
G1 X10.049 Y29.512 0.00000
G1 X9.633 Y28.231 0.00000
G1 X9.318 Y27.401 0.00000
G1 X9.132 Y26.830 0.00000
G1 X8.522 Y25.226 0.00000
G1 X8.522 Y23.850 0.00000
G1 X8.479 Y22.963 0.00000
G1 X8.479 Y22.363 0.00000
G1 X8.394 Y20.649 0.00000
G1 X8.820 Y19.340 0.00000
G1 X9.052 Y18.483 0.00000
G1 X9.238 Y17.913 0.00000
G1 X9.687 Y16.256 0.00000
G1 X10.491 Y15.150 0.00000
G1 X12.298 Y12.461 0.00000
G1 X13.192 Y11.811 0.00000
G1 X13.032 Y11.442 F900.000
G1 F900
G1 X13.840 Y10.801 0.00000
G1 X14.326 Y10.448 0.00000
G1 X15.687 Y9.353 0.00000
G1 X15.613 Y9.205 0.00000
G1 X15.692 Y9.340 0.00000
G1 X17.080 Y8.889 0.00000
G1 X17.910 Y8.573 0.00000
G1 X18.480 Y8.388 0.00000
G1 X20.113 Y7.767 0.00000
G1 X20.089 Y7.603 0.00000
G1 X20.122 Y7.756 0.00000
G1 X21.582 Y7.756 0.00000
G1 X22.468 Y7.712 0.00000
G1 X23.068 Y7.712 0.00000
G1 X24.813 Y7.626 0.00000
G1 X24.840 Y7.463 0.00000
G1 X24.825 Y7.618 0.00000
G1 X26.207 Y8.067 0.00000
G1 X29.322 Y8.954 0.00000
G1 X29.403 Y8.798 0.00000
G1 X29.340 Y8.941 0.00000
G1 X30.521 Y9.799 0.00000
G1 X31.264 Y10.285 0.00000
G1 X31.749 Y10.637 0.00000
G1 X33.211 Y11.594 0.00000
G1 X33.330 Y11.477 0.00000
G1 X33.226 Y11.594 0.00000
G1 X34.084 Y12.775 0.00000
G1 X34.640 Y13.467 0.00000
G1 X34.993 Y13.952 0.00000
G1 X36.088 Y15.313 0.00000
G1 X36.236 Y15.239 0.00000
G1 X36.101 Y15.318 0.00000
G1 X36.552 Y16.706 0.00000
G1 X36.868 Y17.536 0.00000
G1 X37.053 Y18.107 0.00000
G1 X37.674 Y19.739 0.00000
G1 X37.838 Y19.715 0.00000
G1 X37.685 Y19.748 0.00000
G1 X37.685 Y21.208 0.00000
G1 X37.729 Y22.095 0.00000
G1 X37.729 Y22.695 0.00000
G1 X37.815 Y24.439 0.00000
G1 X37.978 Y24.467 0.00000
G1 X37.823 Y24.451 0.00000
G1 X37.372 Y25.839 0.00000
G1 X37.139 Y26.696 0.00000
G1 X36.954 Y27.267 0.00000
G1 X36.496 Y28.953 0.00000
G1 X36.643 Y29.029 0.00000
G1 X36.500 Y28.966 0.00000
G1 X35.646 Y30.142 0.00000
G1 X33.840 Y32.830 0.00000
G1 X33.964 Y32.956 0.00000
G1 X33.847 Y32.852 0.00000
G1 X32.666 Y33.710 0.00000
G1 X31.975 Y34.266 0.00000
G1 X31.489 Y34.619 0.00000
G1 X30.128 Y35.714 0.00000
G1 X30.202 Y35.862 0.00000
G1 X30.123 Y35.728 0.00000
G1 X28.735 Y36.179 0.00000
G1 X27.905 Y36.494 0.00000
G1 X27.335 Y36.679 0.00000
G1 X25.702 Y37.300 0.00000
G1 X25.726 Y37.464 0.00000
G1 X25.693 Y37.312 0.00000
G1 X24.233 Y37.312 0.00000
G1 X23.347 Y37.355 0.00000
G1 X22.747 Y37.355 0.00000
G1 X21.002 Y37.441 0.00000
G1 X20.975 Y37.604 0.00000
G1 X20.990 Y37.449 0.00000
G1 X19.602 Y36.998 0.00000
G1 X18.745 Y36.765 0.00000
G1 X18.174 Y36.580 0.00000
G1 X16.489 Y36.122 0.00000
G1 X16.412 Y36.269 0.00000
G1 X16.475 Y36.127 0.00000
G1 X15.299 Y35.272 0.00000
G1 X12.611 Y33.466 0.00000
G1 X12.485 Y33.590 0.00000
G1 X12.589 Y33.474 0.00000
G1 X11.735 Y32.298 0.00000
G1 X9.737 Y29.750 0.00000
G1 X9.579 Y29.828 0.00000
G1 X9.714 Y29.750 0.00000
G1 X9.262 Y28.361 0.00000
G1 X8.947 Y27.531 0.00000
G1 X8.762 Y26.961 0.00000
G1 X8.141 Y25.328 0.00000
G1 X7.977 Y25.352 0.00000
G1 X8.130 Y25.319 0.00000
G1 X8.130 Y23.859 0.00000
G1 X8.086 Y22.973 0.00000
G1 X8.086 Y22.373 0.00000
G1 X8.000 Y20.628 0.00000
G1 X7.837 Y20.601 0.00000
G1 X7.992 Y20.616 0.00000
G1 X8.443 Y19.228 0.00000
G1 X8.676 Y18.371 0.00000
G1 X8.861 Y17.801 0.00000
G1 X9.319 Y16.115 0.00000
G1 X9.172 Y16.038 0.00000
G1 X9.315 Y16.101 0.00000
G1 X10.169 Y14.925 0.00000
G1 X11.975 Y12.237 0.00000
G1 X11.851 Y12.112 0.00000
G1 X11.968 Y12.215 0.00000
G1 X12.961 Y11.493 0.00000
G1 X11.993 Y11.712 F900.000
G1 F900
G1 X12.910 Y11.045 0.00000
G1 X13.602 Y10.489 0.00000
G1 X14.087 Y10.136 0.00000
G1 X15.194 Y9.246 0.00000
G1 X14.605 Y8.063 0.00000
G1 X14.026 Y7.034 0.00000
G1 X13.674 Y6.329 0.00000
G1 X13.402 Y5.844 0.00000
G1 X13.972 Y5.523 0.00000
G1 X14.643 Y6.689 0.00000
G1 X15.007 Y7.387 0.00000
G1 X15.871 Y8.869 0.00000
G1 X16.949 Y8.518 0.00000
G1 X17.779 Y8.203 0.00000
G1 X18.350 Y8.017 0.00000
G1 X19.678 Y7.513 0.00000
G1 X19.483 Y6.206 0.00000
G1 X19.250 Y5.048 0.00000
G1 X19.134 Y4.269 0.00000
G1 X19.024 Y3.724 0.00000
G1 X19.666 Y3.594 0.00000
G1 X19.944 Y4.911 0.00000
G1 X20.074 Y5.687 0.00000
G1 X20.438 Y7.363 0.00000
G1 X21.572 Y7.363 0.00000
G1 X22.459 Y7.319 0.00000
G1 X23.059 Y7.319 0.00000
G1 X24.478 Y7.250 0.00000
G1 X24.696 Y5.947 0.00000
G1 X24.833 Y4.773 0.00000
G1 X24.963 Y3.996 0.00000
G1 X25.026 Y3.450 0.00000
G1 X25.677 Y3.521 0.00000
G1 X25.535 Y4.857 0.00000
G1 X25.419 Y5.636 0.00000
G1 X25.247 Y7.343 0.00000
G1 X26.322 Y7.692 0.00000
G1 X29.121 Y8.489 0.00000
G1 X29.734 Y7.311 0.00000
G1 X30.227 Y6.237 0.00000
G1 X30.590 Y5.539 0.00000
G1 X30.822 Y5.034 0.00000
G1 X31.417 Y5.306 0.00000
G1 X30.869 Y6.534 0.00000
G1 X30.517 Y7.239 0.00000
G1 X29.827 Y8.809 0.00000
G1 X30.744 Y9.475 0.00000
G1 X31.487 Y9.961 0.00000
G1 X31.973 Y10.314 0.00000
G1 X33.162 Y11.092 0.00000
G1 X34.104 Y10.166 0.00000
G1 X34.904 Y9.297 0.00000
G1 X35.466 Y8.745 0.00000
G1 X35.843 Y8.336 0.00000
G1 X36.325 Y8.779 0.00000
G1 X35.423 Y9.778 0.00000
G1 X34.871 Y10.339 0.00000
G1 X33.730 Y11.619 0.00000
G1 X34.396 Y12.536 0.00000
G1 X34.952 Y13.228 0.00000
G1 X35.305 Y13.713 0.00000
G1 X36.196 Y14.821 0.00000
G1 X37.378 Y14.231 0.00000
G1 X38.408 Y13.652 0.00000
G1 X39.112 Y13.300 0.00000
G1 X39.597 Y13.028 0.00000
G1 X39.919 Y13.598 0.00000
G1 X38.752 Y14.269 0.00000
G1 X38.054 Y14.633 0.00000
G1 X36.573 Y15.497 0.00000
G1 X36.923 Y16.576 0.00000
G1 X37.238 Y17.405 0.00000
G1 X37.424 Y17.976 0.00000
G1 X37.929 Y19.304 0.00000
G1 X39.235 Y19.109 0.00000
G1 X40.394 Y18.876 0.00000
G1 X41.173 Y18.760 0.00000
G1 X41.717 Y18.651 0.00000
G1 X41.847 Y19.292 0.00000
G1 X40.531 Y19.570 0.00000
G1 X39.754 Y19.700 0.00000
G1 X38.078 Y20.065 0.00000
G1 X38.078 Y21.198 0.00000
G1 X38.122 Y22.085 0.00000
G1 X38.122 Y22.685 0.00000
G1 X38.191 Y24.104 0.00000
G1 X39.495 Y24.322 0.00000
G1 X40.668 Y24.459 0.00000
G1 X41.445 Y24.589 0.00000
G1 X41.997 Y24.653 0.00000
G1 X41.922 Y25.303 0.00000
G1 X40.584 Y25.161 0.00000
G1 X39.805 Y25.045 0.00000
G1 X38.099 Y24.873 0.00000
G1 X37.748 Y25.952 0.00000
G1 X37.516 Y26.808 0.00000
G1 X37.330 Y27.379 0.00000
G1 X36.958 Y28.750 0.00000
G1 X38.130 Y29.360 0.00000
G1 X39.204 Y29.853 0.00000
G1 X39.902 Y30.217 0.00000
G1 X40.407 Y30.448 0.00000
G1 X40.136 Y31.044 0.00000
G1 X38.907 Y30.495 0.00000
G1 X38.202 Y30.143 0.00000
G1 X36.632 Y29.453 0.00000
G1 X35.968 Y30.367 0.00000
G1 X34.345 Y32.783 0.00000
G1 X35.275 Y33.730 0.00000
G1 X36.144 Y34.531 0.00000
G1 X36.696 Y35.092 0.00000
G1 X37.105 Y35.469 0.00000
G1 X36.663 Y35.951 0.00000
G1 X35.664 Y35.049 0.00000
G1 X35.102 Y34.497 0.00000
G1 X33.822 Y33.356 0.00000
G1 X32.905 Y34.022 0.00000
G1 X32.213 Y34.578 0.00000
G1 X31.728 Y34.931 0.00000
G1 X30.621 Y35.822 0.00000
G1 X31.210 Y37.004 0.00000
G1 X31.789 Y38.034 0.00000
G1 X32.141 Y38.739 0.00000
G1 X32.413 Y39.223 0.00000
G1 X31.843 Y39.545 0.00000
G1 X31.172 Y38.379 0.00000
G1 X30.808 Y37.680 0.00000
G1 X29.944 Y36.199 0.00000
G1 X28.865 Y36.549 0.00000
G1 X28.036 Y36.865 0.00000
G1 X27.465 Y37.050 0.00000
G1 X26.137 Y37.555 0.00000
G1 X26.332 Y38.862 0.00000
G1 X26.565 Y40.020 0.00000
G1 X26.681 Y40.799 0.00000
G1 X26.791 Y41.344 0.00000
G1 X26.149 Y41.474 0.00000
G1 X25.871 Y40.157 0.00000
G1 X25.741 Y39.380 0.00000
G1 X25.377 Y37.704 0.00000
G1 X24.243 Y37.704 0.00000
G1 X23.356 Y37.748 0.00000
G1 X22.756 Y37.748 0.00000
G1 X21.337 Y37.818 0.00000
G1 X21.119 Y39.121 0.00000
G1 X20.982 Y40.294 0.00000
G1 X20.852 Y41.071 0.00000
G1 X20.788 Y41.623 0.00000
G1 X20.138 Y41.548 0.00000
G1 X20.280 Y40.210 0.00000
G1 X20.396 Y39.431 0.00000
G1 X20.568 Y37.725 0.00000
G1 X19.490 Y37.374 0.00000
G1 X18.633 Y37.142 0.00000
G1 X18.062 Y36.957 0.00000
G1 X16.691 Y36.584 0.00000
G1 X16.081 Y37.756 0.00000
G1 X15.588 Y38.830 0.00000
G1 X15.225 Y39.529 0.00000
G1 X14.993 Y40.034 0.00000
G1 X14.397 Y39.762 0.00000
G1 X14.946 Y38.533 0.00000
G1 X15.298 Y37.828 0.00000
G1 X15.988 Y36.258 0.00000
G1 X15.074 Y35.594 0.00000
G1 X12.658 Y33.971 0.00000
G1 X11.711 Y34.902 0.00000
G1 X10.911 Y35.771 0.00000
G1 X10.349 Y36.323 0.00000
G1 X9.972 Y36.731 0.00000
G1 X9.490 Y36.289 0.00000
G1 X10.392 Y35.290 0.00000
G1 X10.944 Y34.728 0.00000
G1 X12.085 Y33.448 0.00000
G1 X11.421 Y32.534 0.00000
G1 X9.625 Y30.244 0.00000
G1 X8.437 Y30.836 0.00000
G1 X7.407 Y31.416 0.00000
G1 X6.702 Y31.767 0.00000
G1 X6.218 Y32.039 0.00000
G1 X5.896 Y31.469 0.00000
G1 X7.063 Y30.798 0.00000
G1 X7.761 Y30.434 0.00000
G1 X9.242 Y29.570 0.00000
G1 X8.892 Y28.492 0.00000
G1 X8.577 Y27.662 0.00000
G1 X8.391 Y27.091 0.00000
G1 X7.886 Y25.763 0.00000
G1 X6.580 Y25.958 0.00000
G1 X5.421 Y26.191 0.00000
G1 X4.642 Y26.307 0.00000
G1 X4.098 Y26.417 0.00000
G1 X3.968 Y25.775 0.00000
G1 X5.284 Y25.497 0.00000
G1 X6.061 Y25.367 0.00000
G1 X7.737 Y25.003 0.00000
G1 X7.737 Y23.869 0.00000
G1 X7.693 Y22.982 0.00000
G1 X7.693 Y22.382 0.00000
G1 X7.624 Y20.963 0.00000
G1 X6.320 Y20.745 0.00000
G1 X5.147 Y20.608 0.00000
G1 X4.370 Y20.478 0.00000
G1 X3.818 Y20.414 0.00000
G1 X3.893 Y19.764 0.00000
G1 X5.231 Y19.906 0.00000
G1 X6.010 Y20.023 0.00000
G1 X7.716 Y20.194 0.00000
G1 X8.067 Y19.116 0.00000
G1 X8.299 Y18.259 0.00000
G1 X8.485 Y17.688 0.00000
G1 X8.857 Y16.317 0.00000
G1 X7.685 Y15.707 0.00000
G1 X6.611 Y15.214 0.00000
G1 X5.913 Y14.851 0.00000
G1 X5.407 Y14.619 0.00000
G1 X5.679 Y14.024 0.00000
G1 X6.908 Y14.573 0.00000
G1 X7.613 Y14.924 0.00000
G1 X9.183 Y15.614 0.00000
G1 X9.847 Y14.700 0.00000
G1 X11.470 Y12.284 0.00000
G1 X10.540 Y11.337 0.00000
G1 X9.671 Y10.537 0.00000
G1 X9.119 Y9.975 0.00000
G1 X8.710 Y9.599 0.00000
G1 X9.152 Y9.116 0.00000
G1 X10.151 Y10.018 0.00000
G1 X10.713 Y10.570 0.00000
G1 X11.928 Y11.654 0.00000
G1 X12.018 Y11.208 F900.000
G1 F900
G1 X12.671 Y10.733 0.00000
G1 X14.702 Y9.138 0.00000
G1 X14.258 Y8.247 0.00000
G1 X13.679 Y7.218 0.00000
G1 X13.327 Y6.513 0.00000
G1 X12.867 Y5.695 0.00000
G1 X14.137 Y4.989 0.00000
G1 X14.392 Y5.479 0.00000
G1 X14.987 Y6.499 0.00000
G1 X15.351 Y7.198 0.00000
G1 X16.051 Y8.397 0.00000
G1 X16.819 Y8.148 0.00000
G1 X17.649 Y7.832 0.00000
G1 X18.219 Y7.647 0.00000
G1 X19.243 Y7.258 0.00000
G1 X19.096 Y6.274 0.00000
G1 X18.863 Y5.115 0.00000
G1 X18.747 Y4.336 0.00000
G1 X18.562 Y3.417 0.00000
G1 X19.988 Y3.138 0.00000
G1 X20.079 Y3.682 0.00000
G1 X20.330 Y4.836 0.00000
G1 X20.460 Y5.613 0.00000
G1 X20.755 Y6.970 0.00000
G1 X21.562 Y6.970 0.00000
G1 X24.143 Y6.873 0.00000
G1 X24.307 Y5.892 0.00000
G1 X24.444 Y4.718 0.00000
G1 X24.574 Y3.941 0.00000
G1 X24.682 Y3.014 0.00000
G1 X26.124 Y3.185 0.00000
G1 X26.043 Y3.730 0.00000
G1 X25.925 Y4.906 0.00000
G1 X25.808 Y5.685 0.00000
G1 X25.670 Y7.067 0.00000
G1 X26.436 Y7.316 0.00000
G1 X28.921 Y8.024 0.00000
G1 X29.381 Y7.139 0.00000
G1 X29.874 Y6.065 0.00000
G1 X30.238 Y5.366 0.00000
G1 X30.629 Y4.514 0.00000
G1 X31.946 Y5.126 0.00000
G1 X31.700 Y5.620 0.00000
G1 X31.224 Y6.701 0.00000
G1 X30.873 Y7.406 0.00000
G1 X30.314 Y8.677 0.00000
G1 X30.967 Y9.152 0.00000
G1 X33.112 Y10.590 0.00000
G1 X33.822 Y9.893 0.00000
G1 X34.622 Y9.024 0.00000
G1 X35.184 Y8.472 0.00000
G1 X35.819 Y7.782 0.00000
G1 X36.789 Y8.672 0.00000
G1 X36.883 Y8.771 0.00000
G1 X36.496 Y9.164 0.00000
G1 X35.710 Y10.046 0.00000
G1 X35.158 Y10.608 0.00000
G1 X34.233 Y11.644 0.00000
G1 X34.708 Y12.298 0.00000
G1 X36.303 Y14.328 0.00000
G1 X37.194 Y13.884 0.00000
G1 X38.224 Y13.305 0.00000
G1 X38.928 Y12.953 0.00000
G1 X39.746 Y12.494 0.00000
G1 X40.452 Y13.763 0.00000
G1 X39.962 Y14.018 0.00000
G1 X38.942 Y14.613 0.00000
G1 X38.243 Y14.977 0.00000
G1 X37.044 Y15.677 0.00000
G1 X37.293 Y16.445 0.00000
G1 X37.609 Y17.275 0.00000
G1 X37.794 Y17.846 0.00000
G1 X38.183 Y18.869 0.00000
G1 X39.168 Y18.722 0.00000
G1 X40.326 Y18.489 0.00000
G1 X41.105 Y18.373 0.00000
G1 X42.024 Y18.188 0.00000
G1 X42.304 Y19.614 0.00000
G1 X41.759 Y19.705 0.00000
G1 X40.605 Y19.956 0.00000
G1 X39.828 Y20.086 0.00000
G1 X38.471 Y20.381 0.00000
G1 X38.471 Y21.189 0.00000
G1 X38.568 Y23.769 0.00000
G1 X39.550 Y23.933 0.00000
G1 X40.723 Y24.070 0.00000
G1 X41.500 Y24.200 0.00000
G1 X42.432 Y24.308 0.00000
G1 X42.257 Y25.751 0.00000
G1 X41.711 Y25.669 0.00000
G1 X40.535 Y25.551 0.00000
G1 X39.756 Y25.434 0.00000
G1 X38.374 Y25.296 0.00000
G1 X38.125 Y26.064 0.00000
G1 X37.892 Y26.921 0.00000
G1 X37.707 Y27.491 0.00000
G1 X37.420 Y28.548 0.00000
G1 X38.303 Y29.008 0.00000
G1 X39.376 Y29.500 0.00000
G1 X40.075 Y29.864 0.00000
G1 X40.928 Y30.255 0.00000
G1 X40.316 Y31.572 0.00000
G1 X39.822 Y31.326 0.00000
G1 X38.740 Y30.851 0.00000
G1 X38.035 Y30.499 0.00000
G1 X36.764 Y29.940 0.00000
G1 X36.290 Y30.592 0.00000
G1 X34.849 Y32.736 0.00000
G1 X35.549 Y33.448 0.00000
G1 X36.418 Y34.248 0.00000
G1 X36.970 Y34.810 0.00000
G1 X37.660 Y35.446 0.00000
G1 X36.770 Y36.415 0.00000
G1 X36.670 Y36.509 0.00000
G1 X36.277 Y36.122 0.00000
G1 X35.395 Y35.336 0.00000
G1 X34.833 Y34.784 0.00000
G1 X33.797 Y33.859 0.00000
G1 X33.144 Y34.334 0.00000
G1 X31.113 Y35.930 0.00000
G1 X31.557 Y36.820 0.00000
G1 X32.136 Y37.850 0.00000
G1 X32.488 Y38.555 0.00000
G1 X32.948 Y39.372 0.00000
G1 X31.678 Y40.078 0.00000
G1 X31.423 Y39.589 0.00000
G1 X30.828 Y38.568 0.00000
G1 X30.464 Y37.870 0.00000
G1 X29.764 Y36.670 0.00000
G1 X28.996 Y36.920 0.00000
G1 X28.166 Y37.235 0.00000
G1 X27.596 Y37.420 0.00000
G1 X26.572 Y37.810 0.00000
G1 X26.719 Y38.794 0.00000
G1 X26.952 Y39.952 0.00000
G1 X27.068 Y40.731 0.00000
G1 X27.253 Y41.651 0.00000
G1 X25.827 Y41.930 0.00000
G1 X25.736 Y41.385 0.00000
G1 X25.485 Y40.231 0.00000
G1 X25.355 Y39.454 0.00000
G1 X25.060 Y38.097 0.00000
G1 X24.253 Y38.097 0.00000
G1 X21.672 Y38.194 0.00000
G1 X21.508 Y39.176 0.00000
G1 X21.371 Y40.349 0.00000
G1 X21.241 Y41.126 0.00000
G1 X21.133 Y42.058 0.00000
G1 X19.691 Y41.883 0.00000
G1 X19.772 Y41.337 0.00000
G1 X19.890 Y40.161 0.00000
G1 X20.007 Y39.382 0.00000
G1 X20.145 Y38.001 0.00000
G1 X19.377 Y37.751 0.00000
G1 X18.521 Y37.518 0.00000
G1 X17.950 Y37.333 0.00000
G1 X16.893 Y37.046 0.00000
G1 X16.434 Y37.929 0.00000
G1 X15.941 Y39.003 0.00000
G1 X15.577 Y39.701 0.00000
G1 X15.186 Y40.554 0.00000
G1 X13.869 Y39.942 0.00000
G1 X14.115 Y39.448 0.00000
G1 X14.591 Y38.366 0.00000
G1 X14.942 Y37.661 0.00000
G1 X15.501 Y36.390 0.00000
G1 X14.849 Y35.916 0.00000
G1 X12.705 Y34.475 0.00000
G1 X11.993 Y35.175 0.00000
G1 X11.193 Y36.044 0.00000
G1 X10.631 Y36.596 0.00000
G1 X9.996 Y37.286 0.00000
G1 X9.026 Y36.396 0.00000
G1 X8.932 Y36.297 0.00000
G1 X9.319 Y35.903 0.00000
G1 X10.105 Y35.021 0.00000
G1 X10.657 Y34.460 0.00000
G1 X11.582 Y33.423 0.00000
G1 X11.108 Y32.771 0.00000
G1 X9.514 Y30.738 0.00000
G1 X8.621 Y31.183 0.00000
G1 X7.591 Y31.763 0.00000
G1 X6.886 Y32.114 0.00000
G1 X6.069 Y32.574 0.00000
G1 X5.363 Y31.304 0.00000
G1 X5.853 Y31.050 0.00000
G1 X6.873 Y30.454 0.00000
G1 X7.571 Y30.090 0.00000
G1 X8.771 Y29.390 0.00000
G1 X8.521 Y28.622 0.00000
G1 X8.206 Y27.792 0.00000
G1 X8.021 Y27.222 0.00000
G1 X7.632 Y26.198 0.00000
G1 X6.647 Y26.345 0.00000
G1 X5.489 Y26.578 0.00000
G1 X4.710 Y26.694 0.00000
G1 X3.791 Y26.879 0.00000
G1 X3.511 Y25.454 0.00000
G1 X4.056 Y25.362 0.00000
G1 X5.210 Y25.111 0.00000
G1 X5.987 Y24.981 0.00000
G1 X7.344 Y24.686 0.00000
G1 X7.344 Y23.879 0.00000
G1 X7.247 Y21.298 0.00000
G1 X6.265 Y21.134 0.00000
G1 X5.092 Y20.997 0.00000
G1 X4.315 Y20.867 0.00000
G1 X3.383 Y20.759 0.00000
G1 X3.534 Y19.451 0.00000
G1 X3.558 Y19.317 0.00000
G1 X4.104 Y19.398 0.00000
G1 X5.280 Y19.516 0.00000
G1 X6.059 Y19.633 0.00000
G1 X7.441 Y19.772 0.00000
G1 X7.690 Y19.004 0.00000
G1 X8.395 Y16.519 0.00000
G1 X7.512 Y16.060 0.00000
G1 X6.439 Y15.567 0.00000
G1 X5.740 Y15.204 0.00000
G1 X4.887 Y14.812 0.00000
G1 X5.499 Y13.495 0.00000
G1 X5.993 Y13.741 0.00000
G1 X7.075 Y14.217 0.00000
G1 X7.780 Y14.568 0.00000
G1 X9.051 Y15.127 0.00000
G1 X9.525 Y14.475 0.00000
G1 X10.966 Y12.331 0.00000
G1 X10.266 Y11.619 0.00000
G1 X9.397 Y10.819 0.00000
G1 X8.845 Y10.257 0.00000
G1 X8.155 Y9.622 0.00000
G1 X9.045 Y8.652 0.00000
G1 X9.144 Y8.558 0.00000
G1 X9.538 Y8.945 0.00000
G1 X10.420 Y9.731 0.00000
G1 X10.982 Y10.283 0.00000
G1 X11.953 Y11.150 0.00000
G1 X12.389 Y11.654 F900.000
G1 Z-148.500 F900.000
G1 X13.299 Y12.625 F900.000
G1 F900
G1 X14.340 Y11.684 0.00000
G1 X15.862 Y10.639 0.00000
G1 X17.510 Y9.806 0.00000
G1 X19.255 Y9.200 0.00000
G1 X21.065 Y8.832 0.00000
G1 X22.907 Y8.709 0.00000
G1 X24.750 Y8.832 0.00000
G1 X26.560 Y9.200 0.00000
G1 X28.305 Y9.806 0.00000
G1 X29.953 Y10.639 0.00000
G1 X31.475 Y11.684 0.00000
G1 X32.845 Y12.923 0.00000
G1 X34.037 Y14.333 0.00000
G1 X35.031 Y15.890 0.00000
G1 X35.809 Y17.565 0.00000
G1 X36.356 Y19.329 0.00000
G1 X36.663 Y21.150 0.00000
G1 X36.725 Y22.996 0.00000
G1 X36.540 Y24.833 0.00000
G1 X36.112 Y26.630 0.00000
G1 X35.448 Y28.353 0.00000
G1 X34.560 Y29.973 0.00000
G1 X33.465 Y31.459 0.00000
G1 X32.181 Y32.787 0.00000
G1 X30.732 Y33.931 0.00000
G1 X29.143 Y34.873 0.00000
G1 X27.442 Y35.594 0.00000
G1 X25.661 Y36.082 0.00000
G1 X23.831 Y36.328 0.00000
G1 X21.984 Y36.328 0.00000
G1 X20.154 Y36.082 0.00000
G1 X18.373 Y35.594 0.00000
G1 X16.672 Y34.873 0.00000
G1 X15.083 Y33.931 0.00000
G1 X13.634 Y32.787 0.00000
G1 X12.350 Y31.459 0.00000
G1 X11.255 Y29.973 0.00000
G1 X10.367 Y28.353 0.00000
G1 X9.703 Y26.630 0.00000
G1 X9.275 Y24.833 0.00000
G1 X9.090 Y22.996 0.00000
G1 X9.152 Y21.150 0.00000
G1 X9.459 Y19.329 0.00000
G1 X10.006 Y17.565 0.00000
G1 X10.784 Y15.890 0.00000
G1 X11.778 Y14.333 0.00000
G1 X12.970 Y12.923 0.00000
G1 X13.235 Y12.683 0.00000
G1 X13.563 Y12.916 F900.000
G1 F900
G1 X14.583 Y11.993 0.00000
G1 X16.063 Y10.977 0.00000
G1 X17.664 Y10.168 0.00000
G1 X19.359 Y9.580 0.00000
G1 X21.117 Y9.222 0.00000
G1 X22.907 Y9.102 0.00000
G1 X24.698 Y9.222 0.00000
G1 X26.456 Y9.580 0.00000
G1 X28.151 Y10.168 0.00000
G1 X29.752 Y10.977 0.00000
G1 X31.232 Y11.993 0.00000
G1 X32.562 Y13.196 0.00000
G1 X33.721 Y14.567 0.00000
G1 X34.686 Y16.079 0.00000
G1 X35.441 Y17.706 0.00000
G1 X35.973 Y19.420 0.00000
G1 X36.271 Y21.189 0.00000
G1 X36.331 Y22.983 0.00000
G1 X36.152 Y24.768 0.00000
G1 X35.736 Y26.513 0.00000
G1 X35.091 Y28.187 0.00000
G1 X34.229 Y29.761 0.00000
G1 X33.164 Y31.205 0.00000
G1 X31.917 Y32.495 0.00000
G1 X30.509 Y33.607 0.00000
G1 X28.965 Y34.521 0.00000
G1 X27.313 Y35.222 0.00000
G1 X25.583 Y35.696 0.00000
G1 X23.805 Y35.935 0.00000
G1 X22.010 Y35.935 0.00000
G1 X20.232 Y35.696 0.00000
G1 X18.502 Y35.222 0.00000
G1 X16.850 Y34.521 0.00000
G1 X15.306 Y33.607 0.00000
G1 X13.898 Y32.495 0.00000
G1 X12.651 Y31.205 0.00000
G1 X11.586 Y29.761 0.00000
G1 X10.724 Y28.187 0.00000
G1 X10.079 Y26.513 0.00000
G1 X9.663 Y24.768 0.00000
G1 X9.484 Y22.983 0.00000
G1 X9.544 Y21.189 0.00000
G1 X9.842 Y19.420 0.00000
G1 X10.374 Y17.706 0.00000
G1 X11.129 Y16.079 0.00000
G1 X12.094 Y14.567 0.00000
G1 X13.253 Y13.196 0.00000
G1 X13.498 Y12.974 0.00000
G1 X13.826 Y13.207 F900.000
G1 F900
G1 X14.827 Y12.302 0.00000
G1 X16.263 Y11.316 0.00000
G1 X17.818 Y10.531 0.00000
G1 X19.463 Y9.959 0.00000
G1 X21.170 Y9.612 0.00000
G1 X22.907 Y9.496 0.00000
G1 X24.645 Y9.612 0.00000
G1 X26.352 Y9.959 0.00000
G1 X27.997 Y10.531 0.00000
G1 X29.552 Y11.316 0.00000
G1 X30.988 Y12.302 0.00000
G1 X32.279 Y13.470 0.00000
G1 X33.404 Y14.800 0.00000
G1 X34.341 Y16.268 0.00000
G1 X35.074 Y17.848 0.00000
G1 X35.590 Y19.511 0.00000
G1 X35.880 Y21.229 0.00000
G1 X35.938 Y22.969 0.00000
G1 X35.764 Y24.702 0.00000
G1 X35.360 Y26.396 0.00000
G1 X34.734 Y28.022 0.00000
G1 X33.897 Y29.549 0.00000
G1 X32.864 Y30.951 0.00000
G1 X31.653 Y32.203 0.00000
G1 X30.286 Y33.283 0.00000
G1 X28.788 Y34.170 0.00000
G1 X27.184 Y34.850 0.00000
G1 X25.504 Y35.310 0.00000
G1 X23.778 Y35.542 0.00000
G1 X22.037 Y35.542 0.00000
G1 X20.311 Y35.310 0.00000
G1 X18.631 Y34.850 0.00000
G1 X17.027 Y34.170 0.00000
G1 X15.529 Y33.283 0.00000
G1 X14.162 Y32.203 0.00000
G1 X12.951 Y30.951 0.00000
G1 X11.918 Y29.549 0.00000
G1 X11.081 Y28.022 0.00000
G1 X10.455 Y26.396 0.00000
G1 X10.051 Y24.702 0.00000
G1 X9.877 Y22.969 0.00000
G1 X9.935 Y21.229 0.00000
G1 X10.225 Y19.511 0.00000
G1 X10.741 Y17.848 0.00000
G1 X11.474 Y16.268 0.00000
G1 X12.411 Y14.800 0.00000
G1 X13.536 Y13.470 0.00000
G1 X13.762 Y13.266 0.00000
G1 X14.090 Y13.498 F900.000
G1 F900
G1 X15.071 Y12.611 0.00000
G1 X16.464 Y11.655 0.00000
G1 X17.971 Y10.893 0.00000
G1 X19.567 Y10.339 0.00000
G1 X21.222 Y10.002 0.00000
G1 X22.907 Y9.890 0.00000
G1 X24.593 Y10.002 0.00000
G1 X26.248 Y10.339 0.00000
G1 X27.844 Y10.893 0.00000
G1 X29.351 Y11.655 0.00000
G1 X30.744 Y12.611 0.00000
G1 X31.996 Y13.744 0.00000
G1 X33.087 Y15.033 0.00000
G1 X33.996 Y16.457 0.00000
G1 X34.707 Y17.989 0.00000
G1 X35.207 Y19.603 0.00000
G1 X35.488 Y21.268 0.00000
G1 X35.545 Y22.956 0.00000
G1 X35.375 Y24.637 0.00000
G1 X34.984 Y26.280 0.00000
G1 X34.377 Y27.856 0.00000
G1 X33.565 Y29.337 0.00000
G1 X32.563 Y30.697 0.00000
G1 X31.389 Y31.911 0.00000
G1 X30.063 Y32.958 0.00000
G1 X28.610 Y33.819 0.00000
G1 X27.055 Y34.478 0.00000
G1 X25.426 Y34.924 0.00000
G1 X23.752 Y35.150 0.00000
G1 X22.063 Y35.150 0.00000
G1 X20.389 Y34.924 0.00000
G1 X18.760 Y34.478 0.00000
G1 X17.205 Y33.819 0.00000
G1 X15.752 Y32.958 0.00000
G1 X14.426 Y31.911 0.00000
G1 X13.252 Y30.697 0.00000
G1 X12.250 Y29.337 0.00000
G1 X11.438 Y27.856 0.00000
G1 X10.831 Y26.280 0.00000
G1 X10.439 Y24.637 0.00000
G1 X10.270 Y22.956 0.00000
G1 X10.327 Y21.268 0.00000
G1 X10.608 Y19.603 0.00000
G1 X11.108 Y17.989 0.00000
G1 X11.819 Y16.457 0.00000
G1 X12.728 Y15.033 0.00000
G1 X13.819 Y13.744 0.00000
G1 X14.025 Y13.557 0.00000
G1 X14.353 Y13.790 F900.000
G1 F900
G1 X15.315 Y12.919 0.00000
G1 X16.664 Y11.993 0.00000
G1 X18.125 Y11.255 0.00000
G1 X19.671 Y10.718 0.00000
G1 X21.275 Y10.392 0.00000
G1 X22.907 Y10.283 0.00000
G1 X24.540 Y10.392 0.00000
G1 X26.144 Y10.718 0.00000
G1 X27.690 Y11.255 0.00000
G1 X29.151 Y11.993 0.00000
G1 X30.500 Y12.919 0.00000
G1 X31.713 Y14.017 0.00000
G1 X32.770 Y15.267 0.00000
G1 X33.651 Y16.646 0.00000
G1 X34.339 Y18.131 0.00000
G1 X34.824 Y19.694 0.00000
G1 X35.097 Y21.307 0.00000
G1 X35.151 Y22.943 0.00000
G1 X34.987 Y24.571 0.00000
G1 X34.608 Y26.163 0.00000
G1 X34.020 Y27.690 0.00000
G1 X33.233 Y29.126 0.00000
G1 X32.263 Y30.443 0.00000
G1 X31.125 Y31.619 0.00000
G1 X29.841 Y32.634 0.00000
G1 X28.433 Y33.468 0.00000
G1 X26.926 Y34.106 0.00000
G1 X25.348 Y34.539 0.00000
G1 X23.726 Y34.757 0.00000
G1 X22.089 Y34.757 0.00000
G1 X20.467 Y34.539 0.00000
G1 X18.889 Y34.106 0.00000
G1 X17.382 Y33.468 0.00000
G1 X15.974 Y32.634 0.00000
G1 X14.690 Y31.619 0.00000
G1 X13.552 Y30.443 0.00000
G1 X12.582 Y29.126 0.00000
G1 X11.795 Y27.690 0.00000
G1 X11.207 Y26.163 0.00000
G1 X10.828 Y24.571 0.00000
G1 X10.664 Y22.943 0.00000
G1 X10.718 Y21.307 0.00000
G1 X10.991 Y19.694 0.00000
G1 X11.476 Y18.131 0.00000
G1 X12.164 Y16.646 0.00000
G1 X13.045 Y15.267 0.00000
G1 X14.101 Y14.017 0.00000
G1 X14.289 Y13.848 0.00000
G1 X14.210 Y13.227 F900.000
G1 X13.234 Y12.399 F900.000
G1 F900
G1 X15.881 Y10.270 0.00000
G1 X20.014 Y8.699 0.00000
G1 X24.431 Y8.482 0.00000
G1 X28.698 Y9.641 0.00000
G1 X32.399 Y12.061 0.00000
G1 X35.171 Y15.507 0.00000
G1 X36.742 Y19.640 0.00000
G1 X36.959 Y24.057 0.00000
G1 X35.800 Y28.325 0.00000
G1 X33.380 Y32.025 0.00000
G1 X29.934 Y34.797 0.00000
G1 X25.801 Y36.368 0.00000
G1 X21.384 Y36.585 0.00000
G1 X17.117 Y35.427 0.00000
G1 X13.416 Y33.006 0.00000
G1 X10.644 Y29.560 0.00000
G1 X9.073 Y25.427 0.00000
G1 X8.856 Y21.010 0.00000
G1 X10.015 Y16.743 0.00000
G1 X12.435 Y13.042 0.00000
G1 X13.167 Y12.454 0.00000
G1 X12.988 Y12.093 F900.000
G1 F900
G1 X15.683 Y9.925 0.00000
G1 X19.933 Y8.310 0.00000
G1 X24.474 Y8.087 0.00000
G1 X28.861 Y9.278 0.00000
G1 X32.666 Y11.767 0.00000
G1 X35.516 Y15.309 0.00000
G1 X37.131 Y19.559 0.00000
G1 X37.354 Y24.100 0.00000
G1 X36.163 Y28.488 0.00000
G1 X33.674 Y32.292 0.00000
G1 X30.132 Y35.142 0.00000
G1 X25.882 Y36.757 0.00000
G1 X21.341 Y36.980 0.00000
G1 X16.954 Y35.789 0.00000
G1 X13.149 Y33.301 0.00000
G1 X10.299 Y29.758 0.00000
G1 X8.684 Y25.508 0.00000
G1 X8.461 Y20.967 0.00000
G1 X9.652 Y16.580 0.00000
G1 X12.141 Y12.775 0.00000
G1 X12.921 Y12.148 0.00000
G1 X12.742 Y11.787 F900.000
G1 F900
G1 X15.485 Y9.580 0.00000
G1 X19.851 Y7.921 0.00000
G1 X24.517 Y7.692 0.00000
G1 X29.024 Y8.915 0.00000
G1 X32.933 Y11.472 0.00000
G1 X35.861 Y15.112 0.00000
G1 X37.520 Y19.478 0.00000
G1 X37.749 Y24.143 0.00000
G1 X36.526 Y28.650 0.00000
G1 X33.969 Y32.559 0.00000
G1 X30.330 Y35.487 0.00000
G1 X25.964 Y37.146 0.00000
G1 X21.298 Y37.376 0.00000
G1 X16.791 Y36.152 0.00000
G1 X12.882 Y33.595 0.00000
G1 X9.954 Y29.956 0.00000
G1 X8.295 Y25.590 0.00000
G1 X8.066 Y20.925 0.00000
G1 X9.289 Y16.417 0.00000
G1 X11.846 Y12.508 0.00000
G1 X12.674 Y11.842 0.00000
G1 X11.842 Y12.007 F900.000
G1 F900
G1 X14.997 Y9.470 0.00000
G1 X13.112 Y6.119 0.00000
G1 X13.699 Y5.782 0.00000
G1 X15.637 Y9.103 0.00000
G1 X19.421 Y7.665 0.00000
G1 X18.664 Y3.895 0.00000
G1 X19.326 Y3.756 0.00000
G1 X20.143 Y7.513 0.00000
G1 X24.186 Y7.315 0.00000
G1 X24.631 Y3.496 0.00000
G1 X25.304 Y3.569 0.00000
G1 X24.920 Y7.394 0.00000
G1 X28.827 Y8.455 0.00000
G1 X30.430 Y4.960 0.00000
G1 X31.047 Y5.238 0.00000
G1 X29.500 Y8.757 0.00000
G1 X32.887 Y10.973 0.00000
G1 X35.492 Y8.145 0.00000
G1 X35.994 Y8.599 0.00000
G1 X33.434 Y11.469 0.00000
G1 X35.971 Y14.623 0.00000
G1 X39.323 Y12.738 0.00000
G1 X39.659 Y13.325 0.00000
G1 X36.338 Y15.263 0.00000
G1 X37.777 Y19.047 0.00000
G1 X41.546 Y18.290 0.00000
G1 X41.685 Y18.953 0.00000
G1 X37.928 Y19.769 0.00000
G1 X38.126 Y23.812 0.00000
G1 X41.945 Y24.257 0.00000
G1 X41.872 Y24.930 0.00000
G1 X38.047 Y24.546 0.00000
G1 X36.986 Y28.453 0.00000
G1 X40.481 Y30.056 0.00000
G1 X40.204 Y30.673 0.00000
G1 X36.684 Y29.126 0.00000
G1 X34.468 Y32.514 0.00000
G1 X37.296 Y35.118 0.00000
G1 X36.842 Y35.620 0.00000
G1 X33.973 Y33.061 0.00000
G1 X30.818 Y35.598 0.00000
G1 X32.703 Y38.949 0.00000
G1 X32.116 Y39.285 0.00000
G1 X30.178 Y35.965 0.00000
G1 X26.394 Y37.403 0.00000
G1 X27.151 Y41.172 0.00000
G1 X26.489 Y41.311 0.00000
G1 X25.672 Y37.554 0.00000
G1 X21.629 Y37.753 0.00000
G1 X21.184 Y41.572 0.00000
G1 X20.511 Y41.499 0.00000
G1 X20.895 Y37.673 0.00000
G1 X16.988 Y36.613 0.00000
G1 X15.385 Y40.107 0.00000
G1 X14.768 Y39.830 0.00000
G1 X16.315 Y36.310 0.00000
G1 X12.928 Y34.094 0.00000
G1 X10.323 Y36.923 0.00000
G1 X9.821 Y36.468 0.00000
G1 X12.381 Y33.599 0.00000
G1 X9.844 Y30.445 0.00000
G1 X6.492 Y32.330 0.00000
G1 X6.156 Y31.742 0.00000
G1 X9.477 Y29.804 0.00000
G1 X8.038 Y26.020 0.00000
G1 X4.269 Y26.778 0.00000
G1 X4.130 Y26.115 0.00000
G1 X7.887 Y25.298 0.00000
G1 X7.689 Y21.255 0.00000
G1 X3.870 Y20.810 0.00000
G1 X3.943 Y20.137 0.00000
G1 X7.768 Y20.521 0.00000
G1 X8.829 Y16.615 0.00000
G1 X5.334 Y15.012 0.00000
G1 X5.611 Y14.394 0.00000
G1 X9.131 Y15.941 0.00000
G1 X11.347 Y12.554 0.00000
G1 X8.519 Y9.949 0.00000
G1 X8.973 Y9.447 0.00000
G1 X11.778 Y11.949 0.00000
G1 X11.856 Y11.492 F900.000
G1 F900
G1 X14.491 Y9.372 0.00000
G1 X12.578 Y5.972 0.00000
G1 X13.842 Y5.248 0.00000
G1 X15.808 Y8.617 0.00000
G1 X18.970 Y7.416 0.00000
G1 X18.202 Y3.590 0.00000
G1 X19.627 Y3.292 0.00000
G1 X20.456 Y7.105 0.00000
G1 X23.835 Y6.939 0.00000
G1 X24.286 Y3.063 0.00000
G1 X25.734 Y3.220 0.00000
G1 X25.344 Y7.103 0.00000
G1 X28.608 Y7.989 0.00000
G1 X30.235 Y4.442 0.00000
G1 X31.564 Y5.039 0.00000
G1 X29.993 Y8.611 0.00000
G1 X32.824 Y10.462 0.00000
G1 X35.467 Y7.592 0.00000
G1 X36.546 Y8.570 0.00000
G1 X33.949 Y11.482 0.00000
G1 X36.069 Y14.117 0.00000
G1 X39.470 Y12.205 0.00000
G1 X40.194 Y13.468 0.00000
G1 X36.824 Y15.435 0.00000
G1 X38.026 Y18.596 0.00000
G1 X41.851 Y17.828 0.00000
G1 X42.149 Y19.253 0.00000
G1 X38.336 Y20.082 0.00000
G1 X38.502 Y23.461 0.00000
G1 X42.378 Y23.912 0.00000
G1 X42.221 Y25.360 0.00000
G1 X38.339 Y24.970 0.00000
G1 X37.453 Y28.235 0.00000
G1 X40.999 Y29.861 0.00000
G1 X40.402 Y31.190 0.00000
G1 X36.830 Y29.619 0.00000
G1 X34.979 Y32.450 0.00000
G1 X37.849 Y35.093 0.00000
G1 X36.871 Y36.172 0.00000
G1 X33.959 Y33.575 0.00000
G1 X31.324 Y35.695 0.00000
G1 X33.237 Y39.096 0.00000
G1 X31.973 Y39.820 0.00000
G1 X30.006 Y36.450 0.00000
G1 X26.845 Y37.652 0.00000
G1 X27.613 Y41.477 0.00000
G1 X26.188 Y41.775 0.00000
G1 X25.359 Y37.963 0.00000
G1 X21.980 Y38.128 0.00000
G1 X21.529 Y42.004 0.00000
G1 X20.081 Y41.847 0.00000
G1 X20.471 Y37.965 0.00000
G1 X17.207 Y37.079 0.00000
G1 X15.580 Y40.625 0.00000
G1 X14.251 Y40.028 0.00000
G1 X15.822 Y36.457 0.00000
G1 X12.991 Y34.605 0.00000
G1 X10.348 Y37.475 0.00000
G1 X9.269 Y36.497 0.00000
G1 X11.866 Y33.586 0.00000
G1 X9.746 Y30.950 0.00000
G1 X6.345 Y32.863 0.00000
G1 X5.621 Y31.599 0.00000
G1 X8.991 Y29.633 0.00000
G1 X7.789 Y26.471 0.00000
G1 X3.964 Y27.239 0.00000
G1 X3.666 Y25.814 0.00000
G1 X7.479 Y24.985 0.00000
G1 X7.313 Y21.607 0.00000
G1 X3.437 Y21.155 0.00000
G1 X3.594 Y19.707 0.00000
G1 X7.476 Y20.097 0.00000
G1 X8.362 Y16.833 0.00000
G1 X4.816 Y15.206 0.00000
G1 X5.413 Y13.878 0.00000
G1 X8.985 Y15.448 0.00000
G1 X10.836 Y12.617 0.00000
G1 X7.966 Y9.974 0.00000
G1 X8.944 Y8.895 0.00000
G1 X11.791 Y11.434 0.00000
G1 X12.292 Y11.875 F900.000
G1 Z-148.000 F900.000
G1 X13.069 Y12.833 F900.000
G1 F900
G1 X14.340 Y11.684 0.00000
G1 X15.862 Y10.639 0.00000
G1 X17.510 Y9.806 0.00000
G1 X19.255 Y9.200 0.00000
G1 X21.065 Y8.832 0.00000
G1 X22.907 Y8.709 0.00000
G1 X24.750 Y8.832 0.00000
G1 X26.560 Y9.200 0.00000
G1 X28.305 Y9.806 0.00000
G1 X29.953 Y10.639 0.00000
G1 X31.475 Y11.684 0.00000
G1 X32.845 Y12.923 0.00000
G1 X34.037 Y14.333 0.00000
G1 X35.031 Y15.890 0.00000
G1 X35.809 Y17.565 0.00000
G1 X36.356 Y19.329 0.00000
G1 X36.663 Y21.150 0.00000
G1 X36.725 Y22.996 0.00000
G1 X36.540 Y24.833 0.00000
G1 X36.112 Y26.630 0.00000
G1 X35.448 Y28.353 0.00000
G1 X34.560 Y29.973 0.00000
G1 X33.465 Y31.459 0.00000
G1 X32.181 Y32.787 0.00000
G1 X30.732 Y33.931 0.00000
G1 X29.143 Y34.873 0.00000
G1 X27.442 Y35.594 0.00000
G1 X25.661 Y36.082 0.00000
G1 X23.831 Y36.328 0.00000
G1 X21.984 Y36.328 0.00000
G1 X20.154 Y36.082 0.00000
G1 X18.373 Y35.594 0.00000
G1 X16.672 Y34.873 0.00000
G1 X15.083 Y33.931 0.00000
G1 X13.634 Y32.787 0.00000
G1 X12.350 Y31.459 0.00000
G1 X11.255 Y29.973 0.00000
G1 X10.367 Y28.353 0.00000
G1 X9.703 Y26.630 0.00000
G1 X9.275 Y24.833 0.00000
G1 X9.090 Y22.996 0.00000
G1 X9.152 Y21.150 0.00000
G1 X9.459 Y19.329 0.00000
G1 X10.006 Y17.565 0.00000
G1 X10.784 Y15.890 0.00000
G1 X11.778 Y14.333 0.00000
G1 X13.004 Y12.892 0.00000
G1 X13.332 Y13.125 F900.000
G1 F900
G1 X14.583 Y11.993 0.00000
G1 X16.063 Y10.977 0.00000
G1 X17.664 Y10.168 0.00000
G1 X19.359 Y9.580 0.00000
G1 X21.117 Y9.222 0.00000
G1 X22.907 Y9.102 0.00000
G1 X24.698 Y9.222 0.00000
G1 X26.456 Y9.580 0.00000
G1 X28.151 Y10.168 0.00000
G1 X29.752 Y10.977 0.00000
G1 X31.232 Y11.993 0.00000
G1 X32.562 Y13.196 0.00000
G1 X33.721 Y14.567 0.00000
G1 X34.686 Y16.079 0.00000
G1 X35.441 Y17.706 0.00000
G1 X35.973 Y19.420 0.00000
G1 X36.271 Y21.189 0.00000
G1 X36.331 Y22.983 0.00000
G1 X36.152 Y24.768 0.00000
G1 X35.736 Y26.513 0.00000
G1 X35.091 Y28.187 0.00000
G1 X34.229 Y29.761 0.00000
G1 X33.164 Y31.205 0.00000
G1 X31.917 Y32.495 0.00000
G1 X30.509 Y33.607 0.00000
G1 X28.965 Y34.521 0.00000
G1 X27.313 Y35.222 0.00000
G1 X25.583 Y35.696 0.00000
G1 X23.805 Y35.935 0.00000
G1 X22.010 Y35.935 0.00000
G1 X20.232 Y35.696 0.00000
G1 X18.502 Y35.222 0.00000
G1 X16.850 Y34.521 0.00000
G1 X15.306 Y33.607 0.00000
G1 X13.898 Y32.495 0.00000
G1 X12.651 Y31.205 0.00000
G1 X11.586 Y29.761 0.00000
G1 X10.724 Y28.187 0.00000
G1 X10.079 Y26.513 0.00000
G1 X9.663 Y24.768 0.00000
G1 X9.484 Y22.983 0.00000
G1 X9.544 Y21.189 0.00000
G1 X9.842 Y19.420 0.00000
G1 X10.374 Y17.706 0.00000
G1 X11.129 Y16.079 0.00000
G1 X12.094 Y14.567 0.00000
G1 X13.267 Y13.183 0.00000
G1 X13.595 Y13.416 F900.000
G1 F900
G1 X14.827 Y12.302 0.00000
G1 X16.263 Y11.316 0.00000
G1 X17.818 Y10.531 0.00000
G1 X19.463 Y9.959 0.00000
G1 X21.170 Y9.612 0.00000
G1 X22.907 Y9.496 0.00000
G1 X24.645 Y9.612 0.00000
G1 X26.352 Y9.959 0.00000
G1 X27.997 Y10.531 0.00000
G1 X29.552 Y11.316 0.00000
G1 X30.988 Y12.302 0.00000
G1 X32.279 Y13.470 0.00000
G1 X33.404 Y14.800 0.00000
G1 X34.341 Y16.268 0.00000
G1 X35.074 Y17.848 0.00000
G1 X35.590 Y19.511 0.00000
G1 X35.880 Y21.229 0.00000
G1 X35.938 Y22.969 0.00000
G1 X35.764 Y24.702 0.00000
G1 X35.360 Y26.396 0.00000
G1 X34.734 Y28.022 0.00000
G1 X33.897 Y29.549 0.00000
G1 X32.864 Y30.951 0.00000
G1 X31.653 Y32.203 0.00000
G1 X30.286 Y33.283 0.00000
G1 X28.788 Y34.170 0.00000
G1 X27.184 Y34.850 0.00000
G1 X25.504 Y35.310 0.00000
G1 X23.778 Y35.542 0.00000
G1 X22.037 Y35.542 0.00000
G1 X20.311 Y35.310 0.00000
G1 X18.631 Y34.850 0.00000
G1 X17.027 Y34.170 0.00000
G1 X15.529 Y33.283 0.00000
G1 X14.162 Y32.203 0.00000
G1 X12.951 Y30.951 0.00000
G1 X11.918 Y29.549 0.00000
G1 X11.081 Y28.022 0.00000
G1 X10.455 Y26.396 0.00000
G1 X10.051 Y24.702 0.00000
G1 X9.877 Y22.969 0.00000
G1 X9.935 Y21.229 0.00000
G1 X10.225 Y19.511 0.00000
G1 X10.741 Y17.848 0.00000
G1 X11.474 Y16.268 0.00000
G1 X12.411 Y14.800 0.00000
G1 X13.532 Y13.475 0.00000
G1 X13.859 Y13.707 F900.000
G1 F900
G1 X15.071 Y12.611 0.00000
G1 X16.464 Y11.655 0.00000
G1 X17.971 Y10.893 0.00000
G1 X19.567 Y10.339 0.00000
G1 X21.222 Y10.002 0.00000
G1 X22.907 Y9.890 0.00000
G1 X24.593 Y10.002 0.00000
G1 X26.248 Y10.339 0.00000
G1 X27.844 Y10.893 0.00000
G1 X29.351 Y11.655 0.00000
G1 X30.744 Y12.611 0.00000
G1 X31.996 Y13.744 0.00000
G1 X33.087 Y15.033 0.00000
G1 X33.996 Y16.457 0.00000
G1 X34.707 Y17.989 0.00000
G1 X35.207 Y19.603 0.00000
G1 X35.488 Y21.268 0.00000
G1 X35.545 Y22.956 0.00000
G1 X35.375 Y24.637 0.00000
G1 X34.984 Y26.280 0.00000
G1 X34.377 Y27.856 0.00000
G1 X33.565 Y29.337 0.00000
G1 X32.563 Y30.697 0.00000
G1 X31.389 Y31.911 0.00000
G1 X30.063 Y32.958 0.00000
G1 X28.610 Y33.819 0.00000
G1 X27.055 Y34.478 0.00000
G1 X25.426 Y34.924 0.00000
G1 X23.752 Y35.150 0.00000
G1 X22.063 Y35.150 0.00000
G1 X20.389 Y34.924 0.00000
G1 X18.760 Y34.478 0.00000
G1 X17.205 Y33.819 0.00000
G1 X15.752 Y32.958 0.00000
G1 X14.426 Y31.911 0.00000
G1 X13.252 Y30.697 0.00000
G1 X12.250 Y29.337 0.00000
G1 X11.438 Y27.856 0.00000
G1 X10.831 Y26.280 0.00000
G1 X10.439 Y24.637 0.00000
G1 X10.270 Y22.956 0.00000
G1 X10.327 Y21.268 0.00000
G1 X10.608 Y19.603 0.00000
G1 X11.108 Y17.989 0.00000
G1 X11.819 Y16.457 0.00000
G1 X12.728 Y15.033 0.00000
G1 X13.797 Y13.769 0.00000
G1 X14.122 Y13.998 F900.000
G1 F900
G1 X15.315 Y12.919 0.00000
G1 X16.664 Y11.993 0.00000
G1 X18.125 Y11.255 0.00000
G1 X19.671 Y10.718 0.00000
G1 X21.275 Y10.392 0.00000
G1 X22.907 Y10.283 0.00000
G1 X24.540 Y10.392 0.00000
G1 X26.144 Y10.718 0.00000
G1 X27.690 Y11.255 0.00000
G1 X29.151 Y11.993 0.00000
G1 X30.500 Y12.919 0.00000
G1 X31.713 Y14.017 0.00000
G1 X32.770 Y15.267 0.00000
G1 X33.651 Y16.646 0.00000
G1 X34.339 Y18.131 0.00000
G1 X34.824 Y19.694 0.00000
G1 X35.097 Y21.307 0.00000
G1 X35.151 Y22.943 0.00000
G1 X34.987 Y24.571 0.00000
G1 X34.608 Y26.163 0.00000
G1 X34.020 Y27.690 0.00000
G1 X33.233 Y29.126 0.00000
G1 X32.263 Y30.443 0.00000
G1 X31.125 Y31.619 0.00000
G1 X29.964 Y32.536 0.00000
G1 X29.841 Y32.634 0.00000
G1 X28.433 Y33.468 0.00000
G1 X26.926 Y34.106 0.00000
G1 X25.348 Y34.539 0.00000
G1 X23.726 Y34.757 0.00000
G1 X22.089 Y34.757 0.00000
G1 X20.467 Y34.539 0.00000
G1 X18.889 Y34.106 0.00000
G1 X17.382 Y33.468 0.00000
G1 X15.974 Y32.634 0.00000
G1 X14.690 Y31.619 0.00000
G1 X13.552 Y30.443 0.00000
G1 X12.582 Y29.126 0.00000
G1 X11.795 Y27.690 0.00000
G1 X11.207 Y26.163 0.00000
G1 X10.828 Y24.571 0.00000
G1 X10.664 Y22.943 0.00000
G1 X10.718 Y21.307 0.00000
G1 X10.965 Y19.849 0.00000
G1 X10.991 Y19.694 0.00000
G1 X11.476 Y18.131 0.00000
G1 X12.164 Y16.646 0.00000
G1 X13.045 Y15.267 0.00000
G1 X14.063 Y14.062 0.00000
G1 X13.963 Y13.441 F900.000
G1 X13.070 Y12.690 F900.000
G1 F900
G1 X13.563 Y12.294 0.00000
G1 X15.686 Y10.486 0.00000
G1 X18.578 Y9.347 0.00000
G1 X19.744 Y8.837 0.00000
G1 X21.367 Y8.757 0.00000
G1 X24.172 Y8.541 0.00000
G1 X25.699 Y8.955 0.00000
G1 X28.410 Y9.610 0.00000
G1 X31.031 Y11.280 0.00000
G1 X32.129 Y11.923 0.00000
G1 X33.148 Y13.189 0.00000
G1 X34.955 Y15.313 0.00000
G1 X36.094 Y18.204 0.00000
G1 X36.605 Y19.370 0.00000
G1 X36.684 Y20.993 0.00000
G1 X36.901 Y23.799 0.00000
G1 X36.486 Y25.326 0.00000
G1 X35.831 Y28.036 0.00000
G1 X34.162 Y30.657 0.00000
G1 X33.518 Y31.755 0.00000
G1 X32.252 Y32.774 0.00000
G1 X30.129 Y34.581 0.00000
G1 X27.237 Y35.721 0.00000
G1 X26.071 Y36.231 0.00000
G1 X24.448 Y36.310 0.00000
G1 X21.643 Y36.527 0.00000
G1 X20.115 Y36.112 0.00000
G1 X17.405 Y35.457 0.00000
G1 X14.784 Y33.788 0.00000
G1 X13.708 Y33.157 0.00000
G1 X11.704 Y30.727 0.00000
G1 X10.875 Y29.794 0.00000
G1 X9.721 Y26.864 0.00000
G1 X9.210 Y25.697 0.00000
G1 X9.131 Y24.074 0.00000
G1 X8.914 Y21.269 0.00000
G1 X9.329 Y19.742 0.00000
G1 X9.984 Y17.031 0.00000
G1 X11.653 Y14.410 0.00000
G1 X12.297 Y13.312 0.00000
G1 X13.002 Y12.745 0.00000
G1 X12.824 Y12.384 F900.000
G1 F900
G1 X13.313 Y11.991 0.00000
G1 X15.482 Y10.145 0.00000
G1 X18.427 Y8.984 0.00000
G1 X19.652 Y8.448 0.00000
G1 X21.342 Y8.365 0.00000
G1 X24.210 Y8.144 0.00000
G1 X25.797 Y8.575 0.00000
G1 X28.566 Y9.244 0.00000
G1 X31.236 Y10.944 0.00000
G1 X32.390 Y11.621 0.00000
G1 X33.450 Y12.939 0.00000
G1 X35.297 Y15.108 0.00000
G1 X36.457 Y18.053 0.00000
G1 X36.993 Y19.279 0.00000
G1 X37.076 Y20.968 0.00000
G1 X37.297 Y23.836 0.00000
G1 X36.867 Y25.423 0.00000
G1 X36.197 Y28.192 0.00000
G1 X34.497 Y30.862 0.00000
G1 X33.820 Y32.016 0.00000
G1 X32.502 Y33.076 0.00000
G1 X30.333 Y34.923 0.00000
G1 X27.388 Y36.083 0.00000
G1 X26.163 Y36.619 0.00000
G1 X24.473 Y36.702 0.00000
G1 X21.605 Y36.924 0.00000
G1 X20.018 Y36.493 0.00000
G1 X17.249 Y35.823 0.00000
G1 X14.579 Y34.123 0.00000
G1 X13.449 Y33.461 0.00000
G1 X11.406 Y30.982 0.00000
G1 X10.536 Y30.003 0.00000
G1 X9.358 Y27.014 0.00000
G1 X8.822 Y25.789 0.00000
G1 X8.739 Y24.099 0.00000
G1 X8.518 Y21.231 0.00000
G1 X8.948 Y19.644 0.00000
G1 X9.618 Y16.876 0.00000
G1 X11.318 Y14.205 0.00000
G1 X11.995 Y13.051 0.00000
G1 X12.756 Y12.439 0.00000
G1 X12.578 Y12.078 F900.000
G1 F900
G1 X13.062 Y11.688 0.00000
G1 X15.277 Y9.803 0.00000
G1 X18.276 Y8.621 0.00000
G1 X19.580 Y8.051 0.00000
G1 X21.317 Y7.973 0.00000
G1 X24.231 Y7.743 0.00000
G1 X25.895 Y8.194 0.00000
G1 X28.722 Y8.878 0.00000
G1 X31.441 Y10.609 0.00000
G1 X32.669 Y11.329 0.00000
G1 X33.753 Y12.689 0.00000
G1 X35.638 Y14.904 0.00000
G1 X36.820 Y17.902 0.00000
G1 X37.390 Y19.206 0.00000
G1 X37.468 Y20.944 0.00000
G1 X37.699 Y23.857 0.00000
G1 X37.247 Y25.521 0.00000
G1 X36.563 Y28.348 0.00000
G1 X34.832 Y31.067 0.00000
G1 X34.112 Y32.295 0.00000
G1 X32.753 Y33.379 0.00000
G1 X30.538 Y35.265 0.00000
G1 X27.539 Y36.446 0.00000
G1 X26.235 Y37.017 0.00000
G1 X24.498 Y37.094 0.00000
G1 X21.584 Y37.325 0.00000
G1 X19.920 Y36.873 0.00000
G1 X17.093 Y36.190 0.00000
G1 X14.374 Y34.458 0.00000
G1 X13.146 Y33.738 0.00000
G1 X13.158 Y33.724 0.00000
G1 X11.107 Y31.238 0.00000
G1 X10.162 Y30.174 0.00000
G1 X10.177 Y30.164 0.00000
G1 X8.995 Y27.165 0.00000
G1 X8.425 Y25.861 0.00000
G1 X8.347 Y24.124 0.00000
G1 X8.116 Y21.211 0.00000
G1 X8.568 Y19.547 0.00000
G1 X9.252 Y16.719 0.00000
G1 X10.983 Y14.001 0.00000
G1 X11.703 Y12.773 0.00000
G1 X12.510 Y12.133 0.00000
G1 X11.709 Y12.273 F900.000
G1 F900
G1 X12.812 Y11.386 0.00000
G1 X14.786 Y9.705 0.00000
G1 X13.939 Y8.200 0.00000
G1 X13.520 Y7.534 0.00000
G1 X12.852 Y6.365 0.00000
G1 X13.401 Y6.043 0.00000
G1 X13.683 Y6.526 0.00000
G1 X14.113 Y7.186 0.00000
G1 X14.708 Y8.207 0.00000
G1 X15.432 Y9.320 0.00000
G1 X18.125 Y8.259 0.00000
G1 X19.145 Y7.812 0.00000
G1 X18.808 Y6.131 0.00000
G1 X18.614 Y5.367 0.00000
G1 X18.341 Y4.049 0.00000
G1 X18.962 Y3.913 0.00000
G1 X19.081 Y4.459 0.00000
G1 X19.286 Y5.220 0.00000
G1 X19.537 Y6.374 0.00000
G1 X19.879 Y7.650 0.00000
G1 X21.293 Y7.581 0.00000
G1 X23.877 Y7.382 0.00000
G1 X24.077 Y5.667 0.00000
G1 X24.129 Y4.881 0.00000
G1 X24.276 Y3.544 0.00000
G1 X24.909 Y3.609 0.00000
G1 X24.854 Y4.161 0.00000
G1 X24.813 Y4.948 0.00000
G1 X24.695 Y6.123 0.00000
G1 X24.627 Y7.443 0.00000
G1 X25.992 Y7.814 0.00000
G1 X28.512 Y8.423 0.00000
G1 X29.232 Y6.854 0.00000
G1 X29.524 Y6.122 0.00000
G1 X30.078 Y4.895 0.00000
G1 X30.661 Y5.150 0.00000
G1 X30.436 Y5.662 0.00000
G1 X30.154 Y6.398 0.00000
G1 X29.679 Y7.479 0.00000
G1 X29.203 Y8.719 0.00000
G1 X31.645 Y10.274 0.00000
G1 X32.606 Y10.837 0.00000
G1 X33.768 Y9.575 0.00000
G1 X34.272 Y8.970 0.00000
G1 X35.178 Y7.974 0.00000
G1 X35.269 Y8.049 0.00000
G1 X35.653 Y8.397 0.00000
G1 X35.281 Y8.814 0.00000
G1 X34.786 Y9.427 0.00000
G1 X33.999 Y10.308 0.00000
G1 X33.168 Y11.336 0.00000
G1 X34.055 Y12.438 0.00000
G1 X35.736 Y14.412 0.00000
G1 X37.241 Y13.566 0.00000
G1 X37.907 Y13.146 0.00000
G1 X39.077 Y12.478 0.00000
G1 X39.398 Y13.028 0.00000
G1 X38.915 Y13.309 0.00000
G1 X38.255 Y13.739 0.00000
G1 X37.234 Y14.334 0.00000
G1 X36.121 Y15.058 0.00000
G1 X37.183 Y17.752 0.00000
G1 X37.629 Y18.772 0.00000
G1 X39.310 Y18.434 0.00000
G1 X40.074 Y18.240 0.00000
G1 X41.393 Y17.967 0.00000
G1 X41.528 Y18.589 0.00000
G1 X40.982 Y18.707 0.00000
G1 X40.221 Y18.912 0.00000
G1 X39.067 Y19.163 0.00000
G1 X37.791 Y19.506 0.00000
G1 X37.860 Y20.919 0.00000
G1 X38.059 Y23.504 0.00000
G1 X39.775 Y23.703 0.00000
G1 X40.560 Y23.755 0.00000
G1 X41.897 Y23.903 0.00000
G1 X41.832 Y24.535 0.00000
G1 X41.280 Y24.480 0.00000
G1 X40.493 Y24.439 0.00000
G1 X39.318 Y24.321 0.00000
G1 X37.998 Y24.253 0.00000
G1 X37.627 Y25.618 0.00000
G1 X37.018 Y28.138 0.00000
G1 X38.588 Y28.858 0.00000
G1 X39.319 Y29.151 0.00000
G1 X40.546 Y29.704 0.00000
G1 X40.291 Y30.287 0.00000
G1 X39.779 Y30.062 0.00000
G1 X39.044 Y29.780 0.00000
G1 X37.962 Y29.305 0.00000
G1 X36.722 Y28.830 0.00000
G1 X35.167 Y31.272 0.00000
G1 X34.604 Y32.232 0.00000
G1 X35.866 Y33.394 0.00000
G1 X36.471 Y33.898 0.00000
G1 X37.467 Y34.804 0.00000
G1 X37.392 Y34.896 0.00000
G1 X37.044 Y35.280 0.00000
G1 X36.627 Y34.907 0.00000
G1 X36.015 Y34.412 0.00000
G1 X35.133 Y33.626 0.00000
G1 X34.106 Y32.795 0.00000
G1 X33.003 Y33.681 0.00000
G1 X31.029 Y35.362 0.00000
G1 X31.876 Y36.867 0.00000
G1 X32.295 Y37.533 0.00000
G1 X32.963 Y38.703 0.00000
G1 X32.414 Y39.024 0.00000
G1 X32.132 Y38.541 0.00000
G1 X31.702 Y37.881 0.00000
G1 X31.107 Y36.861 0.00000
G1 X30.383 Y35.747 0.00000
G1 X27.690 Y36.809 0.00000
G1 X26.670 Y37.255 0.00000
G1 X27.007 Y38.937 0.00000
G1 X27.201 Y39.700 0.00000
G1 X27.474 Y41.019 0.00000
G1 X26.853 Y41.155 0.00000
G1 X26.734 Y40.608 0.00000
G1 X26.529 Y39.848 0.00000
G1 X26.278 Y38.693 0.00000
G1 X25.936 Y37.417 0.00000
G1 X24.522 Y37.486 0.00000
G1 X21.938 Y37.686 0.00000
G1 X21.738 Y39.401 0.00000
G1 X21.686 Y40.187 0.00000
G1 X21.539 Y41.523 0.00000
G1 X20.906 Y41.459 0.00000
G1 X20.961 Y40.906 0.00000
G1 X21.002 Y40.119 0.00000
G1 X21.120 Y38.944 0.00000
G1 X21.188 Y37.624 0.00000
G1 X19.823 Y37.254 0.00000
G1 X17.303 Y36.644 0.00000
G1 X16.583 Y38.214 0.00000
G1 X16.291 Y38.945 0.00000
G1 X15.737 Y40.173 0.00000
G1 X15.154 Y39.917 0.00000
G1 X15.379 Y39.405 0.00000
G1 X15.661 Y38.670 0.00000
G1 X16.136 Y37.588 0.00000
G1 X16.612 Y36.348 0.00000
G1 X14.170 Y34.793 0.00000
G1 X13.209 Y34.230 0.00000
G1 X12.047 Y35.492 0.00000
G1 X11.543 Y36.097 0.00000
G1 X10.637 Y37.093 0.00000
G1 X10.545 Y37.018 0.00000
G1 X10.162 Y36.670 0.00000
G1 X10.534 Y36.253 0.00000
G1 X11.029 Y35.641 0.00000
G1 X11.816 Y34.759 0.00000
G1 X12.651 Y33.727 0.00000
G1 X10.809 Y31.493 0.00000
G1 X10.069 Y30.661 0.00000
G1 X8.574 Y31.502 0.00000
G1 X7.908 Y31.922 0.00000
G1 X6.738 Y32.589 0.00000
G1 X6.417 Y32.040 0.00000
G1 X6.900 Y31.758 0.00000
G1 X7.560 Y31.329 0.00000
G1 X8.581 Y30.733 0.00000
G1 X9.694 Y30.009 0.00000
G1 X8.632 Y27.316 0.00000
G1 X8.186 Y26.296 0.00000
G1 X6.504 Y26.634 0.00000
G1 X5.741 Y26.827 0.00000
G1 X4.422 Y27.100 0.00000
G1 X4.287 Y26.479 0.00000
G1 X4.833 Y26.360 0.00000
G1 X5.594 Y26.156 0.00000
G1 X6.748 Y25.905 0.00000
G1 X8.024 Y25.562 0.00000
G1 X7.955 Y24.149 0.00000
G1 X7.755 Y21.564 0.00000
G1 X6.040 Y21.364 0.00000
G1 X5.255 Y21.312 0.00000
G1 X3.918 Y21.165 0.00000
G1 X3.983 Y20.532 0.00000
G1 X4.535 Y20.587 0.00000
G1 X5.322 Y20.628 0.00000
G1 X6.497 Y20.746 0.00000
G1 X7.817 Y20.814 0.00000
G1 X8.188 Y19.449 0.00000
G1 X8.797 Y16.929 0.00000
G1 X7.227 Y16.209 0.00000
G1 X6.496 Y15.917 0.00000
G1 X5.269 Y15.363 0.00000
G1 X5.524 Y14.780 0.00000
G1 X6.036 Y15.005 0.00000
G1 X6.771 Y15.287 0.00000
G1 X7.853 Y15.763 0.00000
G1 X9.093 Y16.238 0.00000
G1 X10.648 Y13.796 0.00000
G1 X11.211 Y12.835 0.00000
G1 X9.949 Y11.673 0.00000
G1 X9.344 Y11.169 0.00000
G1 X8.348 Y10.263 0.00000
G1 X8.423 Y10.172 0.00000
G1 X8.771 Y9.788 0.00000
G1 X9.188 Y10.160 0.00000
G1 X9.800 Y10.655 0.00000
G1 X10.682 Y11.442 0.00000
G1 X11.642 Y12.218 0.00000
G1 X11.710 Y11.768 F900.000
G1 F900
G1 X12.562 Y11.083 0.00000
G1 X14.285 Y9.616 0.00000
G1 X13.602 Y8.402 0.00000
G1 X13.182 Y7.735 0.00000
G1 X12.603 Y6.706 0.00000
G1 X12.312 Y6.244 0.00000
G1 X12.748 Y5.965 0.00000
G1 X13.544 Y5.509 0.00000
G1 X14.018 Y6.320 0.00000
G1 X14.447 Y6.980 0.00000
G1 X15.042 Y8.001 0.00000
G1 X15.586 Y8.837 0.00000
G1 X17.975 Y7.896 0.00000
G1 X18.698 Y7.580 0.00000
G1 X18.425 Y6.218 0.00000
G1 X18.231 Y5.454 0.00000
G1 X17.998 Y4.296 0.00000
G1 X17.864 Y3.767 0.00000
G1 X18.366 Y3.636 0.00000
G1 X19.263 Y3.449 0.00000
G1 X19.463 Y4.367 0.00000
G1 X19.667 Y5.127 0.00000
G1 X19.918 Y6.282 0.00000
G1 X20.176 Y7.243 0.00000
G1 X21.268 Y7.189 0.00000
G1 X23.525 Y7.015 0.00000
G1 X23.686 Y5.631 0.00000
G1 X23.738 Y4.845 0.00000
G1 X23.874 Y3.672 0.00000
G1 X23.911 Y3.121 0.00000
G1 X24.046 Y3.126 0.00000
G1 X25.339 Y3.258 0.00000
G1 X25.245 Y4.191 0.00000
G1 X25.205 Y4.978 0.00000
G1 X25.087 Y6.153 0.00000
G1 X25.035 Y7.147 0.00000
G1 X26.090 Y7.433 0.00000
G1 X28.290 Y7.965 0.00000
G1 X28.871 Y6.699 0.00000
G1 X29.163 Y5.967 0.00000
G1 X29.656 Y4.894 0.00000
G1 X29.858 Y4.387 0.00000
G1 X30.341 Y4.576 0.00000
G1 X31.177 Y4.952 0.00000
G1 X30.799 Y5.812 0.00000
G1 X30.517 Y6.547 0.00000
G1 X30.042 Y7.628 0.00000
G1 X29.685 Y8.560 0.00000
G1 X31.850 Y9.939 0.00000
G1 X32.531 Y10.338 0.00000
G1 X33.472 Y9.317 0.00000
G1 X33.976 Y8.711 0.00000
G1 X34.777 Y7.842 0.00000
G1 X35.126 Y7.423 0.00000
G1 X35.526 Y7.752 0.00000
G1 X36.206 Y8.368 0.00000
G1 X35.580 Y9.069 0.00000
G1 X35.085 Y9.681 0.00000
G1 X34.299 Y10.563 0.00000
G1 X33.673 Y11.336 0.00000
G1 X34.358 Y12.188 0.00000
G1 X35.825 Y13.911 0.00000
G1 X37.040 Y13.228 0.00000
G1 X37.706 Y12.808 0.00000
G1 X38.736 Y12.229 0.00000
G1 X39.197 Y11.938 0.00000
G1 X39.476 Y12.374 0.00000
G1 X39.932 Y13.170 0.00000
G1 X39.121 Y13.644 0.00000
G1 X38.461 Y14.073 0.00000
G1 X37.441 Y14.669 0.00000
G1 X36.604 Y15.212 0.00000
G1 X37.545 Y17.601 0.00000
G1 X37.862 Y18.324 0.00000
G1 X39.224 Y18.051 0.00000
G1 X39.987 Y17.857 0.00000
G1 X41.145 Y17.625 0.00000
G1 X41.674 Y17.491 0.00000
G1 X41.805 Y17.992 0.00000
G1 X41.993 Y18.890 0.00000
G1 X41.075 Y19.089 0.00000
G1 X40.314 Y19.293 0.00000
G1 X39.160 Y19.544 0.00000
G1 X38.199 Y19.803 0.00000
G1 X38.252 Y20.894 0.00000
G1 X38.426 Y23.151 0.00000
G1 X39.810 Y23.312 0.00000
G1 X40.596 Y23.364 0.00000
G1 X41.770 Y23.501 0.00000
G1 X42.320 Y23.537 0.00000
G1 X42.183 Y24.965 0.00000
G1 X41.250 Y24.872 0.00000
G1 X40.463 Y24.831 0.00000
G1 X39.288 Y24.713 0.00000
G1 X38.294 Y24.661 0.00000
G1 X38.008 Y25.716 0.00000
G1 X37.476 Y27.916 0.00000
G1 X38.743 Y28.497 0.00000
G1 X39.474 Y28.789 0.00000
G1 X40.548 Y29.282 0.00000
G1 X41.054 Y29.485 0.00000
G1 X40.865 Y29.967 0.00000
G1 X40.490 Y30.803 0.00000
G1 X39.630 Y30.425 0.00000
G1 X38.894 Y30.144 0.00000
G1 X37.813 Y29.668 0.00000
G1 X36.881 Y29.311 0.00000
G1 X35.502 Y31.476 0.00000
G1 X35.103 Y32.158 0.00000
G1 X36.125 Y33.099 0.00000
G1 X36.730 Y33.603 0.00000
G1 X37.599 Y34.403 0.00000
G1 X38.018 Y34.752 0.00000
G1 X37.690 Y35.152 0.00000
G1 X37.074 Y35.832 0.00000
G1 X36.373 Y35.207 0.00000
G1 X35.760 Y34.711 0.00000
G1 X34.879 Y33.925 0.00000
G1 X34.105 Y33.299 0.00000
G1 X33.253 Y33.984 0.00000
G1 X31.530 Y35.451 0.00000
G1 X32.213 Y36.666 0.00000
G1 X32.633 Y37.332 0.00000
G1 X33.212 Y38.362 0.00000
G1 X33.503 Y38.823 0.00000
G1 X33.067 Y39.103 0.00000
G1 X32.271 Y39.559 0.00000
G1 X31.797 Y38.747 0.00000
G1 X31.368 Y38.087 0.00000
G1 X30.773 Y37.067 0.00000
G1 X30.229 Y36.230 0.00000
G1 X27.840 Y37.171 0.00000
G1 X27.117 Y37.488 0.00000
G1 X27.390 Y38.850 0.00000
G1 X27.584 Y39.613 0.00000
G1 X27.817 Y40.771 0.00000
G1 X27.950 Y41.300 0.00000
G1 X27.449 Y41.431 0.00000
G1 X26.552 Y41.619 0.00000
G1 X26.352 Y40.701 0.00000
G1 X26.148 Y39.940 0.00000
G1 X25.897 Y38.786 0.00000
G1 X25.639 Y37.825 0.00000
G1 X24.547 Y37.878 0.00000
G1 X22.290 Y38.052 0.00000
G1 X22.129 Y39.437 0.00000
G1 X22.077 Y40.222 0.00000
G1 X21.940 Y41.396 0.00000
G1 X21.904 Y41.946 0.00000
G1 X20.476 Y41.809 0.00000
G1 X20.569 Y40.876 0.00000
G1 X20.610 Y40.090 0.00000
G1 X20.728 Y38.914 0.00000
G1 X20.780 Y37.920 0.00000
G1 X19.725 Y37.634 0.00000
G1 X17.525 Y37.102 0.00000
G1 X16.944 Y38.369 0.00000
G1 X16.652 Y39.100 0.00000
G1 X16.159 Y40.174 0.00000
G1 X15.957 Y40.680 0.00000
G1 X15.474 Y40.492 0.00000
G1 X14.638 Y40.116 0.00000
G1 X15.016 Y39.256 0.00000
G1 X15.298 Y38.520 0.00000
G1 X15.773 Y37.439 0.00000
G1 X16.130 Y36.507 0.00000
G1 X13.965 Y35.128 0.00000
G1 X13.284 Y34.729 0.00000
G1 X12.343 Y35.751 0.00000
G1 X11.839 Y36.356 0.00000
G1 X11.038 Y37.225 0.00000
G1 X10.689 Y37.644 0.00000
G1 X10.289 Y37.316 0.00000
G1 X9.609 Y36.700 0.00000
G1 X10.235 Y35.999 0.00000
G1 X10.730 Y35.386 0.00000
G1 X11.516 Y34.505 0.00000
G1 X12.144 Y33.729 0.00000
G1 X10.511 Y31.748 0.00000
G1 X9.986 Y31.158 0.00000
G1 X8.775 Y31.839 0.00000
G1 X8.109 Y32.259 0.00000
G1 X7.079 Y32.838 0.00000
G1 X6.618 Y33.129 0.00000
G1 X6.339 Y32.693 0.00000
G1 X5.883 Y31.897 0.00000
G1 X6.694 Y31.424 0.00000
G1 X7.354 Y30.994 0.00000
G1 X8.374 Y30.399 0.00000
G1 X9.211 Y29.855 0.00000
G1 X8.270 Y27.467 0.00000
G1 X7.953 Y26.743 0.00000
G1 X6.591 Y27.017 0.00000
G1 X5.828 Y27.210 0.00000
G1 X4.670 Y27.443 0.00000
G1 X4.141 Y27.577 0.00000
G1 X4.010 Y27.076 0.00000
G1 X3.822 Y26.178 0.00000
G1 X4.740 Y25.978 0.00000
G1 X5.501 Y25.774 0.00000
G1 X6.655 Y25.523 0.00000
G1 X7.616 Y25.265 0.00000
G1 X7.563 Y24.173 0.00000
G1 X7.389 Y21.917 0.00000
G1 X6.005 Y21.755 0.00000
G1 X5.219 Y21.703 0.00000
G1 X4.045 Y21.567 0.00000
G1 X3.495 Y21.530 0.00000
G1 X3.500 Y21.395 0.00000
G1 X3.632 Y20.102 0.00000
G1 X4.565 Y20.196 0.00000
G1 X5.352 Y20.236 0.00000
G1 X6.527 Y20.354 0.00000
G1 X7.521 Y20.406 0.00000
G1 X7.807 Y19.351 0.00000
G1 X8.339 Y17.151 0.00000
G1 X7.072 Y16.570 0.00000
G1 X6.341 Y16.278 0.00000
G1 X5.267 Y15.785 0.00000
G1 X4.761 Y15.583 0.00000
G1 X4.950 Y15.101 0.00000
G1 X5.325 Y14.264 0.00000
G1 X6.185 Y14.642 0.00000
G1 X6.921 Y14.924 0.00000
G1 X8.002 Y15.399 0.00000
G1 X8.934 Y15.756 0.00000
G1 X10.313 Y13.591 0.00000
G1 X10.712 Y12.910 0.00000
G1 X9.690 Y11.969 0.00000
G1 X9.085 Y11.465 0.00000
G1 X8.216 Y10.665 0.00000
G1 X7.797 Y10.315 0.00000
G1 X8.125 Y9.915 0.00000
G1 X8.741 Y9.235 0.00000
G1 X9.442 Y9.861 0.00000
G1 X10.055 Y10.356 0.00000
G1 X10.936 Y11.142 0.00000
G1 X11.643 Y11.714 0.00000
G1 X12.101 Y12.197 F900.000
G1 Z-147.500 F900.000
G1 X13.253 Y13.196 F900.000
G1 F900
G1 X14.583 Y11.993 0.00000
G1 X16.063 Y10.977 0.00000
G1 X17.664 Y10.168 0.00000
G1 X19.359 Y9.580 0.00000
G1 X21.117 Y9.222 0.00000
G1 X22.907 Y9.102 0.00000
G1 X24.698 Y9.222 0.00000
G1 X26.456 Y9.580 0.00000
G1 X28.151 Y10.168 0.00000
G1 X29.752 Y10.977 0.00000
G1 X31.232 Y11.993 0.00000
G1 X32.562 Y13.196 0.00000
G1 X33.721 Y14.567 0.00000
G1 X34.686 Y16.079 0.00000
G1 X35.441 Y17.706 0.00000
G1 X35.973 Y19.420 0.00000
G1 X36.271 Y21.189 0.00000
G1 X36.331 Y22.983 0.00000
G1 X36.152 Y24.768 0.00000
G1 X35.736 Y26.513 0.00000
G1 X35.091 Y28.187 0.00000
G1 X34.229 Y29.761 0.00000
G1 X33.164 Y31.205 0.00000
G1 X31.917 Y32.495 0.00000
G1 X30.509 Y33.607 0.00000
G1 X28.965 Y34.521 0.00000
G1 X27.313 Y35.222 0.00000
G1 X25.786 Y35.640 0.00000
G1 X25.583 Y35.696 0.00000
G1 X23.805 Y35.935 0.00000
G1 X22.010 Y35.935 0.00000
G1 X20.232 Y35.696 0.00000
G1 X18.502 Y35.222 0.00000
G1 X16.850 Y34.521 0.00000
G1 X15.306 Y33.607 0.00000
G1 X13.898 Y32.495 0.00000
G1 X12.651 Y31.205 0.00000
G1 X11.586 Y29.761 0.00000
G1 X10.724 Y28.187 0.00000
G1 X10.079 Y26.513 0.00000
G1 X9.663 Y24.768 0.00000
G1 X9.484 Y22.983 0.00000
G1 X9.544 Y21.189 0.00000
G1 X9.842 Y19.420 0.00000
G1 X10.374 Y17.706 0.00000
G1 X11.129 Y16.079 0.00000
G1 X12.094 Y14.567 0.00000
G1 X13.197 Y13.263 0.00000
G1 X13.536 Y13.470 F900.000
G1 F900
G1 X14.827 Y12.302 0.00000
G1 X16.263 Y11.316 0.00000
G1 X17.818 Y10.531 0.00000
G1 X19.463 Y9.959 0.00000
G1 X21.170 Y9.612 0.00000
G1 X22.907 Y9.496 0.00000
G1 X24.645 Y9.612 0.00000
G1 X26.352 Y9.959 0.00000
G1 X27.997 Y10.531 0.00000
G1 X29.552 Y11.316 0.00000
G1 X30.988 Y12.302 0.00000
G1 X32.279 Y13.470 0.00000
G1 X33.404 Y14.800 0.00000
G1 X34.341 Y16.268 0.00000
G1 X35.074 Y17.848 0.00000
G1 X35.590 Y19.511 0.00000
G1 X35.880 Y21.229 0.00000
G1 X35.938 Y22.969 0.00000
G1 X35.764 Y24.702 0.00000
G1 X35.360 Y26.396 0.00000
G1 X34.734 Y28.022 0.00000
G1 X33.897 Y29.549 0.00000
G1 X32.864 Y30.951 0.00000
G1 X31.653 Y32.203 0.00000
G1 X30.286 Y33.283 0.00000
G1 X28.788 Y34.170 0.00000
G1 X27.184 Y34.850 0.00000
G1 X25.682 Y35.261 0.00000
G1 X25.504 Y35.310 0.00000
G1 X23.778 Y35.542 0.00000
G1 X22.037 Y35.542 0.00000
G1 X20.311 Y35.310 0.00000
G1 X18.631 Y34.850 0.00000
G1 X17.027 Y34.170 0.00000
G1 X15.529 Y33.283 0.00000
G1 X14.162 Y32.203 0.00000
G1 X12.951 Y30.951 0.00000
G1 X11.918 Y29.549 0.00000
G1 X11.081 Y28.022 0.00000
G1 X10.455 Y26.396 0.00000
G1 X10.051 Y24.702 0.00000
G1 X9.877 Y22.969 0.00000
G1 X9.935 Y21.229 0.00000
G1 X10.225 Y19.511 0.00000
G1 X10.741 Y17.848 0.00000
G1 X11.474 Y16.268 0.00000
G1 X12.411 Y14.800 0.00000
G1 X13.480 Y13.536 0.00000
G1 X13.819 Y13.744 F900.000
G1 F900
G1 X15.071 Y12.611 0.00000
G1 X16.464 Y11.655 0.00000
G1 X17.971 Y10.893 0.00000
G1 X19.567 Y10.339 0.00000
G1 X21.222 Y10.002 0.00000
G1 X22.907 Y9.890 0.00000
G1 X24.593 Y10.002 0.00000
G1 X26.248 Y10.339 0.00000
G1 X27.844 Y10.893 0.00000
G1 X29.351 Y11.655 0.00000
G1 X30.744 Y12.611 0.00000
G1 X31.996 Y13.744 0.00000
G1 X33.087 Y15.033 0.00000
G1 X33.996 Y16.457 0.00000
G1 X34.707 Y17.989 0.00000
G1 X35.207 Y19.603 0.00000
G1 X35.488 Y21.268 0.00000
G1 X35.545 Y22.956 0.00000
G1 X35.375 Y24.637 0.00000
G1 X34.984 Y26.280 0.00000
G1 X34.377 Y27.856 0.00000
G1 X33.565 Y29.337 0.00000
G1 X32.563 Y30.697 0.00000
G1 X31.389 Y31.911 0.00000
G1 X30.063 Y32.958 0.00000
G1 X28.610 Y33.819 0.00000
G1 X27.055 Y34.478 0.00000
G1 X25.578 Y34.883 0.00000
G1 X25.426 Y34.924 0.00000
G1 X23.752 Y35.150 0.00000
G1 X22.063 Y35.150 0.00000
G1 X20.389 Y34.924 0.00000
G1 X18.760 Y34.478 0.00000
G1 X17.205 Y33.819 0.00000
G1 X15.752 Y32.958 0.00000
G1 X14.426 Y31.911 0.00000
G1 X13.252 Y30.697 0.00000
G1 X12.250 Y29.337 0.00000
G1 X11.438 Y27.856 0.00000
G1 X10.831 Y26.280 0.00000
G1 X10.439 Y24.637 0.00000
G1 X10.270 Y22.956 0.00000
G1 X10.327 Y21.268 0.00000
G1 X10.608 Y19.603 0.00000
G1 X11.108 Y17.989 0.00000
G1 X11.819 Y16.457 0.00000
G1 X12.728 Y15.033 0.00000
G1 X13.762 Y13.810 0.00000
G1 X14.101 Y14.017 F900.000
G1 F900
G1 X15.315 Y12.919 0.00000
G1 X16.664 Y11.993 0.00000
G1 X18.125 Y11.255 0.00000
G1 X19.671 Y10.718 0.00000
G1 X21.275 Y10.392 0.00000
G1 X22.907 Y10.283 0.00000
G1 X24.540 Y10.392 0.00000
G1 X26.144 Y10.718 0.00000
G1 X27.690 Y11.255 0.00000
G1 X29.151 Y11.993 0.00000
G1 X30.500 Y12.919 0.00000
G1 X31.713 Y14.017 0.00000
G1 X32.770 Y15.267 0.00000
G1 X33.651 Y16.646 0.00000
G1 X34.339 Y18.131 0.00000
G1 X34.824 Y19.694 0.00000
G1 X35.097 Y21.307 0.00000
G1 X35.151 Y22.943 0.00000
G1 X34.987 Y24.571 0.00000
G1 X34.608 Y26.163 0.00000
G1 X34.020 Y27.690 0.00000
G1 X33.233 Y29.126 0.00000
G1 X32.263 Y30.443 0.00000
G1 X31.125 Y31.619 0.00000
G1 X29.841 Y32.634 0.00000
G1 X28.433 Y33.468 0.00000
G1 X26.926 Y34.106 0.00000
G1 X25.475 Y34.504 0.00000
G1 X25.348 Y34.539 0.00000
G1 X23.726 Y34.757 0.00000
G1 X22.089 Y34.757 0.00000
G1 X20.467 Y34.539 0.00000
G1 X18.889 Y34.106 0.00000
G1 X17.382 Y33.468 0.00000
G1 X15.974 Y32.634 0.00000
G1 X14.690 Y31.619 0.00000
G1 X13.552 Y30.443 0.00000
G1 X12.582 Y29.126 0.00000
G1 X11.795 Y27.690 0.00000
G1 X11.207 Y26.163 0.00000
G1 X10.828 Y24.571 0.00000
G1 X10.664 Y22.943 0.00000
G1 X10.718 Y21.307 0.00000
G1 X10.991 Y19.694 0.00000
G1 X11.476 Y18.131 0.00000
G1 X12.164 Y16.646 0.00000
G1 X13.045 Y15.267 0.00000
G1 X14.045 Y14.084 0.00000
G1 X14.101 Y14.017 F900.000
G1 X13.004 Y12.888 F900.000
G1 X15.553 Y10.762 F900.000
G1 X19.515 Y9.072 F900.000
G1 X22.666 Y8.723 F900.000
G1 X22.440 Y8.740 F900.000
G1 F900
G1 X23.867 Y8.614 0.00000
G1 X25.329 Y8.950 0.00000
G1 X24.750 Y8.832 0.00000
G1 X22.907 Y8.709 0.00000
G1 X22.526 Y8.734 0.00000
G1 X26.839 Y9.297 F900.000
G1 F900
G1 X28.136 Y9.595 0.00000
G1 X29.355 Y10.336 0.00000
G1 X28.305 Y9.806 0.00000
G1 X26.921 Y9.325 0.00000
G1 X30.633 Y11.106 F900.000
G1 F900
G1 X31.851 Y11.820 0.00000
G1 X32.689 Y12.782 0.00000
G1 X31.475 Y11.684 0.00000
G1 X30.705 Y11.155 0.00000
G1 X33.941 Y14.219 F900.000
G1 F900
G1 X34.743 Y15.139 0.00000
G1 X35.283 Y16.433 0.00000
G1 X35.031 Y15.890 0.00000
G1 X33.997 Y14.285 0.00000
G1 X35.929 Y17.953 F900.000
G1 F900
G1 X36.441 Y19.123 0.00000
G1 X36.573 Y20.615 0.00000
G1 X36.356 Y19.329 0.00000
G1 X35.955 Y18.036 0.00000
G1 X36.689 Y21.930 F900.000
G1 F900
G1 X36.827 Y23.493 0.00000
G1 X36.556 Y24.676 0.00000
G1 X36.725 Y22.996 0.00000
G1 X36.692 Y22.017 0.00000
G1 X36.099 Y26.663 F900.000
G1 F900
G1 X35.846 Y27.762 0.00000
G1 X35.096 Y28.995 0.00000
G1 X35.448 Y28.353 0.00000
G1 X36.068 Y26.744 0.00000
G1 X34.282 Y30.350 F900.000
G1 F900
G1 X33.621 Y31.477 0.00000
G1 X32.517 Y32.439 0.00000
G1 X33.465 Y31.459 0.00000
G1 X34.231 Y30.420 0.00000
G1 X31.507 Y33.319 F900.000
G1 F900
G1 X30.302 Y34.369 0.00000
G1 X29.253 Y34.807 0.00000
G1 X30.732 Y33.931 0.00000
G1 X31.439 Y33.373 0.00000
G1 X27.330 Y35.624 F900.000
G1 F900
G1 X26.318 Y36.067 0.00000
G1 X24.716 Y36.209 0.00000
G1 X25.661 Y36.082 0.00000
G1 X27.246 Y35.647 0.00000
G1 X23.370 Y36.328 F900.000
G1 F900
G1 X21.948 Y36.454 0.00000
G1 X20.577 Y36.138 0.00000
G1 X21.984 Y36.328 0.00000
G1 X23.283 Y36.328 0.00000
G1 X19.239 Y35.831 F900.000
G1 F900
G1 X17.679 Y35.472 0.00000
G1 X16.741 Y34.902 0.00000
G1 X18.373 Y35.594 0.00000
G1 X19.155 Y35.808 0.00000
G1 X14.948 Y33.825 F900.000
G1 F900
G1 X13.964 Y33.248 0.00000
G1 X12.914 Y32.042 0.00000
G1 X13.634 Y32.787 0.00000
G1 X14.880 Y33.771 0.00000
G1 X12.042 Y31.042 F900.000
G1 F900
G1 X11.072 Y29.928 0.00000
G1 X10.565 Y28.714 0.00000
G1 X11.255 Y29.973 0.00000
G1 X11.991 Y30.972 0.00000
G1 X9.919 Y27.191 F900.000
G1 F900
G1 X9.374 Y25.945 0.00000
G1 X9.276 Y24.838 0.00000
G1 X9.703 Y26.630 0.00000
G1 X9.888 Y27.110 0.00000
G1 X9.097 Y22.806 F900.000
G1 F900
G1 X8.988 Y21.574 0.00000
G1 X9.337 Y20.055 0.00000
G1 X9.152 Y21.150 0.00000
G1 X9.100 Y22.719 0.00000
G1 X9.631 Y18.776 F900.000
G1 F900
G1 X9.969 Y17.305 0.00000
G1 X10.635 Y16.210 0.00000
G1 X10.006 Y17.565 0.00000
G1 X9.657 Y18.693 0.00000
G1 X11.538 Y14.707 F900.000
G1 F900
G1 X12.193 Y13.590 0.00000
G1 X13.239 Y12.679 0.00000
G1 X12.970 Y12.923 0.00000
G1 X11.778 Y14.333 0.00000
G1 X11.585 Y14.634 0.00000
G1 X14.539 Y11.547 F900.000
G1 F900
G1 X15.513 Y10.698 0.00000
G1 X16.847 Y10.141 0.00000
G1 X15.862 Y10.639 0.00000
G1 X14.611 Y11.498 0.00000
G1 X18.215 Y9.561 F900.000
G1 F900
G1 X19.497 Y9.001 0.00000
G1 X20.807 Y8.885 0.00000
G1 X19.255 Y9.200 0.00000
G1 X18.297 Y9.533 0.00000
G1 X18.057 Y9.202 F900.000
G1 F900
G1 X19.398 Y8.615 0.00000
G1 X23.895 Y8.217 0.00000
G1 X28.286 Y9.227 0.00000
G1 X30.445 Y10.540 0.00000
G1 X32.105 Y11.513 0.00000
G1 X35.081 Y14.929 0.00000
G1 X36.055 Y17.262 0.00000
G1 X36.826 Y19.024 0.00000
G1 X37.224 Y23.521 0.00000
G1 X36.215 Y27.912 0.00000
G1 X34.901 Y30.071 0.00000
G1 X33.928 Y31.731 0.00000
G1 X30.512 Y34.707 0.00000
G1 X28.180 Y35.681 0.00000
G1 X26.417 Y36.452 0.00000
G1 X21.920 Y36.850 0.00000
G1 X17.529 Y35.841 0.00000
G1 X15.370 Y34.527 0.00000
G1 X13.710 Y33.554 0.00000
G1 X10.734 Y30.138 0.00000
G1 X9.760 Y27.806 0.00000
G1 X8.989 Y26.043 0.00000
G1 X8.591 Y21.547 0.00000
G1 X9.600 Y17.155 0.00000
G1 X10.914 Y14.996 0.00000
G1 X11.887 Y13.336 0.00000
G1 X15.303 Y10.361 0.00000
G1 X17.977 Y9.236 0.00000
G1 X17.900 Y8.842 F900.000
G1 F900
G1 X19.300 Y8.229 0.00000
G1 X23.920 Y7.820 0.00000
G1 X28.420 Y8.848 0.00000
G1 X30.647 Y10.203 0.00000
G1 X32.359 Y11.207 0.00000
G1 X35.411 Y14.702 0.00000
G1 X36.416 Y17.107 0.00000
G1 X37.212 Y18.926 0.00000
G1 X37.621 Y23.547 0.00000
G1 X36.593 Y28.046 0.00000
G1 X35.238 Y30.273 0.00000
G1 X34.233 Y31.987 0.00000
G1 X30.739 Y35.037 0.00000
G1 X28.334 Y36.042 0.00000
G1 X26.514 Y36.838 0.00000
G1 X21.895 Y37.247 0.00000
G1 X17.395 Y36.219 0.00000
G1 X15.168 Y34.864 0.00000
G1 X13.455 Y33.860 0.00000
G1 X10.404 Y30.365 0.00000
G1 X9.399 Y27.960 0.00000
G1 X8.603 Y26.142 0.00000
G1 X8.194 Y21.521 0.00000
G1 X9.222 Y17.021 0.00000
G1 X10.577 Y14.795 0.00000
G1 X11.581 Y13.082 0.00000
G1 X15.076 Y10.030 0.00000
G1 X17.820 Y8.877 0.00000
G1 X18.875 Y7.986 F900.000
G1 F900
G1 X18.693 Y7.079 0.00000
G1 X17.987 Y4.226 0.00000
G1 X18.117 Y4.189 0.00000
G1 X18.611 Y4.077 0.00000
G1 X19.592 Y7.809 0.00000
G1 X23.567 Y7.458 0.00000
G1 X23.675 Y6.531 0.00000
G1 X23.889 Y3.602 0.00000
G1 X24.526 Y3.653 0.00000
G1 X24.307 Y7.506 0.00000
G1 X28.194 Y8.399 0.00000
G1 X28.582 Y7.553 0.00000
G1 X29.688 Y4.830 0.00000
G1 X30.280 Y5.076 0.00000
G1 X28.881 Y8.669 0.00000
G1 X30.848 Y9.866 0.00000
G1 X32.306 Y10.721 0.00000
G1 X32.935 Y10.038 0.00000
G1 X34.829 Y7.794 0.00000
G1 X35.314 Y8.209 0.00000
G1 X32.871 Y11.197 0.00000
G1 X35.492 Y14.206 0.00000
G1 X36.304 Y13.749 0.00000
G1 X38.799 Y12.197 0.00000
G1 X39.133 Y12.744 0.00000
G1 X35.890 Y14.828 0.00000
G1 X36.777 Y16.953 0.00000
G1 X37.455 Y18.501 0.00000
G1 X38.363 Y18.319 0.00000
G1 X41.215 Y17.613 0.00000
G1 X41.252 Y17.743 0.00000
G1 X41.364 Y18.237 0.00000
G1 X37.632 Y19.218 0.00000
G1 X37.984 Y23.194 0.00000
G1 X38.910 Y23.301 0.00000
G1 X41.840 Y23.515 0.00000
G1 X41.789 Y24.151 0.00000
G1 X37.936 Y23.930 0.00000
G1 X37.042 Y27.820 0.00000
G1 X37.890 Y28.209 0.00000
G1 X40.610 Y29.317 0.00000
G1 X40.365 Y29.906 0.00000
G1 X36.772 Y28.507 0.00000
G1 X35.575 Y30.474 0.00000
G1 X34.720 Y31.933 0.00000
G1 X35.403 Y32.561 0.00000
G1 X37.647 Y34.456 0.00000
G1 X37.231 Y34.941 0.00000
G1 X34.242 Y32.499 0.00000
G1 X31.235 Y35.118 0.00000
G1 X31.692 Y35.930 0.00000
G1 X33.245 Y38.425 0.00000
G1 X32.696 Y38.760 0.00000
G1 X30.610 Y35.517 0.00000
G1 X28.488 Y36.404 0.00000
G1 X26.940 Y37.081 0.00000
G1 X27.122 Y37.991 0.00000
G1 X27.825 Y40.842 0.00000
G1 X27.698 Y40.879 0.00000
G1 X27.203 Y40.991 0.00000
G1 X26.220 Y37.258 0.00000
G1 X22.248 Y37.610 0.00000
G1 X22.140 Y38.537 0.00000
G1 X21.926 Y41.466 0.00000
G1 X21.289 Y41.415 0.00000
G1 X21.508 Y37.561 0.00000
G1 X17.621 Y36.668 0.00000
G1 X17.232 Y37.516 0.00000
G1 X16.124 Y40.236 0.00000
G1 X15.535 Y39.991 0.00000
G1 X16.934 Y36.398 0.00000
G1 X14.967 Y35.201 0.00000
G1 X13.509 Y34.346 0.00000
G1 X12.880 Y35.029 0.00000
G1 X10.986 Y37.273 0.00000
G1 X10.500 Y36.858 0.00000
G1 X12.942 Y33.869 0.00000
G1 X10.323 Y30.861 0.00000
G1 X9.511 Y31.318 0.00000
G1 X7.016 Y32.871 0.00000
G1 X6.682 Y32.324 0.00000
G1 X9.925 Y30.239 0.00000
G1 X9.038 Y28.115 0.00000
G1 X8.360 Y26.566 0.00000
G1 X7.451 Y26.749 0.00000
G1 X4.599 Y27.451 0.00000
G1 X4.563 Y27.325 0.00000
G1 X4.451 Y26.830 0.00000
G1 X8.183 Y25.849 0.00000
G1 X7.831 Y21.874 0.00000
G1 X6.905 Y21.766 0.00000
G1 X3.975 Y21.552 0.00000
G1 X4.026 Y20.917 0.00000
G1 X7.879 Y21.137 0.00000
G1 X8.773 Y17.247 0.00000
G1 X7.925 Y16.858 0.00000
G1 X5.205 Y15.750 0.00000
G1 X5.451 Y15.160 0.00000
G1 X9.045 Y16.558 0.00000
G1 X10.240 Y14.593 0.00000
G1 X11.095 Y13.135 0.00000
G1 X10.414 Y12.508 0.00000
G1 X8.166 Y10.615 0.00000
G1 X8.583 Y10.127 0.00000
G1 X11.570 Y12.570 0.00000
G1 X14.580 Y9.949 0.00000
G1 X14.123 Y9.137 0.00000
G1 X12.570 Y6.643 0.00000
G1 X13.118 Y6.308 0.00000
G1 X15.202 Y9.552 0.00000
G1 X17.327 Y8.664 0.00000
G1 X18.796 Y8.021 0.00000
G1 X18.428 Y7.754 F900.000
G1 F900
G1 X18.310 Y7.164 0.00000
G1 X17.515 Y3.953 0.00000
G1 X18.019 Y3.808 0.00000
G1 X18.900 Y3.609 0.00000
G1 X19.887 Y7.389 0.00000
G1 X23.214 Y7.095 0.00000
G1 X23.284 Y6.495 0.00000
G1 X23.522 Y3.196 0.00000
G1 X24.045 Y3.214 0.00000
G1 X24.945 Y3.297 0.00000
G1 X24.716 Y7.197 0.00000
G1 X27.970 Y7.945 0.00000
G1 X28.222 Y7.397 0.00000
G1 X29.466 Y4.332 0.00000
G1 X29.959 Y4.511 0.00000
G1 X30.789 Y4.868 0.00000
G1 X29.366 Y8.505 0.00000
G1 X31.049 Y9.529 0.00000
G1 X32.232 Y10.222 0.00000
G1 X32.639 Y9.780 0.00000
G1 X34.771 Y7.250 0.00000
G1 X35.183 Y7.572 0.00000
G1 X35.863 Y8.168 0.00000
G1 X33.385 Y11.189 0.00000
G1 X35.578 Y13.707 0.00000
G1 X36.104 Y13.411 0.00000
G1 X38.912 Y11.663 0.00000
G1 X39.206 Y12.098 0.00000
G1 X39.668 Y12.875 0.00000
G1 X36.379 Y14.981 0.00000
G1 X37.138 Y16.798 0.00000
G1 X37.688 Y18.054 0.00000
G1 X38.277 Y17.936 0.00000
G1 X41.488 Y17.141 0.00000
G1 X41.633 Y17.645 0.00000
G1 X41.832 Y18.526 0.00000
G1 X38.052 Y19.514 0.00000
G1 X38.347 Y22.840 0.00000
G1 X38.946 Y22.910 0.00000
G1 X42.245 Y23.148 0.00000
G1 X42.227 Y23.671 0.00000
G1 X42.144 Y24.571 0.00000
G1 X38.244 Y24.341 0.00000
G1 X37.496 Y27.596 0.00000
G1 X38.045 Y27.848 0.00000
G1 X41.109 Y29.094 0.00000
G1 X40.930 Y29.585 0.00000
G1 X40.573 Y30.416 0.00000
G1 X36.936 Y28.993 0.00000
G1 X35.912 Y30.676 0.00000
G1 X35.219 Y31.858 0.00000
G1 X35.662 Y32.266 0.00000
G1 X38.191 Y34.397 0.00000
G1 X37.869 Y34.810 0.00000
G1 X37.273 Y35.489 0.00000
G1 X34.252 Y33.012 0.00000
G1 X31.734 Y35.204 0.00000
G1 X32.030 Y35.730 0.00000
G1 X33.778 Y38.539 0.00000
G1 X33.343 Y38.832 0.00000
G1 X32.567 Y39.294 0.00000
G1 X30.459 Y36.005 0.00000
G1 X28.643 Y36.765 0.00000
G1 X27.387 Y37.314 0.00000
G1 X27.506 Y37.904 0.00000
G1 X28.299 Y41.115 0.00000
G1 X27.796 Y41.259 0.00000
G1 X26.915 Y41.458 0.00000
G1 X25.926 Y37.678 0.00000
G1 X22.601 Y37.973 0.00000
G1 X22.531 Y38.572 0.00000
G1 X22.293 Y41.871 0.00000
G1 X21.770 Y41.853 0.00000
G1 X20.870 Y41.771 0.00000
G1 X21.099 Y37.870 0.00000
G1 X17.845 Y37.122 0.00000
G1 X17.593 Y37.671 0.00000
G1 X16.347 Y40.735 0.00000
G1 X15.856 Y40.556 0.00000
G1 X15.026 Y40.200 0.00000
G1 X16.449 Y36.562 0.00000
G1 X14.766 Y35.538 0.00000
G1 X13.583 Y34.845 0.00000
G1 X13.176 Y35.288 0.00000
G1 X11.044 Y37.817 0.00000
G1 X10.632 Y37.495 0.00000
G1 X9.952 Y36.899 0.00000
G1 X12.430 Y33.878 0.00000
G1 X10.237 Y31.360 0.00000
G1 X9.711 Y31.656 0.00000
G1 X6.903 Y33.404 0.00000
G1 X6.609 Y32.970 0.00000
G1 X6.147 Y32.193 0.00000
G1 X9.436 Y30.087 0.00000
G1 X8.677 Y28.269 0.00000
G1 X8.127 Y27.013 0.00000
G1 X7.538 Y27.132 0.00000
G1 X4.327 Y27.925 0.00000
G1 X4.182 Y27.422 0.00000
G1 X3.983 Y26.541 0.00000
G1 X7.763 Y25.554 0.00000
G1 X7.468 Y22.227 0.00000
G1 X6.869 Y22.157 0.00000
G1 X3.570 Y21.919 0.00000
G1 X3.588 Y21.397 0.00000
G1 X3.671 Y20.497 0.00000
G1 X7.571 Y20.726 0.00000
G1 X8.319 Y17.471 0.00000
G1 X7.770 Y17.219 0.00000
G1 X4.706 Y15.974 0.00000
G1 X4.885 Y15.482 0.00000
G1 X5.242 Y14.652 0.00000
G1 X8.879 Y16.074 0.00000
G1 X9.903 Y14.392 0.00000
G1 X10.596 Y13.209 0.00000
G1 X10.154 Y12.802 0.00000
G1 X7.623 Y10.671 0.00000
G1 X7.946 Y10.258 0.00000
G1 X8.542 Y9.579 0.00000
G1 X11.562 Y12.057 0.00000
G1 X14.081 Y9.863 0.00000
G1 X13.785 Y9.338 0.00000
G1 X12.037 Y6.529 0.00000
G1 X12.472 Y6.235 0.00000
G1 X13.248 Y5.773 0.00000
G1 X15.354 Y9.062 0.00000
G1 X17.172 Y8.303 0.00000
G1 X18.348 Y7.788 0.00000
G1 X18.987 Y7.601 F900.000
G1 Z-147.000 F900.000
G1 X19.094 Y9.672 F900.000
G1 F900
G1 X19.359 Y9.580 0.00000
G1 X21.117 Y9.222 0.00000
G1 X22.907 Y9.102 0.00000
G1 X24.698 Y9.222 0.00000
G1 X26.456 Y9.580 0.00000
G1 X28.151 Y10.168 0.00000
G1 X29.752 Y10.977 0.00000
G1 X31.232 Y11.993 0.00000
G1 X32.562 Y13.196 0.00000
G1 X33.721 Y14.567 0.00000
G1 X34.686 Y16.079 0.00000
G1 X35.441 Y17.706 0.00000
G1 X35.973 Y19.420 0.00000
G1 X36.271 Y21.189 0.00000
G1 X36.331 Y22.983 0.00000
G1 X36.152 Y24.768 0.00000
G1 X35.736 Y26.513 0.00000
G1 X35.091 Y28.187 0.00000
G1 X34.229 Y29.761 0.00000
G1 X33.164 Y31.205 0.00000
G1 X31.917 Y32.495 0.00000
G1 X30.509 Y33.607 0.00000
G1 X28.965 Y34.521 0.00000
G1 X27.313 Y35.222 0.00000
G1 X25.583 Y35.696 0.00000
G1 X23.805 Y35.935 0.00000
G1 X22.010 Y35.935 0.00000
G1 X20.232 Y35.696 0.00000
G1 X18.502 Y35.222 0.00000
G1 X16.850 Y34.521 0.00000
G1 X15.306 Y33.607 0.00000
G1 X13.898 Y32.495 0.00000
G1 X12.651 Y31.205 0.00000
G1 X11.586 Y29.761 0.00000
G1 X10.724 Y28.187 0.00000
G1 X10.079 Y26.513 0.00000
G1 X9.663 Y24.768 0.00000
G1 X9.484 Y22.983 0.00000
G1 X9.544 Y21.189 0.00000
G1 X9.842 Y19.420 0.00000
G1 X10.374 Y17.706 0.00000
G1 X11.129 Y16.079 0.00000
G1 X12.094 Y14.567 0.00000
G1 X13.253 Y13.196 0.00000
G1 X14.583 Y11.993 0.00000
G1 X16.063 Y10.977 0.00000
G1 X17.664 Y10.168 0.00000
G1 X19.012 Y9.700 0.00000
G1 X19.223 Y10.043 F900.000
G1 F900
G1 X19.463 Y9.959 0.00000
G1 X21.170 Y9.612 0.00000
G1 X22.907 Y9.496 0.00000
G1 X24.645 Y9.612 0.00000
G1 X26.352 Y9.959 0.00000
G1 X27.997 Y10.531 0.00000
G1 X29.552 Y11.316 0.00000
G1 X30.988 Y12.302 0.00000
G1 X32.279 Y13.470 0.00000
G1 X33.404 Y14.800 0.00000
G1 X34.341 Y16.268 0.00000
G1 X35.074 Y17.848 0.00000
G1 X35.590 Y19.511 0.00000
G1 X35.880 Y21.229 0.00000
G1 X35.938 Y22.969 0.00000
G1 X35.764 Y24.702 0.00000
G1 X35.360 Y26.396 0.00000
G1 X34.734 Y28.022 0.00000
G1 X33.897 Y29.549 0.00000
G1 X32.864 Y30.951 0.00000
G1 X31.653 Y32.203 0.00000
G1 X30.286 Y33.283 0.00000
G1 X28.788 Y34.170 0.00000
G1 X27.184 Y34.850 0.00000
G1 X25.504 Y35.310 0.00000
G1 X23.778 Y35.542 0.00000
G1 X22.037 Y35.542 0.00000
G1 X20.311 Y35.310 0.00000
G1 X18.631 Y34.850 0.00000
G1 X17.027 Y34.170 0.00000
G1 X15.529 Y33.283 0.00000
G1 X14.162 Y32.203 0.00000
G1 X12.951 Y30.951 0.00000
G1 X11.918 Y29.549 0.00000
G1 X11.081 Y28.022 0.00000
G1 X10.455 Y26.396 0.00000
G1 X10.051 Y24.702 0.00000
G1 X9.877 Y22.969 0.00000
G1 X9.935 Y21.229 0.00000
G1 X10.225 Y19.511 0.00000
G1 X10.741 Y17.848 0.00000
G1 X11.474 Y16.268 0.00000
G1 X12.411 Y14.800 0.00000
G1 X13.536 Y13.470 0.00000
G1 X14.827 Y12.302 0.00000
G1 X16.263 Y11.316 0.00000
G1 X17.818 Y10.531 0.00000
G1 X19.141 Y10.071 0.00000
G1 X19.352 Y10.414 F900.000
G1 F900
G1 X19.567 Y10.339 0.00000
G1 X21.222 Y10.002 0.00000
G1 X22.907 Y9.890 0.00000
G1 X24.593 Y10.002 0.00000
G1 X26.248 Y10.339 0.00000
G1 X27.844 Y10.893 0.00000
G1 X29.351 Y11.655 0.00000
G1 X30.744 Y12.611 0.00000
G1 X31.996 Y13.744 0.00000
G1 X33.087 Y15.033 0.00000
G1 X33.996 Y16.457 0.00000
G1 X34.707 Y17.989 0.00000
G1 X35.207 Y19.603 0.00000
G1 X35.488 Y21.268 0.00000
G1 X35.545 Y22.956 0.00000
G1 X35.375 Y24.637 0.00000
G1 X34.984 Y26.280 0.00000
G1 X34.377 Y27.856 0.00000
G1 X33.565 Y29.337 0.00000
G1 X32.563 Y30.697 0.00000
G1 X31.389 Y31.911 0.00000
G1 X30.063 Y32.958 0.00000
G1 X28.610 Y33.819 0.00000
G1 X27.055 Y34.478 0.00000
G1 X25.426 Y34.924 0.00000
G1 X23.752 Y35.150 0.00000
G1 X22.063 Y35.150 0.00000
G1 X20.389 Y34.924 0.00000
G1 X18.760 Y34.478 0.00000
G1 X17.205 Y33.819 0.00000
G1 X15.752 Y32.958 0.00000
G1 X14.426 Y31.911 0.00000
G1 X13.252 Y30.697 0.00000
G1 X12.250 Y29.337 0.00000
G1 X11.438 Y27.856 0.00000
G1 X10.831 Y26.280 0.00000
G1 X10.439 Y24.637 0.00000
G1 X10.270 Y22.956 0.00000
G1 X10.327 Y21.268 0.00000
G1 X10.608 Y19.603 0.00000
G1 X11.108 Y17.989 0.00000
G1 X11.819 Y16.457 0.00000
G1 X12.728 Y15.033 0.00000
G1 X13.819 Y13.744 0.00000
G1 X15.071 Y12.611 0.00000
G1 X16.464 Y11.655 0.00000
G1 X17.971 Y10.893 0.00000
G1 X19.269 Y10.442 0.00000
G1 X19.480 Y10.785 F900.000
G1 F900
G1 X19.671 Y10.718 0.00000
G1 X21.275 Y10.392 0.00000
G1 X22.907 Y10.283 0.00000
G1 X24.540 Y10.392 0.00000
G1 X26.144 Y10.718 0.00000
G1 X27.690 Y11.255 0.00000
G1 X29.151 Y11.993 0.00000
G1 X30.500 Y12.919 0.00000
G1 X31.713 Y14.017 0.00000
G1 X32.770 Y15.267 0.00000
G1 X33.651 Y16.646 0.00000
G1 X34.339 Y18.131 0.00000
G1 X34.824 Y19.694 0.00000
G1 X35.097 Y21.307 0.00000
G1 X35.151 Y22.943 0.00000
G1 X34.987 Y24.571 0.00000
G1 X34.608 Y26.163 0.00000
G1 X34.020 Y27.690 0.00000
G1 X33.233 Y29.126 0.00000
G1 X32.263 Y30.443 0.00000
G1 X31.125 Y31.619 0.00000
G1 X29.841 Y32.634 0.00000
G1 X28.433 Y33.468 0.00000
G1 X26.926 Y34.106 0.00000
G1 X25.348 Y34.539 0.00000
G1 X23.726 Y34.757 0.00000
G1 X22.089 Y34.757 0.00000
G1 X20.467 Y34.539 0.00000
G1 X18.889 Y34.106 0.00000
G1 X17.382 Y33.468 0.00000
G1 X15.974 Y32.634 0.00000
G1 X14.690 Y31.619 0.00000
G1 X13.552 Y30.443 0.00000
G1 X12.582 Y29.126 0.00000
G1 X11.795 Y27.690 0.00000
G1 X11.207 Y26.163 0.00000
G1 X10.828 Y24.571 0.00000
G1 X10.664 Y22.943 0.00000
G1 X10.718 Y21.307 0.00000
G1 X10.991 Y19.694 0.00000
G1 X11.476 Y18.131 0.00000
G1 X12.164 Y16.646 0.00000
G1 X13.045 Y15.267 0.00000
G1 X14.101 Y14.017 0.00000
G1 X15.315 Y12.919 0.00000
G1 X16.664 Y11.993 0.00000
G1 X18.125 Y11.255 0.00000
G1 X19.398 Y10.813 0.00000
G1 X19.514 Y10.586 F900.000
G1 X23.201 Y8.728 F900.000
G1 F900
G1 X23.589 Y8.686 0.00000
G1 X24.068 Y8.786 0.00000
G1 X23.288 Y8.734 0.00000
G1 X27.343 Y9.472 F900.000
G1 F900
G1 X27.845 Y9.577 0.00000
G1 X28.144 Y9.750 0.00000
G1 X27.425 Y9.500 0.00000
G1 X31.193 Y11.490 F900.000
G1 F900
G1 X31.547 Y11.675 0.00000
G1 X31.917 Y12.083 0.00000
G1 X31.475 Y11.684 0.00000
G1 X31.265 Y11.539 0.00000
G1 X34.233 Y14.639 F900.000
G1 F900
G1 X34.518 Y14.953 0.00000
G1 X34.710 Y15.386 0.00000
G1 X34.280 Y14.713 0.00000
G1 X36.068 Y18.401 F900.000
G1 F900
G1 X36.279 Y18.826 0.00000
G1 X36.322 Y19.221 0.00000
G1 X36.094 Y18.484 0.00000
G1 X36.722 Y22.911 F900.000
G1 F900
G1 X36.755 Y23.216 0.00000
G1 X36.654 Y23.697 0.00000
G1 X36.724 Y22.998 0.00000
G1 X35.956 Y27.035 F900.000
G1 F900
G1 X35.864 Y27.471 0.00000
G1 X35.635 Y27.867 0.00000
G1 X35.924 Y27.116 0.00000
