DVAR $hFile
DVAR $cCheck
DVAR $press
DVAR $length
DVAR $lame
DVAR $comport
DVAR $COM5
DVAR $linepressure5


G71
G76
G91 ;G90 = absolute, G91 = relative
G68

RAMP TYPE SINE X Y
VELOCITY OFF
RAMP RATE 900

$linepressure5 = 20.0000
CALL setPress5 P$COM5 Q$linepressure5

ENABLE X Y D
'HOME X Y D
G90
G0 D-80 F60
G0 X0 Y0 D0 F60
G91

;Begin Motion
'G0 X150 Y50 F60
G0 D-149.5 F60
G1 F20

FILECLOSE
$hFile = FILEOPEN "COM5", 2
COMMINIT $hFile, "baud=115200 parity=N data=8 stop=1"
COMMSETTIMEOUT $hFile, -1, -1, 1000

;
FILEWRITE $hFile"\x05\x02\x30\x38\x50\x53\x20\x20\x30\x33\x34\x30\x45\x45\x03"

; Postprocessed by [ArcWelder](https://github.com/FormerLurker/ArcWelderLib) 
; Copyright(C) 2021 - Brad Hochgesang 
; Version: 1.2.0, Branch: master, BuildDate: 2021-11-22T09:56:32D 
; resolution=0.05mm 
; path_tolerance=5.0% 
; max_radius=9999.00mm 
; default_xyz_precision=3 
; default_e_precision=5 
; extrusion_rate_variance_percent=5.0% 
; generated by Slic3r 1.3.0 on 2023-07-27 at 14:03:13 
; external perimeters extrusion width = 0.49mm (2.83mm^3/s) 
; perimeters extrusion width = 0.49mm (2.83mm^3/s) 
; infill extrusion width = 0.49mm (2.83mm^3/s) 
; solid infill extrusion width = 0.49mm (2.83mm^3/s) 
; top infill extrusion width = 0.49mm (2.83mm^3/s) 
; Filament gcode 
; CW1 ; set units to millimeters 
G90 ; use absolute coordinates 
G1 D-149.510 ;not extruding 
G1 X103.625 Y75.520 ;not extruding 
FILEWRITE $hFile"\x05\x02\x30\x34\x44\x49\x20\x20\x43\x46\x03"
DWELL 0.15
G1 X104.236 Y75.932 ;extruding 
G1 X103.764 Y78.282 ;extruding 
G1 X106.524 Y77.070 ;extruding 
G1 X105.621 Y79.551 ;extruding 
G1 X108.217 Y78.045 ;extruding 
G1 X107.988 Y80.079 ;extruding 
G1 X110.567 Y78.099 ;extruding 
G1 X111.308 Y77.586 ;extruding 
G1 X111.177 Y78.568 ;extruding 
G1 X110.562 Y80.298 ;extruding 
G1 X113.410 Y77.978 ;extruding 
G1 X113.771 Y78.217 ;extruding 
G1 X113.080 Y80.635 ;extruding 
G1 X115.090 Y78.471 ;extruding 
G1 X115.844 Y78.914 ;extruding 
CCW X113.067 Y85.512 I-158.252 J-62.722 
G1 X111.018 Y89.280 ;extruding 
G1 X108.579 Y92.741 ;extruding 
G1 X105.661 Y96.065 ;extruding 
G1 X102.202 Y99.311 ;extruding 
G1 X92.226 Y107.242 ;extruding 
G1 X86.457 Y112.493 ;extruding 
G1 X81.096 Y118.082 ;extruding 
G1 X76.121 Y124.023 ;extruding 
G1 X71.516 Y130.336 ;extruding 
CCW X65.123 Y140.057 I-237.965 J-149.535 
G1 X60.844 Y145.456 ;extruding 
G1 X58.228 Y148.497 ;extruding 
G1 X55.172 Y151.695 ;extruding 
G1 X52.357 Y154.072 ;extruding 
G1 X49.579 Y155.878 ;extruding 
G1 X47.708 Y156.835 ;extruding 
G1 X47.386 Y156.322 ;extruding 
G1 X47.891 Y155.787 ;extruding 
G1 X50.480 Y152.738 ;extruding 
G1 X52.478 Y149.563 ;extruding 
G1 X53.842 Y146.380 ;extruding 
G1 X54.641 Y143.154 ;extruding 
G1 X54.914 Y139.842 ;extruding 
G1 X54.666 Y136.388 ;extruding 
CW X53.779 Y132.986 I-12.366 J1.408 
CW X52.222 Y130.132 I-63.179 J32.616 
G1 X51.103 Y131.454 ;extruding 
G1 X50.873 Y127.142 ;extruding 
G1 X50.083 Y128.050 ;extruding 
G1 X49.330 Y127.754 ;extruding 
G1 X50.499 Y123.338 ;extruding 
G1 X49.058 Y124.494 ;extruding 
G1 X48.420 Y124.197 ;extruding 
G1 X50.009 Y120.676 ;extruding 
G1 X49.167 Y121.072 ;extruding 
G1 X48.498 Y121.645 ;extruding 
G1 X48.505 Y120.553 ;extruding 
CW X49.761 Y117.756 I-32.521 J-16.284 
G1 X49.764 Y117.646 ;extruding 
G1 X49.472 Y116.392 ;extruding 
G1 X51.681 Y112.923 ;extruding 
G1 X53.955 Y110.217 ;extruding 
G1 X56.477 Y107.917 ;extruding 
G1 X59.561 Y105.833 ;extruding 
G1 X60.594 Y105.278 ;extruding 
G1 X65.128 Y103.260 ;extruding 
G1 X69.873 Y101.615 ;extruding 
G1 X77.224 Y99.594 ;extruding 
G1 X78.984 Y99.152 ;extruding 
G1 X82.746 Y97.948 ;extruding 
G1 X85.767 Y96.504 ;extruding 
G1 X88.647 Y94.555 ;extruding 
G1 X91.075 Y92.258 ;extruding 
G1 X93.101 Y89.601 ;extruding 
G1 X96.060 Y84.199 ;extruding 
G1 X97.768 Y81.726 ;extruding 
CCW X103.562 Y75.580 I57.061 J47.989 
FILEWRITE $hFile"\x05\x02\x30\x34\x44\x49\x20\x20\x43\x46\x03"
G1 X96.013 Y77.840 ;not extruding 
FILEWRITE $hFile"\x05\x02\x30\x34\x44\x49\x20\x20\x43\x46\x03"
DWELL 0.15
G1 X92.210 Y82.188 ;extruding 
G1 X91.342 Y81.719 ;extruding 
CCW X90.347 Y78.173 I1.375 J-2.298 
CCW X91.998 Y76.346 I3.706 J1.690 
CCW X94.726 Y76.610 I1.145 J2.395 
CCW X95.954 Y77.776 I-3.364 J4.773 
FILEWRITE $hFile"\x05\x02\x30\x34\x44\x49\x20\x20\x43\x46\x03"
G1 X91.130 Y83.755 ;not extruding 
FILEWRITE $hFile"\x05\x02\x30\x34\x44\x49\x20\x20\x43\x46\x03"
DWELL 0.15
G1 X91.121 Y84.185 ;extruding 
CCW X88.086 Y84.317 I-1.719 J-4.568 
G1 X87.162 Y84.004 ;extruding 
G1 X86.066 Y83.430 ;extruding 
G1 X85.007 Y82.645 ;extruding 
G1 X83.959 Y81.582 ;extruding 
G1 X83.027 Y80.271 ;extruding 
G1 X82.728 Y79.729 ;extruding 
G1 X82.085 Y78.168 ;extruding 
G1 X81.710 Y76.545 ;extruding 
G1 X81.601 Y74.867 ;extruding 
G1 X81.766 Y73.169 ;extruding 
G1 X82.210 Y71.510 ;extruding 
G1 X82.922 Y69.952 ;extruding 
G1 X83.873 Y68.559 ;extruding 
G1 X85.020 Y67.376 ;extruding 
CCW X88.336 Y65.573 I5.602 J6.353 
G1 X89.662 Y65.319 ;extruding 
G1 X90.773 Y65.297 ;extruding 
CCW X92.821 Y66.003 I-0.177 J3.837 
G1 X93.555 Y66.700 ;extruding 
G1 X90.401 Y66.860 ;extruding 
G1 X88.745 Y67.222 ;extruding 
G1 X87.457 Y67.722 ;extruding 
G1 X86.352 Y68.372 ;extruding 
CW X84.167 Y70.930 I3.991 J5.621 
CW X83.562 Y72.561 I7.455 J3.693 
G1 X83.182 Y74.737 ;extruding 
G1 X83.171 Y76.191 ;extruding 
G1 X83.349 Y77.383 ;extruding 
CW X85.685 Y81.137 I6.856 J-1.663 
G1 X86.793 Y81.947 ;extruding 
G1 X88.652 Y82.907 ;extruding 
G1 X91.047 Y83.727 ;extruding 
FILEWRITE $hFile"\x05\x02\x30\x34\x44\x49\x20\x20\x43\x46\x03"
G1 X90.349 Y85.932 ;not extruding 
FILEWRITE $hFile"\x05\x02\x30\x34\x44\x49\x20\x20\x43\x46\x03"
DWELL 0.15
G1 X89.295 Y87.855 ;extruding 
G1 X87.740 Y89.845 ;extruding 
G1 X85.336 Y92.077 ;extruding 
G1 X82.398 Y94.075 ;extruding 
G1 X79.251 Y95.585 ;extruding 
G1 X76.699 Y96.359 ;extruding 
G1 X74.798 Y96.633 ;extruding 
G1 X72.554 Y96.597 ;extruding 
G1 X73.880 Y95.514 ;extruding 
G1 X68.204 Y95.828 ;extruding 
G1 X68.169 Y95.056 ;extruding 
G1 X70.844 Y93.931 ;extruding 
G1 X66.524 Y93.494 ;extruding 
G1 X66.468 Y92.806 ;extruding 
G1 X68.166 Y92.011 ;extruding 
G1 X67.076 Y91.876 ;extruding 
CCW X64.839 Y90.665 I0.788 J-4.128 
CCW X64.282 Y87.364 I2.651 J-2.145 
G1 X64.356 Y87.145 ;extruding 
G1 X64.919 Y85.898 ;extruding 
CCW X66.201 Y84.287 I4.985 J2.652 
CCW X72.355 Y80.043 I40.377 J51.965 
G1 X72.773 Y79.819 ;extruding 
G1 X68.813 Y80.802 ;extruding 
G1 X65.852 Y81.269 ;extruding 
G1 X63.611 Y81.309 ;extruding 
G1 X61.715 Y81.052 ;extruding 
G1 X59.966 Y80.527 ;extruding 
G1 X59.240 Y80.230 ;extruding 
G1 X59.702 Y79.747 ;extruding 
G1 X56.805 Y79.067 ;extruding 
G1 X56.863 Y78.439 ;extruding 
G1 X58.482 Y78.036 ;extruding 
G1 X54.866 Y76.896 ;extruding 
G1 X55.100 Y76.307 ;extruding 
G1 X57.109 Y76.167 ;extruding 
CCW X55.993 Y70.180 I2.932 J-3.644 
CCW X56.984 Y68.896 I4.644 J2.560 
CCW X59.956 Y66.432 I14.319 J14.246 
G1 X63.967 Y64.183 ;extruding 
G1 X68.126 Y62.468 ;extruding 
G1 X72.343 Y61.316 ;extruding 
G1 X76.350 Y60.728 ;extruding 
G1 X77.226 Y60.662 ;extruding 
CCW X84.424 Y60.638 I3.983 J115.023 
G1 X84.771 Y61.392 ;extruding 
G1 X82.482 Y62.591 ;extruding 
G1 X81.222 Y63.524 ;extruding 
G1 X80.231 Y64.529 ;extruding 
G1 X79.322 Y65.826 ;extruding 
G1 X79.254 Y65.957 ;extruding 
G1 X82.590 Y64.139 ;extruding 
G1 X84.159 Y63.520 ;extruding 
CCW X86.250 Y63.208 I2.008 J6.297 
G1 X87.612 Y63.346 ;extruding 
G1 X89.344 Y63.706 ;extruding 
G1 X85.750 Y65.684 ;extruding 
G1 X83.851 Y67.156 ;extruding 
G1 X82.547 Y68.539 ;extruding 
G1 X81.565 Y69.995 ;extruding 
G1 X80.940 Y71.360 ;extruding 
G1 X80.521 Y72.890 ;extruding 
G1 X80.352 Y74.507 ;extruding 
G1 X80.455 Y76.387 ;extruding 
G1 X80.873 Y78.334 ;extruding 
G1 X81.510 Y79.954 ;extruding 
G1 X82.457 Y81.545 ;extruding 
G1 X83.349 Y82.646 ;extruding 
G1 X84.651 Y83.856 ;extruding 
G1 X85.901 Y84.686 ;extruding 
G1 X87.339 Y85.332 ;extruding 
G1 X88.881 Y85.740 ;extruding 
G1 X90.263 Y85.921 ;extruding 
FILEWRITE $hFile"\x05\x02\x30\x34\x44\x49\x20\x20\x43\x46\x03"
G1 X90.043 Y86.091 ;not extruding 
G1 X91.488 Y85.425 ;not extruding 
G1 X91.557 Y85.094 ;not extruding 
G1 X92.836 Y85.663 ;not extruding 
G1 X93.991 Y84.609 ;not extruding 
G1 X94.528 Y83.316 ;not extruding 
G1 X94.493 Y82.770 ;not extruding 
G1 X98.358 Y77.967 ;not extruding 
G1 X98.727 Y75.809 ;not extruding 
G1 X98.617 Y73.521 ;not extruding 
G1 X95.114 Y71.437 ;not extruding 
G1 X95.351 Y68.759 ;not extruding 
G1 X94.927 Y66.178 ;not extruding 
G1 X94.576 Y65.417 ;not extruding 
G1 X91.789 Y62.394 ;not extruding 
G1 X90.863 Y60.219 ;not extruding 
G1 X92.137 Y56.048 ;not extruding 
G1 X92.920 Y54.284 ;not extruding 
G1 X93.815 Y52.759 ;not extruding 
G1 X96.805 Y50.660 ;not extruding 
CCW X97.658 Y50.414 I0.957 J1.716 
G1 X99.866 Y51.774 ;not extruding 
G1 X100.556 Y52.743 ;not extruding 
G1 X102.022 Y54.295 ;not extruding 
G1 X101.608 Y55.742 ;not extruding 
G1 X101.357 Y57.667 ;not extruding 
G1 X101.400 Y58.455 ;not extruding 
G1 X101.821 Y59.175 ;not extruding 
G1 X102.891 Y60.125 ;not extruding 
G1 X104.525 Y60.663 ;not extruding 
G1 X108.431 Y61.131 ;not extruding 
G1 X107.900 Y63.612 ;not extruding 
G1 X107.274 Y64.246 ;not extruding 
CW X107.750 Y66.517 I10.072 J-0.926 
FILEWRITE $hFile"\x05\x02\x30\x34\x44\x49\x20\x20\x43\x46\x03"
DWELL 0.15
G1 X108.882 Y68.473 ;extruding 
G1 X109.833 Y69.626 ;extruding 
G1 X110.785 Y70.471 ;extruding 
G1 X111.362 Y70.866 ;extruding 
G1 X112.467 Y71.419 ;extruding 
G1 X113.634 Y71.772 ;extruding 
CW X115.806 Y71.945 I1.764 J-8.426 
G1 X118.428 Y71.621 ;extruding 
CW X124.042 Y70.426 I-15.856 J-88.276 
G1 X124.265 Y70.796 ;extruding 
G1 X122.916 Y72.317 ;extruding 
G1 X121.431 Y73.514 ;extruding 
G1 X119.838 Y74.409 ;extruding 
G1 X118.157 Y75.017 ;extruding 
G1 X116.415 Y75.338 ;extruding 
G1 X114.658 Y75.368 ;extruding 
G1 X112.927 Y75.108 ;extruding 
G1 X111.280 Y74.567 ;extruding 
G1 X109.764 Y73.764 ;extruding 
G1 X108.411 Y72.721 ;extruding 
CCW X106.484 Y70.448 I10.411 J-10.780 
CW X105.093 Y69.858 I-1.336 J1.216 
G1 X103.093 Y69.734 ;extruding 
G1 X101.405 Y69.327 ;extruding 
G1 X99.868 Y68.669 ;extruding 
G1 X98.503 Y67.792 ;extruding 
G1 X97.303 Y66.703 ;extruding 
G1 X96.298 Y65.427 ;extruding 
G1 X95.508 Y63.985 ;extruding 
G1 X95.153 Y63.072 ;extruding 
G1 X94.747 Y61.431 ;extruding 
G1 X94.628 Y59.800 ;extruding 
G1 X94.782 Y58.277 ;extruding 
G1 X95.150 Y56.952 ;extruding 
G1 X95.728 Y55.729 ;extruding 
G1 X96.478 Y54.667 ;extruding 
CCW X97.781 Y53.424 I7.824 J6.898 
CCW X97.891 Y55.051 I-10.035 J1.496 
G1 X97.442 Y57.128 ;extruding 
CW X97.449 Y59.073 I6.401 J0.949 
CW X99.229 Y61.832 I4.098 J-0.690 
G1 X100.229 Y62.427 ;extruding 
G1 X101.993 Y63.119 ;extruding 
CW X107.188 Y64.229 I13.825 J-51.990 
FILEWRITE $hFile"\x05\x02\x30\x34\x44\x49\x20\x20\x43\x46\x03"
G1 X107.900 Y63.612 ;not extruding 
G1 X108.431 Y61.131 ;not extruding 
G1 X104.525 Y60.663 ;not extruding 
G1 X102.891 Y60.125 ;not extruding 
G1 X101.821 Y59.175 ;not extruding 
G1 X101.400 Y58.455 ;not extruding 
G1 X101.357 Y57.667 ;not extruding 
G1 X101.608 Y55.742 ;not extruding 
G1 X102.022 Y54.295 ;not extruding 
G1 X100.556 Y52.743 ;not extruding 
G1 X99.866 Y51.774 ;not extruding 
G1 X97.658 Y50.414 ;not extruding 
G1 X96.805 Y50.660 ;not extruding 
G1 X93.815 Y52.759 ;not extruding 
G1 X92.289 Y55.671 ;not extruding 
G1 X91.123 Y59.341 ;not extruding 
G1 X88.577 Y58.230 ;not extruding 
G1 X88.111 Y57.409 ;not extruding 
FILEWRITE $hFile"\x05\x02\x30\x34\x44\x49\x20\x20\x43\x46\x03"
DWELL 0.15
G1 X81.624 Y56.580 ;extruding 
G1 X76.743 Y55.582 ;extruding 
G1 X72.479 Y54.296 ;extruding 
G1 X68.683 Y52.701 ;extruding 
G1 X66.066 Y51.282 ;extruding 
G1 X64.730 Y50.315 ;extruding 
CCW X60.231 Y45.821 I103.825 J-108.440 
G1 X61.867 Y45.663 ;extruding 
G1 X59.092 Y42.713 ;extruding 
G1 X59.297 Y42.337 ;extruding 
G1 X61.037 Y42.663 ;extruding 
G1 X59.000 Y40.127 ;extruding 
G1 X58.373 Y39.123 ;extruding 
G1 X60.653 Y39.828 ;extruding 
G1 X58.256 Y35.858 ;extruding 
G1 X58.838 Y35.463 ;extruding 
G1 X60.173 Y36.178 ;extruding 
G1 X58.525 Y31.641 ;extruding 
G1 X59.233 Y31.394 ;extruding 
G1 X60.405 Y32.434 ;extruding 
CCW X60.077 Y28.454 I68.380 J-7.639 
G1 X60.207 Y26.442 ;extruding 
G1 X60.555 Y24.834 ;extruding 
G1 X61.086 Y23.457 ;extruding 
G1 X61.807 Y22.216 ;extruding 
G1 X61.920 Y22.056 ;extruding 
G1 X64.054 Y19.524 ;extruding 
G1 X66.520 Y17.327 ;extruding 
G1 X69.497 Y15.255 ;extruding 
G1 X73.717 Y12.884 ;extruding 
G1 X73.689 Y19.367 ;extruding 
G1 X74.116 Y24.334 ;extruding 
G1 X74.940 Y28.812 ;extruding 
G1 X76.139 Y32.875 ;extruding 
G1 X77.602 Y36.380 ;extruding 
G1 X79.700 Y40.098 ;extruding 
G1 X82.222 Y43.468 ;extruding 
G1 X85.188 Y46.533 ;extruding 
G1 X88.636 Y49.329 ;extruding 
G1 X90.956 Y50.892 ;extruding 
G1 X88.146 Y57.329 ;extruding 
FILEWRITE $hFile"\x05\x02\x30\x34\x44\x49\x20\x20\x43\x46\x03"
G1 X81.563 Y58.278 ;not extruding 
FILEWRITE $hFile"\x05\x02\x30\x34\x44\x49\x20\x20\x43\x46\x03"
DWELL 0.15
G1 X81.541 Y58.798 ;extruding 
G1 X74.732 Y59.424 ;extruding 
G1 X70.229 Y60.008 ;extruding 
G1 X69.419 Y60.161 ;extruding 
G1 X64.851 Y61.349 ;extruding 
G1 X61.052 Y62.810 ;extruding 
G1 X57.295 Y64.813 ;extruding 
G1 X53.979 Y67.198 ;extruding 
G1 X51.053 Y69.969 ;extruding 
G1 X49.023 Y72.402 ;extruding 
G1 X47.070 Y75.426 ;extruding 
G1 X45.571 Y78.672 ;extruding 
G1 X44.534 Y82.118 ;extruding 
G1 X44.011 Y85.641 ;extruding 
G1 X44.022 Y89.036 ;extruding 
G1 X44.559 Y92.305 ;extruding 
G1 X45.461 Y94.985 ;extruding 
G1 X46.679 Y97.316 ;extruding 
G1 X48.376 Y99.562 ;extruding 
G1 X50.234 Y101.318 ;extruding 
G1 X50.811 Y101.769 ;extruding 
CW X49.185 Y104.666 I16.749 J11.306 
CCW X47.259 Y105.746 I-1.962 J-1.241 
G1 X46.982 Y105.762 ;extruding 
G1 X42.442 Y105.663 ;extruding 
G1 X38.101 Y105.055 ;extruding 
G1 X33.920 Y103.956 ;extruding 
G1 X29.861 Y102.367 ;extruding 
G1 X25.888 Y100.271 ;extruding 
G1 X21.969 Y97.642 ;extruding 
G1 X18.338 Y94.672 ;extruding 
CCW X17.718 Y92.747 I1.794 J-1.640 
G1 X19.138 Y85.259 ;extruding 
G1 X21.047 Y77.981 ;extruding 
G1 X23.466 Y70.780 ;extruding 
G1 X26.404 Y63.647 ;extruding 
G1 X28.539 Y59.155 ;extruding 
G1 X32.309 Y52.155 ;extruding 
G1 X37.384 Y43.263 ;extruding 
G1 X39.194 Y45.847 ;extruding 
G1 X40.983 Y47.667 ;extruding 
G1 X43.005 Y49.167 ;extruding 
G1 X45.509 Y50.534 ;extruding 
G1 X49.452 Y52.114 ;extruding 
G1 X51.534 Y52.822 ;extruding 
G1 X49.238 Y49.307 ;extruding 
G1 X47.529 Y46.162 ;extruding 
G1 X46.305 Y43.100 ;extruding 
G1 X45.913 Y41.768 ;extruding 
G1 X46.294 Y41.531 ;extruding 
CW X50.646 Y45.404 I59.064 J-61.987 
CW X54.446 Y47.962 I36.451 J-50.047 
G1 X53.287 Y43.769 ;extruding 
G1 X52.616 Y39.931 ;extruding 
G1 X52.429 Y36.468 ;extruding 
G1 X52.694 Y33.237 ;extruding 
G1 X53.155 Y31.022 ;extruding 
G1 X53.645 Y31.032 ;extruding 
G1 X54.578 Y36.644 ;extruding 
G1 X55.698 Y40.750 ;extruding 
G1 X57.067 Y44.161 ;extruding 
G1 X58.693 Y47.039 ;extruding 
G1 X60.801 Y49.726 ;extruding 
G1 X62.107 Y51.014 ;extruding 
G1 X64.759 Y53.052 ;extruding 
G1 X67.859 Y54.771 ;extruding 
G1 X71.520 Y56.207 ;extruding 
G1 X75.884 Y57.367 ;extruding 
G1 X81.477 Y58.264 ;extruding 
FILEWRITE $hFile"\x05\x02\x30\x34\x44\x49\x20\x20\x43\x46\x03"
G1 X81.305 Y58.574 ;not extruding 
G1 X82.268 Y59.490 ;not extruding 
G1 X82.641 Y59.505 ;not extruding 
G1 X83.449 Y58.732 ;not extruding 
G1 X84.908 Y58.826 ;not extruding 
G1 X86.157 Y59.307 ;not extruding 
G1 X87.607 Y60.372 ;not extruding 
G1 X89.877 Y60.413 ;not extruding 
G1 X90.863 Y60.219 ;not extruding 
G1 X92.137 Y56.048 ;not extruding 
G1 X92.920 Y54.284 ;not extruding 
G1 X93.815 Y52.759 ;not extruding 
G1 X96.805 Y50.660 ;not extruding 
G1 X97.658 Y50.414 ;not extruding 
G1 X99.866 Y51.774 ;not extruding 
G1 X100.556 Y52.743 ;not extruding 
G1 X102.022 Y54.295 ;not extruding 
G1 X101.426 Y56.808 ;not extruding 
G1 X101.400 Y58.455 ;not extruding 
G1 X101.821 Y59.175 ;not extruding 
G1 X102.891 Y60.125 ;not extruding 
G1 X104.525 Y60.663 ;not extruding 
G1 X108.431 Y61.131 ;not extruding 
G1 X111.065 Y62.037 ;not extruding 
G1 X113.006 Y61.195 ;not extruding 
G1 X115.035 Y60.670 ;not extruding 
G1 X122.627 Y60.458 ;not extruding 
G1 X128.668 Y58.918 ;not extruding 
G1 X135.156 Y56.598 ;not extruding 
G1 X138.496 Y55.128 ;not extruding 
G1 X142.871 Y52.915 ;not extruding 
G1 X148.802 Y49.314 ;not extruding 
G1 X155.025 Y45.086 ;not extruding 
G1 X155.493 Y44.879 ;not extruding 
G1 X156.061 Y45.835 ;not extruding 
CCW X155.401 Y47.158 I-7.179 J-2.755 
CCW X151.268 Y52.430 I-48.566 J-33.818 
FILEWRITE $hFile"\x05\x02\x30\x34\x44\x49\x20\x20\x43\x46\x03"
DWELL 0.15
G1 X147.648 Y55.862 ;extruding 
G1 X143.750 Y58.874 ;extruding 
G1 X139.449 Y61.586 ;extruding 
G1 X134.695 Y64.021 ;extruding 
G1 X129.419 Y66.199 ;extruding 
G1 X127.029 Y67.041 ;extruding 
G1 X123.596 Y67.930 ;extruding 
G1 X119.260 Y68.559 ;extruding 
CCW X116.716 Y68.332 I-0.883 J-4.470 
CCW X114.861 Y67.286 I3.488 J-8.354 
CCW X114.280 Y64.905 I1.999 J-1.749 
CCW X116.084 Y63.638 I2.146 J1.137 
G1 X117.442 Y63.717 ;extruding 
CW X121.800 Y64.318 I11.358 J-66.261 
CW X123.449 Y64.252 I0.654 J-4.290 
G1 X129.290 Y62.521 ;extruding 
G1 X134.849 Y60.313 ;extruding 
G1 X139.965 Y57.695 ;extruding 
G1 X144.309 Y54.934 ;extruding 
G1 X145.570 Y54.025 ;extruding 
G1 X150.125 Y50.356 ;extruding 
G1 X155.685 Y45.555 ;extruding 
G1 X155.991 Y45.783 ;extruding 
FILEWRITE $hFile"\x05\x02\x30\x34\x44\x49\x20\x20\x43\x46\x03"
G1 X155.493 Y44.879 ;not extruding 
G1 X155.025 Y45.086 ;not extruding 
G1 X148.802 Y49.314 ;not extruding 
G1 X142.871 Y52.915 ;not extruding 
G1 X138.496 Y55.128 ;not extruding 
G1 X135.156 Y56.598 ;not extruding 
G1 X128.668 Y58.918 ;not extruding 
G1 X122.627 Y60.458 ;not extruding 
G1 X115.035 Y60.670 ;not extruding 
G1 X113.006 Y61.195 ;not extruding 
G1 X111.065 Y62.037 ;not extruding 
G1 X108.431 Y61.131 ;not extruding 
G1 X104.525 Y60.663 ;not extruding 
G1 X104.590 Y58.487 ;not extruding 
G1 X105.541 Y57.515 ;not extruding 
G1 X105.282 Y57.206 ;not extruding 
FILEWRITE $hFile"\x05\x02\x30\x34\x44\x49\x20\x20\x43\x46\x03"
DWELL 0.15
G1 X105.306 Y57.753 ;extruding 
G1 X108.273 Y57.843 ;extruding 
G1 X114.695 Y57.615 ;extruding 
G1 X121.219 Y56.820 ;extruding 
G1 X127.906 Y55.421 ;extruding 
G1 X134.077 Y53.621 ;extruding 
G1 X140.983 Y51.052 ;extruding 
G1 X148.061 Y47.854 ;extruding 
G1 X155.097 Y44.163 ;extruding 
G1 X159.615 Y41.549 ;extruding 
G1 X159.527 Y42.348 ;extruding 
G1 X158.667 Y45.393 ;extruding 
G1 X157.387 Y48.189 ;extruding 
G1 X155.647 Y50.896 ;extruding 
G1 X153.394 Y53.591 ;extruding 
G1 X150.734 Y56.195 ;extruding 
G1 X146.774 Y59.428 ;extruding 
G1 X142.540 Y62.278 ;extruding 
G1 X137.755 Y64.962 ;extruding 
G1 X132.274 Y67.552 ;extruding 
CW X127.242 Y69.680 I37.858 J96.535 
CW X126.817 Y70.003 I1.007 J1.767 
G1 X125.502 Y71.617 ;extruding 
G1 X123.723 Y73.192 ;extruding 
G1 X120.560 Y75.292 ;extruding 
CW X119.282 Y76.957 I1.566 J2.525 
G1 X118.216 Y81.247 ;extruding 
G1 X116.712 Y85.241 ;extruding 
G1 X114.708 Y89.188 ;extruding 
G1 X112.904 Y92.076 ;extruding 
G1 X110.388 Y95.352 ;extruding 
G1 X107.529 Y98.345 ;extruding 
G1 X103.354 Y101.986 ;extruding 
G1 X99.604 Y104.901 ;extruding 
G1 X93.650 Y109.738 ;extruding 
G1 X88.094 Y114.927 ;extruding 
G1 X82.945 Y120.457 ;extruding 
G1 X78.182 Y126.341 ;extruding 
G1 X73.790 Y132.599 ;extruding 
G1 X72.054 Y135.344 ;extruding 
G1 X68.759 Y140.236 ;extruding 
G1 X64.259 Y145.997 ;extruding 
G1 X63.377 Y147.062 ;extruding 
G1 X60.002 Y150.703 ;extruding 
G1 X56.754 Y153.531 ;extruding 
G1 X52.982 Y156.120 ;extruding 
G1 X49.551 Y157.923 ;extruding 
G1 X46.236 Y159.157 ;extruding 
G1 X43.333 Y159.757 ;extruding 
G1 X40.500 Y159.895 ;extruding 
G1 X38.259 Y159.647 ;extruding 
CW X43.971 Y155.840 I-43.059 J-70.794 
G1 X46.815 Y153.281 ;extruding 
G1 X49.078 Y150.526 ;extruding 
G1 X50.721 Y147.668 ;extruding 
G1 X51.765 Y144.844 ;extruding 
G1 X52.350 Y141.803 ;extruding 
G1 X52.448 Y138.539 ;extruding 
G1 X52.045 Y135.120 ;extruding 
G1 X51.845 Y134.142 ;extruding 
G1 X51.729 Y134.019 ;extruding 
G1 X51.221 Y133.767 ;extruding 
G1 X50.941 Y134.372 ;extruding 
G1 X49.193 Y129.948 ;extruding 
G1 X47.903 Y132.312 ;extruding 
G1 X47.699 Y128.399 ;extruding 
G1 X46.364 Y129.579 ;extruding 
G1 X46.741 Y124.192 ;extruding 
G1 X45.531 Y125.155 ;extruding 
G1 X46.171 Y120.141 ;extruding 
G1 X44.649 Y121.351 ;extruding 
G1 X48.229 Y112.861 ;extruding 
CCW X47.056 Y111.323 I6.536 J-6.202 
CCW X46.824 Y109.397 I1.944 J-1.211 
G1 X47.160 Y108.594 ;extruding 
G1 X46.119 Y108.394 ;extruding 
G1 X41.894 Y108.130 ;extruding 
G1 X38.349 Y107.753 ;extruding 
G1 X37.757 Y107.646 ;extruding 
G1 X33.438 Y106.537 ;extruding 
G1 X29.343 Y104.980 ;extruding 
G1 X25.313 Y102.936 ;extruding 
G1 X21.297 Y100.374 ;extruding 
G1 X17.235 Y97.238 ;extruding 
G1 X14.807 Y95.090 ;extruding 
CCW X14.563 Y93.860 I1.501 J-0.937 
G1 X16.476 Y85.152 ;extruding 
G1 X18.882 Y76.705 ;extruding 
G1 X21.718 Y68.726 ;extruding 
G1 X24.978 Y61.169 ;extruding 
G1 X28.660 Y53.991 ;extruding 
G1 X32.468 Y47.625 ;extruding 
G1 X33.357 Y46.261 ;extruding 
CCW X38.835 Y38.512 I243.819 J166.552 
G1 X39.184 Y40.684 ;extruding 
G1 X39.903 Y42.847 ;extruding 
G1 X40.828 Y44.624 ;extruding 
G1 X41.766 Y45.886 ;extruding 
G1 X42.699 Y46.802 ;extruding 
CW X45.501 Y48.230 I4.593 J-5.550 
G1 X44.342 Y43.476 ;extruding 
G1 X43.582 Y39.654 ;extruding 
CCW X43.958 Y35.170 I9.147 J-1.491 
G1 X44.784 Y33.316 ;extruding 
G1 X46.148 Y31.216 ;extruding 
G1 X46.134 Y33.741 ;extruding 
G1 X46.506 Y36.127 ;extruding 
G1 X47.145 Y38.115 ;extruding 
G1 X48.038 Y39.880 ;extruding 
G1 X49.300 Y41.608 ;extruding 
G1 X51.282 Y43.619 ;extruding 
G1 X51.302 Y42.481 ;extruding 
CCW X50.265 Y37.504 I65.023 J-16.145 
G1 X50.131 Y35.043 ;extruding 
G1 X50.392 Y32.750 ;extruding 
G1 X51.001 Y30.594 ;extruding 
G1 X52.000 Y28.375 ;extruding 
G1 X53.562 Y25.868 ;extruding 
G1 X55.985 Y22.859 ;extruding 
G1 X55.985 Y29.152 ;extruding 
G1 X56.384 Y29.289 ;extruding 
CW X57.128 Y27.619 I-2.240 J-1.999 
G1 X58.107 Y23.997 ;extruding 
G1 X59.262 Y21.364 ;extruding 
G1 X60.570 Y19.318 ;extruding 
G1 X62.082 Y17.615 ;extruding 
G1 X63.895 Y16.129 ;extruding 
CW X70.752 Y11.609 I-183.450 J-285.762 
G1 X71.891 Y10.920 ;extruding 
CCW X74.676 Y10.452 I2.110 J4.038 
CCW X77.054 Y11.715 I-1.095 J4.931 
G1 X76.977 Y12.663 ;extruding 
G1 X76.718 Y18.065 ;extruding 
G1 X76.957 Y22.770 ;extruding 
G1 X77.738 Y27.692 ;extruding 
G1 X78.894 Y31.906 ;extruding 
G1 X79.324 Y33.133 ;extruding 
G1 X81.070 Y37.124 ;extruding 
G1 X82.979 Y40.334 ;extruding 
G1 X85.407 Y43.380 ;extruding 
G1 X88.146 Y45.928 ;extruding 
G1 X91.208 Y48.026 ;extruding 
G1 X93.651 Y49.293 ;extruding 
G1 X95.655 Y48.165 ;extruding 
CCW X97.740 Y47.828 I1.577 J3.136 
CCW X98.767 Y48.237 I-0.747 J3.370 
CCW X100.814 Y49.810 I-6.912 J11.113 
CW X102.141 Y50.110 I1.026 J-1.452 
G1 X108.841 Y48.244 ;extruding 
G1 X115.552 Y46.852 ;extruding 
G1 X122.959 Y45.755 ;extruding 
G1 X132.973 Y44.785 ;extruding 
G1 X138.559 Y44.401 ;extruding 
G1 X143.653 Y43.836 ;extruding 
G1 X151.454 Y42.553 ;extruding 
CW X154.026 Y41.956 I-5.249 J-28.451 
CCW X150.922 Y44.380 I-24.231 J-27.829 
G1 X146.112 Y47.164 ;extruding 
G1 X141.078 Y49.519 ;extruding 
CCW X138.811 Y50.422 I-25.679 J-61.171 
G1 X133.162 Y52.319 ;extruding 
G1 X126.837 Y53.952 ;extruding 
G1 X118.657 Y55.492 ;extruding 
CCW X105.368 Y57.196 I-64.016 J-446.570 
FILEWRITE $hFile"\x05\x02\x30\x34\x44\x49\x20\x20\x43\x46\x03"
G1 X105.541 Y57.515 ;not extruding 
G1 X104.494 Y56.648 ;not extruding 
G1 X104.078 Y53.574 ;not extruding 
G1 X102.022 Y54.295 ;not extruding 
G1 X100.556 Y52.743 ;not extruding 
G1 X99.866 Y51.774 ;not extruding 
G1 X97.658 Y50.414 ;not extruding 
G1 X96.805 Y50.660 ;not extruding 
G1 X93.815 Y52.759 ;not extruding 
G1 X92.920 Y54.284 ;not extruding 
G1 X91.632 Y57.469 ;not extruding 
G1 X90.863 Y60.219 ;not extruding 
G1 X91.789 Y62.394 ;not extruding 
G1 X94.576 Y65.417 ;not extruding 
G1 X94.927 Y66.178 ;not extruding 
G1 X95.351 Y68.759 ;not extruding 
G1 X95.114 Y71.437 ;not extruding 
G1 X98.617 Y73.521 ;not extruding 
G1 X98.727 Y75.809 ;not extruding 
G1 X98.358 Y77.967 ;not extruding 
G1 X94.493 Y82.770 ;not extruding 
G1 X94.528 Y83.316 ;not extruding 
G1 X93.991 Y84.609 ;not extruding 
G1 X92.836 Y85.663 ;not extruding 
G1 X91.345 Y88.459 ;not extruding 
G1 X89.541 Y90.879 ;not extruding 
G1 X87.370 Y92.963 ;not extruding 
G1 X84.794 Y94.806 ;not extruding 
G1 X82.072 Y96.251 ;not extruding 
G1 X78.510 Y97.553 ;not extruding 
G1 X74.830 Y98.422 ;not extruding 
G1 X70.449 Y98.969 ;not extruding 
G1 X68.784 Y98.809 ;not extruding 
G1 X67.617 Y99.038 ;not extruding 
G1 X63.396 Y98.360 ;not extruding 
G1 X58.149 Y96.700 ;not extruding 
G1 X57.151 Y99.823 ;not extruding 
G1 X55.013 Y103.495 ;not extruding 
G1 X51.063 Y107.984 ;not extruding 
G1 X50.000 Y110.006 ;not extruding 
G1 X50.000 Y111.994 ;not extruding 
G1 X49.809 Y113.031 ;not extruding 
G1 X48.264 Y115.976 ;not extruding 
G1 X47.845 Y118.483 ;not extruding 
G1 X47.327 Y120.390 ;not extruding 
G1 X47.208 Y122.177 ;not extruding 
G1 X47.675 Y122.538 ;not extruding 
G1 X47.839 Y123.018 ;not extruding 
G1 X47.480 Y124.444 ;not extruding 
G1 X47.603 Y124.500 ;not extruding 
G1 X47.470 Y124.587 ;not extruding 
G1 X48.584 Y126.785 ;not extruding 
G1 X48.445 Y128.217 ;not extruding 
G1 X48.741 Y128.628 ;not extruding 
G1 X48.518 Y129.609 ;not extruding 
G1 X49.191 Y129.976 ;not extruding 
G1 X48.670 Y131.363 ;not extruding 
G1 X47.751 Y132.848 ;not extruding 
G1 X50.171 Y131.892 ;not extruding 
G1 X51.075 Y132.657 ;not extruding 
G1 X51.944 Y132.583 ;not extruding 
G1 X52.692 Y133.378 ;not extruding 
G1 X53.051 Y134.342 ;not extruding 
G1 X53.628 Y138.439 ;not extruding 
G1 X53.537 Y141.969 ;not extruding 
G1 X52.906 Y145.200 ;not extruding 
G1 X51.383 Y148.989 ;not extruding 
G1 X49.478 Y151.997 ;not extruding 
G1 X45.992 Y155.860 ;not extruding 
G1 X45.574 Y156.812 ;not extruding 
G1 X45.629 Y156.422 ;not extruding 
FILEWRITE $hFile"\x05\x02\x30\x34\x44\x49\x20\x20\x43\x46\x03"
DWELL 0.15
G1 X46.298 Y157.489 ;extruding 
G1 X45.809 Y157.671 ;extruding 
G1 X44.054 Y158.034 ;extruding 
G1 X43.930 Y157.745 ;extruding 
CW X45.564 Y156.481 I-4.188 J-7.102 
FILEWRITE $hFile"\x05\x02\x30\x34\x44\x49\x20\x20\x43\x46\x03"
G1 X45.931 Y156.179 ;not extruding 
FILEWRITE $hFile"\x05\x02\x30\x34\x44\x49\x20\x20\x43\x46\x03"
DWELL 0.15
G1 X46.876 Y157.685 ;extruding 
G1 X45.916 Y158.042 ;extruding 
G1 X43.187 Y158.607 ;extruding 
G1 X42.450 Y158.643 ;extruding 
G1 X42.357 Y158.368 ;extruding 
G1 X44.690 Y156.748 ;extruding 
G1 X45.988 Y155.580 ;extruding 
G1 X46.246 Y155.845 ;extruding 
G1 X45.991 Y156.115 ;extruding 
FILEWRITE $hFile"\x05\x02\x30\x34\x44\x49\x20\x20\x43\x46\x03"
G1 X45.992 Y155.860 ;not extruding 
G1 X47.715 Y154.094 ;not extruding 
G1 X50.071 Y151.170 ;not extruding 
G1 X51.776 Y148.202 ;not extruding 
G1 X52.906 Y145.200 ;not extruding 
G1 X53.537 Y141.969 ;not extruding 
G1 X53.628 Y138.439 ;not extruding 
G1 X53.051 Y134.342 ;not extruding 
G1 X52.692 Y133.378 ;not extruding 
G1 X51.944 Y132.583 ;not extruding 
G1 X52.140 Y132.932 ;not extruding 
FILEWRITE $hFile"\x05\x02\x30\x34\x44\x49\x20\x20\x43\x46\x03"
DWELL 0.15
G1 X51.596 Y132.662 ;extruding 
G1 X52.028 Y132.151 ;extruding 
G1 X52.335 Y132.731 ;extruding 
G1 X52.201 Y132.870 ;extruding 
FILEWRITE $hFile"\x05\x02\x30\x34\x44\x49\x20\x20\x43\x46\x03"
G1 X52.195 Y133.390 ;not extruding 
FILEWRITE $hFile"\x05\x02\x30\x34\x44\x49\x20\x20\x43\x46\x03"
DWELL 0.15
G1 X51.183 Y132.888 ;extruding 
G1 X51.093 Y132.660 ;extruding 
G1 X52.089 Y131.482 ;extruding 
CCW X53.078 Y133.309 I-27.690 J16.170 
CCW X53.901 Y136.482 I-10.810 J4.497 
G1 X54.141 Y139.838 ;extruding 
G1 X53.879 Y143.029 ;extruding 
G1 X53.110 Y146.134 ;extruding 
G1 X51.794 Y149.204 ;extruding 
G1 X49.858 Y152.281 ;extruding 
G1 X47.317 Y155.273 ;extruding 
G1 X46.416 Y156.226 ;extruding 
G1 X47.455 Y157.881 ;extruding 
G1 X46.023 Y158.414 ;extruding 
G1 X43.236 Y158.991 ;extruding 
G1 X41.103 Y159.094 ;extruding 
G1 X41.014 Y158.812 ;extruding 
G1 X41.342 Y158.603 ;extruding 
G1 X44.450 Y156.445 ;extruding 
G1 X47.374 Y153.815 ;extruding 
G1 X49.714 Y150.966 ;extruding 
G1 X51.421 Y147.996 ;extruding 
G1 X52.510 Y145.052 ;extruding 
G1 X53.118 Y141.888 ;extruding 
G1 X53.220 Y138.505 ;extruding 
G1 X52.806 Y134.997 ;extruding 
G1 X52.556 Y133.774 ;extruding 
G1 X52.255 Y133.453 ;extruding 
FILEWRITE $hFile"\x05\x02\x30\x34\x44\x49\x20\x20\x43\x46\x03"
G1 X50.233 Y129.606 ;not extruding 
FILEWRITE $hFile"\x05\x02\x30\x34\x44\x49\x20\x20\x43\x46\x03"
DWELL 0.15
G1 X49.913 Y129.676 ;extruding 
G1 X49.509 Y128.652 ;extruding 
G1 X50.197 Y128.923 ;extruding 
G1 X50.228 Y129.519 ;extruding 
FILEWRITE $hFile"\x05\x02\x30\x34\x44\x49\x20\x20\x43\x46\x03"
G1 X48.787 Y129.084 ;not extruding 
FILEWRITE $hFile"\x05\x02\x30\x34\x44\x49\x20\x20\x43\x46\x03"
DWELL 0.15
G1 X48.503 Y129.019 ;extruding 
G1 X48.462 Y128.240 ;extruding 
G1 X49.108 Y128.494 ;extruding 
G1 X48.828 Y129.008 ;extruding 
FILEWRITE $hFile"\x05\x02\x30\x34\x44\x49\x20\x20\x43\x46\x03"
G1 X47.714 Y126.842 ;not extruding 
FILEWRITE $hFile"\x05\x02\x30\x34\x44\x49\x20\x20\x43\x46\x03"
DWELL 0.15
G1 X47.829 Y125.197 ;extruding 
G1 X48.703 Y125.604 ;extruding 
G1 X48.577 Y126.079 ;extruding 
G1 X47.780 Y126.784 ;extruding 
FILEWRITE $hFile"\x05\x02\x30\x34\x44\x49\x20\x20\x43\x46\x03"
G1 X48.385 Y126.764 ;not extruding 
FILEWRITE $hFile"\x05\x02\x30\x34\x44\x49\x20\x20\x43\x46\x03"
DWELL 0.15
G1 X47.264 Y127.755 ;extruding 
G1 X47.484 Y124.611 ;extruding 
G1 X49.158 Y125.391 ;extruding 
G1 X48.725 Y127.030 ;extruding 
G1 X48.397 Y126.996 ;extruding 
G1 X48.389 Y126.851 ;extruding 
FILEWRITE $hFile"\x05\x02\x30\x34\x44\x49\x20\x20\x43\x46\x03"
G1 X47.964 Y126.336 ;not extruding 
G1 X48.206 Y125.837 ;not extruding 
G1 X47.470 Y124.587 ;not extruding 
G1 X47.603 Y124.500 ;not extruding 
G1 X47.480 Y124.444 ;not extruding 
G1 X47.839 Y123.018 ;not extruding 
G1 X47.675 Y122.538 ;not extruding 
G1 X47.208 Y122.177 ;not extruding 
G1 X47.327 Y120.390 ;not extruding 
G1 X47.845 Y118.483 ;not extruding 
G1 X48.264 Y115.976 ;not extruding 
G1 X49.809 Y113.031 ;not extruding 
G1 X50.000 Y111.994 ;not extruding 
G1 X50.000 Y110.006 ;not extruding 
G1 X51.063 Y107.984 ;not extruding 
G1 X55.013 Y103.495 ;not extruding 
G1 X57.151 Y99.823 ;not extruding 
G1 X58.149 Y96.700 ;not extruding 
G1 X63.396 Y98.360 ;not extruding 
G1 X67.617 Y99.038 ;not extruding 
G1 X68.784 Y98.809 ;not extruding 
G1 X70.449 Y98.969 ;not extruding 
G1 X74.992 Y98.395 ;not extruding 
G1 X78.510 Y97.553 ;not extruding 
G1 X82.072 Y96.251 ;not extruding 
G1 X84.794 Y94.806 ;not extruding 
G1 X86.482 Y93.661 ;not extruding 
G1 X89.160 Y91.285 ;not extruding 
G1 X91.063 Y88.894 ;not extruding 
G1 X92.836 Y85.663 ;not extruding 
G1 X93.991 Y84.609 ;not extruding 
G1 X93.648 Y83.818 ;not extruding 
G1 X93.977 Y82.857 ;not extruding 
G1 X92.269 Y83.277 ;not extruding 
G1 X89.690 Y81.942 ;not extruding 
G1 X89.979 Y81.542 ;not extruding 
G1 X90.640 Y81.660 ;not extruding 
CCW X89.996 Y78.012 I2.056 J-2.244 
CCW X91.838 Y75.995 I4.040 J1.840 
CCW X94.944 Y76.292 I1.305 J2.743 
FILEWRITE $hFile"\x05\x02\x30\x34\x44\x49\x20\x20\x43\x46\x03"
DWELL 0.15
G1 X95.568 Y76.794 ;extruding 
G1 X96.531 Y77.832 ;extruding 
G1 X92.298 Y82.673 ;extruding 
G1 X91.131 Y82.042 ;extruding 
G1 X90.708 Y81.713 ;extruding 
FILEWRITE $hFile"\x05\x02\x30\x34\x44\x49\x20\x20\x43\x46\x03"
G1 X95.732 Y83.997 ;not extruding 
FILEWRITE $hFile"\x05\x02\x30\x34\x44\x49\x20\x20\x43\x46\x03"
DWELL 0.15
G1 X97.464 Y81.489 ;extruding 
CCW X103.584 Y75.028 I58.223 J49.021 
G1 X104.664 Y75.756 ;extruding 
G1 X104.287 Y77.632 ;extruding 
G1 X107.194 Y76.356 ;extruding 
G1 X106.345 Y78.686 ;extruding 
G1 X108.685 Y77.329 ;extruding 
G1 X108.472 Y79.222 ;extruding 
CCW X111.804 Y76.773 I26.897 J33.104 
G1 X111.553 Y78.659 ;extruding 
G1 X111.386 Y79.130 ;extruding 
G1 X113.386 Y77.501 ;extruding 
G1 X114.218 Y78.051 ;extruding 
G1 X113.891 Y79.196 ;extruding 
G1 X115.018 Y77.982 ;extruding 
G1 X116.327 Y78.751 ;extruding 
CCW X113.414 Y85.681 I-168.379 J-66.700 
G1 X111.345 Y89.484 ;extruding 
G1 X108.882 Y92.979 ;extruding 
G1 X105.938 Y96.333 ;extruding 
G1 X102.454 Y99.602 ;extruding 
G1 X92.475 Y107.536 ;extruding 
G1 X86.726 Y112.769 ;extruding 
G1 X81.383 Y118.339 ;extruding 
G1 X76.424 Y124.261 ;extruding 
G1 X71.833 Y130.554 ;extruding 
CCW X65.434 Y140.284 I-237.036 J-148.919 
G1 X61.141 Y145.701 ;extruding 
G1 X58.514 Y148.756 ;extruding 
G1 X55.436 Y151.976 ;extruding 
G1 X52.587 Y154.381 ;extruding 
G1 X49.772 Y156.211 ;extruding 
G1 X47.569 Y157.338 ;extruding 
G1 X46.902 Y156.274 ;extruding 
G1 X47.604 Y155.530 ;extruding 
G1 X50.169 Y152.510 ;extruding 
G1 X52.136 Y149.384 ;extruding 
G1 X53.476 Y146.257 ;extruding 
G1 X54.260 Y143.092 ;extruding 
G1 X54.528 Y139.840 ;extruding 
G1 X54.284 Y136.435 ;extruding 
CW X53.429 Y133.147 I-12.045 J1.377 
CW X52.151 Y130.812 I-37.589 J19.056 
G1 X50.771 Y132.443 ;extruding 
G1 X50.539 Y128.111 ;extruding 
G1 X50.194 Y128.507 ;extruding 
G1 X48.870 Y127.986 ;extruding 
G1 X49.828 Y124.370 ;extruding 
G1 X49.112 Y124.944 ;extruding 
G1 X47.913 Y124.385 ;extruding 
G1 X49.188 Y121.561 ;extruding 
G1 X48.107 Y122.485 ;extruding 
G1 X48.120 Y120.465 ;extruding 
CW X49.376 Y117.677 I-31.810 J-16.007 
G1 X49.061 Y116.322 ;extruding 
G1 X51.370 Y112.695 ;extruding 
G1 X53.676 Y109.950 ;extruding 
G1 X56.239 Y107.614 ;extruding 
G1 X59.362 Y105.504 ;extruding 
G1 X60.424 Y104.932 ;extruding 
G1 X64.987 Y102.901 ;extruding 
G1 X69.759 Y101.247 ;extruding 
G1 X77.126 Y99.222 ;extruding 
G1 X78.879 Y98.782 ;extruding 
G1 X82.604 Y97.589 ;extruding 
G1 X85.575 Y96.169 ;extruding 
G1 X88.405 Y94.253 ;extruding 
G1 X90.788 Y92.000 ;extruding 
G1 X92.778 Y89.391 ;extruding 
G1 X95.690 Y84.073 ;extruding 
FILEWRITE $hFile"\x05\x02\x30\x34\x44\x49\x20\x20\x43\x46\x03"
G1 X91.520 Y83.482 ;not extruding 
FILEWRITE $hFile"\x05\x02\x30\x34\x44\x49\x20\x20\x43\x46\x03"
DWELL 0.15
G1 X91.500 Y84.475 ;extruding 
CCW X89.714 Y84.874 I-2.118 J-5.284 
CCW X87.010 Y84.359 I-0.205 J-6.278 
G1 X85.861 Y83.757 ;extruding 
G1 X84.754 Y82.936 ;extruding 
G1 X83.663 Y81.830 ;extruding 
G1 X82.701 Y80.476 ;extruding 
G1 X82.381 Y79.896 ;extruding 
G1 X81.717 Y78.285 ;extruding 
G1 X81.328 Y76.601 ;extruding 
G1 X81.215 Y74.860 ;extruding 
G1 X81.386 Y73.100 ;extruding 
G1 X81.847 Y71.380 ;extruding 
G1 X82.586 Y69.762 ;extruding 
G1 X83.574 Y68.314 ;extruding 
G1 X84.765 Y67.087 ;extruding 
G1 X85.839 Y66.276 ;extruding 
G1 X86.957 Y65.665 ;extruding 
G1 X88.234 Y65.201 ;extruding 
G1 X89.622 Y64.935 ;extruding 
G1 X90.797 Y64.912 ;extruding 
CCW X93.065 Y65.704 I-0.196 J4.205 
G1 X94.470 Y67.039 ;extruding 
G1 X90.452 Y67.243 ;extruding 
G1 X88.856 Y67.591 ;extruding 
G1 X87.625 Y68.069 ;extruding 
G1 X86.575 Y68.688 ;extruding 
CW X84.512 Y71.103 I3.779 J5.316 
CW X83.937 Y72.647 I7.131 J3.535 
G1 X83.567 Y74.772 ;extruding 
G1 X83.556 Y76.163 ;extruding 
CW X85.935 Y80.843 I6.642 J-0.432 
G1 X86.996 Y81.619 ;extruding 
G1 X88.803 Y82.552 ;extruding 
G1 X91.438 Y83.453 ;extruding 
FILEWRITE $hFile"\x05\x02\x30\x34\x44\x49\x20\x20\x43\x46\x03"
G1 X90.957 Y85.623 ;not extruding 
FILEWRITE $hFile"\x05\x02\x30\x34\x44\x49\x20\x20\x43\x46\x03"
DWELL 0.15
G1 X89.617 Y88.067 ;extruding 
G1 X88.024 Y90.106 ;extruding 
G1 X85.576 Y92.379 ;extruding 
G1 X82.591 Y94.409 ;extruding 
G1 X79.391 Y95.945 ;extruding 
G1 X76.782 Y96.735 ;extruding 
G1 X74.823 Y97.018 ;extruding 
G1 X71.494 Y96.966 ;extruding 
G1 X72.721 Y95.964 ;extruding 
G1 X67.837 Y96.233 ;extruding 
G1 X67.773 Y94.805 ;extruding 
G1 X69.302 Y94.162 ;extruding 
G1 X66.166 Y93.845 ;extruding 
G1 X66.063 Y92.571 ;extruding 
G1 X66.839 Y92.207 ;extruding 
CCW X64.082 Y90.236 I0.758 J-3.974 
CCW X63.997 Y87.004 I3.753 J-1.716 
G1 X64.580 Y85.712 ;extruding 
CCW X65.958 Y83.988 I5.319 J2.839 
CCW X70.473 Y80.786 I36.579 J46.794 
G1 X68.889 Y81.179 ;extruding 
G1 X65.886 Y81.653 ;extruding 
G1 X63.588 Y81.695 ;extruding 
G1 X61.633 Y81.429 ;extruding 
G1 X59.838 Y80.890 ;extruding 
G1 X58.571 Y80.372 ;extruding 
G1 X58.958 Y79.968 ;extruding 
G1 X56.391 Y79.365 ;extruding 
G1 X56.504 Y78.132 ;extruding 
G1 X57.064 Y77.993 ;extruding 
G1 X54.356 Y77.139 ;extruding 
G1 X54.831 Y75.940 ;extruding 
G1 X56.229 Y75.842 ;extruding 
CCW X55.287 Y70.800 I3.617 J-3.285 
CCW X56.711 Y68.624 I5.347 J1.946 
CCW X59.745 Y66.109 I14.581 J14.503 
G1 X63.799 Y63.836 ;extruding 
G1 X68.001 Y62.103 ;extruding 
G1 X72.264 Y60.939 ;extruding 
G1 X76.308 Y60.346 ;extruding 
G1 X77.208 Y60.277 ;extruding 
CCW X84.672 Y60.256 I4.069 J119.610 
G1 X85.273 Y61.563 ;extruding 
G1 X82.688 Y62.918 ;extruding 
G1 X81.475 Y63.816 ;extruding 
G1 X80.528 Y64.777 ;extruding 
G1 X80.473 Y64.854 ;extruding 
G1 X82.427 Y63.789 ;extruding 
G1 X84.045 Y63.151 ;extruding 
CCW X86.257 Y62.822 I2.122 J6.669 
G1 X87.671 Y62.965 ;extruding 
G1 X90.442 Y63.541 ;extruding 
G1 X85.962 Y66.007 ;extruding 
G1 X84.110 Y67.442 ;extruding 
G1 X82.849 Y68.780 ;extruding 
G1 X81.902 Y70.184 ;extruding 
G1 X81.303 Y71.491 ;extruding 
G1 X80.901 Y72.961 ;extruding 
G1 X80.738 Y74.517 ;extruding 
G1 X80.838 Y76.336 ;extruding 
G1 X81.243 Y78.222 ;extruding 
G1 X81.856 Y79.784 ;extruding 
G1 X82.774 Y81.325 ;extruding 
G1 X83.631 Y82.383 ;extruding 
G1 X84.890 Y83.553 ;extruding 
G1 X86.088 Y84.348 ;extruding 
G1 X87.468 Y84.968 ;extruding 
G1 X88.956 Y85.362 ;extruding 
G1 X90.871 Y85.612 ;extruding 
FILEWRITE $hFile"\x05\x02\x30\x34\x44\x49\x20\x20\x43\x46\x03"
G1 X90.602 Y85.192 ;not extruding 
G1 X91.557 Y85.094 ;not extruding 
G1 X92.836 Y85.663 ;not extruding 
G1 X93.991 Y84.609 ;not extruding 
G1 X94.528 Y83.316 ;not extruding 
G1 X94.493 Y82.770 ;not extruding 
G1 X98.358 Y77.967 ;not extruding 
G1 X98.727 Y75.809 ;not extruding 
G1 X98.617 Y73.521 ;not extruding 
G1 X97.910 Y73.085 ;not extruding 
G1 X99.687 Y69.011 ;not extruding 
FILEWRITE $hFile"\x05\x02\x30\x34\x44\x49\x20\x20\x43\x46\x03"
DWELL 0.15
G1 X98.268 Y68.099 ;extruding 
G1 X97.020 Y66.966 ;extruding 
G1 X95.976 Y65.640 ;extruding 
G1 X95.158 Y64.148 ;extruding 
G1 X94.785 Y63.188 ;extruding 
G1 X94.366 Y61.491 ;extruding 
G1 X94.242 Y59.795 ;extruding 
G1 X94.402 Y58.206 ;extruding 
G1 X94.788 Y56.818 ;extruding 
G1 X95.395 Y55.534 ;extruding 
G1 X96.182 Y54.419 ;extruding 
CCW X98.099 Y52.649 I11.172 J10.176 
G1 X98.272 Y54.587 ;extruding 
G1 X98.276 Y55.090 ;extruding 
G1 X97.824 Y57.180 ;extruding 
CW X97.981 Y59.614 I5.535 J0.865 
CW X99.451 Y61.517 I3.599 J-1.261 
G1 X100.399 Y62.080 ;extruding 
G1 X102.108 Y62.751 ;extruding 
CW X107.612 Y63.918 I14.712 J-55.826 
CW X107.968 Y65.999 I19.715 J-2.302 
G1 X108.099 Y66.353 ;extruding 
G1 X109.199 Y68.252 ;extruding 
G1 X110.111 Y69.358 ;extruding 
G1 X111.022 Y70.167 ;extruding 
G1 X111.558 Y70.533 ;extruding 
G1 X112.610 Y71.061 ;extruding 
G1 X113.715 Y71.395 ;extruding 
CW X115.784 Y71.560 I1.686 J-8.081 
G1 X118.367 Y71.241 ;extruding 
CW X124.227 Y69.988 I-16.736 J-92.601 
G1 X124.741 Y70.840 ;extruding 
G1 X123.183 Y72.596 ;extruding 
G1 X121.648 Y73.833 ;extruding 
G1 X119.999 Y74.760 ;extruding 
G1 X118.258 Y75.389 ;extruding 
G1 X116.453 Y75.722 ;extruding 
G1 X114.633 Y75.754 ;extruding 
G1 X112.837 Y75.484 ;extruding 
G1 X111.129 Y74.922 ;extruding 
G1 X109.555 Y74.088 ;extruding 
G1 X108.150 Y73.006 ;extruding 
G1 X106.950 Y71.706 ;extruding 
G1 X106.197 Y70.706 ;extruding 
CW X105.060 Y70.242 I-1.060 J0.971 
G1 X103.035 Y70.116 ;extruding 
G1 X101.283 Y69.694 ;extruding 
G1 X99.767 Y69.045 ;extruding 
FILEWRITE $hFile"\x05\x02\x30\x34\x44\x49\x20\x20\x43\x46\x03"
G1 X97.349 Y72.707 ;not extruding 
G1 X95.114 Y71.437 ;not extruding 
G1 X95.351 Y68.759 ;not extruding 
G1 X94.927 Y66.178 ;not extruding 
G1 X94.576 Y65.417 ;not extruding 
G1 X91.789 Y62.394 ;not extruding 
G1 X90.863 Y60.219 ;not extruding 
G1 X89.877 Y60.413 ;not extruding 
G1 X87.607 Y60.372 ;not extruding 
G1 X86.157 Y59.307 ;not extruding 
G1 X84.908 Y58.826 ;not extruding 
G1 X83.449 Y58.732 ;not extruding 
G1 X82.368 Y57.590 ;not extruding 
G1 X76.518 Y56.510 ;not extruding 
G1 X76.472 Y56.681 ;not extruding 
FILEWRITE $hFile"\x05\x02\x30\x34\x44\x49\x20\x20\x43\x46\x03"
DWELL 0.15
G1 X76.045 Y56.612 ;extruding 
G1 X71.760 Y55.474 ;extruding 
G1 X68.188 Y54.072 ;extruding 
G1 X65.183 Y52.406 ;extruding 
G1 X62.614 Y50.432 ;extruding 
G1 X61.377 Y49.212 ;extruding 
G1 X59.335 Y46.610 ;extruding 
G1 X59.169 Y46.315 ;extruding 
G1 X59.438 Y46.113 ;extruding 
CW X64.232 Y50.905 I116.477 J-111.732 
G1 X65.655 Y51.935 ;extruding 
G1 X68.349 Y53.397 ;extruding 
G1 X72.217 Y55.022 ;extruding 
G1 X76.553 Y56.330 ;extruding 
G1 X76.492 Y56.596 ;extruding 
FILEWRITE $hFile"\x05\x02\x30\x34\x44\x49\x20\x20\x43\x46\x03"
G1 X71.853 Y55.191 ;not extruding 
G1 X68.189 Y53.690 ;not extruding 
G1 X65.364 Y52.130 ;not extruding 
G1 X64.011 Y51.118 ;not extruding 
G1 X61.682 Y48.940 ;not extruding 
G1 X58.549 Y45.230 ;not extruding 
G1 X58.891 Y44.543 ;not extruding 
G1 X57.886 Y43.111 ;not extruding 
G1 X57.764 Y42.622 ;not extruding 
G1 X57.828 Y41.374 ;not extruding 
G1 X57.086 Y40.059 ;not extruding 
G1 X56.953 Y39.080 ;not extruding 
G1 X57.129 Y38.043 ;not extruding 
G1 X56.336 Y36.181 ;not extruding 
G1 X56.433 Y34.448 ;not extruding 
G1 X56.670 Y33.896 ;not extruding 
G1 X56.060 Y31.555 ;not extruding 
G1 X54.885 Y30.224 ;not extruding 
G1 X54.292 Y30.323 ;not extruding 
G1 X53.436 Y31.273 ;not extruding 
G1 X52.702 Y30.227 ;not extruding 
G1 X52.391 Y30.135 ;not extruding 
G1 X51.593 Y32.986 ;not extruding 
G1 X51.318 Y36.461 ;not extruding 
G1 X52.442 Y45.176 ;not extruding 
G1 X53.165 Y46.220 ;not extruding 
FILEWRITE $hFile"\x05\x02\x30\x34\x44\x49\x20\x20\x43\x46\x03"
DWELL 0.15
G1 X52.019 Y45.422 ;extruding 
G1 X52.059 Y43.242 ;extruding 
G1 X52.408 Y43.215 ;extruding 
G1 X52.534 Y43.939 ;extruding 
G1 X53.142 Y46.136 ;extruding 
FILEWRITE $hFile"\x05\x02\x30\x34\x44\x49\x20\x20\x43\x46\x03"
G1 X52.442 Y45.176 ;not extruding 
G1 X51.956 Y45.403 ;not extruding 
G1 X51.165 Y44.721 ;not extruding 
G1 X48.525 Y42.243 ;not extruding 
G1 X46.662 Y40.160 ;not extruding 
G1 X46.269 Y40.613 ;not extruding 
G1 X46.201 Y41.877 ;not extruding 
G1 X44.889 Y41.536 ;not extruding 
G1 X46.395 Y46.637 ;not extruding 
G1 X47.458 Y49.498 ;not extruding 
G1 X48.073 Y50.032 ;not extruding 
G1 X48.244 Y49.900 ;not extruding 
FILEWRITE $hFile"\x05\x02\x30\x34\x44\x49\x20\x20\x43\x46\x03"
DWELL 0.15
G1 X48.416 Y50.164 ;extruding 
G1 X48.238 Y50.382 ;extruding 
G1 X47.105 Y49.928 ;extruding 
G1 X46.475 Y47.346 ;extruding 
G1 X46.791 Y47.225 ;extruding 
G1 X48.203 Y49.824 ;extruding 
FILEWRITE $hFile"\x05\x02\x30\x34\x44\x49\x20\x20\x43\x46\x03"
G1 X48.576 Y49.702 ;not extruding 
FILEWRITE $hFile"\x05\x02\x30\x34\x44\x49\x20\x20\x43\x46\x03"
DWELL 0.15
G1 X49.408 Y50.976 ;extruding 
G1 X49.229 Y51.195 ;extruding 
G1 X45.838 Y49.836 ;extruding 
G1 X44.356 Y49.026 ;extruding 
G1 X44.498 Y48.703 ;extruding 
G1 X46.581 Y49.410 ;extruding 
G1 X45.094 Y43.309 ;extruding 
G1 X44.914 Y42.404 ;extruding 
G1 X45.272 Y42.316 ;extruding 
G1 X45.576 Y43.352 ;extruding 
G1 X46.830 Y46.490 ;extruding 
G1 X48.534 Y49.626 ;extruding 
FILEWRITE $hFile"\x05\x02\x30\x34\x44\x49\x20\x20\x43\x46\x03"
G1 X45.290 Y40.340 ;not extruding 
CCW X45.030 Y37.569 I8.189 J-2.166 
FILEWRITE $hFile"\x05\x02\x30\x34\x44\x49\x20\x20\x43\x46\x03"
DWELL 0.15
G1 X45.340 Y37.538 ;extruding 
CW X46.243 Y39.747 I7.368 J-1.723 
G1 X45.364 Y40.294 ;extruding 
FILEWRITE $hFile"\x05\x02\x30\x34\x44\x49\x20\x20\x43\x46\x03"
G1 X45.021 Y40.962 ;not extruding 
CCW X44.609 Y37.867 I12.048 J-3.179 
CCW X44.980 Y35.822 I6.843 J0.185 
FILEWRITE $hFile"\x05\x02\x30\x34\x44\x49\x20\x20\x43\x46\x03"
DWELL 0.15
G1 X45.291 Y35.839 ;extruding 
G1 X45.378 Y36.395 ;extruding 
G1 X46.072 Y38.556 ;extruding 
G1 X46.803 Y39.999 ;extruding 
G1 X46.546 Y40.193 ;extruding 
G1 X46.429 Y40.085 ;extruding 
G1 X45.095 Y40.916 ;extruding 
FILEWRITE $hFile"\x05\x02\x30\x34\x44\x49\x20\x20\x43\x46\x03"
G1 X44.751 Y41.584 ;not extruding 
FILEWRITE $hFile"\x05\x02\x30\x34\x44\x49\x20\x20\x43\x46\x03"
DWELL 0.15
G1 X44.343 Y39.529 ;extruding 
CCW X45.169 Y34.345 I7.885 J-1.401 
G1 X45.454 Y34.383 ;extruding 
G1 X45.754 Y36.306 ;extruding 
G1 X46.430 Y38.409 ;extruding 
G1 X47.379 Y40.284 ;extruding 
G1 X48.711 Y42.108 ;extruding 
G1 X49.565 Y42.975 ;extruding 
G1 X49.313 Y43.245 ;extruding 
G1 X46.384 Y40.567 ;extruding 
G1 X44.825 Y41.538 ;extruding 
FILEWRITE $hFile"\x05\x02\x30\x34\x44\x49\x20\x20\x43\x46\x03"
G1 X45.462 Y41.595 ;not extruding 
FILEWRITE $hFile"\x05\x02\x30\x34\x44\x49\x20\x20\x43\x46\x03"
DWELL 0.15
G1 X46.339 Y41.049 ;extruding 
CW X50.882 Y45.099 I61.785 J-64.733 
CW X53.807 Y47.093 I28.010 J-37.945 
G1 X52.911 Y43.854 ;extruding 
G1 X52.233 Y39.974 ;extruding 
G1 X52.043 Y36.463 ;extruding 
G1 X52.313 Y33.182 ;extruding 
G1 X52.844 Y30.631 ;extruding 
G1 X53.972 Y30.654 ;extruding 
G1 X54.954 Y36.561 ;extruding 
G1 X56.063 Y40.627 ;extruding 
G1 X57.415 Y43.994 ;extruding 
G1 X59.013 Y46.825 ;extruding 
G1 X61.089 Y49.469 ;extruding 
G1 X62.360 Y50.723 ;extruding 
G1 X64.971 Y52.729 ;extruding 
G1 X68.024 Y54.422 ;extruding 
G1 X71.640 Y55.841 ;extruding 
G1 X75.965 Y56.990 ;extruding 
G1 X81.961 Y57.952 ;extruding 
G1 X81.912 Y59.151 ;extruding 
G1 X74.775 Y59.807 ;extruding 
G1 X70.289 Y60.388 ;extruding 
G1 X69.503 Y60.537 ;extruding 
G1 X64.969 Y61.716 ;extruding 
G1 X61.212 Y63.161 ;extruding 
G1 X57.499 Y65.140 ;extruding 
G1 X54.225 Y67.495 ;extruding 
G1 X51.334 Y70.233 ;extruding 
G1 X49.334 Y72.631 ;extruding 
G1 X47.408 Y75.612 ;extruding 
G1 X45.931 Y78.809 ;extruding 
G1 X44.910 Y82.202 ;extruding 
G1 X44.395 Y85.669 ;extruding 
G1 X44.407 Y89.004 ;extruding 
G1 X44.934 Y92.212 ;extruding 
G1 X45.816 Y94.834 ;extruding 
G1 X47.005 Y97.110 ;extruding 
G1 X48.664 Y99.304 ;extruding 
G1 X50.486 Y101.026 ;extruding 
G1 X51.320 Y101.679 ;extruding 
CW X49.514 Y104.868 I18.456 J12.558 
CCW X47.301 Y106.129 I-2.283 J-1.434 
G1 X46.989 Y106.147 ;extruding 
G1 X42.411 Y106.047 ;extruding 
G1 X38.025 Y105.433 ;extruding 
G1 X33.800 Y104.323 ;extruding 
G1 X29.700 Y102.717 ;extruding 
G1 X25.690 Y100.602 ;extruding 
G1 X21.739 Y97.951 ;extruding 
G1 X18.076 Y94.955 ;extruding 
CCW X17.334 Y92.704 I2.045 J-1.922 
G1 X18.762 Y85.174 ;extruding 
G1 X20.678 Y77.870 ;extruding 
G1 X23.106 Y70.645 ;extruding 
G1 X26.052 Y63.491 ;extruding 
G1 X28.196 Y58.981 ;extruding 
G1 X31.972 Y51.969 ;extruding 
G1 X37.351 Y42.545 ;extruding 
G1 X39.491 Y45.601 ;extruding 
G1 X41.237 Y47.376 ;extruding 
G1 X43.213 Y48.842 ;extruding 
G1 X45.673 Y50.185 ;extruding 
G1 X49.585 Y51.753 ;extruding 
G1 X50.602 Y52.098 ;extruding 
G1 X48.907 Y49.504 ;extruding 
G1 X47.180 Y46.326 ;extruding 
G1 X45.941 Y43.226 ;extruding 
G1 X45.486 Y41.679 ;extruding 
FILEWRITE $hFile"\x05\x02\x30\x34\x44\x49\x20\x20\x43\x46\x03"
G1 X44.889 Y41.536 ;not extruding 
G1 X46.395 Y46.637 ;not extruding 
G1 X47.413 Y49.362 ;not extruding 
G1 X46.559 Y49.552 ;not extruding 
G1 X46.453 Y49.797 ;not extruding 
G1 X43.186 Y48.216 ;not extruding 
G1 X41.582 Y46.979 ;not extruding 
G1 X39.974 Y45.184 ;not extruding 
G1 X38.141 Y41.932 ;not extruding 
G1 X38.485 Y42.246 ;not extruding 
FILEWRITE $hFile"\x05\x02\x30\x34\x44\x49\x20\x20\x43\x46\x03"
DWELL 0.15
G1 X38.188 Y42.396 ;extruding 
G1 X37.831 Y41.886 ;extruding 
G1 X38.197 Y41.378 ;extruding 
G1 X38.458 Y42.164 ;extruding 
FILEWRITE $hFile"\x05\x02\x30\x34\x44\x49\x20\x20\x43\x46\x03"
G1 X39.191 Y43.148 ;not extruding 
FILEWRITE $hFile"\x05\x02\x30\x34\x44\x49\x20\x20\x43\x46\x03"
DWELL 0.15
G1 X40.173 Y45.034 ;extruding 
G1 X40.781 Y45.851 ;extruding 
G1 X40.508 Y46.085 ;extruding 
G1 X39.788 Y45.353 ;extruding 
G1 X37.358 Y41.883 ;extruding 
G1 X38.325 Y40.540 ;extruding 
G1 X39.164 Y43.065 ;extruding 
FILEWRITE $hFile"\x05\x02\x30\x34\x44\x49\x20\x20\x43\x46\x03"
G1 X38.846 Y43.329 ;not extruding 
G1 X39.950 Y45.148 ;not extruding 
G1 X41.582 Y46.979 ;not extruding 
G1 X43.186 Y48.216 ;not extruding 
G1 X46.453 Y49.797 ;not extruding 
G1 X46.559 Y49.552 ;not extruding 
G1 X47.413 Y49.362 ;not extruding 
G1 X46.395 Y46.637 ;not extruding 
G1 X44.889 Y41.536 ;not extruding 
G1 X46.201 Y41.877 ;not extruding 
G1 X46.269 Y40.613 ;not extruding 
G1 X46.662 Y40.160 ;not extruding 
G1 X48.525 Y42.243 ;not extruding 
G1 X51.165 Y44.721 ;not extruding 
G1 X51.956 Y45.403 ;not extruding 
G1 X52.442 Y45.176 ;not extruding 
G1 X51.318 Y36.403 ;not extruding 
G1 X51.593 Y32.986 ;not extruding 
G1 X52.391 Y30.135 ;not extruding 
G1 X52.702 Y30.227 ;not extruding 
G1 X53.436 Y31.273 ;not extruding 
G1 X54.292 Y30.323 ;not extruding 
G1 X54.885 Y30.224 ;not extruding 
G1 X56.060 Y31.555 ;not extruding 
G1 X56.670 Y33.896 ;not extruding 
G1 X56.433 Y34.448 ;not extruding 
G1 X56.336 Y36.181 ;not extruding 
G1 X57.129 Y38.043 ;not extruding 
G1 X57.498 Y38.449 ;not extruding 
FILEWRITE $hFile"\x05\x02\x30\x34\x44\x49\x20\x20\x43\x46\x03"
DWELL 0.15
G1 X59.801 Y39.162 ;extruding 
G1 X57.737 Y35.745 ;extruding 
G1 X58.815 Y35.014 ;extruding 
G1 X59.468 Y35.364 ;extruding 
G1 X58.031 Y31.406 ;extruding 
G1 X59.320 Y30.956 ;extruding 
G1 X59.922 Y31.491 ;extruding 
G1 X59.692 Y28.457 ;extruding 
G1 X59.825 Y26.388 ;extruding 
G1 X60.185 Y24.723 ;extruding 
G1 X60.738 Y23.290 ;extruding 
G1 X61.482 Y22.009 ;extruding 
G1 X61.615 Y21.821 ;extruding 
G1 X63.777 Y19.255 ;extruding 
G1 X66.281 Y17.024 ;extruding 
G1 X69.292 Y14.929 ;extruding 
G1 X74.105 Y12.225 ;extruding 
G1 X74.074 Y19.351 ;extruding 
G1 X74.498 Y24.283 ;extruding 
G1 X75.315 Y28.722 ;extruding 
G1 X76.502 Y32.746 ;extruding 
G1 X77.948 Y36.211 ;extruding 
G1 X80.023 Y39.887 ;extruding 
G1 X82.516 Y43.218 ;extruding 
G1 X85.448 Y46.248 ;extruding 
G1 X88.866 Y49.019 ;extruding 
G1 X91.437 Y50.752 ;extruding 
G1 X88.348 Y57.827 ;extruding 
G1 X81.561 Y56.959 ;extruding 
G1 X76.649 Y55.956 ;extruding 
G1 X72.348 Y54.659 ;extruding 
G1 X68.516 Y53.049 ;extruding 
G1 X65.861 Y51.608 ;extruding 
G1 X64.481 Y50.610 ;extruding 
CCW X59.392 Y45.515 I120.862 J-125.809 
G1 X61.049 Y45.355 ;extruding 
G1 X58.620 Y42.773 ;extruding 
G1 X59.094 Y41.907 ;extruding 
G1 X60.086 Y42.093 ;extruding 
G1 X58.686 Y40.350 ;extruding 
G1 X57.544 Y38.523 ;extruding 
FILEWRITE $hFile"\x05\x02\x30\x34\x44\x49\x20\x20\x43\x46\x03"
G1 X57.129 Y38.043 ;not extruding 
G1 X56.953 Y39.080 ;not extruding 
G1 X57.086 Y40.059 ;not extruding 
G1 X57.828 Y41.374 ;not extruding 
G1 X57.764 Y42.622 ;not extruding 
G1 X57.886 Y43.111 ;not extruding 
G1 X58.891 Y44.543 ;not extruding 
G1 X58.549 Y45.230 ;not extruding 
G1 X61.682 Y48.940 ;not extruding 
G1 X64.011 Y51.118 ;not extruding 
G1 X65.364 Y52.130 ;not extruding 
G1 X68.335 Y53.762 ;not extruding 
G1 X72.109 Y55.278 ;not extruding 
G1 X76.500 Y56.506 ;not extruding 
G1 X82.368 Y57.590 ;not extruding 
G1 X83.449 Y58.732 ;not extruding 
G1 X84.908 Y58.826 ;not extruding 
G1 X86.157 Y59.307 ;not extruding 
G1 X87.607 Y60.372 ;not extruding 
G1 X89.877 Y60.413 ;not extruding 
G1 X90.863 Y60.219 ;not extruding 
G1 X91.789 Y62.394 ;not extruding 
G1 X94.576 Y65.417 ;not extruding 
G1 X94.927 Y66.178 ;not extruding 
G1 X95.351 Y68.759 ;not extruding 
G1 X95.114 Y71.437 ;not extruding 
G1 X98.617 Y73.521 ;not extruding 
G1 X102.767 Y72.587 ;not extruding 
G1 X104.685 Y72.770 ;not extruding 
G1 X106.383 Y74.317 ;not extruding 
G1 X107.321 Y74.476 ;not extruding 
G1 X110.122 Y76.087 ;not extruding 
G1 X111.417 Y76.226 ;not extruding 
G1 X112.330 Y76.685 ;not extruding 
G1 X113.668 Y76.564 ;not extruding 
G1 X114.514 Y76.883 ;not extruding 
G1 X115.330 Y76.864 ;not extruding 
G1 X116.509 Y77.174 ;not extruding 
G1 X115.992 Y76.887 ;not extruding 
FILEWRITE $hFile"\x05\x02\x30\x34\x44\x49\x20\x20\x43\x46\x03"
DWELL 0.15
G1 X116.569 Y76.877 ;extruding 
G1 X117.768 Y76.656 ;extruding 
G1 X117.421 Y78.052 ;extruding 
G1 X115.918 Y77.169 ;extruding 
G1 X115.970 Y76.971 ;extruding 
FILEWRITE $hFile"\x05\x02\x30\x34\x44\x49\x20\x20\x43\x46\x03"
G1 X116.530 Y76.492 ;not extruding 
FILEWRITE $hFile"\x05\x02\x30\x34\x44\x49\x20\x20\x43\x46\x03"
DWELL 0.15
G1 X118.330 Y76.160 ;extruding 
G1 X118.171 Y76.633 ;extruding 
G1 X117.110 Y80.903 ;extruding 
G1 X115.652 Y84.774 ;extruding 
G1 X113.700 Y88.619 ;extruding 
G1 X111.953 Y91.416 ;extruding 
G1 X109.509 Y94.598 ;extruding 
G1 X106.730 Y97.508 ;extruding 
G1 X102.619 Y101.094 ;extruding 
G1 X98.885 Y103.996 ;extruding 
G1 X92.890 Y108.866 ;extruding 
G1 X87.275 Y114.110 ;extruding 
G1 X82.072 Y119.698 ;extruding 
G1 X77.258 Y125.645 ;extruding 
G1 X72.828 Y131.958 ;extruding 
G1 X71.086 Y134.712 ;extruding 
G1 X67.823 Y139.556 ;extruding 
G1 X63.358 Y145.272 ;extruding 
G1 X62.507 Y146.300 ;extruding 
G1 X59.196 Y149.871 ;extruding 
G1 X58.162 Y150.772 ;extruding 
G1 X57.908 Y150.506 ;extruding 
G1 X59.085 Y149.274 ;extruding 
G1 X61.735 Y146.192 ;extruding 
G1 X66.057 Y140.740 ;extruding 
CW X72.469 Y130.990 I-231.606 J-159.297 
G1 X77.032 Y124.736 ;extruding 
G1 X81.957 Y118.854 ;extruding 
G1 X87.265 Y113.322 ;extruding 
G1 X92.976 Y108.123 ;extruding 
G1 X102.959 Y100.186 ;extruding 
G1 X106.493 Y96.870 ;extruding 
G1 X109.489 Y93.457 ;extruding 
G1 X112.001 Y89.892 ;extruding 
G1 X114.108 Y86.019 ;extruding 
CW X117.293 Y78.424 I-177.677 J-78.975 
G1 X114.875 Y77.003 ;extruding 
G1 X114.554 Y77.348 ;extruding 
G1 X113.531 Y76.673 ;extruding 
G1 X113.642 Y76.385 ;extruding 
G1 X114.582 Y76.526 ;extruding 
G1 X116.443 Y76.494 ;extruding 
FILEWRITE $hFile"\x05\x02\x30\x34\x44\x49\x20\x20\x43\x46\x03"
G1 X113.552 Y76.371 ;not extruding 
FILEWRITE $hFile"\x05\x02\x30\x34\x44\x49\x20\x20\x43\x46\x03"
DWELL 0.15
G1 X112.524 Y77.208 ;extruding 
G1 X112.653 Y76.236 ;extruding 
G1 X113.466 Y76.358 ;extruding 
FILEWRITE $hFile"\x05\x02\x30\x34\x44\x49\x20\x20\x43\x46\x03"
G1 X113.668 Y76.564 ;not extruding 
G1 X112.330 Y76.685 ;not extruding 
G1 X111.417 Y76.226 ;not extruding 
G1 X110.122 Y76.087 ;not extruding 
G1 X107.321 Y74.476 ;not extruding 
G1 X106.383 Y74.317 ;not extruding 
G1 X104.685 Y72.770 ;not extruding 
G1 X102.767 Y72.587 ;not extruding 
G1 X98.617 Y73.521 ;not extruding 
G1 X95.114 Y71.437 ;not extruding 
G1 X95.351 Y68.759 ;not extruding 
G1 X94.927 Y66.178 ;not extruding 
G1 X94.576 Y65.417 ;not extruding 
G1 X91.789 Y62.394 ;not extruding 
G1 X90.863 Y60.219 ;not extruding 
G1 X92.137 Y56.048 ;not extruding 
G1 X92.920 Y54.284 ;not extruding 
G1 X93.815 Y52.759 ;not extruding 
G1 X96.805 Y50.660 ;not extruding 
CCW X97.658 Y50.414 I0.957 J1.716 
G1 X99.866 Y51.774 ;not extruding 
G1 X100.556 Y52.743 ;not extruding 
G1 X102.022 Y54.295 ;not extruding 
G1 X101.608 Y55.742 ;not extruding 
G1 X101.357 Y57.667 ;not extruding 
G1 X101.400 Y58.455 ;not extruding 
G1 X101.821 Y59.175 ;not extruding 
G1 X102.891 Y60.125 ;not extruding 
G1 X104.525 Y60.663 ;not extruding 
G1 X108.431 Y61.131 ;not extruding 
G1 X111.065 Y62.037 ;not extruding 
G1 X110.843 Y64.538 ;not extruding 
G1 X111.087 Y66.003 ;not extruding 
G1 X111.347 Y66.760 ;not extruding 
G1 X112.065 Y67.962 ;not extruding 
G1 X112.752 Y68.709 ;not extruding 
CW X114.221 Y69.558 I4.636 J-6.326 
G1 X115.773 Y70.011 ;not extruding 
G1 X117.794 Y70.167 ;not extruding 
G1 X124.362 Y69.094 ;not extruding 
G1 X125.334 Y69.241 ;not extruding 
G1 X125.167 Y70.858 ;not extruding 
G1 X125.217 Y70.136 ;not extruding 
FILEWRITE $hFile"\x05\x02\x30\x34\x44\x49\x20\x20\x43\x46\x03"
DWELL 0.15
G1 X124.471 Y68.898 ;extruding 
G1 X126.567 Y68.355 ;extruding 
G1 X126.700 Y68.651 ;extruding 
CW X125.982 Y69.198 I1.755 J3.048 
G1 X125.272 Y70.069 ;extruding 
FILEWRITE $hFile"\x05\x02\x30\x34\x44\x49\x20\x20\x43\x46\x03"
G1 X125.167 Y70.858 ;not extruding 
G1 X125.334 Y69.241 ;not extruding 
G1 X124.362 Y69.094 ;not extruding 
G1 X117.794 Y70.167 ;not extruding 
G1 X115.773 Y70.011 ;not extruding 
G1 X114.221 Y69.558 ;not extruding 
CCW X112.752 Y68.709 I3.167 J-7.175 
G1 X111.821 Y67.612 ;not extruding 
G1 X111.347 Y66.760 ;not extruding 
G1 X110.913 Y65.313 ;not extruding 
G1 X110.843 Y64.538 ;not extruding 
G1 X111.065 Y62.037 ;not extruding 
G1 X112.017 Y61.568 ;not extruding 
FILEWRITE $hFile"\x05\x02\x30\x34\x44\x49\x20\x20\x43\x46\x03"
DWELL 0.15
G1 X111.614 Y61.966 ;extruding 
G1 X110.959 Y62.858 ;extruding 
G1 X110.763 Y61.612 ;extruding 
CCW X112.582 Y61.552 I5.922 J151.918 
CW X110.977 Y63.744 I3.577 J4.303 
G1 X110.701 Y63.700 ;extruding 
G1 X110.314 Y61.242 ;extruding 
G1 X112.662 Y61.159 ;extruding 
G1 X112.754 Y61.430 ;extruding 
G1 X112.653 Y61.502 ;extruding 
FILEWRITE $hFile"\x05\x02\x30\x34\x44\x49\x20\x20\x43\x46\x03"
G1 X112.831 Y61.849 ;not extruding 
CW X111.363 Y63.834 I3.230 J3.924 
FILEWRITE $hFile"\x05\x02\x30\x34\x44\x49\x20\x20\x43\x46\x03"
DWELL 0.15
G1 X111.139 Y64.793 ;extruding 
G1 X111.104 Y65.601 ;extruding 
G1 X110.823 Y65.670 ;extruding 
G1 X110.562 Y65.219 ;extruding 
G1 X110.511 Y64.976 ;extruding 
G1 X109.983 Y61.618 ;extruding 
G1 X108.165 Y61.275 ;extruding 
G1 X108.191 Y60.932 ;extruding 
G1 X114.067 Y60.724 ;extruding 
G1 X114.143 Y61.024 ;extruding 
CW X112.902 Y61.798 I1.839 J4.330 
FILEWRITE $hFile"\x05\x02\x30\x34\x44\x49\x20\x20\x43\x46\x03"
G1 X120.833 Y60.703 ;not extruding 
FILEWRITE $hFile"\x05\x02\x30\x34\x44\x49\x20\x20\x43\x46\x03"
DWELL 0.15
G1 X120.833 Y60.362 ;extruding 
G1 X121.785 Y60.246 ;extruding 
G1 X127.464 Y59.058 ;extruding 
G1 X127.554 Y59.417 ;extruding 
G1 X122.659 Y60.867 ;extruding 
CCW X120.919 Y60.713 I-0.137 J-8.360 
FILEWRITE $hFile"\x05\x02\x30\x34\x44\x49\x20\x20\x43\x46\x03"
G1 X119.826 Y60.968 ;not extruding 
FILEWRITE $hFile"\x05\x02\x30\x34\x44\x49\x20\x20\x43\x46\x03"
DWELL 0.15
G1 X117.897 Y60.666 ;extruding 
G1 X117.903 Y60.331 ;extruding 
G1 X121.722 Y59.865 ;extruding 
G1 X128.655 Y58.415 ;extruding 
G1 X134.162 Y56.809 ;extruding 
G1 X134.291 Y57.134 ;extruding 
G1 X133.574 Y57.501 ;extruding 
G1 X128.280 Y59.604 ;extruding 
G1 X122.731 Y61.248 ;extruding 
CCW X122.058 Y61.242 I-0.313 J-2.586 
G1 X119.913 Y60.978 ;extruding 
FILEWRITE $hFile"\x05\x02\x30\x34\x44\x49\x20\x20\x43\x46\x03"
G1 X119.773 Y61.350 ;not extruding 
FILEWRITE $hFile"\x05\x02\x30\x34\x44\x49\x20\x20\x43\x46\x03"
DWELL 0.15
G1 X117.729 Y61.030 ;extruding 
G1 X115.966 Y60.928 ;extruding 
CW X111.728 Y63.968 I0.454 J5.107 
CW X111.796 Y67.290 I4.959 J1.560 
G1 X111.521 Y67.431 ;extruding 
G1 X111.106 Y66.928 ;extruding 
G1 X110.198 Y65.359 ;extruding 
G1 X110.131 Y65.046 ;extruding 
G1 X109.644 Y61.946 ;extruding 
G1 X105.126 Y61.095 ;extruding 
G1 X103.685 Y60.750 ;extruding 
G1 X103.730 Y60.405 ;extruding 
G1 X108.280 Y60.543 ;extruding 
G1 X114.907 Y60.308 ;extruding 
G1 X121.659 Y59.485 ;extruding 
G1 X128.561 Y58.041 ;extruding 
G1 X134.927 Y56.184 ;extruding 
G1 X139.128 Y54.621 ;extruding 
G1 X139.282 Y54.931 ;extruding 
G1 X138.623 Y55.350 ;extruding 
G1 X133.733 Y57.853 ;extruding 
G1 X128.407 Y59.968 ;extruding 
G1 X122.803 Y61.628 ;extruding 
CCW X122.026 Y61.627 I-0.385 J-2.970 
G1 X119.859 Y61.360 ;extruding 
FILEWRITE $hFile"\x05\x02\x30\x34\x44\x49\x20\x20\x43\x46\x03"
G1 X101.906 Y59.387 ;not extruding 
CCW X101.064 Y58.846 I1.293 J-2.938 
CCW X100.853 Y58.190 I0.689 J-0.583 
FILEWRITE $hFile"\x05\x02\x30\x34\x44\x49\x20\x20\x43\x46\x03"
DWELL 0.15
G1 X100.889 Y57.603 ;extruding 
G1 X101.387 Y55.298 ;extruding 
G1 X101.724 Y55.327 ;extruding 
G1 X101.902 Y59.300 ;extruding 
FILEWRITE $hFile"\x05\x02\x30\x34\x44\x49\x20\x20\x43\x46\x03"
G1 X114.571 Y51.766 ;not extruding 
FILEWRITE $hFile"\x05\x02\x30\x34\x44\x49\x20\x20\x43\x46\x03"
DWELL 0.15
G1 X114.508 Y51.400 ;extruding 
G1 X116.294 Y51.029 ;extruding 
G1 X121.469 Y50.263 ;extruding 
G1 X121.532 Y50.635 ;extruding 
CCW X114.657 Y51.754 I-14.298 J-66.166 
FILEWRITE $hFile"\x05\x02\x30\x34\x44\x49\x20\x20\x43\x46\x03"
G1 X116.226 Y50.650 ;not extruding 
FILEWRITE $hFile"\x05\x02\x30\x34\x44\x49\x20\x20\x43\x46\x03"
DWELL 0.15
G1 X123.427 Y49.583 ;extruding 
G1 X129.013 Y49.042 ;extruding 
G1 X129.075 Y49.393 ;extruding 
G1 X125.998 Y50.187 ;extruding 
G1 X118.041 Y51.685 ;extruding 
CCW X107.073 Y53.107 I-52.827 J-364.452 
G1 X107.004 Y52.758 ;extruding 
G1 X109.751 Y51.993 ;extruding 
G1 X116.141 Y50.667 ;extruding 
FILEWRITE $hFile"\x05\x02\x30\x34\x44\x49\x20\x20\x43\x46\x03"
G1 X116.159 Y50.270 ;not extruding 
FILEWRITE $hFile"\x05\x02\x30\x34\x44\x49\x20\x20\x43\x46\x03"
DWELL 0.15
G1 X123.380 Y49.200 ;extruding 
G1 X133.356 Y48.234 ;extruding 
G1 X133.428 Y48.570 ;extruding 
G1 X132.175 Y48.991 ;extruding 
G1 X126.082 Y50.564 ;extruding 
G1 X118.102 Y52.065 ;extruding 
CCW X101.333 Y54.187 I-78.462 J-552.724 
G1 X101.279 Y53.585 ;extruding 
CW X102.809 Y53.526 I0.567 J-5.171 
G1 X109.660 Y51.618 ;extruding 
G1 X116.074 Y50.287 ;extruding 
FILEWRITE $hFile"\x05\x02\x30\x34\x44\x49\x20\x20\x43\x46\x03"
G1 X116.091 Y49.890 ;not extruding 
FILEWRITE $hFile"\x05\x02\x30\x34\x44\x49\x20\x20\x43\x46\x03"
DWELL 0.15
G1 X123.334 Y48.818 ;extruding 
G1 X133.228 Y47.859 ;extruding 
G1 X136.337 Y47.645 ;extruding 
G1 X136.403 Y47.978 ;extruding 
G1 X132.284 Y49.361 ;extruding 
G1 X126.166 Y50.940 ;extruding 
G1 X118.164 Y52.446 ;extruding 
CCW X102.072 Y54.486 I-75.931 J-534.470 
G1 X102.317 Y59.933 ;extruding 
CCW X100.673 Y58.987 I1.023 J-3.679 
CCW X100.506 Y57.550 I2.102 J-0.973 
G1 X100.978 Y55.368 ;extruding 
CW X100.850 Y53.115 I-14.032 J-0.333 
CW X102.735 Y53.146 I1.017 J-4.524 
G1 X109.569 Y51.243 ;extruding 
G1 X116.006 Y49.908 ;extruding 
FILEWRITE $hFile"\x05\x02\x30\x34\x44\x49\x20\x20\x43\x46\x03"
G1 X116.024 Y49.510 ;not extruding 
FILEWRITE $hFile"\x05\x02\x30\x34\x44\x49\x20\x20\x43\x46\x03"
DWELL 0.15
G1 X123.287 Y48.435 ;extruding 
G1 X133.196 Y47.475 ;extruding 
G1 X139.078 Y47.059 ;extruding 
G1 X139.159 Y47.386 ;extruding 
G1 X137.887 Y47.886 ;extruding 
G1 X132.394 Y49.730 ;extruding 
G1 X126.250 Y51.317 ;extruding 
G1 X118.225 Y52.827 ;extruding 
CCW X102.474 Y54.826 I-73.909 J-519.305 
G1 X102.729 Y60.509 ;extruding 
G1 X101.420 Y59.995 ;extruding 
CCW X100.364 Y59.219 I1.206 J-2.748 
CCW X100.080 Y58.201 I1.283 J-0.907 
G1 X100.123 Y57.497 ;extruding 
G1 X100.592 Y55.328 ;extruding 
G1 X100.585 Y54.474 ;extruding 
G1 X100.421 Y52.645 ;extruding 
CW X102.660 Y52.767 I1.397 J-5.029 
G1 X109.478 Y50.868 ;extruding 
G1 X115.939 Y49.528 ;extruding 
FILEWRITE $hFile"\x05\x02\x30\x34\x44\x49\x20\x20\x43\x46\x03"
G1 X115.956 Y49.130 ;not extruding 
FILEWRITE $hFile"\x05\x02\x30\x34\x44\x49\x20\x20\x43\x46\x03"
DWELL 0.15
G1 X123.240 Y48.052 ;extruding 
G1 X133.164 Y47.090 ;extruding 
G1 X138.766 Y46.706 ;extruding 
G1 X141.528 Y46.399 ;extruding 
G1 X141.616 Y46.714 ;extruding 
CCW X138.019 Y48.248 I-14.836 J-29.804 
G1 X132.504 Y50.100 ;extruding 
G1 X126.334 Y51.694 ;extruding 
G1 X118.287 Y53.208 ;extruding 
CCW X102.875 Y55.166 I-73.030 J-513.207 
G1 X103.092 Y60.000 ;extruding 
G1 X108.279 Y60.157 ;extruding 
G1 X114.876 Y59.923 ;extruding 
G1 X121.596 Y59.104 ;extruding 
G1 X128.468 Y57.667 ;extruding 
G1 X134.805 Y55.818 ;extruding 
G1 X141.863 Y53.192 ;extruding 
G1 X142.582 Y52.867 ;extruding 
G1 X142.753 Y53.183 ;extruding 
G1 X138.815 Y55.685 ;extruding 
G1 X133.893 Y58.204 ;extruding 
G1 X128.533 Y60.333 ;extruding 
G1 X122.875 Y62.009 ;extruding 
CCW X121.994 Y62.011 I-0.448 J-3.272 
CCW X117.688 Y61.414 I6.847 J-65.211 
G1 X115.983 Y61.315 ;extruding 
CW X112.093 Y64.102 I0.434 J4.714 
CW X113.118 Y68.807 I4.707 J1.439 
G1 X112.924 Y69.061 ;extruding 
CCW X111.503 Y68.016 I1.898 J-4.069 
G1 X110.788 Y67.149 ;extruding 
G1 X109.850 Y65.529 ;extruding 
G1 X109.752 Y65.116 ;extruding 
G1 X109.305 Y62.275 ;extruding 
G1 X105.046 Y61.472 ;extruding 
G1 X102.688 Y60.907 ;extruding 
G1 X101.250 Y60.343 ;extruding 
CCW X100.055 Y59.452 I1.361 J-3.073 
CCW X99.693 Y58.206 I1.605 J-1.142 
G1 X99.740 Y57.444 ;extruding 
G1 X100.206 Y55.288 ;extruding 
G1 X100.199 Y54.493 ;extruding 
G1 X99.981 Y52.045 ;extruding 
CW X102.586 Y52.387 I1.850 J-3.996 
G1 X109.387 Y50.493 ;extruding 
G1 X115.871 Y49.148 ;extruding 
FILEWRITE $hFile"\x05\x02\x30\x34\x44\x49\x20\x20\x43\x46\x03"
G1 X115.889 Y48.750 ;not extruding 
FILEWRITE $hFile"\x05\x02\x30\x34\x44\x49\x20\x20\x43\x46\x03"
DWELL 0.15
G1 X123.193 Y47.669 ;extruding 
G1 X133.132 Y46.706 ;extruding 
G1 X138.731 Y46.321 ;extruding 
G1 X143.808 Y45.758 ;extruding 
G1 X143.897 Y46.073 ;extruding 
G1 X140.301 Y47.755 ;extruding 
G1 X138.151 Y48.611 ;extruding 
G1 X132.614 Y50.470 ;extruding 
G1 X126.418 Y52.070 ;extruding 
G1 X118.349 Y53.589 ;extruding 
CCW X103.276 Y55.507 I-71.561 J-502.192 
G1 X103.461 Y59.626 ;extruding 
G1 X108.278 Y59.771 ;extruding 
G1 X114.846 Y59.539 ;extruding 
G1 X121.534 Y58.723 ;extruding 
G1 X128.374 Y57.292 ;extruding 
G1 X134.684 Y55.451 ;extruding 
G1 X141.716 Y52.835 ;extruding 
G1 X145.638 Y51.063 ;extruding 
G1 X145.815 Y51.352 ;extruding 
CCW X143.227 Y53.338 I-19.890 J-23.240 
G1 X139.007 Y56.020 ;extruding 
G1 X134.052 Y58.556 ;extruding 
G1 X128.659 Y60.698 ;extruding 
G1 X122.922 Y62.392 ;extruding 
CCW X121.962 Y62.396 I-0.495 J-3.636 
CCW X117.647 Y61.798 I6.888 J-65.568 
G1 X116.000 Y61.702 ;extruding 
CW X112.458 Y64.236 I0.415 J4.323 
CW X113.599 Y68.763 I4.369 J1.306 
G1 X114.651 Y69.454 ;extruding 
G1 X115.151 Y69.704 ;extruding 
G1 X115.056 Y70.015 ;extruding 
CCW X111.224 Y68.284 I0.215 J-5.584 
G1 X110.470 Y67.369 ;extruding 
G1 X109.500 Y65.693 ;extruding 
CCW X109.373 Y65.186 I1.651 J-0.683 
G1 X108.967 Y62.603 ;extruding 
G1 X104.965 Y61.849 ;extruding 
G1 X102.572 Y61.276 ;extruding 
G1 X101.079 Y60.690 ;extruding 
CCW X99.746 Y59.684 I1.525 J-3.407 
CCW X99.306 Y58.212 I1.903 J-1.371 
G1 X99.356 Y57.392 ;extruding 
G1 X99.820 Y55.249 ;extruding 
G1 X99.814 Y54.512 ;extruding 
G1 X99.525 Y51.278 ;extruding 
G1 X100.258 Y51.733 ;extruding 
CW X102.512 Y52.008 I1.578 J-3.558 
G1 X109.296 Y50.118 ;extruding 
G1 X115.804 Y48.768 ;extruding 
FILEWRITE $hFile"\x05\x02\x30\x34\x44\x49\x20\x20\x43\x46\x03"
G1 X115.821 Y48.370 ;not extruding 
FILEWRITE $hFile"\x05\x02\x30\x34\x44\x49\x20\x20\x43\x46\x03"
DWELL 0.15
G1 X123.146 Y47.286 ;extruding 
G1 X133.101 Y46.322 ;extruding 
G1 X138.697 Y45.937 ;extruding 
G1 X143.863 Y45.364 ;extruding 
G1 X146.170 Y44.985 ;extruding 
G1 X146.278 Y45.287 ;extruding 
G1 X145.397 Y45.796 ;extruding 
G1 X140.456 Y48.108 ;extruding 
G1 X138.283 Y48.973 ;extruding 
G1 X132.723 Y50.840 ;extruding 
G1 X126.502 Y52.447 ;extruding 
G1 X118.410 Y53.969 ;extruding 
CCW X103.678 Y55.847 I-70.087 J-491.076 
G1 X103.830 Y59.251 ;extruding 
G1 X108.277 Y59.385 ;extruding 
G1 X114.816 Y59.154 ;extruding 
G1 X121.471 Y58.342 ;extruding 
G1 X128.281 Y56.918 ;extruding 
G1 X134.562 Y55.085 ;extruding 
G1 X141.569 Y52.479 ;extruding 
G1 X148.235 Y49.467 ;extruding 
G1 X148.412 Y49.756 ;extruding 
G1 X144.634 Y52.798 ;extruding 
G1 X143.443 Y53.657 ;extruding 
G1 X139.198 Y56.355 ;extruding 
G1 X134.212 Y58.908 ;extruding 
G1 X128.785 Y61.063 ;extruding 
G1 X122.978 Y62.775 ;extruding 
CCW X121.929 Y62.780 I-0.544 J-4.053 
CCW X117.606 Y62.182 I6.847 J-65.423 
G1 X116.017 Y62.090 ;extruding 
CW X112.822 Y64.370 I0.395 J3.933 
CW X113.852 Y68.468 I4.001 J1.173 
CW X116.772 Y69.967 I5.923 J-7.944 
G1 X116.744 Y70.276 ;extruding 
CCW X112.146 Y69.534 I-1.318 J-6.449 
CCW X110.946 Y68.553 I3.272 J-5.227 
G1 X110.152 Y67.590 ;extruding 
G1 X109.150 Y65.858 ;extruding 
CCW X108.993 Y65.256 I1.930 J-0.825 
G1 X108.628 Y62.932 ;extruding 
G1 X104.884 Y62.227 ;extruding 
G1 X102.456 Y61.645 ;extruding 
G1 X100.909 Y61.038 ;extruding 
CCW X99.719 Y60.236 I1.943 J-4.167 
CCW X98.920 Y58.218 I1.881 J-1.912 
G1 X98.973 Y57.339 ;extruding 
G1 X99.434 Y55.209 ;extruding 
G1 X99.428 Y54.531 ;extruding 
G1 X99.054 Y50.340 ;extruding 
G1 X99.904 Y51.060 ;extruding 
CW X102.438 Y51.628 I1.938 J-2.711 
G1 X109.205 Y49.743 ;extruding 
G1 X115.736 Y48.388 ;extruding 
FILEWRITE $hFile"\x05\x02\x30\x34\x44\x49\x20\x20\x43\x46\x03"
G1 X115.684 Y47.596 ;not extruding 
G1 X116.337 Y51.275 ;not extruding 
G1 X109.846 Y52.386 ;not extruding 
G1 X104.078 Y53.574 ;not extruding 
G1 X102.022 Y54.295 ;not extruding 
G1 X100.556 Y52.743 ;not extruding 
G1 X99.866 Y51.774 ;not extruding 
G1 X97.658 Y50.414 ;not extruding 
G1 X97.035 Y50.526 ;not extruding 
G1 X93.815 Y52.759 ;not extruding 
G1 X92.920 Y54.284 ;not extruding 
G1 X92.137 Y56.048 ;not extruding 
G1 X90.930 Y60.004 ;not extruding 
G1 X91.153 Y59.845 ;not extruding 
FILEWRITE $hFile"\x05\x02\x30\x34\x44\x49\x20\x20\x43\x46\x03"
DWELL 0.15
G1 X91.204 Y60.548 ;extruding 
G1 X90.583 Y60.419 ;extruding 
G1 X90.856 Y59.795 ;extruding 
G1 X91.067 Y59.831 ;extruding 
FILEWRITE $hFile"\x05\x02\x30\x34\x44\x49\x20\x20\x43\x46\x03"
G1 X91.533 Y59.758 ;not extruding 
FILEWRITE $hFile"\x05\x02\x30\x34\x44\x49\x20\x20\x43\x46\x03"
DWELL 0.15
G1 X91.626 Y61.030 ;extruding 
G1 X90.040 Y60.700 ;extruding 
G1 X91.432 Y57.510 ;extruding 
G1 X91.751 Y57.593 ;extruding 
G1 X91.542 Y59.671 ;extruding 
FILEWRITE $hFile"\x05\x02\x30\x34\x44\x49\x20\x20\x43\x46\x03"
G1 X93.616 Y53.374 ;not extruding 
FILEWRITE $hFile"\x05\x02\x30\x34\x44\x49\x20\x20\x43\x46\x03"
DWELL 0.15
G1 X93.313 Y53.203 ;extruding 
G1 X93.530 Y52.705 ;extruding 
G1 X93.938 Y52.917 ;extruding 
G1 X93.666 Y53.302 ;extruding 
FILEWRITE $hFile"\x05\x02\x30\x34\x44\x49\x20\x20\x43\x46\x03"
G1 X94.402 Y52.929 ;not extruding 
FILEWRITE $hFile"\x05\x02\x30\x34\x44\x49\x20\x20\x43\x46\x03"
DWELL 0.15
G1 X93.389 Y54.364 ;extruding 
G1 X92.612 Y56.007 ;extruding 
G1 X92.120 Y57.777 ;extruding 
G1 X91.920 Y59.763 ;extruding 
G1 X92.048 Y61.511 ;extruding 
G1 X88.024 Y60.675 ;extruding 
G1 X87.381 Y60.610 ;extruding 
G1 X87.101 Y60.000 ;extruding 
G1 X89.775 Y60.342 ;extruding 
G1 X93.342 Y52.173 ;extruding 
G1 X93.704 Y52.361 ;extruding 
G1 X95.554 Y51.319 ;extruding 
G1 X95.754 Y51.606 ;extruding 
G1 X95.475 Y51.843 ;extruding 
G1 X94.463 Y52.867 ;extruding 
FILEWRITE $hFile"\x05\x02\x30\x34\x44\x49\x20\x20\x43\x46\x03"
G1 X94.699 Y53.177 ;not extruding 
FILEWRITE $hFile"\x05\x02\x30\x34\x44\x49\x20\x20\x43\x46\x03"
DWELL 0.15
G1 X93.723 Y54.559 ;extruding 
G1 X92.974 Y56.142 ;extruding 
G1 X92.500 Y57.849 ;extruding 
G1 X92.307 Y59.768 ;extruding 
G1 X92.469 Y61.993 ;extruding 
G1 X87.965 Y61.056 ;extruding 
G1 X87.123 Y60.971 ;extruding 
G1 X86.460 Y59.530 ;extruding 
G1 X89.537 Y59.923 ;extruding 
G1 X93.153 Y51.641 ;extruding 
G1 X93.696 Y51.922 ;extruding 
G1 X96.626 Y50.272 ;extruding 
CCW X97.271 Y50.100 I0.662 J1.186 
G1 X97.826 Y50.351 ;extruding 
G1 X95.737 Y52.126 ;extruding 
G1 X94.760 Y53.115 ;extruding 
FILEWRITE $hFile"\x05\x02\x30\x34\x44\x49\x20\x20\x43\x46\x03"
G1 X94.995 Y53.425 ;not extruding 
FILEWRITE $hFile"\x05\x02\x30\x34\x44\x49\x20\x20\x43\x46\x03"
DWELL 0.15
G1 X94.057 Y54.754 ;extruding 
G1 X93.337 Y56.277 ;extruding 
G1 X92.881 Y57.920 ;extruding 
G1 X92.694 Y59.774 ;extruding 
G1 X92.837 Y61.734 ;extruding 
G1 X93.027 Y62.502 ;extruding 
G1 X87.906 Y61.438 ;extruding 
G1 X86.865 Y61.333 ;extruding 
G1 X85.818 Y59.059 ;extruding 
G1 X89.299 Y59.504 ;extruding 
G1 X92.965 Y51.109 ;extruding 
G1 X93.689 Y51.484 ;extruding 
G1 X96.464 Y49.921 ;extruding 
CCW X97.480 Y49.759 I0.720 J1.246 
CCW X98.429 Y50.345 I-1.378 J3.292 
G1 X96.000 Y52.409 ;extruding 
G1 X95.056 Y53.363 ;extruding 
FILEWRITE $hFile"\x05\x02\x30\x34\x44\x49\x20\x20\x43\x46\x03"
G1 X95.292 Y53.674 ;not extruding 
FILEWRITE $hFile"\x05\x02\x30\x34\x44\x49\x20\x20\x43\x46\x03"
DWELL 0.15
G1 X94.392 Y54.949 ;extruding 
G1 X93.700 Y56.413 ;extruding 
G1 X93.261 Y57.992 ;extruding 
G1 X93.081 Y59.779 ;extruding 
G1 X93.219 Y61.674 ;extruding 
G1 X93.548 Y63.005 ;extruding 
G1 X87.848 Y61.820 ;extruding 
G1 X86.607 Y61.694 ;extruding 
G1 X85.417 Y59.108 ;extruding 
G1 X83.073 Y59.080 ;extruding 
G1 X83.104 Y58.323 ;extruding 
G1 X89.062 Y59.085 ;extruding 
G1 X92.777 Y50.576 ;extruding 
G1 X93.681 Y51.046 ;extruding 
G1 X96.302 Y49.570 ;extruding 
CCW X97.617 Y49.398 I0.876 J1.586 
G1 X97.994 Y49.577 ;extruding 
CCW X99.042 Y50.330 I-3.240 J5.614 
G1 X96.262 Y52.692 ;extruding 
G1 X95.353 Y53.612 ;extruding 
FILEWRITE $hFile"\x05\x02\x30\x34\x44\x49\x20\x20\x43\x46\x03"
G1 X93.580 Y63.134 ;not extruding 
FILEWRITE $hFile"\x05\x02\x30\x34\x44\x49\x20\x20\x43\x46\x03"
DWELL 0.15
G1 X93.680 Y63.538 ;extruding 
G1 X94.134 Y64.706 ;extruding 
G1 X93.911 Y64.882 ;extruding 
CW X92.073 Y63.963 I-2.842 J3.387 
G1 X93.504 Y63.176 ;extruding 
FILEWRITE $hFile"\x05\x02\x30\x34\x44\x49\x20\x20\x43\x46\x03"
G1 X94.048 Y63.421 ;not extruding 
FILEWRITE $hFile"\x05\x02\x30\x34\x44\x49\x20\x20\x43\x46\x03"
DWELL 0.15
G1 X94.458 Y64.474 ;extruding 
G1 X95.330 Y66.067 ;extruding 
G1 X96.056 Y66.988 ;extruding 
G1 X95.791 Y67.229 ;extruding 
G1 X93.552 Y65.103 ;extruding 
CW X91.362 Y64.214 I-2.644 J3.370 
G1 X91.312 Y63.942 ;extruding 
G1 X92.641 Y63.210 ;extruding 
G1 X87.789 Y62.201 ;extruding 
G1 X86.349 Y62.056 ;extruding 
G1 X85.168 Y59.491 ;extruding 
G1 X82.671 Y59.461 ;extruding 
G1 X82.736 Y57.887 ;extruding 
G1 X88.824 Y58.665 ;extruding 
G1 X92.401 Y50.472 ;extruding 
G1 X91.653 Y49.968 ;extruding 
G1 X91.839 Y49.655 ;extruding 
G1 X93.674 Y50.607 ;extruding 
G1 X96.140 Y49.218 ;extruding 
CCW X97.506 Y48.964 I1.098 J2.104 
CCW X98.187 Y49.241 I-0.509 J2.227 
CCW X100.132 Y50.747 I-6.607 J10.542 
CW X102.363 Y51.248 I1.707 J-2.384 
G1 X109.114 Y49.368 ;extruding 
G1 X115.754 Y47.991 ;extruding 
G1 X123.099 Y46.903 ;extruding 
G1 X133.069 Y45.937 ;extruding 
G1 X138.662 Y45.553 ;extruding 
G1 X143.811 Y44.982 ;extruding 
G1 X148.188 Y44.262 ;extruding 
G1 X148.296 Y44.564 ;extruding 
G1 X145.576 Y46.138 ;extruding 
G1 X140.612 Y48.461 ;extruding 
G1 X138.415 Y49.336 ;extruding 
G1 X132.833 Y51.210 ;extruding 
G1 X126.586 Y52.823 ;extruding 
G1 X118.472 Y54.350 ;extruding 
CCW X104.079 Y56.187 I-68.088 J-476.169 
G1 X104.199 Y58.876 ;extruding 
G1 X108.276 Y58.999 ;extruding 
G1 X114.786 Y58.769 ;extruding 
G1 X121.408 Y57.961 ;extruding 
G1 X128.187 Y56.543 ;extruding 
G1 X134.441 Y54.719 ;extruding 
G1 X141.423 Y52.122 ;extruding 
G1 X148.568 Y48.893 ;extruding 
G1 X151.010 Y47.612 ;extruding 
G1 X151.203 Y47.896 ;extruding 
G1 X149.384 Y49.468 ;extruding 
G1 X144.868 Y53.105 ;extruding 
G1 X143.660 Y53.977 ;extruding 
G1 X139.390 Y56.690 ;extruding 
G1 X134.371 Y59.259 ;extruding 
G1 X128.911 Y61.428 ;extruding 
G1 X123.167 Y63.129 ;extruding 
CCW X121.897 Y63.165 I-0.747 J-3.945 
CCW X117.565 Y62.566 I6.923 J-66.033 
G1 X116.034 Y62.477 ;extruding 
CW X113.187 Y64.503 I0.382 J3.549 
CW X114.104 Y68.172 I3.632 J1.041 
CW X117.208 Y69.701 I5.717 J-7.690 
CW X119.404 Y69.706 I1.112 J-6.009 
G1 X122.082 Y69.318 ;extruding 
G1 X122.151 Y69.680 ;extruding 
CCW X115.738 Y70.789 I-11.966 J-50.100 
CCW X111.497 Y69.558 I-0.337 J-6.761 
G1 X110.667 Y68.821 ;extruding 
G1 X109.835 Y67.811 ;extruding 
G1 X108.800 Y66.023 ;extruding 
CCW X108.614 Y65.326 I2.248 J-0.973 
G1 X108.289 Y63.260 ;extruding 
G1 X104.804 Y62.604 ;extruding 
G1 X102.340 Y62.014 ;extruding 
G1 X100.739 Y61.385 ;extruding 
CCW X99.450 Y60.514 I2.109 J-4.510 
CCW X98.533 Y58.223 I2.148 J-2.189 
G1 X98.590 Y57.286 ;extruding 
G1 X99.048 Y55.170 ;extruding 
G1 X99.043 Y54.550 ;extruding 
G1 X98.734 Y51.097 ;extruding 
G1 X96.525 Y52.975 ;extruding 
G1 X95.589 Y53.922 ;extruding 
G1 X94.726 Y55.144 ;extruding 
G1 X94.063 Y56.548 ;extruding 
G1 X93.641 Y58.063 ;extruding 
G1 X93.468 Y59.784 ;extruding 
G1 X93.602 Y61.613 ;extruding 
G1 X94.027 Y63.337 ;extruding 
FILEWRITE $hFile"\x05\x02\x30\x34\x44\x49\x20\x20\x43\x46\x03"
G1 X94.441 Y63.340 ;not extruding 
G1 X93.095 Y63.673 ;not extruding 
G1 X91.789 Y62.394 ;not extruding 
G1 X90.863 Y60.219 ;not extruding 
G1 X92.137 Y56.048 ;not extruding 
G1 X92.920 Y54.284 ;not extruding 
G1 X93.815 Y52.759 ;not extruding 
G1 X97.056 Y50.517 ;not extruding 
G1 X97.658 Y50.414 ;not extruding 
G1 X99.866 Y51.774 ;not extruding 
G1 X100.556 Y52.743 ;not extruding 
G1 X102.022 Y54.295 ;not extruding 
G1 X101.426 Y56.808 ;not extruding 
G1 X101.400 Y58.455 ;not extruding 
G1 X101.821 Y59.175 ;not extruding 
G1 X102.891 Y60.125 ;not extruding 
G1 X104.525 Y60.663 ;not extruding 
G1 X108.431 Y61.131 ;not extruding 
G1 X111.065 Y62.037 ;not extruding 
G1 X113.006 Y61.195 ;not extruding 
G1 X115.035 Y60.670 ;not extruding 
G1 X122.627 Y60.458 ;not extruding 
G1 X128.109 Y59.086 ;not extruding 
G1 X133.470 Y57.272 ;not extruding 
G1 X138.496 Y55.128 ;not extruding 
G1 X142.871 Y52.915 ;not extruding 
G1 X148.802 Y49.314 ;not extruding 
G1 X155.016 Y45.091 ;not extruding 
G1 X156.474 Y44.701 ;not extruding 
FILEWRITE $hFile"\x05\x02\x30\x34\x44\x49\x20\x20\x43\x46\x03"
DWELL 0.15
G1 X157.893 Y43.881 ;extruding 
G1 X157.579 Y44.993 ;extruding 
G1 X157.398 Y45.389 ;extruding 
G1 X156.544 Y44.753 ;extruding 
FILEWRITE $hFile"\x05\x02\x30\x34\x44\x49\x20\x20\x43\x46\x03"
G1 X155.493 Y44.879 ;not extruding 
G1 X155.016 Y45.091 ;not extruding 
G1 X148.802 Y49.314 ;not extruding 
G1 X142.871 Y52.915 ;not extruding 
G1 X138.496 Y55.128 ;not extruding 
G1 X133.470 Y57.272 ;not extruding 
G1 X128.109 Y59.086 ;not extruding 
G1 X122.627 Y60.458 ;not extruding 
G1 X115.035 Y60.670 ;not extruding 
G1 X113.006 Y61.195 ;not extruding 
G1 X111.065 Y62.037 ;not extruding 
G1 X108.431 Y61.131 ;not extruding 
G1 X104.525 Y60.663 ;not extruding 
G1 X102.891 Y60.125 ;not extruding 
G1 X101.821 Y59.175 ;not extruding 
G1 X101.400 Y58.455 ;not extruding 
G1 X101.426 Y56.808 ;not extruding 
G1 X102.022 Y54.295 ;not extruding 
G1 X100.556 Y52.743 ;not extruding 
G1 X99.866 Y51.774 ;not extruding 
G1 X97.658 Y50.414 ;not extruding 
CW X96.805 Y50.660 I0.104 J1.962 
G1 X93.815 Y52.759 ;not extruding 
G1 X92.954 Y51.078 ;not extruding 
G1 X92.244 Y50.107 ;not extruding 
G1 X90.535 Y49.090 ;not extruding 
G1 X87.441 Y46.859 ;not extruding 
G1 X84.523 Y44.156 ;not extruding 
G1 X81.938 Y41.013 ;not extruding 
G1 X79.901 Y37.755 ;not extruding 
G1 X79.942 Y37.430 ;not extruding 
FILEWRITE $hFile"\x05\x02\x30\x34\x44\x49\x20\x20\x43\x46\x03"
DWELL 0.15
G1 X79.614 Y37.594 ;extruding 
G1 X78.642 Y35.871 ;extruding 
G1 X77.230 Y32.488 ;extruding 
G1 X76.066 Y28.543 ;extruding 
G1 X75.263 Y24.179 ;extruding 
G1 X74.845 Y19.319 ;extruding 
G1 X74.878 Y11.703 ;extruding 
CCW X75.852 Y12.238 I-1.313 J3.545 
G1 X75.560 Y18.067 ;extruding 
G1 X75.806 Y22.890 ;extruding 
G1 X76.606 Y27.936 ;extruding 
G1 X77.790 Y32.250 ;extruding 
G1 X78.247 Y33.556 ;extruding 
G1 X79.907 Y37.351 ;extruding 
FILEWRITE $hFile"\x05\x02\x30\x34\x44\x49\x20\x20\x43\x46\x03"
G1 X79.863 Y37.683 ;not extruding 
G1 X77.515 Y32.386 ;not extruding 
G1 X76.302 Y28.043 ;not extruding 
G1 X75.629 Y24.130 ;not extruding 
G1 X75.234 Y19.304 ;not extruding 
G1 X75.365 Y12.534 ;not extruding 
G1 X74.726 Y11.592 ;not extruding 
G1 X74.198 Y11.444 ;not extruding 
G1 X72.454 Y12.104 ;not extruding 
G1 X65.785 Y16.350 ;not extruding 
G1 X63.030 Y18.612 ;not extruding 
G1 X60.874 Y21.269 ;not extruding 
G1 X61.281 Y21.020 ;not extruding 
FILEWRITE $hFile"\x05\x02\x30\x34\x44\x49\x20\x20\x43\x46\x03"
DWELL 0.15
G1 X60.991 Y20.806 ;extruding 
G1 X61.495 Y20.017 ;extruding 
G1 X62.885 Y18.451 ;extruding 
G1 X63.736 Y17.754 ;extruding 
G1 X63.981 Y18.041 ;extruding 
G1 X63.223 Y18.716 ;extruding 
G1 X61.337 Y20.953 ;extruding 
FILEWRITE $hFile"\x05\x02\x30\x34\x44\x49\x20\x20\x43\x46\x03"
G1 X56.279 Y35.567 ;not extruding 
FILEWRITE $hFile"\x05\x02\x30\x34\x44\x49\x20\x20\x43\x46\x03"
DWELL 0.15
G1 X57.240 Y37.158 ;extruding 
G1 X56.231 Y36.846 ;extruding 
CCW X55.980 Y35.678 I5.683 J-1.832 
G1 X56.197 Y35.598 ;extruding 
FILEWRITE $hFile"\x05\x02\x30\x34\x44\x49\x20\x20\x43\x46\x03"
G1 X56.523 Y34.239 ;not extruding 
FILEWRITE $hFile"\x05\x02\x30\x34\x44\x49\x20\x20\x43\x46\x03"
DWELL 0.15
G1 X56.427 Y33.662 ;extruding 
G1 X56.766 Y33.573 ;extruding 
G1 X56.912 Y33.975 ;extruding 
G1 X56.595 Y34.190 ;extruding 
FILEWRITE $hFile"\x05\x02\x30\x34\x44\x49\x20\x20\x43\x46\x03"
G1 X56.241 Y34.896 ;not extruding 
FILEWRITE $hFile"\x05\x02\x30\x34\x44\x49\x20\x20\x43\x46\x03"
DWELL 0.15
G1 X55.603 Y31.058 ;extruding 
G1 X56.357 Y31.316 ;extruding 
G1 X57.377 Y34.125 ;extruding 
G1 X56.313 Y34.847 ;extruding 
FILEWRITE $hFile"\x05\x02\x30\x34\x44\x49\x20\x20\x43\x46\x03"
G1 X55.960 Y35.553 ;not extruding 
FILEWRITE $hFile"\x05\x02\x30\x34\x44\x49\x20\x20\x43\x46\x03"
DWELL 0.15
G1 X55.117 Y30.485 ;extruding 
G1 X56.656 Y31.011 ;extruding 
G1 X57.842 Y34.276 ;extruding 
G1 X56.032 Y35.504 ;extruding 
FILEWRITE $hFile"\x05\x02\x30\x34\x44\x49\x20\x20\x43\x46\x03"
G1 X57.977 Y30.199 ;not extruding 
FILEWRITE $hFile"\x05\x02\x30\x34\x44\x49\x20\x20\x43\x46\x03"
DWELL 0.15
G1 X57.809 Y29.966 ;extruding 
CW X58.306 Y29.137 I-2.283 J-1.932 
G1 X58.588 Y29.196 ;extruding 
G1 X58.646 Y29.966 ;extruding 
G1 X58.059 Y30.171 ;extruding 
FILEWRITE $hFile"\x05\x02\x30\x34\x44\x49\x20\x20\x43\x46\x03"
G1 X57.648 Y29.544 ;not extruding 
CW X58.251 Y27.895 I-3.954 J-2.381 
FILEWRITE $hFile"\x05\x02\x30\x34\x44\x49\x20\x20\x43\x46\x03"
DWELL 0.15
G1 X58.719 Y26.161 ;extruding 
G1 X59.063 Y26.218 ;extruding 
G1 X58.919 Y28.461 ;extruding 
G1 X59.053 Y30.232 ;extruding 
G1 X57.039 Y30.935 ;extruding 
G1 X58.307 Y34.426 ;extruding 
G1 X56.699 Y35.518 ;extruding 
G1 X58.093 Y37.826 ;extruding 
G1 X55.915 Y37.152 ;extruding 
G1 X55.709 Y36.396 ;extruding 
G1 X54.630 Y29.911 ;extruding 
G1 X56.793 Y30.650 ;extruding 
G1 X57.595 Y29.613 ;extruding 
FILEWRITE $hFile"\x05\x02\x30\x34\x44\x49\x20\x20\x43\x46\x03"
G1 X54.443 Y29.506 ;not extruding 
FILEWRITE $hFile"\x05\x02\x30\x34\x44\x49\x20\x20\x43\x46\x03"
DWELL 0.15
G1 X53.192 Y29.481 ;extruding 
G1 X53.363 Y29.102 ;extruding 
G1 X54.164 Y27.816 ;extruding 
G1 X54.443 Y27.896 ;extruding 
G1 X54.443 Y29.419 ;extruding 
FILEWRITE $hFile"\x05\x02\x30\x34\x44\x49\x20\x20\x43\x46\x03"
G1 X54.829 Y29.900 ;not extruding 
FILEWRITE $hFile"\x05\x02\x30\x34\x44\x49\x20\x20\x43\x46\x03"
DWELL 0.15
G1 X52.601 Y29.855 ;extruding 
G1 X53.022 Y28.920 ;extruding 
G1 X54.550 Y26.468 ;extruding 
G1 X54.829 Y26.548 ;extruding 
G1 X54.829 Y29.813 ;extruding 
FILEWRITE $hFile"\x05\x02\x30\x34\x44\x49\x20\x20\x43\x46\x03"
G1 X56.626 Y38.509 ;not extruding 
FILEWRITE $hFile"\x05\x02\x30\x34\x44\x49\x20\x20\x43\x46\x03"
DWELL 0.15
G1 X58.056 Y40.798 ;extruding 
G1 X58.512 Y41.365 ;extruding 
G1 X57.749 Y42.757 ;extruding 
G1 X56.795 Y40.381 ;extruding 
G1 X56.321 Y38.642 ;extruding 
G1 X56.546 Y38.544 ;extruding 
FILEWRITE $hFile"\x05\x02\x30\x34\x44\x49\x20\x20\x43\x46\x03"
G1 X58.659 Y43.939 ;not extruding 
FILEWRITE $hFile"\x05\x02\x30\x34\x44\x49\x20\x20\x43\x46\x03"
DWELL 0.15
G1 X59.410 Y44.738 ;extruding 
G1 X58.757 Y44.801 ;extruding 
G1 X58.384 Y44.142 ;extruding 
G1 X58.589 Y43.991 ;extruding 
FILEWRITE $hFile"\x05\x02\x30\x34\x44\x49\x20\x20\x43\x46\x03"
G1 X58.207 Y43.613 ;not extruding 
G1 X58.891 Y44.543 ;not extruding 
G1 X58.549 Y45.230 ;not extruding 
G1 X59.509 Y46.493 ;not extruding 
G1 X62.879 Y50.127 ;not extruding 
G1 X65.503 Y52.217 ;not extruding 
G1 X68.335 Y53.762 ;not extruding 
G1 X72.109 Y55.278 ;not extruding 
G1 X76.500 Y56.506 ;not extruding 
G1 X82.368 Y57.590 ;not extruding 
G1 X83.449 Y58.732 ;not extruding 
G1 X84.908 Y58.826 ;not extruding 
G1 X86.157 Y59.307 ;not extruding 
G1 X87.607 Y60.372 ;not extruding 
G1 X86.332 Y61.859 ;not extruding 
G1 X86.246 Y65.420 ;not extruding 
G1 X86.063 Y65.705 ;not extruding 
G1 X86.234 Y65.767 ;not extruding 
G1 X87.787 Y68.403 ;not extruding 
G1 X89.582 Y72.108 ;not extruding 
G1 X88.490 Y73.013 ;not extruding 
G1 X87.594 Y74.528 ;not extruding 
G1 X87.019 Y76.362 ;not extruding 
G1 X87.115 Y78.162 ;not extruding 
G1 X88.015 Y80.246 ;not extruding 
G1 X89.690 Y81.942 ;not extruding 
G1 X92.269 Y83.277 ;not extruding 
G1 X93.977 Y82.857 ;not extruding 
G1 X93.648 Y83.818 ;not extruding 
G1 X93.991 Y84.609 ;not extruding 
G1 X92.836 Y85.663 ;not extruding 
G1 X91.345 Y88.459 ;not extruding 
G1 X89.541 Y90.879 ;not extruding 
G1 X87.370 Y92.963 ;not extruding 
G1 X84.794 Y94.806 ;not extruding 
G1 X82.072 Y96.251 ;not extruding 
G1 X78.510 Y97.553 ;not extruding 
G1 X74.992 Y98.395 ;not extruding 
G1 X70.449 Y98.969 ;not extruding 
G1 X68.784 Y98.809 ;not extruding 
G1 X67.617 Y99.038 ;not extruding 
G1 X63.396 Y98.360 ;not extruding 
G1 X58.149 Y96.700 ;not extruding 
G1 X55.423 Y93.147 ;not extruding 
G1 X54.527 Y91.120 ;not extruding 
G1 X54.103 Y88.894 ;not extruding 
G1 X53.620 Y88.236 ;not extruding 
G1 X53.682 Y88.372 ;not extruding 
FILEWRITE $hFile"\x05\x02\x30\x34\x44\x49\x20\x20\x43\x46\x03"
DWELL 0.15
G1 X54.419 Y88.674 ;extruding 
G1 X54.581 Y90.805 ;extruding 
G1 X54.248 Y90.873 ;extruding 
G1 X53.945 Y89.971 ;extruding 
G1 X53.696 Y88.458 ;extruding 
FILEWRITE $hFile"\x05\x02\x30\x34\x44\x49\x20\x20\x43\x46\x03"
G1 X53.273 Y88.265 ;not extruding 
FILEWRITE $hFile"\x05\x02\x30\x34\x44\x49\x20\x20\x43\x46\x03"
DWELL 0.15
G1 X53.272 Y87.788 ;extruding 
G1 X54.812 Y88.418 ;extruding 
G1 X54.799 Y88.584 ;extruding 
G1 X54.950 Y90.572 ;extruding 
G1 X55.419 Y92.522 ;extruding 
G1 X55.801 Y93.425 ;extruding 
G1 X55.544 Y93.603 ;extruding 
G1 X55.293 Y93.366 ;extruding 
G1 X54.525 Y92.350 ;extruding 
G1 X54.000 Y91.345 ;extruding 
G1 X53.569 Y90.064 ;extruding 
G1 X53.288 Y88.351 ;extruding 
FILEWRITE $hFile"\x05\x02\x30\x34\x44\x49\x20\x20\x43\x46\x03"
G1 X52.888 Y88.297 ;not extruding 
FILEWRITE $hFile"\x05\x02\x30\x34\x44\x49\x20\x20\x43\x46\x03"
DWELL 0.15
G1 X52.884 Y87.213 ;extruding 
G1 X55.219 Y88.167 ;extruding 
G1 X55.186 Y88.585 ;extruding 
G1 X55.332 Y90.512 ;extruding 
G1 X55.786 Y92.401 ;extruding 
G1 X56.459 Y93.993 ;extruding 
G1 X57.011 Y94.965 ;extruding 
G1 X56.771 Y95.172 ;extruding 
CCW X55.005 Y93.625 I7.477 J-10.317 
G1 X54.198 Y92.557 ;extruding 
G1 X53.644 Y91.496 ;extruding 
G1 X53.194 Y90.157 ;extruding 
G1 X52.902 Y88.383 ;extruding 
FILEWRITE $hFile"\x05\x02\x30\x34\x44\x49\x20\x20\x43\x46\x03"
G1 X52.502 Y88.329 ;not extruding 
FILEWRITE $hFile"\x05\x02\x30\x34\x44\x49\x20\x20\x43\x46\x03"
DWELL 0.15
G1 X52.497 Y86.769 ;extruding 
G1 X53.248 Y86.945 ;extruding 
G1 X55.626 Y87.917 ;extruding 
G1 X55.573 Y88.585 ;extruding 
G1 X55.715 Y90.452 ;extruding 
G1 X56.154 Y92.280 ;extruding 
G1 X56.806 Y93.822 ;extruding 
CW X58.213 Y95.972 I9.571 J-4.728 
G1 X58.284 Y96.843 ;extruding 
G1 X55.772 Y94.880 ;extruding 
G1 X54.717 Y93.883 ;extruding 
G1 X53.871 Y92.764 ;extruding 
G1 X53.288 Y91.648 ;extruding 
G1 X52.818 Y90.251 ;extruding 
G1 X52.517 Y88.415 ;extruding 
FILEWRITE $hFile"\x05\x02\x30\x34\x44\x49\x20\x20\x43\x46\x03"
G1 X52.117 Y88.362 ;not extruding 
FILEWRITE $hFile"\x05\x02\x30\x34\x44\x49\x20\x20\x43\x46\x03"
DWELL 0.15
G1 X52.110 Y86.282 ;extruding 
G1 X53.366 Y86.577 ;extruding 
G1 X56.033 Y87.667 ;extruding 
G1 X55.960 Y88.586 ;extruding 
G1 X56.097 Y90.392 ;extruding 
G1 X56.521 Y92.159 ;extruding 
G1 X57.152 Y93.651 ;extruding 
CW X58.589 Y95.831 I9.674 J-4.813 
G1 X58.704 Y97.256 ;extruding 
G1 X58.374 Y97.403 ;extruding 
G1 X55.520 Y95.172 ;extruding 
G1 X54.429 Y94.141 ;extruding 
G1 X53.544 Y92.971 ;extruding 
G1 X52.933 Y91.800 ;extruding 
G1 X52.443 Y90.344 ;extruding 
G1 X52.131 Y88.447 ;extruding 
FILEWRITE $hFile"\x05\x02\x30\x34\x44\x49\x20\x20\x43\x46\x03"
G1 X51.731 Y88.394 ;not extruding 
FILEWRITE $hFile"\x05\x02\x30\x34\x44\x49\x20\x20\x43\x46\x03"
DWELL 0.15
G1 X51.724 Y86.198 ;extruding 
G1 X51.782 Y85.809 ;extruding 
G1 X53.484 Y86.208 ;extruding 
G1 X56.440 Y87.416 ;extruding 
G1 X56.346 Y88.587 ;extruding 
G1 X56.479 Y90.332 ;extruding 
G1 X56.889 Y92.038 ;extruding 
G1 X57.499 Y93.481 ;extruding 
G1 X58.052 Y94.456 ;extruding 
G1 X58.964 Y95.690 ;extruding 
G1 X59.110 Y97.497 ;extruding 
G1 X58.319 Y97.849 ;extruding 
G1 X55.268 Y95.465 ;extruding 
G1 X54.140 Y94.399 ;extruding 
G1 X53.217 Y93.178 ;extruding 
G1 X52.577 Y91.951 ;extruding 
G1 X52.067 Y90.438 ;extruding 
G1 X51.746 Y88.480 ;extruding 
FILEWRITE $hFile"\x05\x02\x30\x34\x44\x49\x20\x20\x43\x46\x03"
G1 X51.346 Y88.426 ;not extruding 
FILEWRITE $hFile"\x05\x02\x30\x34\x44\x49\x20\x20\x43\x46\x03"
DWELL 0.15
G1 X51.338 Y86.170 ;extruding 
G1 X51.462 Y85.337 ;extruding 
G1 X53.602 Y85.840 ;extruding 
G1 X56.847 Y87.166 ;extruding 
G1 X56.733 Y88.588 ;extruding 
G1 X56.861 Y90.272 ;extruding 
G1 X57.256 Y91.917 ;extruding 
G1 X57.845 Y93.310 ;extruding 
G1 X58.376 Y94.246 ;extruding 
G1 X59.340 Y95.550 ;extruding 
G1 X59.517 Y97.738 ;extruding 
G1 X58.264 Y98.296 ;extruding 
G1 X55.017 Y95.758 ;extruding 
G1 X53.852 Y94.657 ;extruding 
G1 X52.890 Y93.385 ;extruding 
G1 X52.221 Y92.103 ;extruding 
G1 X51.692 Y90.531 ;extruding 
G1 X51.360 Y88.512 ;extruding 
FILEWRITE $hFile"\x05\x02\x30\x34\x44\x49\x20\x20\x43\x46\x03"
G1 X50.960 Y88.458 ;not extruding 
FILEWRITE $hFile"\x05\x02\x30\x34\x44\x49\x20\x20\x43\x46\x03"
DWELL 0.15
G1 X50.953 Y86.142 ;extruding 
G1 X51.142 Y84.866 ;extruding 
G1 X53.719 Y85.472 ;extruding 
G1 X57.254 Y86.916 ;extruding 
G1 X57.120 Y88.588 ;extruding 
G1 X57.243 Y90.212 ;extruding 
G1 X57.624 Y91.796 ;extruding 
CW X58.700 Y94.035 I10.174 J-3.512 
G1 X59.601 Y95.254 ;extruding 
G1 X59.711 Y95.361 ;extruding 
G1 X59.923 Y97.980 ;extruding 
G1 X58.209 Y98.742 ;extruding 
G1 X54.765 Y96.050 ;extruding 
G1 X53.564 Y94.915 ;extruding 
G1 X52.563 Y93.592 ;extruding 
G1 X51.865 Y92.255 ;extruding 
G1 X51.317 Y90.624 ;extruding 
G1 X50.974 Y88.544 ;extruding 
FILEWRITE $hFile"\x05\x02\x30\x34\x44\x49\x20\x20\x43\x46\x03"
G1 X50.575 Y88.490 ;not extruding 
FILEWRITE $hFile"\x05\x02\x30\x34\x44\x49\x20\x20\x43\x46\x03"
DWELL 0.15
G1 X50.567 Y86.114 ;extruding 
G1 X50.822 Y84.395 ;extruding 
G1 X53.837 Y85.103 ;extruding 
G1 X57.708 Y86.685 ;extruding 
G1 X57.634 Y86.999 ;extruding 
G1 X57.507 Y88.589 ;extruding 
G1 X57.625 Y90.152 ;extruding 
G1 X57.991 Y91.675 ;extruding 
CW X59.024 Y93.825 I9.770 J-3.371 
G1 X59.892 Y94.999 ;extruding 
G1 X60.084 Y95.185 ;extruding 
G1 X60.322 Y98.123 ;extruding 
G1 X60.048 Y98.346 ;extruding 
G1 X58.154 Y99.189 ;extruding 
G1 X54.513 Y96.343 ;extruding 
G1 X53.276 Y95.174 ;extruding 
G1 X52.237 Y93.799 ;extruding 
G1 X51.509 Y92.407 ;extruding 
G1 X50.941 Y90.718 ;extruding 
G1 X50.589 Y88.576 ;extruding 
FILEWRITE $hFile"\x05\x02\x30\x34\x44\x49\x20\x20\x43\x46\x03"
G1 X50.189 Y88.522 ;not extruding 
FILEWRITE $hFile"\x05\x02\x30\x34\x44\x49\x20\x20\x43\x46\x03"
DWELL 0.15
G1 X50.181 Y86.086 ;extruding 
G1 X50.502 Y83.924 ;extruding 
G1 X53.955 Y84.735 ;extruding 
G1 X57.907 Y86.350 ;extruding 
G1 X58.165 Y86.427 ;extruding 
G1 X58.016 Y87.059 ;extruding 
G1 X57.893 Y88.590 ;extruding 
G1 X58.008 Y90.092 ;extruding 
G1 X58.359 Y91.554 ;extruding 
CW X60.457 Y95.009 I8.846 J-3.007 
G1 X60.722 Y98.293 ;extruding 
G1 X60.252 Y98.677 ;extruding 
G1 X58.099 Y99.635 ;extruding 
G1 X54.262 Y96.636 ;extruding 
G1 X52.987 Y95.432 ;extruding 
G1 X51.910 Y94.006 ;extruding 
G1 X51.154 Y92.558 ;extruding 
G1 X50.566 Y90.811 ;extruding 
G1 X50.203 Y88.608 ;extruding 
FILEWRITE $hFile"\x05\x02\x30\x34\x44\x49\x20\x20\x43\x46\x03"
G1 X49.804 Y88.554 ;not extruding 
FILEWRITE $hFile"\x05\x02\x30\x34\x44\x49\x20\x20\x43\x46\x03"
DWELL 0.15
G1 X49.795 Y86.058 ;extruding 
G1 X50.193 Y83.383 ;extruding 
G1 X50.277 Y83.102 ;extruding 
G1 X50.619 Y83.169 ;extruding 
G1 X50.584 Y83.547 ;extruding 
G1 X54.073 Y84.366 ;extruding 
G1 X58.036 Y85.986 ;extruding 
G1 X58.623 Y86.162 ;extruding 
G1 X58.398 Y87.119 ;extruding 
G1 X58.280 Y88.591 ;extruding 
G1 X58.390 Y90.032 ;extruding 
G1 X58.727 Y91.433 ;extruding 
CW X60.829 Y94.833 I8.395 J-2.840 
G1 X61.123 Y98.464 ;extruding 
G1 X60.456 Y99.009 ;extruding 
G1 X58.044 Y100.082 ;extruding 
G1 X54.010 Y96.929 ;extruding 
G1 X52.699 Y95.690 ;extruding 
G1 X51.583 Y94.213 ;extruding 
G1 X50.798 Y92.710 ;extruding 
G1 X50.190 Y90.904 ;extruding 
G1 X49.818 Y88.640 ;extruding 
FILEWRITE $hFile"\x05\x02\x30\x34\x44\x49\x20\x20\x43\x46\x03"
G1 X49.418 Y88.586 ;not extruding 
FILEWRITE $hFile"\x05\x02\x30\x34\x44\x49\x20\x20\x43\x46\x03"
DWELL 0.15
G1 X49.410 Y86.031 ;extruding 
G1 X49.815 Y83.298 ;extruding 
G1 X50.457 Y81.166 ;extruding 
G1 X51.170 Y81.390 ;extruding 
G1 X50.999 Y83.248 ;extruding 
G1 X54.190 Y83.998 ;extruding 
G1 X58.164 Y85.622 ;extruding 
G1 X59.082 Y85.897 ;extruding 
G1 X58.780 Y87.178 ;extruding 
G1 X58.667 Y88.591 ;extruding 
G1 X58.772 Y89.972 ;extruding 
G1 X59.094 Y91.312 ;extruding 
CW X61.202 Y94.657 I8.026 J-2.721 
G1 X61.524 Y98.635 ;extruding 
G1 X60.660 Y99.340 ;extruding 
G1 X58.214 Y100.428 ;extruding 
G1 X58.005 Y100.541 ;extruding 
G1 X53.758 Y97.221 ;extruding 
G1 X52.411 Y95.948 ;extruding 
G1 X51.256 Y94.420 ;extruding 
G1 X50.442 Y92.862 ;extruding 
G1 X49.815 Y90.998 ;extruding 
G1 X49.432 Y88.672 ;extruding 
FILEWRITE $hFile"\x05\x02\x30\x34\x44\x49\x20\x20\x43\x46\x03"
G1 X49.033 Y88.619 ;not extruding 
FILEWRITE $hFile"\x05\x02\x30\x34\x44\x49\x20\x20\x43\x46\x03"
DWELL 0.15
G1 X49.024 Y86.003 ;extruding 
G1 X49.438 Y83.214 ;extruding 
G1 X50.201 Y80.680 ;extruding 
G1 X51.582 Y81.116 ;extruding 
G1 X51.413 Y82.949 ;extruding 
G1 X54.308 Y83.629 ;extruding 
G1 X58.293 Y85.258 ;extruding 
G1 X59.573 Y85.642 ;extruding 
CW X59.162 Y87.238 I8.371 J3.007 
G1 X59.054 Y88.592 ;extruding 
G1 X59.154 Y89.912 ;extruding 
G1 X59.462 Y91.191 ;extruding 
CW X61.575 Y94.480 I7.466 J-2.473 
G1 X61.864 Y98.061 ;extruding 
G1 X62.729 Y98.149 ;extruding 
G1 X60.864 Y99.671 ;extruding 
G1 X58.384 Y100.775 ;extruding 
G1 X57.313 Y101.351 ;extruding 
G1 X57.111 Y101.136 ;extruding 
G1 X57.448 Y100.594 ;extruding 
G1 X53.506 Y97.514 ;extruding 
G1 X52.123 Y96.206 ;extruding 
G1 X50.929 Y94.626 ;extruding 
G1 X50.086 Y93.013 ;extruding 
G1 X49.439 Y91.091 ;extruding 
G1 X49.047 Y88.704 ;extruding 
FILEWRITE $hFile"\x05\x02\x30\x34\x44\x49\x20\x20\x43\x46\x03"
G1 X48.647 Y88.651 ;not extruding 
FILEWRITE $hFile"\x05\x02\x30\x34\x44\x49\x20\x20\x43\x46\x03"
DWELL 0.15
G1 X48.638 Y85.975 ;extruding 
G1 X49.061 Y83.130 ;extruding 
G1 X49.944 Y80.195 ;extruding 
G1 X51.995 Y80.842 ;extruding 
G1 X51.828 Y82.651 ;extruding 
G1 X54.426 Y83.261 ;extruding 
G1 X58.422 Y84.894 ;extruding 
G1 X60.065 Y85.387 ;extruding 
CW X59.536 Y89.852 I8.614 J3.284 
G1 X59.829 Y91.070 ;extruding 
CW X61.947 Y94.304 I7.181 J-2.393 
G1 X62.223 Y97.710 ;extruding 
G1 X63.694 Y97.859 ;extruding 
G1 X61.068 Y100.003 ;extruding 
G1 X58.554 Y101.121 ;extruding 
CW X56.118 Y102.576 I5.983 J12.783 
G1 X55.893 Y102.360 ;extruding 
G1 X56.937 Y100.685 ;extruding 
G1 X53.255 Y97.807 ;extruding 
G1 X51.835 Y96.465 ;extruding 
G1 X50.602 Y94.833 ;extruding 
G1 X49.730 Y93.165 ;extruding 
G1 X49.064 Y91.185 ;extruding 
G1 X48.661 Y88.737 ;extruding 
FILEWRITE $hFile"\x05\x02\x30\x34\x44\x49\x20\x20\x43\x46\x03"
G1 X48.262 Y88.683 ;not extruding 
FILEWRITE $hFile"\x05\x02\x30\x34\x44\x49\x20\x20\x43\x46\x03"
DWELL 0.15
G1 X48.253 Y85.947 ;extruding 
G1 X48.683 Y83.045 ;extruding 
G1 X49.546 Y80.180 ;extruding 
G1 X49.753 Y79.731 ;extruding 
G1 X52.407 Y80.568 ;extruding 
G1 X52.243 Y82.352 ;extruding 
G1 X54.544 Y82.892 ;extruding 
G1 X58.551 Y84.530 ;extruding 
G1 X60.604 Y85.147 ;extruding 
CW X60.197 Y90.949 I7.213 J3.421 
CW X62.320 Y94.128 I6.888 J-2.302 
G1 X62.581 Y97.358 ;extruding 
G1 X64.034 Y97.505 ;extruding 
G1 X64.059 Y98.058 ;extruding 
G1 X61.272 Y100.334 ;extruding 
G1 X58.724 Y101.468 ;extruding 
G1 X57.363 Y102.200 ;extruding 
G1 X54.832 Y103.911 ;extruding 
G1 X54.608 Y103.694 ;extruding 
G1 X56.426 Y100.775 ;extruding 
G1 X53.003 Y98.099 ;extruding 
G1 X51.546 Y96.723 ;extruding 
G1 X50.275 Y95.040 ;extruding 
G1 X49.374 Y93.317 ;extruding 
G1 X48.688 Y91.278 ;extruding 
G1 X48.276 Y88.769 ;extruding 
FILEWRITE $hFile"\x05\x02\x30\x34\x44\x49\x20\x20\x43\x46\x03"
G1 X47.876 Y88.715 ;not extruding 
FILEWRITE $hFile"\x05\x02\x30\x34\x44\x49\x20\x20\x43\x46\x03"
DWELL 0.15
G1 X47.867 Y85.919 ;extruding 
G1 X48.306 Y82.961 ;extruding 
G1 X49.184 Y80.043 ;extruding 
G1 X49.546 Y79.261 ;extruding 
G1 X52.820 Y80.293 ;extruding 
G1 X52.658 Y82.053 ;extruding 
G1 X54.661 Y82.524 ;extruding 
G1 X58.679 Y84.166 ;extruding 
G1 X60.896 Y84.832 ;extruding 
G1 X61.154 Y84.867 ;extruding 
CW X60.301 Y89.732 I7.235 J3.776 
CW X62.693 Y93.952 I6.851 J-1.095 
G1 X62.940 Y97.007 ;extruding 
G1 X64.404 Y97.155 ;extruding 
G1 X64.453 Y98.234 ;extruding 
G1 X61.646 Y100.526 ;extruding 
G1 X61.658 Y100.584 ;extruding 
G1 X58.894 Y101.814 ;extruding 
G1 X57.563 Y102.530 ;extruding 
G1 X54.087 Y104.880 ;extruding 
G1 X53.483 Y105.430 ;extruding 
G1 X53.227 Y105.235 ;extruding 
G1 X53.384 Y104.929 ;extruding 
G1 X55.916 Y100.865 ;extruding 
G1 X52.751 Y98.392 ;extruding 
G1 X51.258 Y96.981 ;extruding 
G1 X49.948 Y95.247 ;extruding 
G1 X49.019 Y93.468 ;extruding 
G1 X48.313 Y91.371 ;extruding 
G1 X47.890 Y88.801 ;extruding 
FILEWRITE $hFile"\x05\x02\x30\x34\x44\x49\x20\x20\x43\x46\x03"
G1 X47.491 Y88.747 ;not extruding 
FILEWRITE $hFile"\x05\x02\x30\x34\x44\x49\x20\x20\x43\x46\x03"
DWELL 0.15
G1 X47.481 Y85.891 ;extruding 
G1 X47.929 Y82.877 ;extruding 
G1 X48.823 Y79.906 ;extruding 
G1 X50.118 Y77.104 ;extruding 
G1 X51.568 Y74.858 ;extruding 
G1 X51.878 Y75.018 ;extruding 
G1 X50.265 Y79.083 ;extruding 
G1 X53.232 Y80.019 ;extruding 
G1 X53.073 Y81.755 ;extruding 
