DVAR $hFile
DVAR $cCheck
DVAR $press
DVAR $length
DVAR $lame
DVAR $comport
DVAR $COM5
DVAR $linepressure5


G71
G76
G91 ;G90 = absolute, G91 = relative
G68

RAMP TYPE SINE X Y
VELOCITY OFF
RAMP RATE 900

$linepressure5 = 20.0000
CALL setPress5 P$COM5 Q$linepressure5

ENABLE X Y D
'HOME X Y D
G90
G0 D-80 F60
G0 X0 Y0 D0 F60
G91

;Begin Motion
'G0 X150 Y50 F60
G0 D-149.5 F60
G1 F20

FILECLOSE
$hFile = FILEOPEN "COM5", 2
COMMINIT $hFile, "baud=115200 parity=N data=8 stop=1"
COMMSETTIMEOUT $hFile, -1, -1, 1000

;
FILEWRITE $hFile"\x05\x02\x30\x38\x50\x53\x20\x20\x30\x33\x34\x30\x45\x45\x03"

; Postprocessed by [ArcWelder](https://github.com/FormerLurker/ArcWelderLib) 
; Copyright(C) 2021 - Brad Hochgesang 
; Version: 1.2.0, Branch: master, BuildDate: 2021-11-22T09:56:32D 
; resolution=0.05mm 
; path_tolerance=5.0% 
; max_radius=9999.00mm 
; default_xyz_precision=3 
; default_e_precision=5 
; extrusion_rate_variance_percent=5.0% 
; generated by Slic3r 1.3.0 on 2023-04-14 at 13:12:41 
; external perimeters extrusion width = 0.50mm (2.95mm^3/s) 
; perimeters extrusion width = 0.50mm (2.95mm^3/s) 
; infill extrusion width = 0.50mm (2.95mm^3/s) 
; solid infill extrusion width = 0.50mm (2.95mm^3/s) 
; top infill extrusion width = 0.50mm (2.95mm^3/s) 
; Filament gcode 
; CW1 ; set units to millimeters 
G90 ; use absolute coordinates 
G1 D-149.500 ;not extruding 
G1 X24.111 Y24.725 ;not extruding 
CCW X30.297 Y20.634 I13.371 J13.495 
CCW X38.611 Y18.554 I9.445 J20.096 
CCW X44.237 Y19.205 I0.495 J20.358 
CCW X48.655 Y20.646 I-3.377 J17.846 
CCW X54.490 Y24.546 I-6.670 J16.295 
CCW X57.044 Y27.403 I-42.091 J40.197 
CCW X60.205 Y33.011 I-18.669 J14.218 
CCW X61.341 Y38.583 I-19.631 J6.904 
FILEWRITE $hFile"\x05\x02\x30\x34\x44\x49\x20\x20\x43\x46\x03"
DWELL 0.15
G1 X61.396 Y38.922 ;extruding 
CCW X60.708 Y46.691 I-22.537 J1.919 
CCW X58.350 Y51.839 I-19.412 J-5.777 
CCW X55.615 Y55.596 I-15.908 J-8.707 
CCW X50.102 Y59.940 I-14.080 J-12.199 
CCW X45.072 Y61.960 I-13.136 J-25.436 
CCW X34.635 Y62.119 I-5.504 J-18.628 
G1 X34.296 Y62.066 ;extruding 
CCW X30.262 Y60.689 I4.094 J-18.591 
CCW X29.225 Y60.203 I1.202 J-3.913 
G1 X28.878 Y60.056 ;extruding 
CCW X23.254 Y55.500 I9.338 J-17.276 
CCW X20.252 Y51.426 I13.779 J-13.296 
CCW X19.696 Y50.426 I3.014 J-2.330 
G1 X19.500 Y50.108 ;extruding 
CCW X17.677 Y43.637 I16.843 J-8.237 
CCW X17.578 Y38.006 I19.223 J-3.154 
CCW X19.479 Y31.286 I17.401 J1.294 
G1 X20.167 Y29.998 ;extruding 
CW X20.694 Y29.098 I-4.679 J-3.344 
CCW X24.051 Y24.787 I22.048 J13.706 
FILEWRITE $hFile"\x05\x02\x30\x34\x44\x49\x20\x20\x43\x46\x03"
G1 X24.388 Y25.004 ;not extruding 
CCW X30.437 Y21.001 I13.072 J13.182 
CCW X38.617 Y18.947 I9.311 J19.766 
CCW X44.163 Y19.591 I0.478 J20.084 
CCW X48.502 Y21.008 I-3.293 J17.435 
CCW X55.665 Y26.403 I-7.309 J17.157 
CCW X58.212 Y29.859 I-13.531 J12.639 
FILEWRITE $hFile"\x05\x02\x30\x34\x44\x49\x20\x20\x43\x46\x03"
DWELL 0.15
G1 X58.409 Y30.137 ;extruding 
CCW X60.951 Y38.630 I-16.606 J9.597 
CCW X60.939 Y43.177 I-17.500 J2.227 
CCW X58.731 Y50.425 I-18.343 J-1.627 
CCW X56.514 Y53.938 I-28.123 J-15.292 
CCW X54.476 Y56.272 I-38.108 J-31.218 
CCW X47.974 Y60.484 I-13.625 J-13.909 
G1 X47.668 Y60.641 ;extruding 
CCW X43.899 Y61.838 I-9.127 J-22.206 
G1 X43.574 Y61.941 ;extruding 
CCW X34.712 Y61.733 I-3.992 J-18.798 
G1 X34.376 Y61.681 ;extruding 
CCW X30.412 Y60.325 I3.978 J-18.102 
CCW X29.394 Y59.847 I1.142 J-3.755 
G1 X29.054 Y59.704 ;extruding 
CCW X23.559 Y55.251 I9.121 J-16.873 
CCW X20.586 Y51.218 I13.537 J-13.091 
CCW X20.040 Y50.236 I2.930 J-2.272 
G1 X19.848 Y49.924 ;extruding 
CCW X18.070 Y43.611 I16.453 J-8.041 
CCW X17.969 Y38.044 I18.910 J-3.127 
CCW X19.392 Y32.412 I16.189 J1.095 
CCW X20.872 Y29.614 I15.682 J6.504 
CCW X23.380 Y26.112 I16.127 J8.900 
G1 X23.583 Y25.839 ;extruding 
G1 X24.327 Y25.067 ;extruding 
FILEWRITE $hFile"\x05\x02\x30\x34\x44\x49\x20\x20\x43\x46\x03"
G1 X24.664 Y25.283 ;not extruding 
CCW X30.578 Y21.368 I12.818 J12.939 
CCW X38.622 Y19.340 I9.175 J19.426 
CCW X44.089 Y19.977 I0.478 J19.679 
CCW X48.349 Y21.370 I-3.233 J17.096 
CCW X55.376 Y26.669 I-7.164 J16.809 
CCW X57.880 Y30.070 I-14.329 J13.172 
FILEWRITE $hFile"\x05\x02\x30\x34\x44\x49\x20\x20\x43\x46\x03"
DWELL 0.15
G1 X58.075 Y30.344 ;extruding 
CCW X60.561 Y38.676 I-16.295 J9.399 
CCW X59.957 Y46.458 I-21.014 J2.283 
CCW X57.662 Y51.461 I-18.868 J-5.627 
CCW X55.020 Y55.082 I-15.304 J-8.392 
CCW X49.738 Y59.244 I-12.805 J-10.818 
CCW X44.866 Y61.202 I-12.836 J-24.899 
CCW X40.239 Y61.974 I-5.673 J-19.748 
CCW X34.455 Y61.296 I-0.032 J-24.734 
CCW X30.561 Y59.961 I3.899 J-17.718 
CCW X29.562 Y59.492 I1.136 J-3.719 
G1 X29.230 Y59.352 ;extruding 
CCW X23.863 Y55.002 I8.947 J-16.525 
CCW X20.920 Y51.010 I13.270 J-12.864 
CCW X20.384 Y50.045 I2.838 J-2.208 
G1 X20.196 Y49.741 ;extruding 
CCW X18.462 Y43.585 I16.051 J-7.843 
CCW X18.360 Y38.082 I18.531 J-3.096 
CCW X19.752 Y32.568 I15.852 J1.069 
CCW X21.217 Y29.803 I15.629 J6.510 
CCW X23.683 Y26.363 I15.942 J8.824 
CCW X24.604 Y25.346 I4.441 J3.096 
FILEWRITE $hFile"\x05\x02\x30\x34\x44\x49\x20\x20\x43\x46\x03"
G1 X24.941 Y25.562 ;not extruding 
CCW X31.192 Y21.529 I12.765 J12.924 
CCW X38.627 Y19.732 I8.531 J19.017 
CCW X44.015 Y20.363 I0.454 J19.441 
CCW X48.197 Y21.732 I-3.181 J16.789 
CCW X55.088 Y26.936 I-7.026 J16.468 
CCW X57.548 Y30.281 I-13.179 J12.269 
FILEWRITE $hFile"\x05\x02\x30\x34\x44\x49\x20\x20\x43\x46\x03"
DWELL 0.15
G1 X57.741 Y30.552 ;extruding 
CCW X60.170 Y38.722 I-15.958 J9.190 
CCW X59.582 Y46.342 I-20.595 J2.243 
CCW X57.318 Y51.271 I-18.613 J-5.565 
CCW X54.723 Y54.825 I-14.906 J-8.159 
CCW X49.556 Y58.896 I-13.203 J-11.443 
CCW X44.762 Y60.822 I-12.650 J-24.557 
CCW X40.234 Y61.581 I-5.555 J-19.255 
CCW X34.865 Y60.962 I-0.454 J-19.653 
CCW X30.711 Y59.598 I3.114 J-16.492 
CCW X29.730 Y59.137 I1.127 J-3.673 
G1 X29.406 Y59.000 ;extruding 
CCW X24.168 Y54.753 I8.730 J-16.121 
CCW X21.253 Y50.802 I13.004 J-12.645 
CCW X20.728 Y49.855 I2.848 J-2.198 
G1 X20.544 Y49.557 ;extruding 
CCW X18.855 Y43.560 I15.665 J-7.648 
CCW X18.751 Y38.120 I18.226 J-3.069 
CCW X20.113 Y32.724 I15.428 J1.024 
CCW X21.561 Y29.992 I15.592 J6.514 
CCW X23.986 Y26.613 I15.655 J8.675 
CCW X24.880 Y25.625 I4.388 J3.072 
FILEWRITE $hFile"\x05\x02\x30\x34\x44\x49\x20\x20\x43\x46\x03"
G1 X25.217 Y25.841 ;not extruding 
CCW X31.359 Y21.884 I12.497 J12.652 
CCW X38.633 Y20.125 I8.368 J18.686 
CCW X43.941 Y20.749 I0.424 J19.282 
CCW X48.044 Y22.095 I-3.068 J16.278 
CCW X54.799 Y27.203 I-6.848 J16.077 
CCW X57.216 Y30.492 I-12.866 J11.987 
FILEWRITE $hFile"\x05\x02\x30\x34\x44\x49\x20\x20\x43\x46\x03"
DWELL 0.15
G1 X57.406 Y30.759 ;extruding 
CCW X59.780 Y38.768 I-15.631 J8.990 
CCW X59.765 Y43.073 I-16.368 J2.095 
CCW X56.974 Y51.082 I-17.408 J-1.576 
CCW X54.426 Y54.568 I-14.667 J-8.046 
CCW X48.208 Y59.114 I-13.147 J-11.457 
CCW X46.066 Y60.007 I-12.622 J-27.260 
CCW X40.229 Y61.188 I-7.172 J-20.430 
CCW X34.614 Y60.526 I-0.027 J-23.918 
CCW X30.860 Y59.234 I3.728 J-16.932 
CCW X29.898 Y58.781 I1.068 J-3.515 
G1 X29.581 Y58.648 ;extruding 
CCW X24.473 Y54.504 I8.552 J-15.761 
CCW X21.587 Y50.594 I12.768 J-12.444 
CCW X21.072 Y49.665 I2.839 J-2.181 
G1 X20.893 Y49.374 ;extruding 
CCW X19.247 Y43.534 I15.306 J-7.466 
CCW X19.142 Y38.157 I17.963 J-3.040 
CCW X20.886 Y31.985 I15.862 J1.150 
G1 X21.506 Y30.825 ;extruding 
CCW X22.701 Y28.869 I26.633 J14.928 
CCW X25.157 Y25.904 I18.968 J13.212 
FILEWRITE $hFile"\x05\x02\x30\x34\x44\x49\x20\x20\x43\x46\x03"
G1 X25.493 Y26.120 ;not extruding 
CCW X31.527 Y22.239 I12.463 J12.745 
CCW X38.638 Y20.518 I8.204 J18.346 
CCW X43.868 Y21.135 I0.418 J18.930 
CCW X47.891 Y22.457 I-3.025 J15.989 
CCW X53.998 Y26.867 I-6.677 J15.680 
CCW X56.317 Y29.775 I-16.899 J15.855 
CCW X58.354 Y33.673 I-16.962 J11.345 
CCW X59.442 Y39.139 I-22.149 J7.250 
CCW X58.832 Y46.109 I-20.618 J1.707 
CCW X56.629 Y50.892 I-18.188 J-5.478 
CCW X54.129 Y54.311 I-14.296 J-7.830 
CCW X48.047 Y58.755 I-12.846 J-11.197 
CCW X44.556 Y60.064 I-9.802 J-20.831 
CCW X40.224 Y60.796 I-5.497 J-19.347 
CCW X35.018 Y60.191 I-0.439 J-18.920 
CCW X31.010 Y58.871 I2.996 J-15.840 
CCW X30.066 Y58.426 I1.104 J-3.565 
FILEWRITE $hFile"\x05\x02\x30\x34\x44\x49\x20\x20\x43\x46\x03"
DWELL 0.15
G1 X29.757 Y58.296 ;extruding 
CCW X24.777 Y54.255 I8.378 J-15.414 
CCW X21.921 Y50.386 I12.507 J-12.221 
CCW X21.416 Y49.474 I2.745 J-2.116 
G1 X21.241 Y49.190 ;extruding 
CCW X19.640 Y43.508 I14.916 J-7.270 
CCW X19.533 Y38.195 I17.654 J-3.013 
CCW X21.238 Y32.160 I15.460 J1.109 
G1 X21.841 Y31.032 ;extruding 
CCW X23.025 Y29.091 I25.816 J14.416 
CCW X25.493 Y26.120 I19.322 J13.540 
FILEWRITE $hFile"\x05\x02\x30\x34\x44\x49\x20\x20\x43\x46\x03"
G1 X35.672 Y18.102 ;not extruding 
FILEWRITE $hFile"\x05\x02\x30\x34\x44\x49\x20\x20\x43\x46\x03"
DWELL 0.15
G1 X35.121 Y16.101 ;extruding 
CCW X34.785 Y14.005 I11.929 J-2.987 
CCW X34.919 Y11.227 I12.047 J-0.811 
CCW X36.189 Y16.078 I-10.204 J5.263 
G1 X36.557 Y17.964 ;extruding 
G1 X35.757 Y18.087 ;extruding 
FILEWRITE $hFile"\x05\x02\x30\x34\x44\x49\x20\x20\x43\x46\x03"
G1 X35.389 Y18.556 ;not extruding 
FILEWRITE $hFile"\x05\x02\x30\x34\x44\x49\x20\x20\x43\x46\x03"
DWELL 0.15
G1 X34.738 Y16.189 ;extruding 
G1 X34.448 Y14.614 ;extruding 
CCW X34.755 Y10.110 I12.210 J-1.430 
CCW X36.579 Y16.024 I-10.532 J6.487 
G1 X37.024 Y18.306 ;extruding 
CW X35.474 Y18.535 I1.162 J13.225 
FILEWRITE $hFile"\x05\x02\x30\x34\x44\x49\x20\x20\x43\x46\x03"
G1 X23.721 Y24.013 ;not extruding 
FILEWRITE $hFile"\x05\x02\x30\x34\x44\x49\x20\x20\x43\x46\x03"
DWELL 0.15
G1 X23.229 Y24.509 ;extruding 
G1 X21.518 Y23.215 ;extruding 
CCW X18.550 Y19.509 I7.579 J-9.111 
CCW X22.303 Y22.612 I-5.271 J10.197 
G1 X23.659 Y23.952 ;extruding 
FILEWRITE $hFile"\x05\x02\x30\x34\x44\x49\x20\x20\x43\x46\x03"
G1 X24.286 Y24.019 ;not extruding 
CW X23.270 Y25.032 I10.599 J11.646 
FILEWRITE $hFile"\x05\x02\x30\x34\x44\x49\x20\x20\x43\x46\x03"
DWELL 0.15
G1 X21.266 Y23.517 ;extruding 
CCW X17.755 Y18.701 I7.664 J-9.275 
CCW X22.591 Y22.345 I-4.535 J11.049 
G1 X24.224 Y23.958 ;extruding 
FILEWRITE $hFile"\x05\x02\x30\x34\x44\x49\x20\x20\x43\x46\x03"
G1 X16.949 Y36.557 ;not extruding 
FILEWRITE $hFile"\x05\x02\x30\x34\x44\x49\x20\x20\x43\x46\x03"
DWELL 0.15
G1 X16.852 Y37.128 ;extruding 
G1 X14.766 Y37.062 ;extruding 
CCW X10.757 Y36.033 I0.674 J-10.951 
CCW X10.125 Y35.775 I0.784 J-2.823 
CCW X14.586 Y35.935 I1.809 J11.825 
G1 X16.865 Y36.535 ;extruding 
FILEWRITE $hFile"\x05\x02\x30\x34\x44\x49\x20\x20\x43\x46\x03"
G1 X17.396 Y36.269 ;not extruding 
CW X17.217 Y37.533 I6.422 J1.554 
FILEWRITE $hFile"\x05\x02\x30\x34\x44\x49\x20\x20\x43\x46\x03"
DWELL 0.15
G1 X14.737 Y37.454 ;extruding 
CCW X11.809 Y36.889 I0.795 J-11.988 
G1 X10.098 Y36.204 ;extruding 
CCW X8.993 Y35.582 I4.930 J-10.050 
CCW X14.674 Y35.552 I2.907 J12.501 
G1 X17.312 Y36.247 ;extruding 
FILEWRITE $hFile"\x05\x02\x30\x34\x44\x49\x20\x20\x43\x46\x03"
G1 X19.008 Y50.807 ;not extruding 
FILEWRITE $hFile"\x05\x02\x30\x34\x44\x49\x20\x20\x43\x46\x03"
DWELL 0.15
G1 X19.212 Y51.221 ;extruding 
G1 X16.593 Y52.745 ;extruding 
CCW X12.885 Y53.959 I-5.467 J-10.430 
CCW X16.591 Y51.442 I8.710 J8.838 
G1 X18.857 Y50.561 ;extruding 
G1 X18.963 Y50.733 ;extruding 
FILEWRITE $hFile"\x05\x02\x30\x34\x44\x49\x20\x20\x43\x46\x03"
G1 X19.152 Y50.292 ;not extruding 
CCW X19.735 Y51.371 I-6.149 J4.019 
FILEWRITE $hFile"\x05\x02\x30\x34\x44\x49\x20\x20\x43\x46\x03"
DWELL 0.15
G1 X16.780 Y53.090 ;extruding 
CCW X11.872 Y54.458 I-5.582 J-10.537 
CCW X16.439 Y51.080 I9.772 J8.435 
G1 X19.051 Y50.065 ;extruding 
G1 X19.117 Y50.212 ;extruding 
FILEWRITE $hFile"\x05\x02\x30\x34\x44\x49\x20\x20\x43\x46\x03"
G1 X28.527 Y60.761 ;not extruding 
CCW X29.231 Y61.093 I-1.552 J4.204 
FILEWRITE $hFile"\x05\x02\x30\x34\x44\x49\x20\x20\x43\x46\x03"
DWELL 0.15
G1 X28.501 Y63.050 ;extruding 
G1 X27.827 Y64.459 ;extruding 
CCW X25.813 Y67.096 I-10.304 J-5.782 
CCW X27.638 Y62.423 I11.395 J1.758 
G1 X28.452 Y60.717 ;extruding 
FILEWRITE $hFile"\x05\x02\x30\x34\x44\x49\x20\x20\x43\x46\x03"
G1 X28.268 Y60.155 ;not extruding 
CW X29.057 Y60.558 I1.985 J-2.913 
FILEWRITE $hFile"\x05\x02\x30\x34\x44\x49\x20\x20\x43\x46\x03"
DWELL 0.15
G1 X29.719 Y60.907 ;extruding 
G1 X28.863 Y63.203 ;extruding 
G1 X28.174 Y64.644 ;extruding 
CCW X25.288 Y68.097 I-10.694 J-6.006 
CCW X27.292 Y62.237 I12.362 J0.955 
G1 X28.231 Y60.234 ;extruding 
FILEWRITE $hFile"\x05\x02\x30\x34\x44\x49\x20\x20\x43\x46\x03"
G1 X42.366 Y63.341 ;not extruding 
FILEWRITE $hFile"\x05\x02\x30\x34\x44\x49\x20\x20\x43\x46\x03"
DWELL 0.15
G1 X43.105 Y63.221 ;extruding 
G1 X43.709 Y65.259 ;extruding 
CCW X43.926 Y70.035 I-11.498 J2.915 
CCW X42.703 Y65.299 I10.220 J-5.165 
G1 X42.381 Y63.427 ;extruding 
FILEWRITE $hFile"\x05\x02\x30\x34\x44\x49\x20\x20\x43\x46\x03"
G1 X41.910 Y63.005 ;not extruding 
CW X43.382 Y62.773 I-1.687 J-15.491 
FILEWRITE $hFile"\x05\x02\x30\x34\x44\x49\x20\x20\x43\x46\x03"
DWELL 0.15
G1 X44.091 Y65.163 ;extruding 
CCW X44.096 Y71.153 I-11.853 J3.005 
CCW X42.313 Y65.348 I10.136 J-6.289 
G1 X41.925 Y63.090 ;extruding 
FILEWRITE $hFile"\x05\x02\x30\x34\x44\x49\x20\x20\x43\x46\x03"
G1 X55.088 Y57.315 ;not extruding 
FILEWRITE $hFile"\x05\x02\x30\x34\x44\x49\x20\x20\x43\x46\x03"
DWELL 0.15
G1 X55.684 Y56.715 ;extruding 
G1 X57.328 Y58.010 ;extruding 
CCW X60.330 Y61.793 I-7.633 J9.140 
CCW X56.500 Y58.651 I5.224 J-10.274 
G1 X55.151 Y57.374 ;extruding 
FILEWRITE $hFile"\x05\x02\x30\x34\x44\x49\x20\x20\x43\x46\x03"
G1 X54.517 Y57.314 ;not extruding 
CW X55.646 Y56.185 I-10.266 J-11.395 
FILEWRITE $hFile"\x05\x02\x30\x34\x44\x49\x20\x20\x43\x46\x03"
DWELL 0.15
G1 X57.583 Y57.711 ;extruding 
CCW X61.115 Y62.588 I-7.839 J9.394 
CCW X56.215 Y58.922 I4.473 J-11.087 
G1 X54.580 Y57.374 ;extruding 
FILEWRITE $hFile"\x05\x02\x30\x34\x44\x49\x20\x20\x43\x46\x03"
G1 X61.904 Y44.919 ;not extruding 
CW X62.069 Y43.874 I-8.707 J-1.910 
FILEWRITE $hFile"\x05\x02\x30\x34\x44\x49\x20\x20\x43\x46\x03"
DWELL 0.15
G1 X65.736 Y44.350 ;extruding 
CCW X68.808 Y45.445 I-2.301 J11.313 
CCW X63.811 Y45.153 I-1.844 J-11.342 
G1 X61.990 Y44.930 ;extruding 
FILEWRITE $hFile"\x05\x02\x30\x34\x44\x49\x20\x20\x43\x46\x03"
G1 X61.434 Y45.257 ;not extruding 
CW X61.712 Y43.430 I-7.815 J-2.124 
FILEWRITE $hFile"\x05\x02\x30\x34\x44\x49\x20\x20\x43\x46\x03"
DWELL 0.15
G1 X65.796 Y43.961 ;extruding 
CCW X69.930 Y45.633 I-2.401 J11.883 
CCW X63.742 Y45.540 I-2.914 J-12.053 
G1 X61.520 Y45.268 ;extruding 
FILEWRITE $hFile"\x05\x02\x30\x34\x44\x49\x20\x20\x43\x46\x03"
G1 X60.115 Y30.852 ;not extruding 
FILEWRITE $hFile"\x05\x02\x30\x34\x44\x49\x20\x20\x43\x46\x03"
DWELL 0.15
G1 X59.772 Y30.187 ;extruding 
G1 X61.523 Y28.983 ;extruding 
CCW X65.989 Y27.309 I6.245 J9.867 
CCW X61.873 Y29.927 I-8.056 J-8.121 
G1 X60.192 Y30.812 ;extruding 
FILEWRITE $hFile"\x05\x02\x30\x34\x44\x49\x20\x20\x43\x46\x03"
G1 X59.936 Y31.390 ;not extruding 
CW X59.260 Y30.062 I-14.479 J6.534 
FILEWRITE $hFile"\x05\x02\x30\x34\x44\x49\x20\x20\x43\x46\x03"
DWELL 0.15
G1 X61.315 Y28.650 ;extruding 
CCW X67.010 Y26.793 I6.520 J10.334 
CCW X62.040 Y30.283 I-9.115 J-7.696 
G1 X60.013 Y31.350 ;extruding 
FILEWRITE $hFile"\x05\x02\x30\x34\x44\x49\x20\x20\x43\x46\x03"
G1 X50.452 Y20.616 ;not extruding 
FILEWRITE $hFile"\x05\x02\x30\x34\x44\x49\x20\x20\x43\x46\x03"
DWELL 0.15
G1 X49.590 Y20.182 ;extruding 
G1 X50.815 Y17.403 ;extruding 
CCW X53.091 Y14.247 I10.559 J5.216 
CCW X51.287 Y18.860 I-11.372 J-1.788 
G1 X50.489 Y20.537 ;extruding 
FILEWRITE $hFile"\x05\x02\x30\x34\x44\x49\x20\x20\x43\x46\x03"
G1 X50.628 Y21.159 ;not extruding 
CW X49.072 Y20.384 I-6.881 J11.866 
FILEWRITE $hFile"\x05\x02\x30\x34\x44\x49\x20\x20\x43\x46\x03"
DWELL 0.15
G1 X50.461 Y17.233 ;extruding 
CCW X53.604 Y13.254 I10.891 J5.372 
CCW X51.632 Y19.047 I-11.911 J-0.823 
G1 X50.666 Y21.081 ;extruding 
FILEWRITE $hFile"\x05\x02\x30\x34\x44\x49\x20\x20\x43\x46\x03"
G1 X51.095 Y21.092 ;not extruding 
FILEWRITE $hFile"\x05\x02\x30\x34\x44\x49\x20\x20\x43\x46\x03"
DWELL 0.15
G1 X54.265 Y23.630 ;extruding 
CCW X57.392 Y27.026 I-14.832 J16.795 
G1 X59.231 Y29.605 ;extruding 
G1 X61.106 Y28.317 ;extruding 
CCW X67.850 Y26.359 I6.795 J10.810 
CCW X62.207 Y30.639 I-9.933 J-7.237 
G1 X60.379 Y31.601 ;extruding 
G1 X61.459 Y35.541 ;extruding 
CCW X61.991 Y40.118 I-21.967 J4.873 
G1 X61.965 Y43.067 ;extruding 
G1 X65.857 Y43.572 ;extruding 
CCW X70.807 Y45.772 I-2.394 J12.055 
CCW X65.743 Y46.320 I-3.816 J-11.587 
CCW X63.672 Y45.927 I0.770 J-9.711 
G1 X61.634 Y45.677 ;extruding 
G1 X60.203 Y49.463 ;extruding 
CCW X57.933 Y53.489 I-20.822 J-9.087 
G1 X56.064 Y56.014 ;extruding 
G1 X57.837 Y57.411 ;extruding 
CCW X61.783 Y63.247 I-8.311 J9.871 
CCW X55.930 Y59.193 I3.774 J-11.702 
G1 X54.437 Y57.779 ;extruding 
G1 X51.043 Y60.010 ;extruding 
CCW X46.847 Y61.934 I-11.363 J-19.244 
G1 X43.825 Y62.886 ;extruding 
G1 X44.472 Y65.068 ;extruding 
CCW X44.250 Y72.087 I-12.354 J3.122 
CCW X41.923 Y65.397 I9.938 J-7.207 
G1 X41.573 Y63.361 ;extruding 
G1 X37.492 Y63.171 ;extruding 
CCW X32.974 Y62.262 I2.131 J-22.276 
G1 X30.004 Y61.268 ;extruding 
G1 X29.224 Y63.357 ;extruding 
G1 X28.520 Y64.829 ;extruding 
CCW X24.884 Y68.889 I-10.623 J-5.855 
CCW X25.931 Y63.901 I12.215 J-0.040 
CCW X26.946 Y62.050 I9.058 J3.763 
G1 X27.818 Y60.190 ;extruding 
G1 X24.659 Y57.655 ;extruding 
CCW X21.533 Y54.250 I15.068 J-16.971 
G1 X19.784 Y51.797 ;extruding 
G1 X16.967 Y53.436 ;extruding 
CCW X11.060 Y54.888 I-5.886 J-11.205 
CCW X14.841 Y51.460 I9.892 J7.111 
CCW X16.287 Y50.718 I5.666 J9.262 
G1 X18.613 Y49.813 ;extruding 
G1 X17.478 Y45.662 ;extruding 
CCW X16.947 Y41.075 I22.002 J-4.871 
G1 X16.975 Y37.918 ;extruding 
G1 X14.709 Y37.846 ;extruding 
CCW X11.679 Y37.260 I0.823 J-12.382 
G1 X9.929 Y36.558 ;extruding 
CCW X8.093 Y35.439 I4.165 J-8.899 
CCW X14.761 Y35.169 I3.839 J12.327 
G1 X17.160 Y35.801 ;extruding 
G1 X18.680 Y31.775 ;extruding 
CCW X20.942 Y27.756 I20.651 J8.977 
G1 X22.837 Y25.197 ;extruding 
G1 X21.015 Y23.820 ;extruding 
CCW X17.076 Y18.031 I8.179 J-9.800 
CCW X22.879 Y22.077 I-3.832 J11.681 
G1 X24.352 Y23.532 ;extruding 
G1 X27.775 Y21.283 ;extruding 
CCW X31.963 Y19.365 I11.378 J19.312 
G1 X34.946 Y18.425 ;extruding 
G1 X34.355 Y16.277 ;extruding 
G1 X34.059 Y14.668 ;extruding 
CCW X34.617 Y9.233 I12.083 J-1.506 
CCW X36.703 Y13.880 I-9.847 J7.212 
CCW X36.969 Y15.971 I-9.487 J2.269 
G1 X37.361 Y17.986 ;extruding 
G1 X41.404 Y18.178 ;extruding 
CCW X45.934 Y19.092 I-2.200 J22.586 
G1 X48.791 Y20.048 ;extruding 
G1 X50.107 Y17.064 ;extruding 
CCW X54.025 Y12.415 I11.370 J5.607 
CCW X51.978 Y19.234 I-12.282 J0.030 
G1 X51.132 Y21.013 ;extruding 
FILEWRITE $hFile"\x05\x02\x30\x34\x44\x49\x20\x20\x43\x46\x03"
G1 X51.583 Y20.980 ;not extruding 
FILEWRITE $hFile"\x05\x02\x30\x34\x44\x49\x20\x20\x43\x46\x03"
DWELL 0.15
G1 X54.524 Y23.334 ;extruding 
CCW X57.706 Y26.791 I-15.061 J17.056 
G1 X59.327 Y29.063 ;extruding 
G1 X60.898 Y27.983 ;extruding 
CCW X68.591 Y25.982 I7.013 J11.175 
G1 X68.473 Y26.190 ;extruding 
CCW X62.374 Y30.995 I-10.617 J-7.203 
G1 X60.841 Y31.802 ;extruding 
G1 X61.842 Y35.453 ;extruding 
CCW X62.383 Y40.114 I-22.225 J4.942 
G1 X62.361 Y42.724 ;extruding 
G1 X65.917 Y43.184 ;extruding 
CCW X71.649 Y45.922 I-2.509 J12.621 
G1 X70.064 Y46.414 ;extruding 
CCW X63.602 Y46.314 I-3.034 J-12.796 
G1 X61.893 Y46.105 ;extruding 
G1 X60.564 Y49.617 ;extruding 
CCW X58.253 Y53.716 I-21.092 J-9.190 
G1 X56.606 Y55.941 ;extruding 
CCW X58.967 Y57.915 I-11.933 J16.672 
CCW X62.358 Y63.829 I-9.236 J9.225 
G1 X62.117 Y63.780 ;extruding 
CCW X55.645 Y59.464 I3.548 J-12.331 
G1 X54.392 Y58.278 ;extruding 
G1 X51.245 Y60.348 ;extruding 
CCW X46.973 Y62.306 I-11.609 J-19.689 
G1 X44.312 Y63.145 ;extruding 
G1 X44.853 Y64.972 ;extruding 
CCW X44.379 Y72.908 I-12.769 J3.219 
G1 X44.218 Y72.731 ;extruding 
CCW X41.533 Y65.445 I10.123 J-7.868 
G1 X41.239 Y63.738 ;extruding 
G1 X37.457 Y63.562 ;extruding 
CCW X32.858 Y62.637 I2.163 J-22.647 
G1 X30.239 Y61.761 ;extruding 
CCW X28.538 Y65.572 I-17.600 J-5.571 
CCW X24.482 Y69.647 I-10.955 J-6.848 
G1 X24.505 Y67.982 ;extruding 
CCW X26.600 Y61.864 I13.076 J1.060 
G1 X27.331 Y60.303 ;extruding 
G1 X24.400 Y57.951 ;extruding 
CCW X21.218 Y54.484 I15.406 J-17.333 
G1 X19.672 Y52.316 ;extruding 
G1 X17.154 Y53.781 ;extruding 
CCW X10.305 Y55.242 I-5.992 J-11.307 
G1 X11.295 Y53.918 ;extruding 
CCW X16.135 Y50.356 I10.817 J9.629 
G1 X18.141 Y49.576 ;extruding 
G1 X17.095 Y45.750 ;extruding 
CCW X16.554 Y41.079 I22.358 J-4.956 
G1 X16.579 Y38.298 ;extruding 
CCW X13.507 Y38.105 I-0.350 J-18.970 
CCW X10.341 Y37.136 I1.872 J-11.774 
CCW X7.259 Y35.303 I4.017 J-10.262 
CCW X14.848 Y34.786 I4.663 J12.497 
G1 X16.918 Y35.331 ;extruding 
G1 X18.318 Y31.621 ;extruding 
CCW X20.622 Y27.529 I21.076 J9.172 
G1 X22.290 Y25.275 ;extruding 
G1 X20.764 Y24.122 ;extruding 
CCW X16.488 Y17.441 I8.445 J-10.114 
G1 X16.712 Y17.487 ;extruding 
CCW X23.167 Y21.809 I-3.594 J12.349 
G1 X24.402 Y23.030 ;extruding 
G1 X27.574 Y20.945 ;extruding 
CCW X31.838 Y18.993 I11.559 J19.616 
G1 X34.467 Y18.164 ;extruding 
CCW X33.609 Y14.076 I17.871 J-5.885 
CCW X34.499 Y8.386 I12.825 J-0.909 
G1 X35.457 Y9.741 ;extruding 
CCW X37.359 Y15.918 I-11.217 J6.835 
G1 X37.688 Y17.608 ;extruding 
G1 X41.439 Y17.786 ;extruding 
CCW X46.051 Y18.717 I-2.221 J22.890 
G1 X48.576 Y19.562 ;extruding 
G1 X49.752 Y16.894 ;extruding 
CCW X54.401 Y11.681 I11.746 J5.796 
G1 X54.429 Y11.933 ;extruding 
CCW X52.324 Y19.422 I-12.845 J0.430 
G1 X51.621 Y20.901 ;extruding 
FILEWRITE $hFile"\x05\x02\x30\x34\x44\x49\x20\x20\x43\x46\x03"
G1 X52.071 Y20.867 ;not extruding 
FILEWRITE $hFile"\x05\x02\x30\x34\x44\x49\x20\x20\x43\x46\x03"
DWELL 0.15
G1 X54.783 Y23.038 ;extruding 
CCW X58.021 Y26.556 I-15.439 J17.459 
G1 X59.423 Y28.521 ;extruding 
CCW X67.936 Y25.572 I8.656 J11.226 
G1 X68.868 Y25.605 ;extruding 
G1 X69.073 Y25.955 ;extruding 
CCW X62.541 Y31.351 I-11.129 J-6.820 
G1 X61.303 Y32.002 ;extruding 
G1 X62.225 Y35.365 ;extruding 
CCW X62.756 Y42.380 I-27.776 J5.630 
G1 X65.978 Y42.795 ;extruding 
CCW X72.077 Y45.753 I-2.656 J13.243 
G1 X71.998 Y46.202 ;extruding 
G1 X71.773 Y46.295 ;extruding 
G1 X70.161 Y46.795 ;extruding 
CCW X64.654 Y46.970 I-3.224 J-14.715 
CW X62.151 Y46.532 I-3.172 J10.756 
G1 X60.926 Y49.772 ;extruding 
CCW X57.149 Y55.869 I-26.439 J-12.160 
CCW X61.305 Y60.307 I-8.817 J12.422 
CCW X62.806 Y63.978 I-11.271 J6.751 
G1 X62.536 Y64.280 ;extruding 
CCW X61.029 Y63.814 I1.256 J-6.731 
G1 X60.906 Y63.786 ;extruding 
G1 X59.945 Y63.351 ;extruding 
G1 X59.826 Y63.312 ;extruding 
CCW X55.360 Y59.735 I5.691 J-11.682 
G1 X54.348 Y58.777 ;extruding 
G1 X51.447 Y60.685 ;extruding 
CCW X47.099 Y62.678 I-11.865 J-20.147 
G1 X44.798 Y63.403 ;extruding 
CCW X44.972 Y72.412 I-13.400 J4.765 
G1 X44.652 Y73.288 ;extruding 
G1 X44.256 Y73.374 ;extruding 
CCW X41.143 Y65.494 I9.928 J-8.477 
G1 X40.906 Y64.116 ;extruding 
G1 X37.422 Y63.954 ;extruding 
CCW X30.474 Y62.254 I3.341 J-28.702 
CCW X28.234 Y66.707 I-15.285 J-4.899 
CCW X24.507 Y70.105 I-10.783 J-8.084 
G1 X24.108 Y69.893 ;extruding 
G1 X24.088 Y69.646 ;extruding 
G1 X24.112 Y67.956 ;extruding 
CCW X26.253 Y61.677 I13.461 J1.086 
G1 X26.844 Y60.416 ;extruding 
G1 X24.141 Y58.247 ;extruding 
CCW X19.560 Y52.836 I19.591 J-21.231 
G1 X17.341 Y54.127 ;extruding 
CCW X10.056 Y55.628 I-6.231 J-11.815 
G1 X9.857 Y55.221 ;extruding 
G1 X9.982 Y55.017 ;extruding 
G1 X10.992 Y53.667 ;extruding 
CCW X15.983 Y49.993 I10.604 J9.178 
G1 X17.669 Y49.338 ;extruding 
G1 X16.711 Y45.837 ;extruding 
CCW X16.183 Y38.678 I28.519 J-5.702 
CCW X11.419 Y38.002 I-0.294 J-15.050 
G1 X9.589 Y37.267 ;extruding 
CCW X6.832 Y35.463 I6.036 J-12.233 
G1 X6.876 Y35.052 ;extruding 
CCW X7.441 Y34.812 I1.440 J2.605 
CCW X14.936 Y34.403 I4.469 J13.018 
G1 X16.676 Y34.861 ;extruding 
G1 X17.957 Y31.466 ;extruding 
CCW X20.301 Y27.302 I21.306 J9.252 
G1 X21.743 Y25.354 ;extruding 
CCW X16.038 Y17.264 I7.612 J-11.424 
G1 X16.307 Y16.989 ;extruding 
CCW X23.455 Y21.542 I-3.071 J12.709 
G1 X24.452 Y22.527 ;extruding 
G1 X27.372 Y20.608 ;extruding 
CCW X33.988 Y17.903 I14.180 J25.239 
CCW X33.187 Y12.977 I15.553 J-5.057 
CCW X34.206 Y8.031 I13.503 J0.204 
G1 X34.657 Y7.967 ;extruding 
G1 X34.816 Y8.152 ;extruding 
G1 X35.789 Y9.531 ;extruding 
CCW X37.658 Y14.714 I-13.021 J7.624 
CW X38.014 Y17.231 I11.142 J-0.292 
G1 X41.475 Y17.395 ;extruding 
CCW X48.361 Y19.076 I-3.308 J28.495 
G1 X49.398 Y16.725 ;extruding 
CCW X54.403 Y11.216 I12.072 J5.939 
G1 X54.775 Y11.380 ;extruding 
CCW X54.798 Y12.957 I-6.792 J0.888 
G1 X54.809 Y13.082 ;extruding 
G1 X54.692 Y14.131 ;extruding 
G1 X54.692 Y14.256 ;extruding 
CCW X52.670 Y19.609 I-12.844 J-1.793 
G1 X52.109 Y20.789 ;extruding 
FILEWRITE $hFile"\x05\x02\x30\x34\x44\x49\x20\x20\x43\x46\x03"
G1 X52.560 Y20.755 ;not extruding 
FILEWRITE $hFile"\x05\x02\x30\x34\x44\x49\x20\x20\x43\x46\x03"
DWELL 0.15
G1 X55.041 Y22.741 ;extruding 
CCW X59.518 Y27.979 I-18.667 J20.487 
CCW X69.125 Y25.235 I8.377 J11.138 
CW X69.524 Y25.977 I5.688 J-2.580 
CCW X68.493 Y27.458 I-7.282 J-3.970 
G1 X68.420 Y27.578 ;extruding 
G1 X67.697 Y28.370 ;extruding 
G1 X67.614 Y28.483 ;extruding 
CCW X62.708 Y31.707 I-9.605 J-9.271 
G1 X61.765 Y32.203 ;extruding 
G1 X62.608 Y35.278 ;extruding 
CCW X63.152 Y42.037 I-25.160 J5.426 
CW X66.039 Y42.406 I5.757 J-33.561 
CCW X72.502 Y45.605 I-2.704 J13.592 
G1 X72.348 Y46.481 ;extruding 
G1 X71.907 Y46.665 ;extruding 
G1 X70.258 Y47.176 ;extruding 
CCW X64.575 Y47.355 I-3.321 J-15.134 
CW X62.409 Y46.959 I-2.819 J9.299 
G1 X61.287 Y49.927 ;extruding 
CCW X57.691 Y55.796 I-25.336 J-11.487 
CCW X63.236 Y64.108 I-8.163 J11.451 
G1 X62.654 Y64.715 ;extruding 
CCW X55.075 Y60.006 I2.918 J-13.149 
G1 X54.304 Y59.276 ;extruding 
G1 X51.648 Y61.022 ;extruding 
CCW X45.284 Y63.662 I-13.712 J-24.063 
CCW X44.925 Y73.646 I-13.176 J4.525 
CCW X44.096 Y73.797 I-1.862 J-7.871 
CCW X43.006 Y72.358 I6.091 J-5.746 
G1 X42.914 Y72.252 ;extruding 
CCW X40.753 Y65.543 I11.344 J-7.357 
G1 X40.572 Y64.493 ;extruding 
G1 X37.387 Y64.345 ;extruding 
CCW X30.710 Y62.746 I3.041 J-27.438 
CCW X26.199 Y69.388 I-13.862 J-4.562 
G1 X24.938 Y70.307 ;extruding 
G1 X24.516 Y70.555 ;extruding 
G1 X23.733 Y70.139 ;extruding 
G1 X23.695 Y69.659 ;extruding 
G1 X23.720 Y67.930 ;extruding 
CCW X25.310 Y62.466 I15.351 J1.504 
CW X26.358 Y60.529 I-8.163 J-5.669 
G1 X23.882 Y58.542 ;extruding 
CCW X19.448 Y53.355 I18.778 J-20.540 
G1 X17.528 Y54.473 ;extruding 
CCW X9.800 Y55.999 I-6.417 J-12.168 
G1 X9.409 Y55.202 ;extruding 
G1 X9.656 Y54.797 ;extruding 
G1 X10.690 Y53.415 ;extruding 
CCW X17.197 Y49.100 I11.010 J9.540 
G1 X16.328 Y45.924 ;extruding 
CCW X15.787 Y39.059 I27.275 J-5.603 
CCW X11.289 Y38.373 I-0.177 J-13.932 
G1 X9.420 Y37.621 ;extruding 
CCW X6.411 Y35.613 I6.035 J-12.303 
G1 X6.526 Y34.771 ;extruding 
CCW X13.194 Y33.729 I5.417 J12.811 
CCW X16.433 Y34.391 I-1.656 J16.358 
G1 X17.595 Y31.312 ;extruding 
CCW X21.196 Y25.433 I25.352 J11.486 
CCW X15.603 Y17.146 I7.979 J-11.416 
G1 X16.192 Y16.555 ;extruding 
CCW X23.742 Y21.274 I-2.966 J13.145 
G1 X24.502 Y22.024 ;extruding 
G1 X27.171 Y20.270 ;extruding 
CCW X33.509 Y17.643 I13.707 J24.111 
CCW X33.024 Y10.659 I14.205 J-4.495 
CCW X33.934 Y7.673 I13.154 J2.377 
G1 X34.815 Y7.548 ;extruding 
G1 X35.126 Y7.911 ;extruding 
G1 X36.122 Y9.321 ;extruding 
CCW X38.048 Y14.671 I-13.370 J7.835 
CW X38.341 Y16.853 I9.686 J-0.190 
G1 X41.510 Y17.003 ;extruding 
CCW X48.146 Y18.590 I-2.689 J25.911 
G1 X49.043 Y16.556 ;extruding 
CCW X54.387 Y10.763 I12.472 J6.144 
CCW X55.153 Y11.133 I-3.635 J8.502 
CCW X53.015 Y19.797 I-13.418 J1.285 
G1 X52.597 Y20.677 ;extruding 
FILEWRITE $hFile"\x05\x02\x30\x34\x44\x49\x20\x20\x43\x46\x03"
G1 X53.048 Y20.643 ;not extruding 
FILEWRITE $hFile"\x05\x02\x30\x34\x44\x49\x20\x20\x43\x46\x03"
DWELL 0.15
G1 X55.300 Y22.445 ;extruding 
CCW X59.614 Y27.436 I-16.978 J19.035 
CCW X69.383 Y24.868 I8.267 J11.582 
CW X69.973 Y26.002 I12.917 J-6.000 
CCW X62.874 Y32.063 I-12.044 J-6.919 
G1 X62.227 Y32.403 ;extruding 
G1 X62.991 Y35.190 ;extruding 
CCW X63.548 Y41.693 I-24.619 J5.384 
CW X66.099 Y42.017 I4.929 J-28.604 
CCW X72.927 Y45.456 I-2.782 J14.021 
G1 X72.698 Y46.761 ;extruding 
G1 X72.041 Y47.035 ;extruding 
G1 X70.355 Y47.557 ;extruding 
CCW X64.496 Y47.740 I-3.393 J-14.732 
CW X62.668 Y47.386 I-2.470 J7.858 
G1 X61.648 Y50.082 ;extruding 
CCW X58.233 Y55.723 I-23.243 J-10.217 
CCW X63.666 Y64.239 I-8.597 J11.476 
CCW X62.769 Y65.150 I-12.265 J-11.179 
CCW X54.790 Y60.277 I2.835 J-13.611 
G1 X54.260 Y59.775 ;extruding 
G1 X51.850 Y61.360 ;extruding 
CCW X45.770 Y63.920 I-12.827 J-21.963 
CCW X45.194 Y74.005 I-13.575 J4.284 
CW X44.384 Y74.153 I0.239 J3.597 
G1 X43.933 Y74.216 ;extruding 
CCW X40.363 Y65.592 I10.299 J-9.314 
G1 X40.239 Y64.871 ;extruding 
G1 X37.352 Y64.737 ;extruding 
CCW X30.945 Y63.239 I2.514 J-25.203 
G1 X30.672 Y63.972 ;extruding 
G1 X29.908 Y65.569 ;extruding 
CCW X24.526 Y71.004 I-12.370 J-6.867 
G1 X23.359 Y70.385 ;extruding 
G1 X23.302 Y69.672 ;extruding 
G1 X23.327 Y67.904 ;extruding 
CCW X24.968 Y62.271 I15.867 J1.567 
CW X25.871 Y60.642 I-6.781 J-4.824 
G1 X23.623 Y58.838 ;extruding 
CCW X19.337 Y53.875 I16.928 J-18.951 
CCW X16.423 Y55.420 I-9.962 J-15.268 
CCW X9.544 Y56.369 I-5.302 J-13.028 
G1 X8.955 Y55.192 ;extruding 
G1 X9.331 Y54.577 ;extruding 
G1 X10.388 Y53.164 ;extruding 
CCW X16.725 Y48.862 I11.283 J9.802 
G1 X15.945 Y46.012 ;extruding 
CCW X15.391 Y39.439 I24.798 J-5.400 
CCW X9.925 Y38.239 I0.042 J-13.242 
CCW X5.986 Y35.760 I4.551 J-11.600 
G1 X6.177 Y34.491 ;extruding 
CCW X11.870 Y33.299 I5.514 J12.145 
G1 X12.027 Y33.279 ;extruding 
CCW X16.191 Y33.921 I-0.155 J14.833 
G1 X17.234 Y31.157 ;extruding 
CCW X20.649 Y25.512 I23.274 J10.224 
CCW X15.177 Y17.020 I8.426 J-11.439 
G1 X16.076 Y16.120 ;extruding 
CCW X24.030 Y21.006 I-2.876 J13.599 
G1 X24.552 Y21.522 ;extruding 
G1 X26.969 Y19.933 ;extruding 
CCW X33.030 Y17.382 I12.802 J21.940 
G1 X32.822 Y16.628 ;extruding 
G1 X32.502 Y14.884 ;extruding 
CCW X33.662 Y7.315 I14.064 J-1.718 
G1 X34.973 Y7.129 ;extruding 
G1 X35.436 Y7.669 ;extruding 
G1 X36.454 Y9.112 ;extruding 
CCW X38.439 Y14.628 I-12.882 J7.751 
CW X38.667 Y16.475 I8.236 J-0.079 
G1 X41.546 Y16.612 ;extruding 
CCW X47.931 Y18.104 I-2.546 J25.305 
CCW X49.380 Y15.137 I17.199 J6.562 
CCW X54.381 Y10.315 I12.110 J7.555 
CW X55.530 Y10.889 I7.383 J-13.341 
CCW X53.361 Y19.984 I-13.820 J1.510 
G1 X53.085 Y20.564 ;extruding 
FILEWRITE $hFile"\x05\x02\x30\x34\x44\x49\x20\x20\x43\x46\x03"
G1 X53.536 Y20.531 ;not extruding 
FILEWRITE $hFile"\x05\x02\x30\x34\x44\x49\x20\x20\x43\x46\x03"
DWELL 0.15
G1 X55.558 Y22.149 ;extruding 
CCW X59.709 Y26.894 I-16.404 J18.539 
CCW X69.641 Y24.502 I8.168 J12.099 
CW X70.116 Y25.400 I4.123 J-1.606 
G1 X70.422 Y26.026 ;extruding 
CCW X63.041 Y32.419 I-12.727 J-7.236 
G1 X62.689 Y32.604 ;extruding 
G1 X63.374 Y35.103 ;extruding 
CCW X63.943 Y41.350 I-24.087 J5.343 
CW X66.160 Y41.628 I4.368 J-25.858 
CCW X73.351 Y45.308 I-2.852 J14.439 
G1 X73.080 Y46.856 ;extruding 
G1 X73.066 Y47.029 ;extruding 
G1 X72.175 Y47.404 ;extruding 
G1 X70.451 Y47.938 ;extruding 
CCW X64.416 Y48.125 I-3.487 J-15.057 
CW X62.926 Y47.814 I-2.088 J6.277 
G1 X62.010 Y50.236 ;extruding 
CCW X58.776 Y55.651 I-22.883 J-9.993 
CCW X64.096 Y64.370 I-9.132 J11.554 
CW X63.386 Y65.100 I2.978 J3.607 
G1 X62.885 Y65.585 ;extruding 
CW X61.746 Y65.315 I-1.743 J4.814 
G1 X60.701 Y64.948 ;extruding 
G1 X60.528 Y64.908 ;extruding 
G1 X59.519 Y64.451 ;extruding 
G1 X59.351 Y64.397 ;extruding 
G1 X58.386 Y63.853 ;extruding 
G1 X58.224 Y63.784 ;extruding 
G1 X57.310 Y63.158 ;extruding 
G1 X57.155 Y63.075 ;extruding 
G1 X56.299 Y62.371 ;extruding 
G1 X56.152 Y62.274 ;extruding 
G1 X55.362 Y61.498 ;extruding 
G1 X55.224 Y61.390 ;extruding 
CW X54.216 Y60.274 I-5.666 J4.104 
G1 X52.052 Y61.697 ;extruding 
CCW X46.256 Y64.179 I-12.587 J-21.384 
CCW X45.462 Y74.363 I-14.020 J4.030 
CW X44.461 Y74.538 I0.268 J4.481 
G1 X43.771 Y74.636 ;extruding 
CCW X39.972 Y65.641 I10.533 J-9.748 
G1 X39.905 Y65.249 ;extruding 
G1 X37.317 Y65.128 ;extruding 
CCW X31.180 Y63.732 I2.381 J-24.654 
G1 X31.034 Y64.125 ;extruding 
G1 X30.255 Y65.754 ;extruding 
CCW X24.536 Y71.454 I-12.773 J-7.097 
G1 X23.146 Y70.717 ;extruding 
G1 X22.990 Y70.651 ;extruding 
G1 X22.909 Y69.684 ;extruding 
G1 X22.935 Y67.879 ;extruding 
CCW X24.627 Y62.077 I15.382 J1.338 
CW X25.384 Y60.755 I-5.537 J-4.048 
G1 X23.364 Y59.134 ;extruding 
CCW X19.225 Y54.394 I16.570 J-18.646 
CCW X9.288 Y56.739 I-8.158 J-12.344 
CW X8.503 Y55.187 I-16.027 J7.132 
G1 X9.005 Y54.356 ;extruding 
G1 X10.086 Y52.912 ;extruding 
CCW X16.253 Y48.625 I11.527 J10.002 
G1 X15.562 Y46.099 ;extruding 
CCW X14.995 Y39.819 I24.200 J-5.351 
CCW X11.029 Y39.116 I0.459 J-14.128 
G1 X9.080 Y38.330 ;extruding 
CCW X5.562 Y35.907 I6.425 J-13.094 
CCW X5.827 Y34.211 I26.412 J3.258 
CCW X15.949 Y33.451 I6.099 J13.451 
G1 X16.873 Y31.003 ;extruding 
CCW X20.102 Y25.591 I22.768 J9.915 
CCW X14.752 Y16.894 I8.965 J-11.509 
G1 X15.961 Y15.685 ;extruding 
CCW X24.318 Y20.739 I-2.808 J14.079 
G1 X24.602 Y21.019 ;extruding 
G1 X26.767 Y19.596 ;extruding 
CCW X32.551 Y17.121 I12.580 J21.402 
G1 X32.439 Y16.716 ;extruding 
G1 X32.112 Y14.938 ;extruding 
CCW X33.389 Y6.957 I14.530 J-1.768 
G1 X34.945 Y6.737 ;extruding 
G1 X35.114 Y6.696 ;extruding 
G1 X35.746 Y7.427 ;extruding 
G1 X36.787 Y8.902 ;extruding 
CCW X38.829 Y14.584 I-13.322 J7.996 
CW X38.994 Y16.098 I6.792 J0.026 
G1 X41.581 Y16.220 ;extruding 
CCW X47.716 Y17.618 I-2.434 J24.840 
CCW X54.376 Y9.868 I13.928 J5.233 
CW X55.292 Y10.318 I2.538 J-4.010 
G1 X55.908 Y10.645 ;extruding 
CW X56.003 Y11.811 I5.286 J0.156 
G1 X55.977 Y12.919 ;extruding 
G1 X55.993 Y13.095 ;extruding 
G1 X55.870 Y14.196 ;extruding 
G1 X55.870 Y14.373 ;extruding 
G1 X55.651 Y15.459 ;extruding 
G1 X55.636 Y15.635 ;extruding 
G1 X55.322 Y16.697 ;extruding 
G1 X55.291 Y16.870 ;extruding 
G1 X54.886 Y17.901 ;extruding 
G1 X54.840 Y18.071 ;extruding 
G1 X54.346 Y19.062 ;extruding 
G1 X54.285 Y19.227 ;extruding 
CW X53.573 Y20.452 I5.594 J4.071 
FILEWRITE $hFile"\x05\x02\x30\x34\x44\x49\x20\x20\x43\x46\x03"
G1 X53.197 Y21.001 ;not extruding 
G1 X58.513 Y21.847 ;not extruding 
G1 X44.866 Y37.721 ;not extruding 
FILEWRITE $hFile"\x05\x02\x30\x34\x44\x49\x20\x20\x43\x46\x03"
DWELL 0.15
G1 X44.866 Y43.577 ;extruding 
G1 X42.054 Y43.577 ;extruding 
CCW X42.054 Y37.721 I-2.620 J-2.928 
G1 X44.779 Y37.721 ;extruding 
FILEWRITE $hFile"\x05\x02\x30\x34\x44\x49\x20\x20\x43\x46\x03"
G1 X44.474 Y38.114 ;not extruding 
FILEWRITE $hFile"\x05\x02\x30\x34\x44\x49\x20\x20\x43\x46\x03"
DWELL 0.15
G1 X44.474 Y43.185 ;extruding 
G1 X41.901 Y43.185 ;extruding 
CCW X41.901 Y38.114 I-2.466 J-2.535 
G1 X44.387 Y38.114 ;extruding 
FILEWRITE $hFile"\x05\x02\x30\x34\x44\x49\x20\x20\x43\x46\x03"
G1 X44.081 Y38.507 ;not extruding 
FILEWRITE $hFile"\x05\x02\x30\x34\x44\x49\x20\x20\x43\x46\x03"
DWELL 0.15
G1 X44.081 Y42.792 ;extruding 
G1 X41.726 Y42.792 ;extruding 
CCW X41.726 Y38.507 I-2.294 J-2.142 
G1 X43.994 Y38.507 ;extruding 
FILEWRITE $hFile"\x05\x02\x30\x34\x44\x49\x20\x20\x43\x46\x03"
G1 X43.688 Y38.899 ;not extruding 
FILEWRITE $hFile"\x05\x02\x30\x34\x44\x49\x20\x20\x43\x46\x03"
DWELL 0.15
G1 X43.688 Y42.399 ;extruding 
G1 X41.550 Y42.399 ;extruding 
CCW X41.550 Y38.899 I-2.116 J-1.750 
CCW X44.268 Y38.920 I1.026 J43.175 
FILEWRITE $hFile"\x05\x02\x30\x34\x44\x49\x20\x20\x43\x46\x03"
G1 X45.061 Y37.527 ;not extruding 
FILEWRITE $hFile"\x05\x02\x30\x34\x44\x49\x20\x20\x43\x46\x03"
DWELL 0.15
G1 X45.061 Y43.772 ;extruding 
G1 X42.207 Y43.772 ;extruding 
CCW X39.517 Y44.768 I-2.984 J-3.930 
CCW X41.441 Y37.049 I-0.078 J-4.119 
G1 X42.207 Y37.527 ;extruding 
G1 X44.974 Y37.527 ;extruding 
FILEWRITE $hFile"\x05\x02\x30\x34\x44\x49\x20\x20\x43\x46\x03"
G1 X45.453 Y37.135 ;not extruding 
FILEWRITE $hFile"\x05\x02\x30\x34\x44\x49\x20\x20\x43\x46\x03"
DWELL 0.15
G1 X45.453 Y44.164 ;extruding 
G1 X42.320 Y44.164 ;extruding 
CCW X36.477 Y44.055 I-2.854 J-3.682 
CCW X41.630 Y36.704 I2.961 J-3.406 
G1 X42.320 Y37.135 ;extruding 
G1 X45.366 Y37.135 ;extruding 
FILEWRITE $hFile"\x05\x02\x30\x34\x44\x49\x20\x20\x43\x46\x03"
G1 X45.846 Y36.742 ;not extruding 
FILEWRITE $hFile"\x05\x02\x30\x34\x44\x49\x20\x20\x43\x46\x03"
DWELL 0.15
G1 X45.846 Y44.557 ;extruding 
G1 X42.432 Y44.557 ;extruding 
CCW X42.432 Y36.742 I-2.984 J-3.907 
G1 X45.759 Y36.742 ;extruding 
FILEWRITE $hFile"\x05\x02\x30\x34\x44\x49\x20\x20\x43\x46\x03"
G1 X46.239 Y36.349 ;not extruding 
FILEWRITE $hFile"\x05\x02\x30\x34\x44\x49\x20\x20\x43\x46\x03"
DWELL 0.15
G1 X46.239 Y44.950 ;extruding 
G1 X42.545 Y44.950 ;extruding 
CCW X42.545 Y36.349 I-3.103 J-4.301 
G1 X46.152 Y36.349 ;extruding 
FILEWRITE $hFile"\x05\x02\x30\x34\x44\x49\x20\x20\x43\x46\x03"
G1 X45.936 Y36.844 ;not extruding 
G1 X60.288 Y24.021 ;not extruding 
G1 X60.280 Y30.314 ;not extruding 
FILEWRITE $hFile"\x05\x02\x30\x34\x44\x49\x20\x20\x43\x46\x03"
DWELL 0.15
G1 X61.732 Y29.316 ;extruding 
G1 X62.200 Y29.050 ;extruding 
G1 X61.648 Y29.602 ;extruding 
CW X62.819 Y29.087 I-2.397 J-7.039 
G1 X63.495 Y28.411 ;extruding 
G1 X64.514 Y28.049 ;extruding 
FILEWRITE $hFile"\x05\x02\x30\x34\x44\x49\x20\x20\x43\x46\x03"
G1 X60.319 Y30.182 ;not extruding 
G1 X59.444 Y29.734 ;not extruding 
G1 X58.340 Y28.769 ;not extruding 
G1 X55.272 Y25.000 ;not extruding 
G1 X51.530 Y21.780 ;not extruding 
G1 X50.194 Y19.926 ;not extruding 
G1 X50.269 Y20.085 ;not extruding 
FILEWRITE $hFile"\x05\x02\x30\x34\x44\x49\x20\x20\x43\x46\x03"
DWELL 0.15
G1 X50.794 Y18.982 ;extruding 
G1 X50.355 Y19.421 ;extruding 
G1 X50.811 Y18.387 ;extruding 
G1 X51.543 Y17.654 ;extruding 
CW X52.031 Y16.588 I-5.651 J-3.232 
G1 X51.301 Y17.319 ;extruding 
CCW X52.342 Y15.699 I8.981 J4.627 
FILEWRITE $hFile"\x05\x02\x30\x34\x44\x49\x20\x20\x43\x46\x03"
G1 X50.194 Y19.926 ;not extruding 
G1 X49.378 Y20.069 ;not extruding 
G1 X47.747 Y19.947 ;not extruding 
G1 X42.975 Y18.657 ;not extruding 
G1 X38.193 Y18.294 ;not extruding 
G1 X35.921 Y17.601 ;not extruding 
G1 X36.093 Y17.639 ;not extruding 
FILEWRITE $hFile"\x05\x02\x30\x34\x44\x49\x20\x20\x43\x46\x03"
DWELL 0.15
G1 X36.000 Y17.158 ;extruding 
G1 X35.858 Y17.300 ;extruding 
G1 X35.734 Y16.850 ;extruding 
G1 X35.906 Y16.678 ;extruding 
G1 X35.813 Y16.198 ;extruding 
G1 X35.611 Y16.400 ;extruding 
CCW X35.492 Y15.945 I2.249 J-0.831 
G1 X35.764 Y15.673 ;extruding 
G1 X35.722 Y15.141 ;extruding 
G1 X35.403 Y15.460 ;extruding 
G1 X35.314 Y14.976 ;extruding 
G1 X35.649 Y14.641 ;extruding 
G1 X35.555 Y14.161 ;extruding 
G1 X35.226 Y14.490 ;extruding 
G1 X35.177 Y13.965 ;extruding 
G1 X35.434 Y13.708 ;extruding 
G1 X35.312 Y13.255 ;extruding 
G1 X35.162 Y13.406 ;extruding 
G1 X35.162 Y12.832 ;extruding 
FILEWRITE $hFile"\x05\x02\x30\x34\x44\x49\x20\x20\x43\x46\x03"
G1 X35.921 Y17.601 ;not extruding 
G1 X34.494 Y18.752 ;not extruding 
G1 X29.386 Y20.749 ;not extruding 
G1 X25.272 Y23.305 ;not extruding 
G1 X23.062 Y24.035 ;not extruding 
G1 X22.755 Y23.736 ;not extruding 
G1 X22.960 Y23.813 ;not extruding 
FILEWRITE $hFile"\x05\x02\x30\x34\x44\x49\x20\x20\x43\x46\x03"
DWELL 0.15
G1 X22.670 Y23.526 ;extruding 
G1 X22.632 Y23.565 ;extruding 
G1 X22.303 Y23.316 ;extruding 
G1 X22.380 Y23.240 ;extruding 
G1 X22.090 Y22.953 ;extruding 
G1 X21.975 Y23.068 ;extruding 
G1 X21.656 Y22.810 ;extruding 
G1 X21.818 Y22.648 ;extruding 
G1 X21.552 Y22.337 ;extruding 
G1 X21.354 Y22.535 ;extruding 
G1 X21.053 Y22.260 ;extruding 
G1 X21.277 Y22.035 ;extruding 
G1 X20.985 Y21.751 ;extruding 
G1 X20.774 Y21.962 ;extruding 
G1 X20.497 Y21.662 ;extruding 
G1 X20.693 Y21.466 ;extruding 
G1 X20.378 Y21.204 ;extruding 
G1 X20.231 Y21.352 ;extruding 
G1 X19.979 Y21.027 ;extruding 
G1 X20.060 Y20.945 ;extruding 
G1 X19.730 Y20.699 ;extruding 
FILEWRITE $hFile"\x05\x02\x30\x34\x44\x49\x20\x20\x43\x46\x03"
G1 X23.062 Y24.035 ;not extruding 
G1 X22.911 Y24.875 ;not extruding 
G1 X22.329 Y26.328 ;not extruding 
G1 X19.659 Y30.389 ;not extruding 
G1 X17.764 Y34.953 ;not extruding 
G1 X16.402 Y36.803 ;not extruding 
G1 X15.873 Y36.723 ;not extruding 
G1 X15.978 Y36.708 ;not extruding 
FILEWRITE $hFile"\x05\x02\x30\x34\x44\x49\x20\x20\x43\x46\x03"
DWELL 0.15
G1 X15.501 Y36.582 ;extruding 
G1 X15.394 Y36.689 ;extruding 
G1 X14.811 Y36.670 ;extruding 
G1 X15.025 Y36.456 ;extruding 
G1 X14.548 Y36.331 ;extruding 
G1 X14.269 Y36.610 ;extruding 
G1 X13.733 Y36.550 ;extruding 
G1 X14.046 Y36.231 ;extruding 
G1 X13.538 Y36.137 ;extruding 
G1 X13.226 Y36.449 ;extruding 
G1 X12.737 Y36.335 ;extruding 
G1 X12.979 Y36.093 ;extruding 
G1 X12.413 Y36.057 ;extruding 
G1 X12.266 Y36.204 ;extruding 
G1 X11.823 Y36.046 ;extruding 
FILEWRITE $hFile"\x05\x02\x30\x34\x44\x49\x20\x20\x43\x46\x03"
G1 X16.402 Y36.803 ;not extruding 
G1 X16.663 Y37.247 ;not extruding 
G1 X17.217 Y39.114 ;not extruding 
G1 X17.483 Y43.960 ;not extruding 
G1 X18.570 Y48.682 ;not extruding 
G1 X18.682 Y50.351 ;not extruding 
G1 X18.566 Y51.072 ;not extruding 
G1 X18.698 Y51.066 ;not extruding 
FILEWRITE $hFile"\x05\x02\x30\x34\x44\x49\x20\x20\x43\x46\x03"
DWELL 0.15
G1 X18.689 Y51.048 ;extruding 
G1 X17.643 Y51.455 ;extruding 
G1 X17.105 Y51.993 ;extruding 
CCW X15.689 Y52.742 I-5.379 J-8.457 
G1 X16.521 Y51.910 ;extruding 
CW X14.999 Y52.765 I3.788 J8.525 
G1 X14.621 Y53.143 ;extruding 
G1 X14.351 Y53.225 ;extruding 
CCW X14.999 Y52.765 I3.085 J3.659 
FILEWRITE $hFile"\x05\x02\x30\x34\x44\x49\x20\x20\x43\x46\x03"
G1 X15.875 Y52.469 ;not extruding 
G1 X18.566 Y51.072 ;not extruding 
G1 X20.592 Y52.474 ;not extruding 
G1 X23.638 Y56.296 ;not extruding 
G1 X27.373 Y59.513 ;not extruding 
G1 X28.719 Y61.409 ;not extruding 
G1 X28.631 Y61.231 ;not extruding 
FILEWRITE $hFile"\x05\x02\x30\x34\x44\x49\x20\x20\x43\x46\x03"
DWELL 0.15
G1 X28.113 Y62.337 ;extruding 
G1 X28.488 Y61.962 ;extruding 
G1 X28.139 Y62.896 ;extruding 
G1 X27.319 Y63.719 ;extruding 
CW X26.867 Y64.758 I6.650 J3.511 
G1 X27.598 Y64.026 ;extruding 
CCW X26.562 Y65.651 I-7.773 J-3.813 
FILEWRITE $hFile"\x05\x02\x30\x34\x44\x49\x20\x20\x43\x46\x03"
G1 X28.719 Y61.409 ;not extruding 
G1 X29.359 Y61.295 ;not extruding 
G1 X31.165 Y61.398 ;not extruding 
G1 X36.588 Y62.762 ;not extruding 
G1 X40.771 Y63.048 ;not extruding 
G1 X42.928 Y63.727 ;not extruding 
G1 X42.821 Y63.665 ;not extruding 
FILEWRITE $hFile"\x05\x02\x30\x34\x44\x49\x20\x20\x43\x46\x03"
DWELL 0.15
G1 X42.902 Y64.142 ;extruding 
G1 X42.954 Y64.091 ;extruding 
G1 X43.081 Y64.522 ;extruding 
G1 X42.984 Y64.619 ;extruding 
G1 X43.066 Y65.095 ;extruding 
G1 X43.209 Y64.952 ;extruding 
G1 X43.334 Y65.386 ;extruding 
G1 X43.120 Y65.600 ;extruding 
G1 X43.161 Y66.117 ;extruding 
G1 X43.430 Y65.849 ;extruding 
G1 X43.525 Y66.312 ;extruding 
G1 X43.234 Y66.603 ;extruding 
G1 X43.317 Y67.079 ;extruding 
G1 X43.588 Y66.808 ;extruding 
G1 X43.645 Y67.309 ;extruding 
G1 X43.424 Y67.531 ;extruding 
G1 X43.540 Y67.972 ;extruding 
G1 X43.665 Y67.848 ;extruding 
G1 X43.674 Y68.398 ;extruding 
FILEWRITE $hFile"\x05\x02\x30\x34\x44\x49\x20\x20\x43\x46\x03"
G1 X42.928 Y63.727 ;not extruding 
G1 X43.599 Y63.068 ;not extruding 
G1 X44.877 Y62.311 ;not extruding 
G1 X49.436 Y60.558 ;not extruding 
G1 X53.568 Y58.023 ;not extruding 
G1 X55.836 Y57.280 ;not extruding 
G1 X55.716 Y57.240 ;not extruding 
FILEWRITE $hFile"\x05\x02\x30\x34\x44\x49\x20\x20\x43\x46\x03"
DWELL 0.15
G1 X55.650 Y57.306 ;extruding 
G1 X55.944 Y57.584 ;extruding 
G1 X56.036 Y57.492 ;extruding 
G1 X56.356 Y57.744 ;extruding 
G1 X56.238 Y57.863 ;extruding 
G1 X56.532 Y58.141 ;extruding 
G1 X56.677 Y57.997 ;extruding 
G1 X56.997 Y58.249 ;extruding 
G1 X56.822 Y58.423 ;extruding 
G1 X57.086 Y58.732 ;extruding 
G1 X57.301 Y58.518 ;extruding 
G1 X57.599 Y58.791 ;extruding 
G1 X57.350 Y59.041 ;extruding 
G1 X57.632 Y59.331 ;extruding 
G1 X57.895 Y59.068 ;extruding 
G1 X58.168 Y59.367 ;extruding 
G1 X57.923 Y59.613 ;extruding 
G1 X58.219 Y59.889 ;extruding 
G1 X58.442 Y59.666 ;extruding 
G1 X58.697 Y59.983 ;extruding 
G1 X58.535 Y60.146 ;extruding 
G1 X58.850 Y60.402 ;extruding 
G1 X58.946 Y60.307 ;extruding 
CW X59.783 Y61.252 I3.577 J-2.325 
FILEWRITE $hFile"\x05\x02\x30\x34\x44\x49\x20\x20\x43\x46\x03"
G1 X55.836 Y57.280 ;not extruding 
G1 X55.961 Y56.409 ;not extruding 
G1 X56.558 Y54.921 ;not extruding 
G1 X59.235 Y50.858 ;not extruding 
G1 X61.095 Y46.351 ;not extruding 
G1 X62.517 Y44.415 ;not extruding 
G1 X62.404 Y44.314 ;not extruding 
FILEWRITE $hFile"\x05\x02\x30\x34\x44\x49\x20\x20\x43\x46\x03"
DWELL 0.15
G1 X62.366 Y44.580 ;extruding 
G1 X62.668 Y44.617 ;extruding 
G1 X62.904 Y44.381 ;extruding 
G1 X63.405 Y44.447 ;extruding 
G1 X63.174 Y44.679 ;extruding 
G1 X63.679 Y44.741 ;extruding 
G1 X63.906 Y44.514 ;extruding 
G1 X64.407 Y44.580 ;extruding 
G1 X64.156 Y44.831 ;extruding 
G1 X64.613 Y44.941 ;extruding 
G1 X64.907 Y44.647 ;extruding 
G1 X65.408 Y44.714 ;extruding 
G1 X65.074 Y45.048 ;extruding 
G1 X65.578 Y45.111 ;extruding 
G1 X65.900 Y44.789 ;extruding 
G1 X66.350 Y44.907 ;extruding 
G1 X66.101 Y45.156 ;extruding 
G1 X66.640 Y45.184 ;extruding 
G1 X66.788 Y45.036 ;extruding 
G1 X67.213 Y45.178 ;extruding 
FILEWRITE $hFile"\x05\x02\x30\x34\x44\x49\x20\x20\x43\x46\x03"
G1 D-149.000 ;not extruding 
G1 X67.595 Y44.519 ;not extruding 
G1 X62.369 Y43.840 ;not extruding 
G1 X61.364 Y41.423 ;not extruding 
G1 X61.008 Y36.711 ;not extruding 
G1 X59.784 Y31.417 ;not extruding 
G1 X59.852 Y29.870 ;not extruding 
G1 X58.829 Y29.450 ;not extruding 
G1 X57.690 Y28.551 ;not extruding 
G1 X56.943 Y27.599 ;not extruding 
G1 X56.551 Y27.412 ;not extruding 
CCW X59.781 Y32.339 I-16.440 J14.300 
CCW X60.836 Y37.272 I-19.281 J6.703 
FILEWRITE $hFile"\x05\x02\x30\x34\x44\x49\x20\x20\x43\x46\x03"
DWELL 0.15
G1 X60.843 Y37.864 ;extruding 
CCW X60.747 Y45.837 I-22.361 J3.718 
CCW X58.185 Y51.189 I-18.282 J-5.463 
CCW X53.577 Y57.398 I-20.697 J-10.546 
CCW X49.176 Y59.948 I-12.401 J-16.330 
CW X47.495 Y60.696 I2.222 J7.256 
CCW X41.072 Y62.564 I-9.422 J-20.421 
CCW X36.059 Y62.049 I-0.405 J-20.713 
CW X34.262 Y61.665 I-2.460 J7.114 
CCW X27.928 Y59.291 I4.540 J-21.749 
CCW X24.152 Y55.844 I11.788 J-16.704 
CW X22.929 Y54.454 I-6.146 J4.174 
CCW X19.181 Y48.833 I17.022 J-15.410 
CCW X18.382 Y45.721 I17.896 J-6.253 
CW X18.177 Y44.279 I-9.143 J0.564 
CW X17.949 Y42.028 I-11.308 J0.008 
CCW X18.176 Y35.324 I23.851 J-2.548 
CCW X20.236 Y30.689 I19.573 J5.924 
G1 X20.582 Y30.201 ;extruding 
CCW X25.239 Y23.853 I20.565 J10.205 
CCW X30.389 Y21.049 I11.429 J14.859 
CCW X37.762 Y18.780 I10.147 J19.858 
CCW X43.444 Y19.514 I0.522 J18.318 
CCW X50.998 Y22.027 I-3.591 J23.404 
CCW X54.783 Y25.425 I-11.755 J16.901 
CW X56.014 Y26.792 I6.222 J-4.366 
G1 X56.494 Y27.346 ;extruding 
FILEWRITE $hFile"\x05\x02\x30\x34\x44\x49\x20\x20\x43\x46\x03"
G1 X56.254 Y27.669 ;not extruding 
CCW X59.415 Y32.486 I-16.074 J13.993 
CCW X60.451 Y37.887 I-16.755 J6.014 
CCW X60.366 Y45.739 I-22.079 J3.687 
CCW X57.972 Y50.776 I-17.071 J-5.026 
CCW X53.323 Y57.097 I-20.853 J-10.467 
CCW X48.221 Y59.882 I-11.811 J-15.571 
CCW X41.043 Y62.171 I-10.048 J-19.111 
CCW X36.154 Y61.668 I-0.386 J-20.262 
CW X34.337 Y61.280 I-2.508 J7.295 
CCW X28.140 Y58.959 I4.494 J-21.433 
CCW X24.458 Y55.598 I11.538 J-16.338 
CW X23.219 Y54.188 I-6.360 J4.339 
CCW X19.548 Y48.689 I16.661 J-15.098 
CCW X18.711 Y45.043 I16.276 J-5.655 
CCW X18.563 Y43.582 I4.344 J-1.178 
CW X18.339 Y41.981 I-17.899 J1.688 
CCW X18.559 Y35.419 I23.456 J-2.498 
CCW X20.567 Y30.901 I19.167 J5.813 
FILEWRITE $hFile"\x05\x02\x30\x34\x44\x49\x20\x20\x43\x46\x03"
DWELL 0.15
G1 X20.912 Y30.414 ;extruding 
CCW X25.495 Y24.153 I20.288 J10.043 
CCW X30.558 Y21.404 I11.218 J14.624 
CCW X37.791 Y19.173 I9.957 J19.441 
CCW X43.342 Y19.894 I0.502 J17.863 
CCW X50.790 Y22.362 I-3.504 J23.047 
CCW X54.479 Y25.675 I-11.433 J16.441 
CW X55.727 Y27.061 I6.487 J-4.587 
G1 X56.197 Y27.603 ;extruding 
FILEWRITE $hFile"\x05\x02\x30\x34\x44\x49\x20\x20\x43\x46\x03"
G1 X55.957 Y27.926 ;not extruding 
CCW X59.049 Y32.632 I-15.804 J13.753 
CCW X60.051 Y37.319 I-18.361 J6.376 
CW X60.245 Y39.174 I8.016 J0.099 
CCW X59.984 Y45.641 I-22.362 J2.336 
CCW X57.642 Y50.562 I-16.689 J-4.925 
CCW X53.069 Y56.795 I-20.535 J-10.272 
CCW X48.053 Y59.528 I-11.102 J-14.406 
CCW X41.014 Y61.778 I-9.867 J-18.732 
CCW X36.250 Y61.286 I-0.368 J-19.749 
CW X34.412 Y60.894 I-2.583 J7.606 
CCW X28.353 Y58.627 I4.385 J-20.950 
CCW X24.219 Y54.645 I10.138 J-14.662 
CCW X19.915 Y48.546 I15.249 J-15.329 
CCW X19.101 Y44.990 I15.796 J-5.487 
CCW X18.956 Y43.559 I4.187 J-1.147 
CW X18.729 Y41.935 I-17.659 J1.641 
CCW X18.942 Y35.514 I22.961 J-2.452 
CCW X21.389 Y30.376 I17.241 J5.059 
CCW X25.750 Y24.454 I19.315 J9.657 
CCW X30.726 Y21.759 I10.979 J14.331 
CCW X37.820 Y19.566 I9.796 J19.119 
CCW X43.241 Y20.273 I0.478 J17.475 
CCW X50.582 Y22.697 I-3.412 J22.660 
CCW X54.731 Y26.623 I-10.259 J14.997 
CCW X55.900 Y27.860 I-7.799 J8.541 
G1 X55.661 Y28.183 ;not extruding 
CCW X58.683 Y32.778 I-15.495 J13.482 
CCW X59.698 Y38.245 I-16.588 J5.908 
CCW X59.603 Y45.543 I-20.809 J3.379 
CCW X57.152 Y50.622 I-17.443 J-5.287 
CCW X52.814 Y56.493 I-19.586 J-9.934 
CCW X47.884 Y59.173 I-10.865 J-14.112 
CCW X40.985 Y61.384 I-9.682 J-18.342 
CCW X35.465 Y60.661 I-0.449 J-18.005 
CCW X28.565 Y58.296 I2.970 J-19.913 
CCW X24.506 Y54.377 I10.033 J-14.453 
CCW X20.282 Y48.402 I15.286 J-15.287 
CCW X19.490 Y44.937 I15.352 J-5.332 
CCW X19.348 Y43.535 I4.112 J-1.125 
CW X19.120 Y41.888 I-18.315 J1.696 
CCW X19.325 Y35.608 I22.522 J-2.408 
CCW X21.734 Y30.564 I16.978 J5.011 
CCW X26.006 Y24.754 I18.962 J9.467 
CCW X30.895 Y22.114 I10.770 J14.098 
CCW X37.849 Y19.959 I9.613 J18.722 
CCW X43.449 Y20.721 I0.372 J18.223 
CCW X50.373 Y23.032 I-3.388 J21.679 
CCW X54.445 Y26.893 I-10.026 J14.652 
CCW X55.604 Y28.118 I-7.805 J8.545 
G1 X55.364 Y28.440 ;not extruding 
CCW X58.316 Y32.925 I-15.087 J13.144 
CCW X59.309 Y38.296 I-16.350 J5.800 
CCW X59.221 Y45.444 I-20.441 J3.323 
CCW X56.808 Y50.433 I-17.115 J-5.200 
CCW X52.560 Y56.192 I-19.250 J-9.753 
CCW X47.715 Y58.818 I-10.687 J-13.936 
CCW X40.956 Y60.991 I-9.493 J-17.929 
CCW X35.536 Y60.274 I-0.423 J-17.643 
CCW X28.777 Y57.964 I2.870 J-19.441 
CCW X24.793 Y54.109 I10.488 J-14.825 
CCW X20.649 Y48.258 I15.006 J-15.021 
CCW X19.880 Y44.884 I14.722 J-5.130 
CCW X19.741 Y43.512 I4.028 J-1.101 
CW X19.510 Y41.841 I-19.021 J1.778 
CCW X19.708 Y35.703 I22.127 J-2.358 
CCW X22.079 Y30.752 I16.633 J4.922 
CCW X26.261 Y25.055 I18.608 J9.276 
CCW X31.063 Y22.469 I10.587 J13.907 
CCW X37.878 Y20.353 I9.415 J18.291 
CCW X43.376 Y21.107 I0.348 J17.884 
CCW X50.165 Y23.367 I-3.311 J21.273 
CCW X54.160 Y27.163 I-9.938 J14.459 
CCW X55.307 Y28.375 I-7.663 J8.401 
G1 X55.067 Y28.698 ;not extruding 
CCW X57.950 Y33.071 I-14.790 J12.888 
CCW X58.919 Y38.347 I-16.552 J5.767 
CCW X58.840 Y45.346 I-20.023 J3.274 
CCW X56.463 Y50.244 I-16.857 J-5.155 
CCW X52.306 Y55.890 I-18.867 J-9.538 
CCW X47.547 Y58.463 I-10.471 J-13.680 
CCW X40.927 Y60.597 I-9.318 J-17.569 
CCW X35.608 Y59.888 I-0.392 J-17.364 
CCW X28.990 Y57.632 I2.780 J-18.991 
CCW X25.329 Y54.121 I9.063 J-13.115 
CCW X21.016 Y48.114 I15.130 J-15.415 
CCW X20.269 Y44.831 I12.579 J-4.589 
CCW X20.133 Y43.488 I3.948 J-1.078 
CW X19.900 Y41.794 I-18.316 J1.656 
CCW X20.091 Y35.798 I21.627 J-2.312 
CCW X22.424 Y30.940 I17.089 J5.217 
CCW X26.516 Y25.355 I18.244 J9.075 
CCW X31.232 Y22.824 I10.699 J14.276 
CCW X37.907 Y20.746 I9.251 J17.956 
CCW X43.302 Y21.493 I0.239 J18.131 
CCW X49.957 Y23.702 I-3.232 J20.865 
CCW X53.875 Y27.433 I-10.326 J14.766 
CCW X55.010 Y28.632 I-7.521 J8.256 
CW X55.926 Y28.542 I0.041 J-4.286 
G1 X56.943 Y27.599 ;not extruding 
G1 X54.628 Y24.956 ;not extruding 
G1 X50.979 Y21.764 ;not extruding 
G1 X49.662 Y19.939 ;not extruding 
G1 X49.202 Y20.087 ;not extruding 
G1 X47.056 Y20.174 ;not extruding 
G1 X42.436 Y19.030 ;not extruding 
G1 X36.997 Y18.527 ;not extruding 
G1 X35.414 Y17.910 ;not extruding 
G1 X36.060 Y18.259 ;not extruding 
FILEWRITE $hFile"\x05\x02\x30\x34\x44\x49\x20\x20\x43\x46\x03"
DWELL 0.15
G1 X35.074 Y18.482 ;extruding 
G1 X34.498 Y16.386 ;extruding 
CCW X34.290 Y11.841 I11.356 J-2.797 
CCW X34.892 Y13.196 I-3.356 J2.302 
CCW X35.220 Y14.115 I-2.043 J1.247 
CCW X35.437 Y14.807 I-1.748 J0.928 
G1 X35.576 Y15.290 ;extruding 
G1 X35.644 Y16.122 ;extruding 
G1 X36.044 Y18.174 ;extruding 
FILEWRITE $hFile"\x05\x02\x30\x34\x44\x49\x20\x20\x43\x46\x03"
G1 X36.521 Y18.573 ;not extruding 
CW X34.798 Y18.958 I2.482 J15.158 
FILEWRITE $hFile"\x05\x02\x30\x34\x44\x49\x20\x20\x43\x46\x03"
DWELL 0.15
G1 X34.115 Y16.473 ;extruding 
CCW X34.113 Y10.745 I11.695 J-2.868 
CCW X34.700 Y11.787 I-4.266 J3.090 
G1 X34.966 Y12.227 ;extruding 
CW X35.455 Y13.452 I5.511 J-1.490 
CW X35.769 Y14.447 I4.325 J-0.818 
CW X35.961 Y15.207 I4.148 J-0.644 
G1 X36.034 Y16.069 ;extruding 
G1 X36.505 Y18.488 ;extruding 
FILEWRITE $hFile"\x05\x02\x30\x34\x44\x49\x20\x20\x43\x46\x03"
G1 X23.483 Y24.545 ;not extruding 
FILEWRITE $hFile"\x05\x02\x30\x34\x44\x49\x20\x20\x43\x46\x03"
DWELL 0.15
G1 X23.065 Y25.022 ;extruding 
G1 X21.289 Y23.679 ;extruding 
CCW X18.527 Y20.376 I7.588 J-9.152 
CCW X19.504 Y20.941 I-1.255 J3.298 
CCW X20.332 Y21.525 I-1.193 J2.571 
CCW X21.106 Y22.180 I-1.427 J2.471 
CCW X21.818 Y22.901 I-1.697 J2.388 
G1 X23.421 Y24.484 ;extruding 
FILEWRITE $hFile"\x05\x02\x30\x34\x44\x49\x20\x20\x43\x46\x03"
G1 X24.026 Y24.530 ;not extruding 
FILEWRITE $hFile"\x05\x02\x30\x34\x44\x49\x20\x20\x43\x46\x03"
DWELL 0.15
G1 X23.119 Y25.555 ;extruding 
G1 X21.038 Y23.982 ;extruding 
CCW X17.685 Y19.561 I7.650 J-9.284 
CCW X18.805 Y20.082 I-1.136 J3.907 
CCW X19.712 Y20.607 I-1.000 J2.774 
CCW X20.569 Y21.211 I-1.273 J2.716 
CCW X21.369 Y21.888 I-1.508 J2.593 
CCW X22.106 Y22.633 I-1.772 J2.490 
G1 X23.964 Y24.469 ;extruding 
FILEWRITE $hFile"\x05\x02\x30\x34\x44\x49\x20\x20\x43\x46\x03"
G1 X17.143 Y36.994 ;not extruding 
FILEWRITE $hFile"\x05\x02\x30\x34\x44\x49\x20\x20\x43\x46\x03"
DWELL 0.15
G1 X17.090 Y37.603 ;extruding 
G1 X14.962 Y37.535 ;extruding 
CCW X10.653 Y36.402 I0.988 J-12.519 
G1 X11.131 Y36.295 ;extruding 
CW X12.391 Y36.219 I0.276 J-5.900 
CW X13.393 Y36.234 I0.570 J-4.613 
CCW X15.051 Y36.443 I-0.180 J8.108 
G1 X17.059 Y36.972 ;extruding 
FILEWRITE $hFile"\x05\x02\x30\x34\x44\x49\x20\x20\x43\x46\x03"
G1 X17.575 Y36.702 ;not extruding 
CW X17.464 Y38.008 I10.262 J1.530 
FILEWRITE $hFile"\x05\x02\x30\x34\x44\x49\x20\x20\x43\x46\x03"
DWELL 0.15
G1 X14.933 Y37.927 ;extruding 
CCW X9.487 Y36.226 I1.002 J-12.775 
CCW X10.581 Y36.016 I1.602 J5.392 
G1 X11.072 Y35.906 ;extruding 
CW X12.377 Y35.825 I0.265 J-6.283 
CW X13.410 Y35.841 I0.594 J-5.007 
CCW X15.137 Y36.060 I-0.171 J8.264 
G1 X17.491 Y36.680 ;extruding 
FILEWRITE $hFile"\x05\x02\x30\x34\x44\x49\x20\x20\x43\x46\x03"
G1 X19.320 Y50.804 ;not extruding 
FILEWRITE $hFile"\x05\x02\x30\x34\x44\x49\x20\x20\x43\x46\x03"
DWELL 0.15
G1 X19.700 Y51.436 ;extruding 
G1 X17.945 Y52.604 ;extruding 
CCW X13.725 Y54.211 I-6.282 J-10.153 
CCW X14.792 Y53.256 I3.075 J2.362 
CCW X15.563 Y52.665 I1.833 J1.593 
CCW X16.152 Y52.248 I1.446 J1.418 
CCW X17.381 Y51.558 I3.340 J4.510 
G1 X19.239 Y50.835 ;extruding 
FILEWRITE $hFile"\x05\x02\x30\x34\x44\x49\x20\x20\x43\x46\x03"
G1 X19.561 Y50.443 ;not extruding 
FILEWRITE $hFile"\x05\x02\x30\x34\x44\x49\x20\x20\x43\x46\x03"
DWELL 0.15
G1 X20.232 Y51.554 ;extruding 
G1 X18.150 Y52.940 ;extruding 
CCW X12.722 Y54.727 I-6.399 J-10.301 
CCW X13.515 Y53.869 I4.404 J3.275 
G1 X13.849 Y53.485 ;extruding 
CW X14.861 Y52.645 I-3.220 J-4.909 
CW X15.708 Y52.043 I-2.204 J-3.998 
CCW X17.225 Y51.197 I5.118 J7.394 
G1 X19.492 Y50.316 ;extruding 
G1 X19.520 Y50.366 ;extruding 
FILEWRITE $hFile"\x05\x02\x30\x34\x44\x49\x20\x20\x43\x46\x03"
G1 X29.040 Y60.748 ;not extruding 
FILEWRITE $hFile"\x05\x02\x30\x34\x44\x49\x20\x20\x43\x46\x03"
DWELL 0.15
G1 X29.938 Y61.137 ;extruding 
G1 X29.174 Y63.185 ;extruding 
CCW X26.707 Y66.943 I-10.669 J-4.315 
CCW X27.018 Y65.494 I4.101 J0.122 
CCW X27.296 Y64.554 I2.415 J0.203 
CCW X27.530 Y63.861 I2.046 J0.305 
G1 X27.704 Y63.386 ;extruding 
G1 X28.139 Y62.672 ;extruding 
G1 X29.004 Y60.826 ;extruding 
FILEWRITE $hFile"\x05\x02\x30\x34\x44\x49\x20\x20\x43\x46\x03"
G1 X28.854 Y60.221 ;not extruding 
CW X30.439 Y60.918 I7.318 J-14.491 
FILEWRITE $hFile"\x05\x02\x30\x34\x44\x49\x20\x20\x43\x46\x03"
DWELL 0.15
G1 X29.536 Y63.338 ;extruding 
CCW X26.206 Y67.935 I-11.063 J-4.509 
CCW X26.343 Y66.750 I5.421 J0.026 
G1 X26.389 Y66.234 ;extruding 
CW X26.716 Y64.951 I-5.619 J-2.115 
CW X27.050 Y63.958 I-4.118 J-1.938 
CW X27.344 Y63.227 I-3.924 J-2.003 
G1 X27.792 Y62.485 ;extruding 
G1 X28.817 Y60.300 ;extruding 
FILEWRITE $hFile"\x05\x02\x30\x34\x44\x49\x20\x20\x43\x46\x03"
G1 X42.879 Y63.041 ;not extruding 
FILEWRITE $hFile"\x05\x02\x30\x34\x44\x49\x20\x20\x43\x46\x03"
DWELL 0.15
G1 X43.592 Y62.885 ;extruding 
G1 X44.213 Y64.980 ;extruding 
CCW X44.485 Y69.357 I-11.412 J2.906 
CCW X44.002 Y68.281 I3.079 J-2.028 
CCW X43.673 Y67.324 I2.428 J-1.370 
CCW X43.430 Y66.343 I2.531 J-1.148 
CCW X43.274 Y65.344 I2.664 J-0.928 
G1 X42.893 Y63.127 ;extruding 
FILEWRITE $hFile"\x05\x02\x30\x34\x44\x49\x20\x20\x43\x46\x03"
G1 X42.427 Y62.731 ;not extruding 
CW X43.861 Y62.412 I-3.038 J-17.039 
FILEWRITE $hFile"\x05\x02\x30\x34\x44\x49\x20\x20\x43\x46\x03"
DWELL 0.15
G1 X44.594 Y64.884 ;extruding 
CCW X44.694 Y70.506 I-11.983 J3.025 
CW X44.320 Y69.940 I-2.913 J1.518 
CW X43.843 Y69.004 I-4.974 J1.945 
CW X43.451 Y68.031 I-5.102 J1.490 
CW X43.146 Y67.026 I-5.298 J1.059 
CW X42.932 Y66.000 I-5.416 J0.594 
G1 X42.884 Y65.392 ;extruding 
G1 X42.442 Y62.817 ;extruding 
FILEWRITE $hFile"\x05\x02\x30\x34\x44\x49\x20\x20\x43\x46\x03"
G1 X55.254 Y56.801 ;not extruding 
FILEWRITE $hFile"\x05\x02\x30\x34\x44\x49\x20\x20\x43\x46\x03"
DWELL 0.15
G1 X55.861 Y56.116 ;extruding 
G1 X57.540 Y57.439 ;extruding 
CCW X60.374 Y60.941 I-7.676 J9.110 
CW X59.707 Y60.620 I-1.751 J2.785 
CW X58.839 Y60.083 I-2.844 J3.627 
CW X58.023 Y59.472 I-3.121 J3.318 
CW X57.265 Y58.792 I-3.479 J3.116 
G1 X56.881 Y58.341 ;extruding 
G1 X55.317 Y56.861 ;extruding 
FILEWRITE $hFile"\x05\x02\x30\x34\x44\x49\x20\x20\x43\x46\x03"
G1 X54.698 Y56.816 ;not extruding 
CW X55.798 Y55.566 I-8.363 J-8.468 
FILEWRITE $hFile"\x05\x02\x30\x34\x44\x49\x20\x20\x43\x46\x03"
DWELL 0.15
G1 X57.795 Y57.140 ;extruding 
CCW X61.178 Y61.711 I-8.207 J9.612 
CW X60.461 Y61.441 I-1.512 J2.927 
CW X59.517 Y60.966 I-2.556 J3.904 
CW X58.620 Y60.411 I-2.927 J3.728 
CW X57.776 Y59.779 I-3.289 J3.513 
CW X56.992 Y59.076 I-3.665 J3.298 
G1 X56.596 Y58.612 ;extruding 
G1 X54.761 Y56.876 ;extruding 
FILEWRITE $hFile"\x05\x02\x30\x34\x44\x49\x20\x20\x43\x46\x03"
G1 X61.776 Y44.356 ;not extruding 
CW X61.871 Y43.210 I-9.050 J-1.327 
FILEWRITE $hFile"\x05\x02\x30\x34\x44\x49\x20\x20\x43\x46\x03"
DWELL 0.15
G1 X64.525 Y43.562 ;extruding 
CCW X68.434 Y44.655 I-0.546 J9.488 
CCW X66.953 Y44.809 I-1.156 J-3.917 
CCW X65.978 Y44.837 I-0.555 J-2.332 
CCW X65.252 Y44.830 I-0.344 J-2.018 
G1 X64.750 Y44.813 ;extruding 
G1 X63.937 Y44.620 ;extruding 
G1 X61.863 Y44.366 ;extruding 
FILEWRITE $hFile"\x05\x02\x30\x34\x44\x49\x20\x20\x43\x46\x03"
G1 X61.336 Y44.697 ;not extruding 
CW X61.507 Y42.765 I-15.386 J-2.335 
FILEWRITE $hFile"\x05\x02\x30\x34\x44\x49\x20\x20\x43\x46\x03"
DWELL 0.15
G1 X64.560 Y43.171 ;extruding 
CCW X68.464 Y44.228 I-0.570 J9.844 
G1 X69.525 Y44.825 ;extruding 
CCW X68.352 Y45.062 I-1.645 J-5.121 
G1 X67.852 Y45.179 ;extruding 
CW X66.535 Y45.266 I-0.291 J5.610 
CW X65.492 Y45.256 I-0.564 J4.395 
CW X64.710 Y45.204 I-0.682 J4.352 
G1 X63.867 Y45.007 ;extruding 
G1 X61.422 Y44.708 ;extruding 
FILEWRITE $hFile"\x05\x02\x30\x34\x44\x49\x20\x20\x43\x46\x03"
G1 X59.666 Y30.461 ;not extruding 
FILEWRITE $hFile"\x05\x02\x30\x34\x44\x49\x20\x20\x43\x46\x03"
DWELL 0.15
G1 X59.302 Y29.828 ;extruding 
G1 X61.103 Y28.590 ;extruding 
CCW X65.181 Y26.979 I6.280 J9.931 
CCW X64.307 Y27.770 I-2.860 J-2.281 
CCW X63.499 Y28.379 I-2.027 J-1.848 
CCW X62.641 Y28.913 I-1.872 J-2.051 
CCW X61.739 Y29.370 I-1.685 J-2.207 
G1 X59.743 Y30.420 ;extruding 
FILEWRITE $hFile"\x05\x02\x30\x34\x44\x49\x20\x20\x43\x46\x03"
G1 X59.511 Y30.986 ;not extruding 
CW X58.769 Y29.718 I-13.661 J7.143 
FILEWRITE $hFile"\x05\x02\x30\x34\x44\x49\x20\x20\x43\x46\x03"
DWELL 0.15
G1 X60.894 Y28.257 ;extruding 
CCW X66.210 Y26.425 I6.566 J10.425 
CW X65.787 Y26.956 I2.323 J2.284 
CW X65.044 Y27.698 I3.305 J4.052 
CW X64.240 Y28.372 I3.095 J4.509 
CW X63.379 Y28.972 I2.658 J4.732 
CW X62.468 Y29.493 I2.296 J5.072 
G1 X61.906 Y29.726 ;extruding 
G1 X59.588 Y30.945 ;extruding 
FILEWRITE $hFile"\x05\x02\x30\x34\x44\x49\x20\x20\x43\x46\x03"
G1 X49.912 Y20.617 ;not extruding 
FILEWRITE $hFile"\x05\x02\x30\x34\x44\x49\x20\x20\x43\x46\x03"
DWELL 0.15
G1 X49.073 Y20.251 ;extruding 
G1 X49.812 Y18.245 ;extruding 
CCW X52.267 Y14.468 I11.071 J4.509 
CW X52.168 Y15.201 I3.279 J0.816 
CW X51.925 Y16.193 I4.466 J1.620 
CW X51.596 Y17.157 I4.343 J2.020 
CW X51.184 Y18.089 I4.037 J2.342 
G1 X50.874 Y18.593 ;extruding 
G1 X49.950 Y20.538 ;extruding 
FILEWRITE $hFile"\x05\x02\x30\x34\x44\x49\x20\x20\x43\x46\x03"
G1 X50.098 Y21.141 ;not extruding 
CW X48.569 Y20.481 I-5.340 J10.271 
FILEWRITE $hFile"\x05\x02\x30\x34\x44\x49\x20\x20\x43\x46\x03"
DWELL 0.15
G1 X49.449 Y18.095 ;extruding 
CCW X52.751 Y13.465 I11.423 J4.654 
CW X52.716 Y14.230 I3.275 J0.533 
CW X52.556 Y15.275 I4.562 J1.233 
CW X52.305 Y16.300 I4.428 J1.628 
CW X51.965 Y17.298 I4.413 J2.060 
CW X51.539 Y18.261 I4.150 J2.411 
G1 X51.220 Y18.781 ;extruding 
G1 X50.135 Y21.062 ;extruding 
FILEWRITE $hFile"\x05\x02\x30\x34\x44\x49\x20\x20\x43\x46\x03"
G1 X50.525 Y21.157 ;not extruding 
CW X53.597 Y23.607 I51.309 J-61.185 
CCW X56.861 Y27.150 I-14.247 J16.400 
FILEWRITE $hFile"\x05\x02\x30\x34\x44\x49\x20\x20\x43\x46\x03"
DWELL 0.15
G1 X58.490 Y29.433 ;extruding 
G1 X60.685 Y27.924 ;extruding 
CCW X67.033 Y25.971 I6.805 J10.825 
CCW X66.354 Y26.850 I-2.679 J-1.368 
CCW X65.619 Y27.644 I-2.462 J-1.542 
CCW X64.816 Y28.369 I-2.317 J-1.759 
CCW X63.953 Y29.021 I-2.164 J-1.967 
CCW X63.037 Y29.593 I-2.015 J-2.208 
CCW X62.072 Y30.082 I-1.826 J-2.408 
G1 X59.921 Y31.214 ;extruding 
CW X60.970 Y35.008 I72.708 J-18.061 
CCW X61.529 Y39.783 I-21.033 J4.883 
G1 X61.507 Y42.369 ;extruding 
G1 X64.595 Y42.779 ;extruding 
CCW X69.423 Y44.329 I-0.601 J10.167 
CCW X70.406 Y44.959 I-1.593 J3.568 
CCW X68.423 Y45.449 I-2.696 J-6.655 
G1 X67.914 Y45.568 ;extruding 
CW X66.551 Y45.660 I-0.282 J5.967 
CW X65.477 Y45.650 I-0.580 J4.661 
CW X64.670 Y45.596 I-0.688 J4.229 
G1 X63.798 Y45.394 ;extruding 
G1 X61.376 Y45.098 ;extruding 
G1 X60.017 Y48.748 ;extruding 
CCW X57.631 Y52.973 I-20.447 J-8.761 
G1 X55.977 Y55.207 ;extruding 
G1 X58.050 Y56.841 ;extruding 
CCW X61.850 Y62.336 I-8.266 J9.778 
CCW X60.747 Y61.946 I0.500 J-3.170 
CCW X59.756 Y61.494 I0.624 J-2.680 
CCW X58.810 Y60.957 I0.860 J-2.617 
CCW X57.916 Y60.340 I1.085 J-2.528 
CCW X57.081 Y59.647 I1.321 J-2.441 
CCW X56.311 Y58.883 I1.545 J-2.327 
G1 X54.550 Y57.217 ;extruding 
CW X51.271 Y59.382 I42.335 J67.684 
CCW X46.893 Y61.391 I-11.240 J-18.719 
G1 X44.218 Y62.235 ;extruding 
G1 X44.975 Y64.789 ;extruding 
CCW X44.871 Y71.430 I-12.410 J3.127 
CCW X44.245 Y70.512 I2.130 J-2.125 
CCW X43.717 Y69.567 I2.202 J-1.850 
CCW X43.275 Y68.580 I2.365 J-1.652 
CCW X42.922 Y67.558 I2.560 J-1.456 
CCW X42.661 Y66.509 I2.710 J-1.231 
CCW X42.494 Y65.441 I2.817 J-0.988 
G1 X42.082 Y63.046 ;extruding 
CW X38.150 Y62.870 I-5.338 J75.250 
CCW X33.435 Y61.927 I1.840 J-21.458 
G1 X30.810 Y61.048 ;extruding 
G1 X29.898 Y63.492 ;extruding 
CCW X26.688 Y68.013 I-11.122 J-4.497 
CCW X25.804 Y68.738 I-2.831 J-2.550 
CCW X25.953 Y66.697 I7.263 J-0.496 
G1 X26.000 Y66.173 ;extruding 
CW X26.336 Y64.844 I-5.833 J-2.182 
CW X26.680 Y63.822 I-4.345 J-2.031 
CW X26.984 Y63.067 I-3.912 J-2.014 
G1 X27.446 Y62.299 ;extruding 
G1 X28.483 Y60.087 ;extruding 
G1 X25.434 Y57.662 ;extruding 
CCW X22.159 Y54.078 I14.817 J-16.828 
G1 X20.546 Y51.816 ;extruding 
G1 X18.355 Y53.275 ;extruding 
CCW X11.901 Y55.175 I-6.670 J-10.747 
CCW X13.230 Y53.597 I6.270 J3.932 
G1 X13.571 Y53.206 ;extruding 
CW X14.617 Y52.334 I-3.419 J-5.165 
CW X15.489 Y51.716 I-2.284 J-4.147 
CCW X17.070 Y50.836 I5.433 J7.901 
G1 X19.204 Y50.006 ;extruding 
G1 X18.086 Y46.008 ;extruding 
CCW X17.531 Y41.198 I21.520 J-4.920 
G1 X17.555 Y38.404 ;extruding 
G1 X14.905 Y38.319 ;extruding 
CCW X8.562 Y36.096 I0.981 J-12.961 
CCW X10.512 Y35.629 I2.693 J6.940 
G1 X11.012 Y35.517 ;extruding 
CW X12.364 Y35.431 I0.252 J-6.701 
CW X13.427 Y35.447 I0.609 J-5.110 
CW X14.414 Y35.526 I1.071 J-7.176 
G1 X15.223 Y35.676 ;extruding 
G1 X17.419 Y36.255 ;extruding 
CW X18.884 Y32.353 I-75.829 J-30.696 
CCW X21.242 Y28.165 I20.040 J8.525 
G1 X22.920 Y25.897 ;extruding 
G1 X20.787 Y24.285 ;extruding 
CCW X16.977 Y18.902 I8.117 J-9.785 
CCW X18.001 Y19.273 I-0.508 J3.000 
CCW X18.982 Y19.731 I-0.757 J2.901 
CCW X19.919 Y20.273 I-1.025 J2.853 
CCW X20.805 Y20.897 I-1.280 J2.758 
CCW X21.632 Y21.596 I-1.541 J2.662 
CCW X22.394 Y22.365 I-1.780 J2.526 
G1 X24.128 Y24.078 ;extruding 
CW X27.430 Y21.899 I-41.809 J-66.948 
CCW X31.786 Y19.908 I11.162 J18.661 
G1 X34.423 Y19.077 ;extruding 
G1 X33.731 Y16.561 ;extruding 
CCW X33.672 Y10.995 I11.740 J-2.908 
CCW X33.968 Y9.865 I3.884 J0.414 
CCW X35.046 Y11.600 I-5.516 J4.630 
G1 X35.316 Y12.048 ;extruding 
CW X35.826 Y13.316 I5.936 J-1.651 
CW X36.148 Y14.339 I4.485 J-0.850 
CW X36.346 Y15.124 I4.196 J-0.641 
G1 X36.423 Y16.016 ;extruding 
G1 X36.890 Y18.411 ;extruding 
G1 X40.781 Y18.575 ;extruding 
CCW X45.537 Y19.539 I-2.015 J22.156 
G1 X48.173 Y20.421 ;extruding 
G1 X49.086 Y17.945 ;extruding 
CCW X53.138 Y12.633 I11.849 J4.837 
CCW X53.108 Y13.803 I-3.144 J0.505 
CCW X52.984 Y14.885 I-2.699 J0.239 
CCW X52.766 Y15.950 I-2.718 J-0.002 
CCW X52.455 Y16.991 I-2.726 J-0.248 
CCW X52.054 Y18.000 I-2.717 J-0.496 
CCW X51.566 Y18.968 I-2.681 J-0.745 
G1 X50.562 Y21.079 ;extruding 
FILEWRITE $hFile"\x05\x02\x30\x34\x44\x49\x20\x20\x43\x46\x03"
G1 X51.013 Y21.046 ;not extruding 
CW X53.852 Y23.307 I45.562 J-54.297 
CCW X57.176 Y26.915 I-14.544 J16.734 
FILEWRITE $hFile"\x05\x02\x30\x34\x44\x49\x20\x20\x43\x46\x03"
DWELL 0.15
G1 X58.586 Y28.891 ;extruding 
G1 X60.477 Y27.591 ;extruding 
CCW X67.798 Y25.571 I7.017 J11.154 
CCW X67.341 Y26.216 I-1.927 J-0.881 
CCW X66.657 Y27.100 I-2.610 J-1.313 
CCW X65.899 Y27.919 I-2.519 J-1.571 
CCW X65.071 Y28.669 I-2.374 J-1.788 
CCW X64.181 Y29.341 I-2.222 J-2.017 
CCW X63.234 Y29.933 I-2.059 J-2.240 
CCW X62.239 Y30.438 I-1.876 J-2.464 
G1 X60.383 Y31.415 ;extruding 
CW X61.352 Y34.917 I66.333 J-16.469 
CCW X61.922 Y39.779 I-21.388 J4.972 
G1 X61.902 Y42.025 ;extruding 
G1 X64.630 Y42.388 ;extruding 
CCW X69.615 Y43.987 I-0.625 J10.519 
CCW X70.662 Y44.659 I-1.708 J3.813 
CCW X71.206 Y45.016 I-1.586 J3.009 
G1 X71.195 Y45.081 ;extruding 
G1 X70.803 Y45.246 ;extruding 
G1 X69.418 Y45.682 ;extruding 
CW X67.976 Y45.956 I1.468 J11.659 
CW X66.566 Y46.055 I-0.265 J6.318 
CW X65.463 Y46.045 I-0.593 J4.614 
CW X64.629 Y45.987 I-0.718 J4.306 
G1 X63.728 Y45.781 ;extruding 
G1 X61.636 Y45.525 ;extruding 
G1 X60.380 Y48.900 ;extruding 
CCW X57.951 Y53.200 I-20.715 J-8.866 
G1 X56.519 Y55.134 ;extruding 
G1 X58.306 Y56.542 ;extruding 
CCW X62.456 Y62.926 I-8.540 J10.092 
G1 X62.274 Y62.901 ;extruding 
CW X61.193 Y62.579 I-1.960 J4.603 
CW X60.144 Y62.164 I-2.366 J4.447 
CW X59.138 Y61.658 I-2.770 J4.255 
CW X58.181 Y61.067 I-3.167 J4.058 
CW X57.281 Y60.394 I-3.512 J3.759 
CW X56.444 Y59.644 I-3.886 J3.494 
G1 X56.026 Y59.154 ;extruding 
G1 X54.506 Y57.715 ;extruding 
CW X51.478 Y59.716 I39.497 J63.060 
CCW X47.019 Y61.763 I-11.395 J-18.943 
G1 X44.705 Y62.493 ;extruding 
G1 X45.357 Y64.693 ;extruding 
CCW X45.009 Y72.274 I-12.669 J3.217 
G1 X44.910 Y72.177 ;extruding 
CW X44.232 Y71.284 I-4.669 J2.841 
CW X43.637 Y70.335 I-4.829 J2.367 
CW X43.127 Y69.337 I-5.197 J2.026 
CW X42.709 Y68.299 I-5.394 J1.569 
CW X42.384 Y67.228 I-5.743 J1.158 
CW X42.155 Y66.132 I-6.017 J0.685 
G1 X42.104 Y65.490 ;extruding 
G1 X41.749 Y63.422 ;extruding 
CW X38.118 Y63.262 I-4.822 J68.158 
CCW X33.318 Y62.302 I1.886 J-21.909 
G1 X31.045 Y61.541 ;extruding 
G1 X30.260 Y63.646 ;extruding 
CCW X26.954 Y68.302 I-11.474 J-4.645 
CCW X25.994 Y69.085 I-3.052 J-2.762 
G1 X25.493 Y69.488 ;extruding 
G1 X25.444 Y69.462 ;extruding 
G1 X25.409 Y69.026 ;extruding 
G1 X25.425 Y67.567 ;extruding 
CW X25.612 Y66.111 I-12.162 J-2.302 
CW X25.956 Y64.736 I-6.210 J-2.284 
CW X26.310 Y63.686 I-4.402 J-2.069 
CW X26.625 Y62.907 I-4.206 J-2.154 
G1 X27.100 Y62.112 ;extruding 
G1 X27.995 Y60.201 ;extruding 
G1 X25.177 Y57.959 ;extruding 
CCW X21.844 Y54.312 I14.999 J-17.054 
G1 X20.447 Y52.354 ;extruding 
G1 X18.560 Y53.610 ;extruding 
CCW X11.185 Y55.553 I-6.840 J-10.996 
G1 X11.427 Y55.155 ;extruding 
G1 X12.290 Y53.992 ;extruding 
CW X13.292 Y52.928 I-8.039 J-8.574 
CW X14.373 Y52.024 I-3.677 J-5.495 
CW X15.270 Y51.388 I-2.297 J-4.191 
CW X15.999 Y50.933 I-2.211 J-4.355 
CCW X16.914 Y50.475 I5.782 J10.408 
G1 X18.730 Y49.769 ;extruding 
G1 X17.703 Y46.098 ;extruding 
CCW X17.138 Y41.202 I21.945 J-5.013 
G1 X17.159 Y38.784 ;extruding 
G1 X14.876 Y38.711 ;extruding 
CCW X7.754 Y35.993 I1.001 J-13.313 
CCW X10.443 Y35.242 I3.656 J7.902 
G1 X10.952 Y35.128 ;extruding 
CW X12.351 Y35.036 I0.242 J-7.005 
CW X13.444 Y35.053 I0.626 J-5.128 
CW X14.473 Y35.138 I1.180 J-8.020 
CCW X17.178 Y35.785 I-3.007 J18.548 
CW X18.520 Y32.204 I-70.180 J-28.342 
CCW X20.921 Y27.937 I20.492 J8.722 
G1 X22.373 Y25.976 ;extruding 
G1 X20.536 Y24.587 ;extruding 
CCW X16.355 Y18.294 I8.358 J-10.088 
G1 X16.487 Y18.314 ;extruding 
CW X17.559 Y18.642 I2.212 J-5.315 
CW X18.598 Y19.063 I2.726 J-5.235 
CW X19.595 Y19.575 I3.221 J-5.045 
CW X20.543 Y20.173 I3.876 J-5.094 
CW X21.435 Y20.852 I4.347 J-4.785 
CW X22.263 Y21.607 I4.841 J-4.477 
G1 X22.682 Y22.098 ;extruding 
G1 X24.179 Y23.576 ;extruding 
CW X27.224 Y21.565 I-40.415 J-64.505 
CCW X31.661 Y19.536 I11.353 J18.961 
G1 X33.944 Y18.816 ;extruding 
G1 X33.348 Y16.649 ;extruding 
CCW X33.287 Y10.918 I12.090 J-2.995 
CCW X33.604 Y9.715 I4.070 J0.429 
CCW X33.774 Y9.087 I3.533 J0.620 
G1 X33.840 Y9.077 ;extruding 
G1 X34.118 Y9.399 ;extruding 
G1 X34.961 Y10.582 ;extruding 
CCW X35.392 Y11.414 I-6.172 J3.725 
G1 X35.667 Y11.868 ;extruding 
CW X36.196 Y13.179 I6.126 J-1.710 
CW X36.527 Y14.231 I4.698 J-0.900 
CW X36.731 Y15.042 I4.504 J-0.702 
G1 X36.813 Y15.963 ;extruding 
G1 X37.216 Y18.031 ;extruding 
G1 X40.814 Y18.183 ;extruding 
CCW X45.654 Y19.164 I-2.050 J22.543 
G1 X47.936 Y19.928 ;extruding 
G1 X48.723 Y17.794 ;extruding 
CCW X53.512 Y11.875 I12.189 J4.965 
G1 X53.544 Y12.055 ;extruding 
CW X53.573 Y13.183 I4.936 J0.437 
CW X53.501 Y14.308 I4.980 J0.884 
CW X53.331 Y15.422 I5.012 J1.335 
CW X53.064 Y16.515 I4.845 J1.763 
CW X52.703 Y17.579 I4.720 J2.195 
CW X52.248 Y18.606 I4.526 J2.620 
G1 X51.912 Y19.156 ;extruding 
G1 X51.050 Y20.967 ;extruding 
FILEWRITE $hFile"\x05\x02\x30\x34\x44\x49\x20\x20\x43\x46\x03"
G1 X51.501 Y20.935 ;not extruding 
CW X54.106 Y23.007 I41.404 J-49.382 
CCW X57.491 Y26.680 I-14.793 J17.030 
FILEWRITE $hFile"\x05\x02\x30\x34\x44\x49\x20\x20\x43\x46\x03"
DWELL 0.15
G1 X58.681 Y28.349 ;extruding 
G1 X60.268 Y27.258 ;extruding 
CCW X68.067 Y25.185 I7.233 J11.506 
G1 X68.270 Y25.501 ;extruding 
CCW X67.665 Y26.438 I-2.714 J-1.088 
CCW X66.961 Y27.350 I-2.727 J-1.377 
CCW X66.179 Y28.195 I-2.580 J-1.603 
CCW X65.326 Y28.968 I-2.455 J-1.852 
CCW X64.408 Y29.662 I-2.303 J-2.092 
CCW X63.432 Y30.272 I-2.138 J-2.335 
CCW X62.406 Y30.794 I-1.938 J-2.541 
G1 X60.844 Y31.616 ;extruding 
CW X61.735 Y34.826 I61.584 J-15.365 
CCW X62.315 Y39.774 I-21.796 J5.063 
G1 X62.298 Y41.682 ;extruding 
G1 X64.664 Y41.996 ;extruding 
CCW X69.808 Y43.644 I-0.670 J10.942 
CCW X70.883 Y44.335 I-1.737 J3.884 
CCW X71.634 Y44.849 I-2.515 J4.480 
G1 X71.561 Y45.353 ;extruding 
CCW X68.564 Y46.222 I-4.404 J-9.586 
G1 X68.039 Y46.345 ;extruding 
CW X66.582 Y46.449 I-0.253 J6.711 
CW X65.449 Y46.439 I-0.608 J4.723 
CW X64.589 Y46.379 I-0.744 J4.466 
G1 X63.658 Y46.168 ;extruding 
G1 X61.896 Y45.953 ;extruding 
G1 X60.742 Y49.053 ;extruding 
CCW X58.271 Y53.428 I-21.207 J-9.093 
G1 X57.062 Y55.062 ;extruding 
CCW X59.434 Y57.050 I-11.396 J16.006 
CCW X62.898 Y63.051 I-9.591 J9.537 
G1 X62.650 Y63.349 ;extruding 
CCW X61.556 Y63.065 I0.146 J-2.812 
CCW X60.463 Y62.680 I0.401 J-2.883 
CCW X59.409 Y62.200 I0.664 J-2.856 
CCW X58.402 Y61.630 I0.913 J-2.787 
CCW X57.450 Y60.974 I1.162 J-2.705 
CCW X56.561 Y60.237 I1.421 J-2.619 
CCW X55.741 Y59.425 I1.635 J-2.471 
G1 X54.461 Y58.213 ;extruding 
CW X51.685 Y60.051 I35.372 J56.440 
CCW X47.145 Y62.135 I-11.636 J-19.362 
G1 X45.191 Y62.752 ;extruding 
G1 X45.738 Y64.598 ;extruding 
CCW X45.291 Y72.658 I-13.096 J3.316 
G1 X44.936 Y72.751 ;extruding 
CCW X44.232 Y71.887 I1.831 J-2.211 
CCW X43.582 Y70.935 I2.106 J-2.136 
CCW X43.019 Y69.930 I2.346 J-1.974 
CCW X42.548 Y68.879 I2.555 J-1.776 
CCW X42.172 Y67.792 I2.690 J-1.539 
CCW X41.893 Y66.675 I2.832 J-1.301 
CCW X41.714 Y65.539 I2.995 J-1.054 
G1 X41.415 Y63.799 ;extruding 
CW X38.087 Y63.654 I-4.478 J64.515 
CCW X33.201 Y62.677 I1.922 J-22.320 
G1 X31.280 Y62.034 ;extruding 
CCW X29.972 Y65.158 I-18.320 J-5.835 
CCW X27.220 Y68.591 I-10.809 J-5.845 
CCW X26.234 Y69.396 I-3.129 J-2.827 
CCW X25.519 Y69.946 I-3.402 J-3.682 
G1 X25.071 Y69.722 ;extruding 
CCW X25.174 Y66.590 I10.792 J-1.213 
G1 X25.223 Y66.049 ;extruding 
CW X25.577 Y64.628 I-6.699 J-2.423 
CW X25.940 Y63.550 I-4.524 J-2.123 
CW X26.265 Y62.747 I-4.419 J-2.256 
G1 X26.754 Y61.926 ;extruding 
G1 X27.508 Y60.316 ;extruding 
G1 X24.919 Y58.256 ;extruding 
CCW X21.528 Y54.546 I15.288 J-17.378 
G1 X20.348 Y52.892 ;extruding 
CCW X17.712 Y54.534 I-11.803 J-16.010 
CCW X10.950 Y55.943 I-6.041 J-12.062 
G1 X10.732 Y55.543 ;extruding 
CCW X12.662 Y53.054 I9.327 J5.240 
G1 X13.014 Y52.650 ;extruding 
CW X14.130 Y51.714 I-3.944 J-5.835 
CW X15.051 Y51.060 I-2.406 J-4.363 
CW X15.797 Y50.595 I-2.213 J-4.381 
CCW X18.256 Y49.532 I6.937 J12.672 
G1 X17.321 Y46.188 ;extruding 
CCW X16.745 Y41.207 I22.284 J-5.101 
G1 X16.763 Y39.164 ;extruding 
CCW X13.650 Y38.966 I-0.354 J-19.008 
CCW X7.320 Y36.153 I2.290 J-13.681 
G1 X7.361 Y35.756 ;extruding 
CCW X10.375 Y34.855 I3.984 J7.834 
G1 X10.891 Y34.739 ;extruding 
CW X12.338 Y34.642 I0.228 J-7.441 
CW X13.461 Y34.660 I0.647 J-5.331 
CW X14.531 Y34.749 I1.245 J-8.496 
CCW X16.936 Y35.316 I-2.654 J16.641 
CW X18.157 Y32.055 I-64.479 J-26.002 
CCW X20.601 Y27.710 I20.766 J8.821 
G1 X21.826 Y26.055 ;extruding 
G1 X20.285 Y24.890 ;extruding 
CCW X15.895 Y18.116 I8.618 J-10.395 
G1 X16.136 Y17.863 ;extruding 
CCW X17.207 Y18.151 I-0.221 J2.959 
CCW X18.291 Y18.543 I-0.500 J3.077 
CCW X19.336 Y19.029 I-0.801 J3.088 
CCW X20.334 Y19.605 I-1.081 J3.026 
CCW X21.277 Y20.268 I-1.387 J2.974 
CCW X22.158 Y21.011 I-1.648 J2.848 
CCW X22.970 Y21.830 I-1.945 J2.740 
G1 X24.229 Y23.074 ;extruding 
CW X27.018 Y21.230 I-37.492 J-59.737 
CCW X31.535 Y19.164 I11.544 J19.268 
G1 X33.465 Y18.555 ;extruding 
CCW X32.612 Y14.406 I17.058 J-5.669 
CCW X32.902 Y10.841 I10.976 J-0.901 
CCW X33.227 Y9.605 I4.179 J0.438 
CCW X33.483 Y8.731 I5.108 J1.022 
G1 X33.986 Y8.646 ;extruding 
CCW X35.738 Y11.227 I-7.743 J7.141 
G1 X36.017 Y11.689 ;extruding 
CW X36.566 Y13.042 I6.545 J-1.868 
CW X36.907 Y14.123 I4.665 J-0.877 
CW X37.116 Y14.959 I4.407 J-0.658 
G1 X37.203 Y15.910 ;extruding 
G1 X37.542 Y17.652 ;extruding 
G1 X40.847 Y17.792 ;extruding 
CCW X45.772 Y18.790 I-2.063 J22.832 
G1 X47.699 Y19.435 ;extruding 
CCW X48.866 Y16.546 I19.001 J5.995 
CCW X53.494 Y11.415 I12.043 J6.210 
G1 X53.854 Y11.559 ;extruding 
CCW X53.922 Y12.687 I-2.708 J0.729 
CCW X53.894 Y13.846 I-2.872 J0.510 
CCW X53.763 Y14.997 I-2.921 J0.251 
CCW X53.532 Y16.131 I-2.944 J-0.009 
CCW X53.202 Y17.239 I-2.949 J-0.275 
CCW X52.776 Y18.312 I-2.927 J-0.541 
CCW X52.257 Y19.343 I-2.883 J-0.805 
G1 X51.538 Y20.856 ;extruding 
FILEWRITE $hFile"\x05\x02\x30\x34\x44\x49\x20\x20\x43\x46\x03"
G1 X51.988 Y20.823 ;not extruding 
CW X54.360 Y22.707 I38.693 J-46.280 
CCW X58.777 Y27.806 I-16.425 J18.691 
CCW X67.316 Y24.782 I8.906 J11.582 
FILEWRITE $hFile"\x05\x02\x30\x34\x44\x49\x20\x20\x43\x46\x03"
DWELL 0.15
G1 X68.293 Y24.801 ;extruding 
G1 X68.733 Y25.496 ;extruding 
CW X68.403 Y26.119 I2.787 J1.875 
CW X67.723 Y27.097 I4.365 J3.760 
CW X66.960 Y28.011 I4.068 J4.172 
CW X66.119 Y28.853 I3.744 J4.581 
CW X65.208 Y29.617 I3.548 J5.156 
CW X64.233 Y30.298 I3.040 J5.391 
CW X63.201 Y30.889 I2.644 J5.813 
CW X61.305 Y31.817 I4.063 J10.701 
CW X62.118 Y34.734 I55.083 J-13.780 
CCW X62.694 Y41.338 I-23.870 J5.409 
G1 X64.699 Y41.605 ;extruding 
CCW X70.000 Y43.302 I-0.693 J11.294 
CCW X71.105 Y44.011 I-1.776 J3.984 
CCW X72.061 Y44.691 I-2.908 J5.101 
CW X71.933 Y45.623 I4.889 J1.146 
CCW X68.635 Y46.609 I-4.979 J-10.644 
CCW X67.116 Y46.769 I-1.222 J-4.308 
CCW X65.969 Y46.804 I-0.658 J-2.760 
CCW X65.093 Y46.789 I-0.397 J-2.381 
G1 X64.549 Y46.771 ;extruding 
CW X62.156 Y46.380 I-3.155 J11.791 
G1 X61.104 Y49.206 ;extruding 
CCW X57.604 Y54.989 I-22.998 J-9.968 
CCW X62.481 Y60.756 I-8.736 J12.333 
CCW X63.331 Y63.151 I-12.520 J5.792 
G1 X62.796 Y63.788 ;extruding 
CW X62.089 Y63.669 I-0.863 J2.967 
CW X60.940 Y63.327 I-2.074 J4.867 
CW X59.828 Y62.887 I-2.475 J4.629 
CW X58.759 Y62.351 I-2.926 J4.501 
CW X57.742 Y61.723 I-3.304 J4.214 
CW X56.786 Y61.008 I-3.707 J3.960 
CW X55.897 Y60.213 I-4.122 J3.715 
G1 X55.456 Y59.696 ;extruding 
G1 X54.416 Y58.712 ;extruding 
CW X51.892 Y60.385 I31.093 J49.650 
CCW X45.677 Y63.010 I-12.698 J-21.394 
CCW X45.917 Y72.058 I-13.785 J4.893 
G1 X45.591 Y72.989 ;extruding 
G1 X44.797 Y73.192 ;extruding 
CW X44.307 Y72.686 I-2.775 J2.197 
CW X43.587 Y71.737 I-5.034 J3.071 
CW X42.954 Y70.729 I-5.244 J2.590 
CW X42.412 Y69.670 I-5.465 J2.129 
CW X41.967 Y68.567 I-5.690 J1.654 
CW X41.621 Y67.429 I-6.122 J1.240 
CW X41.377 Y66.265 I-6.199 J0.692 
CW X41.081 Y64.175 I-11.452 J0.556 
CW X38.056 Y64.046 I-3.972 J57.609 
CCW X31.515 Y62.526 I2.261 J-24.564 
CCW X28.401 Y68.020 I-14.521 J-4.601 
CCW X27.486 Y68.880 I-5.732 J-5.182 
CCW X26.474 Y69.707 I-3.207 J-2.892 
CCW X25.538 Y70.400 I-3.878 J-4.259 
CW X24.699 Y69.991 I-2.776 J4.631 
CCW X24.785 Y66.537 I11.858 J-1.433 
CCW X25.104 Y65.040 I4.615 J0.201 
CCW X25.429 Y63.934 I2.891 J0.249 
CCW X25.717 Y63.103 I2.447 J0.383 
G1 X25.905 Y62.587 ;extruding 
CW X27.021 Y60.430 I-10.652 J-6.879 
G1 X24.661 Y58.553 ;extruding 
CCW X20.249 Y53.429 I16.725 J-18.863 
CCW X13.555 Y56.227 I-8.999 J-12.123 
CCW X10.709 Y56.321 I-1.851 J-12.907 
G1 X10.280 Y55.533 ;extruding 
CCW X12.378 Y52.782 I10.290 J5.672 
G1 X12.736 Y52.372 ;extruding 
CW X13.886 Y51.403 I-4.199 J-6.150 
CW X14.832 Y50.733 I-2.541 J-4.590 
CW X15.596 Y50.258 I-2.293 J-4.540 
CCW X17.782 Y49.295 I6.183 J11.073 
G1 X16.938 Y46.277 ;extruding 
CCW X16.367 Y39.545 I24.445 J-5.464 
CCW X7.985 Y37.131 I-0.300 J-14.717 
CCW X6.902 Y36.320 I7.972 J-11.774 
G1 X6.984 Y35.512 ;extruding 
CCW X10.306 Y34.468 I4.352 J8.039 
CCW X11.814 Y34.315 I1.219 J4.508 
CCW X12.952 Y34.288 I0.638 J2.879 
CCW X13.817 Y34.309 I0.371 J2.561 
CCW X16.695 Y34.846 I-0.646 J11.445 
CW X17.793 Y31.906 I-58.638 J-23.574 
CCW X21.279 Y26.133 I22.810 J9.835 
CCW X15.455 Y17.995 I7.849 J-11.770 
CW X15.989 Y17.424 I-2.301 J-2.687 
CCW X17.320 Y17.774 I-0.436 J4.362 
CCW X18.436 Y18.177 I-0.536 J3.230 
CCW X19.513 Y18.678 I-0.822 J3.176 
CCW X20.541 Y19.271 I-1.121 J3.130 
CCW X21.513 Y19.954 I-1.425 J3.060 
CCW X22.421 Y20.719 I-1.689 J2.926 
CCW X23.257 Y21.562 I-1.972 J2.791 
G1 X24.280 Y22.572 ;extruding 
CW X26.811 Y20.895 I-33.173 J-52.814 
CCW X32.986 Y18.294 I12.626 J21.345 
CCW X32.282 Y11.997 I14.705 J-4.832 
CCW X32.517 Y10.763 I7.709 J0.829 
CCW X32.850 Y9.494 I4.327 J0.457 
CCW X33.201 Y8.375 I5.664 J1.162 
CW X34.127 Y8.208 I-0.430 J-5.036 
CCW X36.084 Y11.040 I-8.545 J7.997 
CCW X36.706 Y12.435 I-3.763 J2.514 
CCW X37.093 Y13.516 I-2.398 J1.468 
CCW X37.350 Y14.353 I-2.147 J1.117 
G1 X37.500 Y14.876 ;extruding 
CW X37.868 Y17.273 I12.462 J-0.687 
G1 X40.881 Y17.400 ;extruding 
CCW X47.463 Y18.942 I-2.382 J24.986 
CCW X51.440 Y12.521 I14.445 J4.504 
CCW X53.455 Y10.973 I9.478 J10.252 
G1 X54.227 Y11.285 ;extruding 
CW X54.332 Y11.994 I3.021 J-0.085 
CW X54.362 Y13.192 I5.179 J0.470 
CW X54.287 Y14.386 I5.182 J0.925 
CW X54.107 Y15.568 I5.139 J1.387 
CW X53.824 Y16.729 I5.177 J1.877 
CW X53.440 Y17.859 I4.945 J2.311 
CW X52.958 Y18.951 I4.853 J2.795 
CW X52.026 Y20.745 I7.913 J5.250 
FILEWRITE $hFile"\x05\x02\x30\x34\x44\x49\x20\x20\x43\x46\x03"
G1 X52.476 Y20.712 ;not extruding 
CW X54.614 Y22.407 I34.507 J-41.330 
CCW X58.872 Y27.264 I-15.960 J18.286 
CCW X68.547 Y24.426 I8.627 J11.500 
CW X69.119 Y25.371 I4.224 J-1.911 
FILEWRITE $hFile"\x05\x02\x30\x34\x44\x49\x20\x20\x43\x46\x03"
DWELL 0.15
G1 X69.188 Y25.512 ;extruding 
CW X68.738 Y26.327 I3.583 J2.510 
CW X68.039 Y27.334 I4.519 J3.883 
CW X67.253 Y28.275 I4.110 J4.232 
CW X66.388 Y29.142 I3.928 J4.783 
CW X65.450 Y29.929 I3.478 J5.098 
CW X64.446 Y30.629 I3.152 J5.591 
CW X63.385 Y31.238 I2.782 J6.075 
CW X61.767 Y32.018 I3.385 J9.090 
CW X62.500 Y34.643 I48.620 J-12.162 
CCW X63.090 Y40.995 I-23.444 J5.381 
G1 X64.734 Y41.213 ;extruding 
CCW X70.193 Y42.959 I-0.740 J11.719 
CCW X71.326 Y43.686 I-1.818 J4.080 
CCW X72.486 Y44.542 I-3.075 J5.381 
CW X72.307 Y45.872 I6.978 J1.616 
CCW X68.706 Y46.996 I-5.242 J-10.464 
G1 X68.163 Y47.122 ;extruding 
CW X66.613 Y47.238 I-0.221 J7.466 
CW X65.420 Y47.227 I-0.643 J5.019 
CW X64.509 Y47.162 I-0.802 J4.828 
CW X62.416 Y46.808 I-2.857 J10.528 
G1 X61.466 Y49.358 ;extruding 
CCW X58.146 Y54.917 I-22.553 J-9.699 
CCW X63.769 Y63.273 I-8.437 J11.748 
CW X63.035 Y64.115 I3.600 J3.879 
G1 X62.921 Y64.225 ;extruding 
CW X61.996 Y64.052 I-1.220 J3.965 
CW X60.814 Y63.701 I-2.144 J5.056 
CW X59.669 Y63.248 I-2.570 J4.823 
CW X58.569 Y62.697 I-3.029 J4.673 
CW X57.523 Y62.051 I-3.387 J4.315 
CW X56.539 Y61.316 I-3.822 J4.090 
CW X55.624 Y60.497 I-4.276 J3.857 
CW X54.371 Y59.210 I-6.788 J5.355 
CW X52.098 Y60.720 I28.203 J44.919 
CCW X46.163 Y63.268 I-12.463 J-20.843 
CCW X45.872 Y73.346 I-13.595 J4.651 
CW X44.797 Y73.598 I0.557 J4.794 
G1 X44.642 Y73.620 ;extruding 
CW X44.005 Y72.941 I-3.542 J2.684 
CW X43.264 Y71.964 I-5.046 J3.058 
CW X42.612 Y70.927 I-5.423 J2.686 
CW X42.055 Y69.836 I-5.729 J2.237 
CW X41.596 Y68.701 I-6.014 J1.772 
CW X41.240 Y67.530 I-6.244 J1.259 
CW X40.989 Y66.332 I-6.637 J0.765 
CW X40.748 Y64.552 I-9.866 J0.429 
CW X38.024 Y64.438 I-3.602 J53.463 
CCW X31.751 Y63.019 I2.113 J-23.918 
CCW X28.220 Y68.764 I-13.845 J-4.552 
CW X27.364 Y69.550 I6.050 J7.448 
CW X26.277 Y70.379 I5.919 J8.889 
CCW X25.547 Y70.850 I-3.550 J-4.702 
CW X24.346 Y70.268 I-3.928 J6.576 
CCW X24.395 Y66.484 I11.742 J-1.740 
G1 X24.445 Y65.926 ;extruding 
CW X24.817 Y64.412 I-7.271 J-2.589 
CW X25.200 Y63.277 I-4.762 J-2.239 
CW X25.546 Y62.427 I-4.531 J-2.340 
CW X26.534 Y60.544 I-9.481 J-6.175 
G1 X24.404 Y58.849 ;extruding 
CCW X20.150 Y53.967 I16.281 J-18.481 
CCW X10.466 Y56.695 I-8.467 J-11.505 
G1 X9.837 Y55.542 ;extruding 
CCW X12.094 Y52.511 I10.384 J5.376 
CCW X13.255 Y51.466 I3.752 J3.001 
CCW X14.188 Y50.746 I2.235 J1.931 
CCW X14.929 Y50.232 I1.801 J1.805 
CCW X17.308 Y49.058 I5.398 J7.942 
G1 X16.555 Y46.367 ;extruding 
CCW X15.971 Y39.925 I23.793 J-5.404 
CCW X6.486 Y36.481 I-0.110 J-14.481 
G1 X6.626 Y35.239 ;extruding 
CCW X10.237 Y34.081 I4.903 J9.079 
CCW X11.784 Y33.923 I1.270 J4.782 
CCW X12.956 Y33.894 I0.659 J2.944 
CCW X13.852 Y33.918 I0.378 J2.639 
CCW X16.454 Y34.376 I-0.191 J8.703 
CW X17.429 Y31.757 I-52.800 J-21.147 
CCW X20.732 Y26.212 I22.301 J9.528 
CCW X15.020 Y17.884 I8.152 J-11.714 
CW X15.863 Y16.987 I-6.472 J-6.927 
CW X16.774 Y17.166 I1.357 J-4.499 
CW X17.946 Y17.524 I2.457 J-5.945 
CW X19.082 Y17.984 I3.011 J-5.802 
CW X20.173 Y18.543 I3.539 J-5.562 
CW X21.210 Y19.196 I4.101 J-5.363 
CW X22.186 Y19.938 I4.698 J-5.167 
CW X23.092 Y20.764 I5.249 J-4.848 
CW X24.330 Y22.070 I8.380 J-6.704 
CW X26.605 Y20.561 I-30.930 J-49.101 
CCW X32.507 Y18.034 I12.370 J20.736 
CCW X31.991 Y11.288 I14.087 J-4.470 
CW X32.222 Y10.145 I-8.634 J-2.340 
CW X32.615 Y8.830 I-9.504 J-3.557 
CCW X32.929 Y8.017 I5.693 J1.732 
CW X34.248 Y7.776 I-0.641 J-7.236 
CCW X36.430 Y10.853 I-8.324 J8.215 
G1 X36.718 Y11.330 ;extruding 
CW X37.307 Y12.769 I7.290 J-2.144 
CW X37.665 Y13.907 I5.036 J-0.959 
CW X37.885 Y14.794 I4.840 J-0.730 
CW X38.195 Y16.893 I10.895 J-0.537 
G1 X40.914 Y17.008 ;extruding 
CCW X47.226 Y18.448 I-2.260 J24.461 
CCW X53.436 Y10.518 I13.779 J4.394 
CW X54.464 Y10.956 I2.527 J-4.507 
G1 X54.604 Y11.031 ;extruding 
CW X54.725 Y11.964 I4.174 J-0.067 
CW X54.757 Y13.196 I5.472 J0.474 
CW X54.680 Y14.425 I5.338 J0.951 
CW X54.495 Y15.642 I5.361 J1.437 
CW X54.204 Y16.836 I5.142 J1.886 
CW X53.809 Y18.000 I5.174 J2.405 
CW X53.313 Y19.123 I4.963 J2.863 
CW X52.513 Y20.633 I6.809 J4.574 
FILEWRITE $hFile"\x05\x02\x30\x34\x44\x49\x20\x20\x43\x46\x03"
G1 X52.964 Y20.600 ;not extruding 
CW X54.868 Y22.107 I31.119 J-37.361 
CCW X58.968 Y26.722 I-15.630 J18.014 
CCW X68.805 Y24.060 I8.498 J11.897 
CW X69.462 Y25.179 I5.132 J-2.261 
FILEWRITE $hFile"\x05\x02\x30\x34\x44\x49\x20\x20\x43\x46\x03"
DWELL 0.15
G1 X69.637 Y25.537 ;extruding 
CW X69.073 Y26.535 I4.459 J3.178 
CW X68.354 Y27.571 I4.620 J3.974 
CW X67.546 Y28.538 I4.360 J4.464 
CW X66.657 Y29.430 I4.110 J4.985 
CW X65.692 Y30.240 I3.708 J5.397 
CW X64.660 Y30.961 I3.220 J5.708 
CW X63.568 Y31.588 I2.731 J6.020 
CW X62.228 Y32.219 I2.693 J7.458 
CW X62.883 Y34.552 I43.914 J-11.071 
CW X63.234 Y36.380 I34.189 J-5.617 
CCW X63.485 Y40.651 I-23.712 J3.536 
CW X65.340 Y40.848 I2.058 J-10.548 
CCW X70.386 Y42.617 I-1.738 J13.038 
CCW X71.548 Y43.362 I-1.871 J4.198 
CCW X72.910 Y44.394 I-3.723 J6.328 
CW X72.681 Y46.117 I9.166 J2.095 
CCW X71.345 Y46.722 I-3.926 J-6.892 
G1 X69.808 Y47.206 ;extruding 
CCW X68.777 Y47.382 I-1.847 J-7.710 
CCW X67.182 Y47.553 I-1.324 J-4.824 
CCW X65.965 Y47.590 I-0.698 J-2.909 
CCW X65.030 Y47.573 I-0.421 J-2.540 
CCW X63.448 Y47.329 I0.008 J-5.300 
G1 X62.676 Y47.235 ;extruding 
G1 X61.829 Y49.511 ;extruding 
CCW X58.689 Y54.844 I-22.206 J-9.484 
CCW X64.196 Y63.406 I-8.841 J11.738 
CW X63.323 Y64.382 I4.096 J4.542 
G1 X63.036 Y64.660 ;extruding 
CW X61.903 Y64.436 I-1.533 J4.778 
CW X60.688 Y64.075 I-2.213 J5.223 
CW X59.511 Y63.610 I-2.640 J4.959 
CW X58.379 Y63.043 I-3.059 J4.693 
CW X57.304 Y62.379 I-3.514 J4.487 
CW X56.291 Y61.623 I-3.959 J4.248 
CW X55.350 Y60.781 I-4.384 J3.953 
CW X54.326 Y59.708 I-5.659 J4.376 
CW X52.305 Y61.054 I25.637 J40.684 
CCW X46.649 Y63.527 I-12.294 J-20.414 
CCW X46.141 Y73.705 I-13.941 J4.406 
CW X44.874 Y73.984 I0.583 J5.662 
G1 X44.479 Y74.040 ;extruding 
CW X43.704 Y73.195 I-4.403 J3.260 
CW X42.941 Y72.191 I-5.268 J3.211 
CW X42.271 Y71.124 I-5.508 J2.715 
CW X41.697 Y70.003 I-5.863 J2.295 
CW X41.225 Y68.835 I-6.239 J1.842 
CW X40.859 Y67.630 I-6.618 J1.352 
CW X40.600 Y66.398 I-6.774 J0.781 
CW X40.414 Y64.929 I-8.062 J0.274 
CW X37.993 Y64.831 I-2.985 J43.793 
CW X36.145 Y64.600 I-4.943 J32.034 
CCW X31.986 Y63.512 I3.946 J-23.577 
CCW X28.019 Y69.458 I-13.271 J-4.558 
CCW X26.954 Y70.330 I-3.410 J-3.078 
CCW X25.557 Y71.300 I-4.948 J-5.635 
CW X23.995 Y70.546 I-5.086 J8.542 
CCW X23.837 Y69.081 I8.084 J-1.613 
G1 X23.855 Y67.466 ;extruding 
CCW X24.115 Y65.609 I29.935 J3.244 
CW X24.438 Y64.304 I-5.586 J-2.075 
CW X24.830 Y63.141 I-4.884 J-2.294 
CW X25.186 Y62.267 I-4.739 J-2.440 
CCW X25.715 Y61.366 I7.382 J3.728 
G1 X26.047 Y60.658 ;extruding 
G1 X24.146 Y59.146 ;extruding 
CCW X20.052 Y54.504 I15.910 J-18.158 
CCW X10.223 Y57.069 I-8.374 J-11.973 
G1 X9.396 Y55.552 ;extruding 
CCW X10.121 Y54.278 I7.254 J3.285 
G1 X11.079 Y52.988 ;extruding 
CCW X11.810 Y52.239 I6.087 J5.210 
CCW X12.998 Y51.167 I3.999 J3.237 
CCW X13.959 Y50.427 I2.286 J1.975 
CCW X14.725 Y49.896 I1.846 J1.845 
CCW X16.834 Y48.821 I5.221 J7.637 
G1 X16.173 Y46.457 ;extruding 
CCW X15.575 Y40.305 I23.341 J-5.374 
CCW X6.070 Y36.642 I0.229 J-14.757 
CW X6.276 Y34.959 I-87.454 J-11.558 
CW X7.111 Y34.556 I-1.719 J-4.629 
CCW X10.168 Y33.694 I4.522 J10.185 
CCW X11.753 Y33.531 I1.320 J5.053 
CCW X12.961 Y33.501 I0.680 J3.049 
CCW X13.886 Y33.526 I0.389 J2.721 
CCW X16.212 Y33.907 I-0.320 J9.247 
CW X17.065 Y31.608 I-46.320 J-18.494 
CCW X20.185 Y26.291 I21.909 J9.282 
CCW X14.598 Y17.777 I8.587 J-11.725 
CCW X15.186 Y17.162 I3.138 J2.411 
CCW X15.748 Y16.552 I3.054 J2.250 
CW X16.870 Y16.784 I1.731 J-5.543 
CW X18.076 Y17.152 I2.500 J-6.033 
CW X19.244 Y17.625 I3.096 J-5.965 
CW X20.366 Y18.199 I3.645 J-5.740 
CW X21.433 Y18.871 I4.205 J-5.493 
CW X22.436 Y19.634 I4.845 J-5.329 
CW X23.368 Y20.483 I5.462 J-5.060 
CW X24.381 Y21.568 I6.906 J-5.433 
CW X26.398 Y20.226 I-25.712 J-40.832 
CCW X32.028 Y17.773 I12.219 J20.358 
CCW X31.746 Y10.609 I13.504 J-4.119 
CCW X32.096 Y9.273 I4.545 J0.477 
CCW X32.656 Y7.658 I7.181 J1.585 
CW X34.366 Y7.344 I-0.800 J-9.170 
CCW X35.354 Y8.428 I-5.449 J5.959 
G1 X36.290 Y9.740 ;extruding 
CCW X36.776 Y10.666 I-7.196 J4.367 
CCW X37.431 Y12.130 I-4.192 J2.754 
CCW X37.842 Y13.276 I-2.553 J1.562 
CCW X38.115 Y14.171 I-2.323 J1.198 
CCW X38.372 Y15.751 I-4.976 J1.620 
G1 X38.521 Y16.514 ;extruding 
G1 X40.947 Y16.617 ;extruding 
CCW X46.990 Y17.955 I-2.146 J24.008 
CCW X53.431 Y10.071 I13.869 J4.757 
CW X54.629 Y10.600 I3.032 J-5.245 
G1 X54.982 Y10.787 ;extruding 
CW X55.119 Y11.933 I4.981 J-0.014 
CW X55.151 Y13.200 I5.633 J0.492 
CW X55.072 Y14.464 I5.649 J0.988 
CW X54.883 Y15.715 I5.517 J1.473 
CW X54.584 Y16.944 I5.314 J1.944 
CW X54.178 Y18.140 I5.236 J2.444 
CW X53.668 Y19.295 I5.173 J2.974 
CW X53.001 Y20.522 I5.397 J3.728 
FILEWRITE $hFile"\x05\x02\x30\x34\x44\x49\x20\x20\x43\x46\x03"
G1 X52.628 Y21.074 ;not extruding 
G1 X57.838 Y21.798 ;not extruding 
G1 X44.866 Y37.721 ;not extruding 
FILEWRITE $hFile"\x05\x02\x30\x34\x44\x49\x20\x20\x43\x46\x03"
DWELL 0.15
G1 X44.866 Y43.577 ;extruding 
G1 X42.054 Y43.577 ;extruding 
CCW X42.054 Y37.721 I-2.620 J-2.928 
G1 X44.779 Y37.721 ;extruding 
FILEWRITE $hFile"\x05\x02\x30\x34\x44\x49\x20\x20\x43\x46\x03"
G1 X44.474 Y38.114 ;not extruding 
FILEWRITE $hFile"\x05\x02\x30\x34\x44\x49\x20\x20\x43\x46\x03"
DWELL 0.15
G1 X44.474 Y43.185 ;extruding 
G1 X41.901 Y43.185 ;extruding 
CCW X41.896 Y38.114 I-2.467 J-2.533 
G1 X44.387 Y38.114 ;extruding 
FILEWRITE $hFile"\x05\x02\x30\x34\x44\x49\x20\x20\x43\x46\x03"
G1 X44.081 Y38.507 ;not extruding 
FILEWRITE $hFile"\x05\x02\x30\x34\x44\x49\x20\x20\x43\x46\x03"
DWELL 0.15
G1 X44.081 Y42.792 ;extruding 
G1 X41.726 Y42.792 ;extruding 
CCW X41.723 Y38.507 I-2.295 J-2.141 
G1 X43.994 Y38.507 ;extruding 
FILEWRITE $hFile"\x05\x02\x30\x34\x44\x49\x20\x20\x43\x46\x03"
G1 X43.688 Y38.899 ;not extruding 
FILEWRITE $hFile"\x05\x02\x30\x34\x44\x49\x20\x20\x43\x46\x03"
DWELL 0.15
G1 X43.688 Y42.399 ;extruding 
G1 X41.550 Y42.399 ;extruding 
CCW X41.549 Y38.899 I-2.116 J-1.749 
CCW X44.268 Y38.921 I1.026 J41.229 
FILEWRITE $hFile"\x05\x02\x30\x34\x44\x49\x20\x20\x43\x46\x03"
G1 X45.008 Y37.580 ;not extruding 
FILEWRITE $hFile"\x05\x02\x30\x34\x44\x49\x20\x20\x43\x46\x03"
DWELL 0.15
G1 X45.008 Y43.719 ;extruding 
G1 X42.189 Y43.719 ;extruding 
CCW X39.509 Y44.716 I-2.963 J-3.864 
CCW X41.414 Y37.094 I-0.070 J-4.067 
G1 X42.189 Y37.580 ;extruding 
G1 X44.921 Y37.580 ;extruding 
FILEWRITE $hFile"\x05\x02\x30\x34\x44\x49\x20\x20\x43\x46\x03"
G1 X45.401 Y37.187 ;not extruding 
FILEWRITE $hFile"\x05\x02\x30\x34\x44\x49\x20\x20\x43\x46\x03"
DWELL 0.15
G1 X45.401 Y44.112 ;extruding 
G1 X42.302 Y44.112 ;extruding 
CCW X36.512 Y44.015 I-2.835 J-3.634 
CCW X41.603 Y36.749 I2.926 J-3.366 
G1 X42.302 Y37.187 ;extruding 
G1 X45.314 Y37.187 ;extruding 
FILEWRITE $hFile"\x05\x02\x30\x34\x44\x49\x20\x20\x43\x46\x03"
G1 X45.793 Y36.794 ;not extruding 
FILEWRITE $hFile"\x05\x02\x30\x34\x44\x49\x20\x20\x43\x46\x03"
DWELL 0.15
G1 X45.793 Y44.504 ;extruding 
G1 X42.415 Y44.504 ;extruding 
CCW X42.415 Y36.794 I-2.966 J-3.855 
G1 X45.706 Y36.794 ;extruding 
FILEWRITE $hFile"\x05\x02\x30\x34\x44\x49\x20\x20\x43\x46\x03"
G1 X46.186 Y36.402 ;not extruding 
FILEWRITE $hFile"\x05\x02\x30\x34\x44\x49\x20\x20\x43\x46\x03"
DWELL 0.15
G1 X46.186 Y44.897 ;extruding 
G1 X42.528 Y44.897 ;extruding 
CCW X42.528 Y36.402 I-3.087 J-4.248 
G1 X46.099 Y36.402 ;extruding 
FILEWRITE $hFile"\x05\x02\x30\x34\x44\x49\x20\x20\x43\x46\x03"
G1 X45.883 Y36.896 ;not extruding 
G1 X59.522 Y23.834 ;not extruding 
G1 X59.898 Y29.895 ;not extruding 
FILEWRITE $hFile"\x05\x02\x30\x34\x44\x49\x20\x20\x43\x46\x03"
DWELL 0.15
G1 X60.284 Y29.692 ;extruding 
G1 X60.247 Y29.655 ;extruding 
G1 X60.596 Y29.415 ;extruding 
G1 X60.670 Y29.489 ;extruding 
G1 X61.055 Y29.286 ;extruding 
G1 X60.945 Y29.175 ;extruding 
G1 X61.294 Y28.935 ;extruding 
G1 X61.441 Y29.083 ;extruding 
G1 X61.847 Y28.900 ;extruding 
G1 X61.668 Y28.721 ;extruding 
G1 X62.044 Y28.507 ;extruding 
G1 X62.241 Y28.704 ;extruding 
G1 X62.611 Y28.486 ;extruding 
G1 X62.436 Y28.311 ;extruding 
G1 X62.840 Y28.126 ;extruding 
G1 X62.992 Y28.277 ;extruding 
G1 X63.326 Y28.023 ;extruding 
G1 X63.253 Y27.949 ;extruding 
CCW X63.799 Y27.767 I1.103 J2.399 
FILEWRITE $hFile"\x05\x02\x30\x34\x44\x49\x20\x20\x43\x46\x03"
G1 X59.852 Y29.870 ;not extruding 
G1 X58.829 Y29.450 ;not extruding 
G1 X57.690 Y28.551 ;not extruding 
G1 X54.628 Y24.956 ;not extruding 
G1 X50.979 Y21.764 ;not extruding 
G1 X49.662 Y19.939 ;not extruding 
G1 X49.569 Y20.039 ;not extruding 
FILEWRITE $hFile"\x05\x02\x30\x34\x44\x49\x20\x20\x43\x46\x03"
DWELL 0.15
G1 X49.720 Y19.631 ;extruding 
G1 X49.873 Y19.784 ;extruding 
G1 X50.053 Y19.405 ;extruding 
G1 X49.870 Y19.222 ;extruding 
G1 X50.021 Y18.814 ;extruding 
G1 X50.233 Y19.027 ;extruding 
G1 X50.413 Y18.648 ;extruding 
G1 X50.171 Y18.406 ;extruding 
G1 X50.350 Y18.026 ;extruding 
G1 X50.605 Y18.281 ;extruding 
G1 X50.817 Y17.935 ;extruding 
G1 X50.529 Y17.646 ;extruding 
G1 X50.708 Y17.267 ;extruding 
G1 X50.972 Y17.530 ;extruding 
G1 X51.157 Y17.157 ;extruding 
G1 X50.913 Y16.913 ;extruding 
G1 X51.122 Y16.563 ;extruding 
G1 X51.302 Y16.743 ;extruding 
G1 X51.449 Y16.331 ;extruding 
G1 X51.350 Y16.233 ;extruding 
CW X51.649 Y15.735 I-1.071 J-0.982 
FILEWRITE $hFile"\x05\x02\x30\x34\x44\x49\x20\x20\x43\x46\x03"
G1 X49.662 Y19.939 ;not extruding 
G1 X49.202 Y20.087 ;not extruding 
G1 X47.056 Y20.174 ;not extruding 
G1 X42.436 Y19.030 ;not extruding 
G1 X37.319 Y18.584 ;not extruding 
G1 X35.414 Y17.910 ;not extruding 
G1 X35.353 Y18.016 ;not extruding 
FILEWRITE $hFile"\x05\x02\x30\x34\x44\x49\x20\x20\x43\x46\x03"
DWELL 0.15
G1 X35.602 Y17.960 ;extruding 
G1 X35.522 Y17.548 ;extruding 
G1 X35.112 Y17.139 ;extruding 
G1 X34.875 Y16.266 ;extruding 
G1 X35.368 Y16.759 ;extruding 
CCW X35.239 Y15.994 I3.371 J-0.962 
G1 X34.732 Y15.487 ;extruding 
CCW X34.615 Y14.734 I4.444 J-1.076 
G1 X35.166 Y15.285 ;extruding 
CW X34.904 Y14.386 I-60.318 J17.091 
G1 X34.569 Y14.052 ;extruding 
G1 X34.557 Y13.404 ;extruding 
FILEWRITE $hFile"\x05\x02\x30\x34\x44\x49\x20\x20\x43\x46\x03"
G1 X35.414 Y17.910 ;not extruding 
G1 X33.398 Y19.561 ;not extruding 
G1 X29.022 Y21.337 ;not extruding 
G1 X24.970 Y23.782 ;not extruding 
G1 X22.927 Y24.545 ;not extruding 
G1 X22.824 Y25.624 ;not extruding 
G1 X22.324 Y26.943 ;not extruding 
G1 X19.817 Y30.943 ;not extruding 
G1 X17.922 Y35.458 ;not extruding 
G1 X16.709 Y37.210 ;not extruding 
G1 X16.210 Y37.159 ;not extruding 
G1 X16.329 Y37.186 ;not extruding 
FILEWRITE $hFile"\x05\x02\x30\x34\x44\x49\x20\x20\x43\x46\x03"
DWELL 0.15
G1 X15.551 Y36.981 ;extruding 
G1 X15.737 Y37.167 ;extruding 
G1 X15.145 Y37.148 ;extruding 
G1 X14.792 Y36.795 ;extruding 
CW X14.111 Y36.686 I-0.768 J2.618 
G1 X14.509 Y37.084 ;extruding 
G1 X13.856 Y37.004 ;extruding 
G1 X13.495 Y36.644 ;extruding 
CW X12.926 Y36.647 I-0.276 J1.603 
G1 X13.106 Y36.827 ;extruding 
G1 X12.330 Y36.623 ;extruding 
FILEWRITE $hFile"\x05\x02\x30\x34\x44\x49\x20\x20\x43\x46\x03"
G1 X16.709 Y37.210 ;not extruding 
G1 X17.426 Y38.502 ;not extruding 
G1 X17.668 Y39.553 ;not extruding 
G1 X18.009 Y44.297 ;not extruding 
G1 X19.190 Y49.660 ;not extruding 
G1 X19.154 Y51.290 ;not extruding 
FILEWRITE $hFile"\x05\x02\x30\x34\x44\x49\x20\x20\x43\x46\x03"
DWELL 0.15
G1 X18.751 Y51.447 ;extruding 
G1 X18.841 Y51.536 ;extruding 
G1 X18.504 Y51.760 ;extruding 
G1 X18.347 Y51.603 ;extruding 
G1 X17.944 Y51.760 ;extruding 
G1 X18.168 Y51.984 ;extruding 
G1 X17.832 Y52.208 ;extruding 
G1 X17.541 Y51.917 ;extruding 
G1 X17.168 Y52.103 ;extruding 
G1 X17.477 Y52.413 ;extruding 
G1 X17.115 Y52.611 ;extruding 
G1 X16.795 Y52.290 ;extruding 
G1 X16.459 Y52.515 ;extruding 
G1 X16.754 Y52.809 ;extruding 
G1 X16.373 Y52.988 ;extruding 
G1 X16.112 Y52.727 ;extruding 
G1 X15.801 Y52.977 ;extruding 
G1 X15.983 Y53.158 ;extruding 
G1 X15.571 Y53.306 ;extruding 
G1 X15.460 Y53.195 ;extruding 
CW X15.156 Y53.451 I0.495 J0.897 
FILEWRITE $hFile"\x05\x02\x30\x34\x44\x49\x20\x20\x43\x46\x03"
G1 X14.994 Y53.547 ;not extruding 
G1 X19.074 Y51.306 ;not extruding 
G1 X21.313 Y52.665 ;not extruding 
G1 X24.338 Y56.346 ;not extruding 
G1 X27.900 Y59.403 ;not extruding 
G1 X28.678 Y60.259 ;not extruding 
G1 X29.340 Y61.418 ;not extruding 
G1 X29.440 Y61.349 ;not extruding 
FILEWRITE $hFile"\x05\x02\x30\x34\x44\x49\x20\x20\x43\x46\x03"
DWELL 0.15
G1 X29.234 Y61.260 ;extruding 
G1 X29.092 Y61.563 ;extruding 
G1 X29.287 Y61.759 ;extruding 
