DVAR $hFile
DVAR $cCheck
DVAR $press
DVAR $length
DVAR $lame
DVAR $comport
DVAR $COM5
DVAR $linepressure5


G71
G76
G91 ;G90 = absolute, G91 = relative
G68

RAMP TYPE SINE X Y
VELOCITY OFF
RAMP RATE 900

$linepressure5 = 20.0000
CALL setPress5 P$COM5 Q$linepressure5

ENABLE X Y D
'HOME X Y D
G90
G0 D-80 F60
G0 X0 Y0 D0 F60
G91

;Begin Motion
'G0 X150 Y50 F60
G0 D-149.5 F60
G1 F20

FILECLOSE
$hFile = FILEOPEN "COM5", 2
COMMINIT $hFile, "baud=115200 parity=N data=8 stop=1"
COMMSETTIMEOUT $hFile, -1, -1, 1000


FILEWRITE $hFile"\x05\x02\x30\x38\x50\x53\x20\x20\x30\x33\x34\x30\x45\x45\x03"

; generated by Slic3r 1.3.0 on 2023-03-30 at 09:55:23 
; external perimeters extrusion width = 0.50mm (2.95mm^3/s) 
; perimeters extrusion width = 0.50mm (2.95mm^3/s) 
; infill extrusion width = 0.50mm (2.95mm^3/s) 
; solid infill extrusion width = 0.50mm (2.95mm^3/s) 
; top infill extrusion width = 0.50mm (2.95mm^3/s) 
; Filament gcode 
; G21 ; set units to millimeters 
G90 ; use absolute coordinates 
G1 D-149.500 ;not extruding 
G1 X21.594 Y19.611 ;not extruding 
FILEWRITE $hFile"\x05\x02\x30\x34\x44\x49\x20\x20\x43\x46\x03"
DWELL 0.15
G1 X23.589 Y17.414 ;extruding 
G1 X25.960 Y15.396 ;extruding 
G1 X28.568 Y13.698 ;extruding 
G1 X31.373 Y12.347 ;extruding 
G1 X34.327 Y11.366 ;extruding 
G1 X37.383 Y10.771 ;extruding 
G1 X40.468 Y10.573 ;extruding 
G1 X43.594 Y10.771 ;extruding 
G1 X46.651 Y11.366 ;extruding 
G1 X49.605 Y12.347 ;extruding 
G1 X52.410 Y13.698 ;extruding 
G1 X55.001 Y15.384 ;extruding 
G1 X57.388 Y17.413 ;extruding 
G1 X59.482 Y19.718 ;extruding 
G1 X61.263 Y22.271 ;extruding 
G1 X62.702 Y25.031 ;extruding 
G1 X63.778 Y27.952 ;extruding 
G1 X64.465 Y30.966 ;extruding 
G1 X64.769 Y34.084 ;extruding 
G1 X64.669 Y37.197 ;extruding 
G1 X64.173 Y40.270 ;extruding 
G1 X63.287 Y43.254 ;extruding 
G1 X62.027 Y46.101 ;extruding 
G1 X60.413 Y48.762 ;extruding 
G1 X58.472 Y51.196 ;extruding 
G1 X56.236 Y53.362 ;extruding 
G1 X53.742 Y55.224 ;extruding 
G1 X51.029 Y56.751 ;extruding 
G1 X48.144 Y57.919 ;extruding 
G1 X45.133 Y58.709 ;extruding 
G1 X42.046 Y59.107 ;extruding 
G1 X38.933 Y59.107 ;extruding 
G1 X35.845 Y58.709 ;extruding 
G1 X32.834 Y57.919 ;extruding 
G1 X29.949 Y56.751 ;extruding 
G1 X27.237 Y55.224 ;extruding 
G1 X24.742 Y53.362 ;extruding 
G1 X22.506 Y51.196 ;extruding 
G1 X20.565 Y48.762 ;extruding 
G1 X18.951 Y46.101 ;extruding 
G1 X17.691 Y43.254 ;extruding 
G1 X16.806 Y40.270 ;extruding 
G1 X16.309 Y37.197 ;extruding 
G1 X16.209 Y34.086 ;extruding 
G1 X16.508 Y30.987 ;extruding 
G1 X17.201 Y27.952 ;extruding 
G1 X18.276 Y25.031 ;extruding 
G1 X19.706 Y22.291 ;extruding 
G1 X21.535 Y19.675 ;extruding 
FILEWRITE $hFile"\x05\x02\x30\x34\x44\x49\x20\x20\x43\x46\x03"
G1 X21.885 Y19.875 ;not extruding 
FILEWRITE $hFile"\x05\x02\x30\x34\x44\x49\x20\x20\x43\x46\x03"
DWELL 0.15
G1 X23.863 Y17.697 ;extruding 
G1 X26.195 Y15.711 ;extruding 
G1 X28.762 Y14.041 ;extruding 
G1 X31.521 Y12.712 ;extruding 
G1 X34.427 Y11.747 ;extruding 
G1 X37.433 Y11.162 ;extruding 
G1 X40.468 Y10.967 ;extruding 
G1 X43.544 Y11.161 ;extruding 
G1 X46.551 Y11.747 ;extruding 
G1 X49.458 Y12.712 ;extruding 
G1 X52.217 Y14.041 ;extruding 
G1 X54.765 Y15.700 ;extruding 
G1 X57.114 Y17.695 ;extruding 
G1 X59.174 Y19.964 ;extruding 
G1 X60.926 Y22.475 ;extruding 
G1 X62.343 Y25.190 ;extruding 
G1 X63.400 Y28.064 ;extruding 
G1 X64.077 Y31.029 ;extruding 
G1 X64.376 Y34.097 ;extruding 
G1 X64.278 Y37.159 ;extruding 
G1 X63.789 Y40.182 ;extruding 
G1 X62.918 Y43.118 ;extruding 
G1 X61.678 Y45.919 ;extruding 
G1 X60.090 Y48.537 ;extruding 
G1 X58.181 Y50.932 ;extruding 
G1 X55.981 Y53.062 ;extruding 
G1 X53.527 Y54.894 ;extruding 
G1 X50.859 Y56.397 ;extruding 
G1 X48.020 Y57.546 ;extruding 
G1 X45.058 Y58.323 ;extruding 
G1 X42.020 Y58.714 ;extruding 
G1 X38.958 Y58.714 ;extruding 
G1 X35.921 Y58.323 ;extruding 
G1 X32.958 Y57.546 ;extruding 
G1 X30.120 Y56.397 ;extruding 
G1 X27.451 Y54.894 ;extruding 
G1 X24.997 Y53.062 ;extruding 
G1 X22.797 Y50.932 ;extruding 
G1 X20.888 Y48.537 ;extruding 
G1 X19.300 Y45.919 ;extruding 
G1 X18.061 Y43.118 ;extruding 
G1 X17.189 Y40.182 ;extruding 
G1 X16.701 Y37.159 ;extruding 
G1 X16.602 Y34.098 ;extruding 
G1 X16.897 Y31.050 ;extruding 
G1 X17.578 Y28.064 ;extruding 
G1 X18.636 Y25.190 ;extruding 
G1 X20.042 Y22.494 ;extruding 
G1 X21.826 Y19.939 ;extruding 
FILEWRITE $hFile"\x05\x02\x30\x34\x44\x49\x20\x20\x43\x46\x03"
G1 X22.175 Y20.139 ;not extruding 
FILEWRITE $hFile"\x05\x02\x30\x34\x44\x49\x20\x20\x43\x46\x03"
DWELL 0.15
G1 X24.137 Y17.979 ;extruding 
G1 X26.430 Y16.027 ;extruding 
G1 X28.955 Y14.384 ;extruding 
G1 X31.668 Y13.077 ;extruding 
G1 X34.527 Y12.128 ;extruding 
G1 X37.483 Y11.552 ;extruding 
G1 X40.468 Y11.360 ;extruding 
G1 X43.494 Y11.552 ;extruding 
G1 X46.451 Y12.128 ;extruding 
G1 X49.310 Y13.077 ;extruding 
G1 X52.024 Y14.384 ;extruding 
G1 X54.530 Y16.015 ;extruding 
G1 X56.841 Y17.978 ;extruding 
G1 X58.866 Y20.209 ;extruding 
G1 X60.590 Y22.679 ;extruding 
G1 X61.983 Y25.350 ;extruding 
G1 X63.023 Y28.176 ;extruding 
G1 X63.689 Y31.092 ;extruding 
G1 X63.983 Y34.110 ;extruding 
G1 X63.886 Y37.121 ;extruding 
G1 X63.405 Y40.095 ;extruding 
G1 X62.548 Y42.982 ;extruding 
G1 X61.329 Y45.737 ;extruding 
G1 X59.768 Y48.312 ;extruding 
G1 X57.890 Y50.667 ;extruding 
G1 X55.726 Y52.762 ;extruding 
G1 X53.312 Y54.564 ;extruding 
G1 X50.688 Y56.042 ;extruding 
G1 X47.896 Y57.172 ;extruding 
G1 X44.982 Y57.936 ;extruding 
G1 X41.995 Y58.322 ;extruding 
G1 X38.983 Y58.322 ;extruding 
G1 X35.996 Y57.936 ;extruding 
G1 X33.082 Y57.172 ;extruding 
G1 X30.291 Y56.042 ;extruding 
G1 X27.666 Y54.564 ;extruding 
G1 X25.252 Y52.762 ;extruding 
G1 X23.089 Y50.667 ;extruding 
G1 X21.211 Y48.312 ;extruding 
G1 X19.649 Y45.737 ;extruding 
G1 X18.430 Y42.982 ;extruding 
G1 X17.573 Y40.095 ;extruding 
G1 X17.092 Y37.121 ;extruding 
G1 X16.996 Y34.111 ;extruding 
G1 X17.285 Y31.113 ;extruding 
G1 X17.955 Y28.176 ;extruding 
G1 X18.995 Y25.350 ;extruding 
G1 X20.379 Y22.698 ;extruding 
G1 X22.117 Y20.203 ;extruding 
FILEWRITE $hFile"\x05\x02\x30\x34\x44\x49\x20\x20\x43\x46\x03"
G1 X22.466 Y20.403 ;not extruding 
FILEWRITE $hFile"\x05\x02\x30\x34\x44\x49\x20\x20\x43\x46\x03"
DWELL 0.15
G1 X24.411 Y18.262 ;extruding 
G1 X26.666 Y16.342 ;extruding 
G1 X29.148 Y14.726 ;extruding 
G1 X31.816 Y13.442 ;extruding 
G1 X34.627 Y12.508 ;extruding 
G1 X37.534 Y11.942 ;extruding 
G1 X40.468 Y11.754 ;extruding 
G1 X43.444 Y11.942 ;extruding 
G1 X46.352 Y12.508 ;extruding 
G1 X49.162 Y13.442 ;extruding 
G1 X51.831 Y14.726 ;extruding 
G1 X54.295 Y16.331 ;extruding 
G1 X56.567 Y18.261 ;extruding 
G1 X58.559 Y20.454 ;extruding 
G1 X60.253 Y22.883 ;extruding 
G1 X61.623 Y25.509 ;extruding 
G1 X62.646 Y28.288 ;extruding 
G1 X63.300 Y31.155 ;extruding 
G1 X63.589 Y34.123 ;extruding 
G1 X63.494 Y37.084 ;extruding 
G1 X63.022 Y40.007 ;extruding 
G1 X62.179 Y42.846 ;extruding 
G1 X60.980 Y45.555 ;extruding 
G1 X59.445 Y48.087 ;extruding 
G1 X57.598 Y50.403 ;extruding 
G1 X55.471 Y52.463 ;extruding 
G1 X53.098 Y54.234 ;extruding 
G1 X50.517 Y55.687 ;extruding 
G1 X47.772 Y56.799 ;extruding 
G1 X44.907 Y57.550 ;extruding 
G1 X41.970 Y57.929 ;extruding 
G1 X39.008 Y57.929 ;extruding 
G1 X36.071 Y57.550 ;extruding 
G1 X33.206 Y56.799 ;extruding 
G1 X30.461 Y55.687 ;extruding 
G1 X27.881 Y54.234 ;extruding 
G1 X25.507 Y52.463 ;extruding 
G1 X23.380 Y50.403 ;extruding 
G1 X21.533 Y48.087 ;extruding 
G1 X19.998 Y45.555 ;extruding 
G1 X18.799 Y42.846 ;extruding 
G1 X17.957 Y40.007 ;extruding 
G1 X17.484 Y37.084 ;extruding 
G1 X17.389 Y34.124 ;extruding 
G1 X17.673 Y31.176 ;extruding 
G1 X18.332 Y28.288 ;extruding 
G1 X19.355 Y25.509 ;extruding 
G1 X20.715 Y22.902 ;extruding 
G1 X22.409 Y20.469 ;extruding 
FILEWRITE $hFile"\x05\x02\x30\x34\x44\x49\x20\x20\x43\x46\x03"
G1 X22.757 Y20.667 ;not extruding 
FILEWRITE $hFile"\x05\x02\x30\x34\x44\x49\x20\x20\x43\x46\x03"
DWELL 0.15
G1 X24.684 Y18.545 ;extruding 
G1 X26.901 Y16.657 ;extruding 
G1 X29.341 Y15.069 ;extruding 
G1 X31.964 Y13.806 ;extruding 
G1 X34.727 Y12.889 ;extruding 
G1 X37.584 Y12.332 ;extruding 
G1 X40.468 Y12.147 ;extruding 
G1 X43.393 Y12.332 ;extruding 
G1 X46.252 Y12.889 ;extruding 
G1 X49.015 Y13.806 ;extruding 
G1 X51.637 Y15.069 ;extruding 
G1 X54.060 Y16.646 ;extruding 
G1 X56.293 Y18.544 ;extruding 
G1 X58.251 Y20.700 ;extruding 
G1 X59.917 Y23.087 ;extruding 
G1 X61.263 Y25.668 ;extruding 
G1 X62.269 Y28.400 ;extruding 
G1 X62.912 Y31.218 ;extruding 
G1 X63.196 Y34.135 ;extruding 
G1 X63.103 Y37.046 ;extruding 
G1 X62.638 Y39.920 ;extruding 
G1 X61.810 Y42.711 ;extruding 
G1 X60.631 Y45.372 ;extruding 
G1 X59.122 Y47.862 ;extruding 
G1 X57.307 Y50.138 ;extruding 
G1 X55.216 Y52.163 ;extruding 
G1 X52.883 Y53.904 ;extruding 
G1 X50.346 Y55.333 ;extruding 
G1 X47.648 Y56.425 ;extruding 
G1 X44.832 Y57.164 ;extruding 
G1 X41.945 Y57.536 ;extruding 
G1 X39.034 Y57.536 ;extruding 
G1 X36.146 Y57.164 ;extruding 
G1 X33.330 Y56.425 ;extruding 
G1 X30.632 Y55.333 ;extruding 
G1 X28.095 Y53.904 ;extruding 
G1 X25.762 Y52.163 ;extruding 
G1 X23.671 Y50.138 ;extruding 
G1 X21.856 Y47.862 ;extruding 
G1 X20.347 Y45.372 ;extruding 
G1 X19.169 Y42.711 ;extruding 
G1 X18.340 Y39.920 ;extruding 
G1 X17.876 Y37.046 ;extruding 
G1 X17.782 Y34.136 ;extruding 
G1 X18.062 Y31.238 ;extruding 
G1 X18.710 Y28.400 ;extruding 
G1 X19.715 Y25.668 ;extruding 
G1 X21.052 Y23.106 ;extruding 
G1 X22.703 Y20.735 ;extruding 
FILEWRITE $hFile"\x05\x02\x30\x34\x44\x49\x20\x20\x43\x46\x03"
G1 X23.047 Y20.931 ;not extruding 
FILEWRITE $hFile"\x05\x02\x30\x34\x44\x49\x20\x20\x43\x46\x03"
DWELL 0.15
G1 X24.958 Y18.827 ;extruding 
G1 X27.136 Y16.973 ;extruding 
G1 X29.534 Y15.412 ;extruding 
G1 X32.111 Y14.171 ;extruding 
G1 X34.826 Y13.270 ;extruding 
G1 X37.634 Y12.723 ;extruding 
G1 X40.468 Y12.541 ;extruding 
G1 X43.343 Y12.723 ;extruding 
G1 X46.152 Y13.270 ;extruding 
G1 X48.867 Y14.171 ;extruding 
G1 X51.444 Y15.412 ;extruding 
G1 X53.825 Y16.962 ;extruding 
G1 X56.020 Y18.827 ;extruding 
G1 X57.943 Y20.945 ;extruding 
G1 X59.580 Y23.291 ;extruding 
G1 X60.903 Y25.828 ;extruding 
G1 X61.891 Y28.512 ;extruding 
G1 X62.523 Y31.281 ;extruding 
G1 X62.803 Y34.148 ;extruding 
G1 X62.711 Y37.008 ;extruding 
G1 X62.254 Y39.832 ;extruding 
G1 X61.440 Y42.575 ;extruding 
G1 X60.282 Y45.190 ;extruding 
G1 X58.799 Y47.637 ;extruding 
G1 X57.016 Y49.873 ;extruding 
G1 X54.961 Y51.864 ;extruding 
G1 X52.668 Y53.575 ;extruding 
G1 X50.176 Y54.978 ;extruding 
G1 X47.524 Y56.052 ;extruding 
G1 X44.757 Y56.778 ;extruding 
G1 X41.920 Y57.143 ;extruding 
G1 X39.059 Y57.143 ;extruding 
G1 X36.222 Y56.778 ;extruding 
G1 X33.454 Y56.052 ;extruding 
G1 X30.803 Y54.978 ;extruding 
G1 X28.310 Y53.575 ;extruding 
G1 X26.018 Y51.864 ;extruding 
G1 X23.963 Y49.873 ;extruding 
G1 X22.179 Y47.637 ;extruding 
G1 X20.696 Y45.190 ;extruding 
G1 X19.538 Y42.575 ;extruding 
G1 X18.724 Y39.832 ;extruding 
G1 X18.267 Y37.008 ;extruding 
G1 X18.176 Y34.149 ;extruding 
G1 X18.450 Y31.301 ;extruding 
G1 X19.087 Y28.512 ;extruding 
G1 X20.075 Y25.828 ;extruding 
G1 X21.389 Y23.310 ;extruding 
G1 X22.996 Y21.001 ;extruding 
FILEWRITE $hFile"\x05\x02\x30\x34\x44\x49\x20\x20\x43\x46\x03"
G1 X23.342 Y21.191 ;not extruding 
FILEWRITE $hFile"\x05\x02\x30\x34\x44\x49\x20\x20\x43\x46\x03"
DWELL 0.15
G1 X25.232 Y19.110 ;extruding 
G1 X27.372 Y17.288 ;extruding 
G1 X29.727 Y15.755 ;extruding 
G1 X32.259 Y14.536 ;extruding 
G1 X34.926 Y13.650 ;extruding 
G1 X37.685 Y13.113 ;extruding 
G1 X40.469 Y12.934 ;extruding 
G1 X43.293 Y13.113 ;extruding 
G1 X46.052 Y13.650 ;extruding 
G1 X48.719 Y14.536 ;extruding 
G1 X51.251 Y15.755 ;extruding 
G1 X53.589 Y17.277 ;extruding 
G1 X55.746 Y19.110 ;extruding 
G1 X57.636 Y21.190 ;extruding 
G1 X59.244 Y23.495 ;extruding 
G1 X60.544 Y25.987 ;extruding 
G1 X61.514 Y28.624 ;extruding 
G1 X62.135 Y31.344 ;extruding 
G1 X62.409 Y34.161 ;extruding 
G1 X62.319 Y36.970 ;extruding 
G1 X61.871 Y39.745 ;extruding 
G1 X61.071 Y42.439 ;extruding 
G1 X59.934 Y45.008 ;extruding 
G1 X58.477 Y47.412 ;extruding 
G1 X56.725 Y49.609 ;extruding 
G1 X54.706 Y51.564 ;extruding 
G1 X52.454 Y53.245 ;extruding 
G1 X50.005 Y54.624 ;extruding 
G1 X47.400 Y55.678 ;extruding 
G1 X44.682 Y56.391 ;extruding 
G1 X41.894 Y56.751 ;extruding 
G1 X39.084 Y56.751 ;extruding 
G1 X36.297 Y56.391 ;extruding 
G1 X33.578 Y55.678 ;extruding 
G1 X30.973 Y54.624 ;extruding 
G1 X28.525 Y53.245 ;extruding 
G1 X26.273 Y51.564 ;extruding 
G1 X24.254 Y49.609 ;extruding 
G1 X22.502 Y47.412 ;extruding 
G1 X21.045 Y45.008 ;extruding 
G1 X19.907 Y42.439 ;extruding 
G1 X19.108 Y39.745 ;extruding 
G1 X18.659 Y36.970 ;extruding 
G1 X18.569 Y34.161 ;extruding 
G1 X18.839 Y31.364 ;extruding 
G1 X19.464 Y28.624 ;extruding 
G1 X20.435 Y25.987 ;extruding 
G1 X21.725 Y23.513 ;extruding 
G1 X23.292 Y21.262 ;extruding 
FILEWRITE $hFile"\x05\x02\x30\x34\x44\x49\x20\x20\x43\x46\x03"
G1 X23.650 Y21.436 ;not extruding 
FILEWRITE $hFile"\x05\x02\x30\x34\x44\x49\x20\x20\x43\x46\x03"
DWELL 0.15
G1 X25.506 Y19.393 ;extruding 
G1 X27.607 Y17.604 ;extruding 
G1 X29.920 Y16.098 ;extruding 
G1 X32.407 Y14.901 ;extruding 
G1 X35.026 Y14.031 ;extruding 
G1 X37.735 Y13.503 ;extruding 
G1 X40.469 Y13.328 ;extruding 
G1 X43.243 Y13.503 ;extruding 
G1 X45.952 Y14.031 ;extruding 
G1 X48.572 Y14.901 ;extruding 
G1 X51.058 Y16.098 ;extruding 
G1 X53.354 Y17.592 ;extruding 
G1 X55.473 Y19.392 ;extruding 
G1 X57.328 Y21.436 ;extruding 
G1 X58.907 Y23.699 ;extruding 
G1 X60.184 Y26.146 ;extruding 
G1 X61.137 Y28.736 ;extruding 
G1 X61.746 Y31.407 ;extruding 
G1 X62.016 Y34.174 ;extruding 
G1 X61.928 Y36.932 ;extruding 
G1 X61.487 Y39.657 ;extruding 
G1 X60.702 Y42.303 ;extruding 
G1 X59.585 Y44.826 ;extruding 
G1 X58.154 Y47.187 ;extruding 
G1 X56.433 Y49.344 ;extruding 
G1 X54.451 Y51.264 ;extruding 
G1 X52.239 Y52.915 ;extruding 
G1 X49.834 Y54.269 ;extruding 
G1 X47.276 Y55.305 ;extruding 
G1 X44.606 Y56.005 ;extruding 
G1 X41.869 Y56.358 ;extruding 
G1 X39.109 Y56.358 ;extruding 
G1 X36.372 Y56.005 ;extruding 
G1 X33.702 Y55.305 ;extruding 
G1 X31.144 Y54.269 ;extruding 
G1 X28.739 Y52.915 ;extruding 
G1 X26.528 Y51.264 ;extruding 
G1 X24.545 Y49.344 ;extruding 
G1 X22.824 Y47.187 ;extruding 
G1 X21.394 Y44.826 ;extruding 
G1 X20.277 Y42.303 ;extruding 
G1 X19.491 Y39.657 ;extruding 
G1 X19.051 Y36.932 ;extruding 
G1 X18.962 Y34.174 ;extruding 
G1 X19.227 Y31.427 ;extruding 
G1 X19.841 Y28.736 ;extruding 
G1 X20.795 Y26.146 ;extruding 
G1 X22.062 Y23.717 ;extruding 
G1 X23.600 Y21.507 ;extruding 
FILEWRITE $hFile"\x05\x02\x30\x34\x44\x49\x20\x20\x43\x46\x03"
G1 X23.958 Y21.681 ;not extruding 
FILEWRITE $hFile"\x05\x02\x30\x34\x44\x49\x20\x20\x43\x46\x03"
DWELL 0.15
G1 X25.779 Y19.675 ;extruding 
G1 X27.842 Y17.919 ;extruding 
G1 X30.113 Y16.441 ;extruding 
G1 X32.554 Y15.265 ;extruding 
G1 X35.126 Y14.411 ;extruding 
G1 X37.785 Y13.894 ;extruding 
G1 X40.469 Y13.721 ;extruding 
G1 X43.193 Y13.894 ;extruding 
G1 X45.853 Y14.411 ;extruding 
G1 X48.424 Y15.265 ;extruding 
G1 X50.865 Y16.441 ;extruding 
G1 X53.119 Y17.908 ;extruding 
G1 X55.199 Y19.675 ;extruding 
G1 X57.021 Y21.681 ;extruding 
G1 X58.571 Y23.903 ;extruding 
G1 X59.824 Y26.305 ;extruding 
G1 X60.760 Y28.848 ;extruding 
G1 X61.358 Y31.470 ;extruding 
G1 X61.623 Y34.187 ;extruding 
G1 X61.536 Y36.895 ;extruding 
G1 X61.103 Y39.569 ;extruding 
G1 X60.333 Y42.167 ;extruding 
G1 X59.236 Y44.644 ;extruding 
G1 X57.831 Y46.961 ;extruding 
G1 X56.142 Y49.080 ;extruding 
G1 X54.196 Y50.965 ;extruding 
G1 X52.024 Y52.585 ;extruding 
G1 X49.663 Y53.915 ;extruding 
G1 X47.152 Y54.932 ;extruding 
G1 X44.531 Y55.619 ;extruding 
G1 X41.844 Y55.965 ;extruding 
G1 X39.134 Y55.965 ;extruding 
G1 X36.447 Y55.619 ;extruding 
G1 X33.826 Y54.932 ;extruding 
G1 X31.315 Y53.915 ;extruding 
G1 X28.954 Y52.585 ;extruding 
G1 X26.783 Y50.965 ;extruding 
G1 X24.836 Y49.080 ;extruding 
G1 X23.147 Y46.961 ;extruding 
G1 X21.743 Y44.644 ;extruding 
G1 X20.646 Y42.167 ;extruding 
G1 X19.875 Y39.569 ;extruding 
G1 X19.442 Y36.895 ;extruding 
G1 X19.356 Y34.187 ;extruding 
G1 X19.616 Y31.490 ;extruding 
G1 X20.219 Y28.848 ;extruding 
G1 X21.154 Y26.305 ;extruding 
G1 X22.398 Y23.921 ;extruding 
G1 X23.908 Y21.753 ;extruding 
FILEWRITE $hFile"\x05\x02\x30\x34\x44\x49\x20\x20\x43\x46\x03"
G1 X23.958 Y21.681 ;not extruding 
G1 X35.460 Y10.746 ;not extruding 
FILEWRITE $hFile"\x05\x02\x30\x34\x44\x49\x20\x20\x43\x46\x03"
DWELL 0.15
G1 X35.399 Y9.359 ;extruding 
G1 X35.513 Y9.334 ;extruding 
G1 X35.969 Y10.647 ;extruding 
G1 X35.545 Y10.729 ;extruding 
FILEWRITE $hFile"\x05\x02\x30\x34\x44\x49\x20\x20\x43\x46\x03"
G1 X27.522 Y13.911 ;not extruding 
FILEWRITE $hFile"\x05\x02\x30\x34\x44\x49\x20\x20\x43\x46\x03"
DWELL 0.15
G1 X27.088 Y14.193 ;extruding 
G1 X26.529 Y12.920 ;extruding 
G1 X26.626 Y12.855 ;extruding 
G1 X27.465 Y13.844 ;extruding 
FILEWRITE $hFile"\x05\x02\x30\x34\x44\x49\x20\x20\x43\x46\x03"
G1 X20.818 Y20.005 ;not extruding 
FILEWRITE $hFile"\x05\x02\x30\x34\x44\x49\x20\x20\x43\x46\x03"
DWELL 0.15
G1 X20.524 Y20.428 ;extruding 
G1 X19.545 Y19.445 ;extruding 
G1 X19.612 Y19.349 ;extruding 
G1 X20.742 Y19.963 ;extruding 
FILEWRITE $hFile"\x05\x02\x30\x34\x44\x49\x20\x20\x43\x46\x03"
G1 X16.762 Y28.112 ;not extruding 
FILEWRITE $hFile"\x05\x02\x30\x34\x44\x49\x20\x20\x43\x46\x03"
DWELL 0.15
G1 X16.648 Y28.611 ;extruding 
G1 X15.389 Y28.052 ;extruding 
G1 X15.417 Y27.939 ;extruding 
G1 X16.675 Y28.101 ;extruding 
FILEWRITE $hFile"\x05\x02\x30\x34\x44\x49\x20\x20\x43\x46\x03"
G1 X15.917 Y37.235 ;not extruding 
FILEWRITE $hFile"\x05\x02\x30\x34\x44\x49\x20\x20\x43\x46\x03"
DWELL 0.15
G1 X15.984 Y37.646 ;extruding 
G1 X14.623 Y37.579 ;extruding 
G1 X14.608 Y37.463 ;extruding 
G1 X15.914 Y37.148 ;extruding 
FILEWRITE $hFile"\x05\x02\x30\x34\x44\x49\x20\x20\x43\x46\x03"
G1 X18.413 Y45.854 ;not extruding 
FILEWRITE $hFile"\x05\x02\x30\x34\x44\x49\x20\x20\x43\x46\x03"
DWELL 0.15
G1 X18.623 Y46.317 ;extruding 
G1 X17.350 Y46.740 ;extruding 
G1 X17.295 Y46.637 ;extruding 
G1 X18.342 Y45.904 ;extruding 
FILEWRITE $hFile"\x05\x02\x30\x34\x44\x49\x20\x20\x43\x46\x03"
G1 X23.882 Y53.075 ;not extruding 
FILEWRITE $hFile"\x05\x02\x30\x34\x44\x49\x20\x20\x43\x46\x03"
DWELL 0.15
G1 X24.250 Y53.432 ;extruding 
G1 X23.203 Y54.297 ;extruding 
G1 X23.114 Y54.221 ;extruding 
G1 X23.833 Y53.147 ;extruding 
FILEWRITE $hFile"\x05\x02\x30\x34\x44\x49\x20\x20\x43\x46\x03"
G1 X31.583 Y57.836 ;not extruding 
FILEWRITE $hFile"\x05\x02\x30\x34\x44\x49\x20\x20\x43\x46\x03"
DWELL 0.15
G1 X32.062 Y58.030 ;extruding 
G1 X31.390 Y59.229 ;extruding 
G1 X31.280 Y59.191 ;extruding 
G1 X31.564 Y57.921 ;extruding 
FILEWRITE $hFile"\x05\x02\x30\x34\x44\x49\x20\x20\x43\x46\x03"
G1 X40.483 Y59.500 ;not extruding 
FILEWRITE $hFile"\x05\x02\x30\x34\x44\x49\x20\x20\x43\x46\x03"
DWELL 0.15
G1 X41.001 Y59.500 ;extruding 
G1 X40.806 Y60.871 ;extruding 
G1 X40.689 Y60.875 ;extruding 
G1 X40.496 Y59.586 ;extruding 
FILEWRITE $hFile"\x05\x02\x30\x34\x44\x49\x20\x20\x43\x46\x03"
G1 X49.384 Y57.841 ;not extruding 
FILEWRITE $hFile"\x05\x02\x30\x34\x44\x49\x20\x20\x43\x46\x03"
DWELL 0.15
G1 X49.864 Y57.646 ;extruding 
G1 X50.179 Y59.000 ;extruding 
G1 X50.072 Y59.046 ;extruding 
G1 X49.427 Y57.916 ;extruding 
FILEWRITE $hFile"\x05\x02\x30\x34\x44\x49\x20\x20\x43\x46\x03"
G1 X57.090 Y53.082 ;not extruding 
FILEWRITE $hFile"\x05\x02\x30\x34\x44\x49\x20\x20\x43\x46\x03"
DWELL 0.15
G1 X57.461 Y52.722 ;extruding 
G1 X58.244 Y53.870 ;extruding 
G1 X58.160 Y53.952 ;extruding 
G1 X57.157 Y53.136 ;extruding 
FILEWRITE $hFile"\x05\x02\x30\x34\x44\x49\x20\x20\x43\x46\x03"
G1 X62.563 Y45.859 ;not extruding 
FILEWRITE $hFile"\x05\x02\x30\x34\x44\x49\x20\x20\x43\x46\x03"
DWELL 0.15
G1 X62.771 Y45.389 ;extruding 
G1 X63.910 Y46.173 ;extruding 
G1 X63.862 Y46.279 ;extruding 
G1 X62.646 Y45.886 ;extruding 
FILEWRITE $hFile"\x05\x02\x30\x34\x44\x49\x20\x20\x43\x46\x03"
G1 X65.064 Y37.141 ;not extruding 
FILEWRITE $hFile"\x05\x02\x30\x34\x44\x49\x20\x20\x43\x46\x03"
DWELL 0.15
G1 X65.080 Y36.631 ;extruding 
G1 X66.414 Y36.949 ;extruding 
G1 X66.407 Y37.065 ;extruding 
G1 X65.151 Y37.136 ;extruding 
FILEWRITE $hFile"\x05\x02\x30\x34\x44\x49\x20\x20\x43\x46\x03"
G1 X64.217 Y28.114 ;not extruding 
FILEWRITE $hFile"\x05\x02\x30\x34\x44\x49\x20\x20\x43\x46\x03"
DWELL 0.15
G1 X64.155 Y27.841 ;extruding 
G1 X64.076 Y27.626 ;extruding 
G1 X65.416 Y27.443 ;extruding 
G1 X65.452 Y27.554 ;extruding 
G1 X64.297 Y28.078 ;extruding 
FILEWRITE $hFile"\x05\x02\x30\x34\x44\x49\x20\x20\x43\x46\x03"
G1 X60.165 Y20.011 ;not extruding 
FILEWRITE $hFile"\x05\x02\x30\x34\x44\x49\x20\x20\x43\x46\x03"
DWELL 0.15
G1 X59.873 Y19.592 ;extruding 
G1 X61.052 Y18.939 ;extruding 
G1 X61.126 Y19.030 ;extruding 
G1 X60.226 Y19.949 ;extruding 
FILEWRITE $hFile"\x05\x02\x30\x34\x44\x49\x20\x20\x43\x46\x03"
G1 X53.466 Y13.917 ;not extruding 
FILEWRITE $hFile"\x05\x02\x30\x34\x44\x49\x20\x20\x43\x46\x03"
DWELL 0.15
G1 X53.035 Y13.636 ;extruding 
G1 X53.910 Y12.587 ;extruding 
G1 X54.012 Y12.645 ;extruding 
G1 X53.500 Y13.837 ;extruding 
FILEWRITE $hFile"\x05\x02\x30\x34\x44\x49\x20\x20\x43\x46\x03"
G1 X45.022 Y10.649 ;not extruding 
FILEWRITE $hFile"\x05\x02\x30\x34\x44\x49\x20\x20\x43\x46\x03"
DWELL 0.15
G1 X44.515 Y10.550 ;extruding 
G1 X44.957 Y9.243 ;extruding 
G1 X45.072 Y9.260 ;extruding 
G1 X45.025 Y10.562 ;extruding 
FILEWRITE $hFile"\x05\x02\x30\x34\x44\x49\x20\x20\x43\x46\x03"
G1 X45.417 Y10.591 ;not extruding 
FILEWRITE $hFile"\x05\x02\x30\x34\x44\x49\x20\x20\x43\x46\x03"
DWELL 0.15
G1 X49.652 Y12.231 ;extruding 
G1 X52.779 Y13.329 ;extruding 
G1 X53.820 Y12.083 ;extruding 
G1 X54.511 Y12.478 ;extruding 
G1 X53.853 Y14.010 ;extruding 
G1 X57.209 Y17.070 ;extruding 
G1 X59.728 Y19.223 ;extruding 
G1 X61.150 Y18.436 ;extruding 
G1 X61.651 Y19.055 ;extruding 
G1 X60.484 Y20.246 ;extruding 
G1 X62.509 Y24.311 ;extruding 
G1 X64.079 Y27.230 ;extruding 
G1 X65.689 Y27.009 ;extruding 
G1 X65.933 Y27.767 ;extruding 
G1 X64.415 Y28.456 ;extruding 
G1 X64.834 Y32.978 ;extruding 
G1 X65.244 Y36.267 ;extruding 
G1 X66.825 Y36.643 ;extruding 
G1 X66.779 Y37.437 ;extruding 
G1 X65.114 Y37.532 ;extruding 
G1 X63.871 Y41.900 ;extruding 
G1 X63.066 Y45.115 ;extruding 
G1 X64.404 Y46.037 ;extruding 
G1 X64.074 Y46.761 ;extruding 
G1 X62.488 Y46.247 ;extruding 
G1 X59.751 Y49.871 ;extruding 
G1 X57.839 Y52.578 ;extruding 
G1 X58.754 Y53.922 ;extruding 
G1 X58.184 Y54.477 ;extruding 
G1 X56.890 Y53.425 ;extruding 
G1 X53.029 Y55.816 ;extruding 
G1 X50.268 Y57.650 ;extruding 
G1 X50.636 Y59.232 ;extruding 
G1 X49.904 Y59.545 ;extruding 
G1 X49.078 Y58.097 ;extruding 
G1 X44.613 Y58.931 ;extruding 
G1 X41.377 Y59.643 ;extruding 
G1 X41.148 Y61.252 ;extruding 
G1 X40.353 Y61.279 ;extruding 
G1 X40.105 Y59.630 ;extruding 
G1 X35.641 Y58.796 ;extruding 
G1 X32.366 Y58.291 ;extruding 
G1 X31.571 Y59.708 ;extruding 
G1 X30.820 Y59.446 ;extruding 
G1 X31.185 Y57.819 ;extruding 
G1 X27.323 Y55.428 ;extruding 
G1 X24.452 Y53.774 ;extruding 
G1 X23.199 Y54.809 ;extruding 
G1 X22.593 Y54.293 ;extruding 
G1 X23.521 Y52.908 ;extruding 
G1 X20.784 Y49.284 ;extruding 
G1 X18.703 Y46.704 ;extruding 
G1 X17.162 Y47.216 ;extruding 
G1 X16.783 Y46.516 ;extruding 
G1 X18.148 Y45.560 ;extruding 
G1 X16.906 Y41.192 ;extruding 
G1 X15.898 Y38.034 ;extruding 
G1 X14.275 Y37.955 ;extruding 
G1 X14.175 Y37.166 ;extruding 
G1 X15.793 Y36.767 ;extruding 
G1 X16.212 Y32.245 ;extruding 
G1 X16.413 Y28.937 ;extruding 
G1 X14.928 Y28.277 ;extruding 
G1 X15.120 Y27.504 ;extruding 
G1 X16.774 Y27.718 ;extruding 
G1 X18.798 Y23.652 ;extruding 
G1 X20.180 Y20.640 ;extruding 
G1 X19.034 Y19.488 ;extruding 
G1 X19.492 Y18.837 ;extruding 
G1 X20.957 Y19.633 ;extruding 
G1 X24.313 Y16.573 ;extruding 
G1 X26.690 Y14.264 ;extruding 
G1 X26.038 Y12.776 ;extruding 
G1 X26.700 Y12.334 ;extruding 
G1 X27.778 Y13.606 ;extruding 
G1 X32.013 Y11.965 ;extruding 
G1 X35.064 Y10.670 ;extruding 
G1 X34.993 Y9.047 ;extruding 
G1 X35.770 Y8.874 ;extruding 
G1 X36.316 Y10.449 ;extruding 
G1 X40.857 Y10.449 ;extruding 
G1 X44.170 Y10.344 ;extruding 
G1 X44.690 Y8.805 ;extruding 
G1 X45.477 Y8.924 ;extruding 
G1 X45.420 Y10.504 ;extruding 
FILEWRITE $hFile"\x05\x02\x30\x34\x44\x49\x20\x20\x43\x46\x03"
G1 X45.820 Y10.325 ;not extruding 
FILEWRITE $hFile"\x05\x02\x30\x34\x44\x49\x20\x20\x43\x46\x03"
DWELL 0.15
G1 X49.788 Y11.863 ;extruding 
G1 X52.652 Y12.869 ;extruding 
G1 X53.729 Y11.578 ;extruding 
G1 X55.009 Y12.312 ;extruding 
G1 X54.324 Y13.908 ;extruding 
G1 X57.469 Y16.775 ;extruding 
G1 X59.777 Y18.748 ;extruding 
G1 X61.248 Y17.933 ;extruding 
G1 X62.175 Y19.080 ;extruding 
G1 X60.960 Y20.321 ;extruding 
G1 X62.857 Y24.131 ;extruding 
G1 X64.296 Y26.804 ;extruding 
G1 X65.962 Y26.575 ;extruding 
G1 X66.413 Y27.980 ;extruding 
G1 X64.832 Y28.698 ;extruding 
G1 X65.224 Y32.936 ;extruding 
G1 X65.600 Y35.948 ;extruding 
G1 X67.236 Y36.337 ;extruding 
G1 X67.151 Y37.798 ;extruding 
G1 X65.415 Y37.908 ;extruding 
G1 X64.251 Y42.001 ;extruding 
G1 X63.513 Y44.946 ;extruding 
G1 X64.898 Y45.900 ;extruding 
G1 X64.285 Y47.242 ;extruding 
G1 X62.633 Y46.707 ;extruding 
G1 X60.068 Y50.103 ;extruding 
G1 X58.317 Y52.582 ;extruding 
G1 X59.264 Y53.973 ;extruding 
G1 X58.208 Y55.003 ;extruding 
G1 X56.859 Y53.906 ;extruding 
G1 X53.241 Y56.147 ;extruding 
G1 X50.712 Y57.826 ;extruding 
G1 X51.093 Y59.464 ;extruding 
G1 X49.736 Y60.042 ;extruding 
G1 X48.875 Y58.534 ;extruding 
G1 X44.692 Y59.316 ;extruding 
G1 X41.727 Y59.968 ;extruding 
G1 X41.491 Y61.633 ;extruding 
G1 X40.016 Y61.682 ;extruding 
G1 X39.758 Y59.965 ;extruding 
G1 X35.575 Y59.183 ;extruding 
G1 X32.575 Y58.720 ;extruding 
G1 X31.753 Y60.188 ;extruding 
G1 X30.360 Y59.700 ;extruding 
G1 X30.740 Y58.006 ;extruding 
G1 X27.122 Y55.766 ;extruding 
G1 X24.492 Y54.251 ;extruding 
G1 X23.195 Y55.322 ;extruding 
G1 X22.081 Y54.373 ;extruding 
G1 X23.039 Y52.922 ;extruding 
G1 X20.474 Y49.525 ;extruding 
G1 X18.569 Y47.162 ;extruding 
G1 X16.973 Y47.693 ;extruding 
G1 X16.277 Y46.406 ;extruding 
G1 X17.694 Y45.399 ;extruding 
G1 X16.530 Y41.305 ;extruding 
G1 X15.606 Y38.413 ;extruding 
G1 X13.927 Y38.331 ;extruding 
G1 X13.742 Y36.880 ;extruding 
G1 X15.428 Y36.453 ;extruding 
G1 X15.821 Y32.215 ;extruding 
G1 X16.005 Y29.185 ;extruding 
G1 X14.468 Y28.502 ;extruding 
G1 X14.820 Y27.082 ;extruding 
G1 X16.547 Y27.292 ;extruding 
G1 X18.444 Y23.483 ;extruding 
G1 X19.710 Y20.724 ;extruding 
G1 X18.523 Y19.532 ;extruding 
G1 X19.365 Y18.335 ;extruding 
G1 X20.899 Y19.155 ;extruding 
G1 X24.044 Y16.287 ;extruding 
G1 X26.221 Y14.172 ;extruding 
G1 X25.546 Y12.632 ;extruding 
G1 X26.763 Y11.820 ;extruding 
G1 X27.897 Y13.139 ;extruding 
G1 X31.865 Y11.601 ;extruding 
G1 X34.659 Y10.415 ;extruding 
G1 X34.586 Y8.735 ;extruding 
G1 X36.026 Y8.416 ;extruding 
G1 X36.595 Y10.057 ;extruding 
G1 X40.851 Y10.057 ;extruding 
G1 X43.885 Y9.960 ;extruding 
G1 X44.424 Y8.367 ;extruding 
G1 X45.870 Y8.587 ;extruding 
G1 X45.823 Y10.238 ;extruding 
FILEWRITE $hFile"\x05\x02\x30\x34\x44\x49\x20\x20\x43\x46\x03"
G1 X46.222 Y10.060 ;not extruding 
FILEWRITE $hFile"\x05\x02\x30\x34\x44\x49\x20\x20\x43\x46\x03"
DWELL 0.15
G1 X49.924 Y11.494 ;extruding 
G1 X52.525 Y12.408 ;extruding 
G1 X53.639 Y11.074 ;extruding 
G1 X55.211 Y11.974 ;extruding 
G1 X55.495 Y12.175 ;extruding 
G1 X54.795 Y13.806 ;extruding 
G1 X57.729 Y16.481 ;extruding 
G1 X59.825 Y18.272 ;extruding 
G1 X61.346 Y17.430 ;extruding 
G1 X62.485 Y18.837 ;extruding 
G1 X62.678 Y19.128 ;extruding 
G1 X61.436 Y20.396 ;extruding 
G1 X63.206 Y23.950 ;extruding 
G1 X64.513 Y26.377 ;extruding 
G1 X66.235 Y26.142 ;extruding 
G1 X66.790 Y27.866 ;extruding 
G1 X66.864 Y28.207 ;extruding 
G1 X65.248 Y28.940 ;extruding 
G1 X65.615 Y32.893 ;extruding 
G1 X65.956 Y35.629 ;extruding 
G1 X67.648 Y36.031 ;extruding 
G1 X67.542 Y37.840 ;extruding 
G1 X67.488 Y38.184 ;extruding 
G1 X65.717 Y38.284 ;extruding 
G1 X64.630 Y42.103 ;extruding 
G1 X63.960 Y44.777 ;extruding 
G1 X65.392 Y45.763 ;extruding 
G1 X64.640 Y47.411 ;extruding 
G1 X64.466 Y47.713 ;extruding 
G1 X62.778 Y47.167 ;extruding 
G1 X60.385 Y50.335 ;extruding 
G1 X58.795 Y52.586 ;extruding 
G1 X59.774 Y54.024 ;extruding 
G1 X58.462 Y55.303 ;extruding 
G1 X58.211 Y55.511 ;extruding 
G1 X56.828 Y54.387 ;extruding 
G1 X53.453 Y56.477 ;extruding 
G1 X51.156 Y58.002 ;extruding 
G1 X51.550 Y59.696 ;extruding 
G1 X49.884 Y60.407 ;extruding 
G1 X49.552 Y60.513 ;extruding 
G1 X48.673 Y58.971 ;extruding 
G1 X44.770 Y59.701 ;extruding 
G1 X42.078 Y60.293 ;extruding 
G1 X41.833 Y62.015 ;extruding 
G1 X40.023 Y62.076 ;extruding 
G1 X39.675 Y62.055 ;extruding 
G1 X39.412 Y60.300 ;extruding 
G1 X35.509 Y59.570 ;extruding 
G1 X32.784 Y59.150 ;extruding 
G1 X31.934 Y60.667 ;extruding 
G1 X30.224 Y60.070 ;extruding 
G1 X29.908 Y59.924 ;extruding 
G1 X30.296 Y58.193 ;extruding 
G1 X26.921 Y56.103 ;extruding 
G1 X24.532 Y54.727 ;extruding 
G1 X23.191 Y55.834 ;extruding 
G1 X21.812 Y54.660 ;extruding 
G1 X21.569 Y54.410 ;extruding 
G1 X22.557 Y52.935 ;extruding 
G1 X20.165 Y49.767 ;extruding 
G1 X18.434 Y47.621 ;extruding 
G1 X16.784 Y48.169 ;extruding 
G1 X15.922 Y46.576 ;extruding 
G1 X15.786 Y46.255 ;extruding 
G1 X17.240 Y45.237 ;extruding 
G1 X16.154 Y41.419 ;extruding 
G1 X15.315 Y38.792 ;extruding 
G1 X13.579 Y38.708 ;extruding 
G1 X13.350 Y36.911 ;extruding 
G1 X13.340 Y36.562 ;extruding 
G1 X15.063 Y36.138 ;extruding 
G1 X15.429 Y32.185 ;extruding 
G1 X15.596 Y29.433 ;extruding 
G1 X14.007 Y28.727 ;extruding 
G1 X14.444 Y26.969 ;extruding 
G1 X14.560 Y26.640 ;extruding 
G1 X16.320 Y26.867 ;extruding 
G1 X18.089 Y23.313 ;extruding 
G1 X19.239 Y20.808 ;extruding 
G1 X18.013 Y19.575 ;extruding 
G1 X19.055 Y18.093 ;extruding 
G1 X19.282 Y17.829 ;extruding 
G1 X20.841 Y18.676 ;extruding 
G1 X23.775 Y16.001 ;extruding 
G1 X25.752 Y14.080 ;extruding 
G1 X25.054 Y12.488 ;extruding 
G1 X26.561 Y11.483 ;extruding 
G1 X26.868 Y11.318 ;extruding 
G1 X28.015 Y12.671 ;extruding 
G1 X31.717 Y11.237 ;extruding 
G1 X34.255 Y10.160 ;extruding 
G1 X34.179 Y8.423 ;extruding 
G1 X35.947 Y8.030 ;extruding 
G1 X36.293 Y7.987 ;extruding 
G1 X36.875 Y9.664 ;extruding 
G1 X40.845 Y9.664 ;extruding 
G1 X43.600 Y9.576 ;extruding 
G1 X44.157 Y7.929 ;extruding 
G1 X45.948 Y8.202 ;extruding 
G1 X46.286 Y8.287 ;extruding 
G1 X46.225 Y9.973 ;extruding 
FILEWRITE $hFile"\x05\x02\x30\x34\x44\x49\x20\x20\x43\x46\x03"
G1 X46.625 Y9.795 ;not extruding 
FILEWRITE $hFile"\x05\x02\x30\x34\x44\x49\x20\x20\x43\x46\x03"
DWELL 0.15
G1 X50.060 Y11.126 ;extruding 
G1 X52.398 Y11.947 ;extruding 
G1 X53.548 Y10.570 ;extruding 
G1 X55.423 Y11.643 ;extruding 
G1 X55.981 Y12.038 ;extruding 
G1 X55.266 Y13.704 ;extruding 
G1 X57.989 Y16.186 ;extruding 
G1 X59.873 Y17.797 ;extruding 
G1 X61.444 Y16.927 ;extruding 
G1 X62.802 Y18.605 ;extruding 
G1 X63.181 Y19.176 ;extruding 
G1 X61.913 Y20.471 ;extruding 
G1 X63.555 Y23.769 ;extruding 
G1 X64.729 Y25.951 ;extruding 
G1 X66.508 Y25.708 ;extruding 
G1 X67.169 Y27.764 ;extruding 
G1 X67.316 Y28.433 ;extruding 
G1 X65.665 Y29.182 ;extruding 
G1 X66.005 Y32.851 ;extruding 
G1 X66.312 Y35.310 ;extruding 
G1 X68.059 Y35.726 ;extruding 
G1 X67.933 Y37.881 ;extruding 
G1 X67.828 Y38.558 ;extruding 
G1 X66.018 Y38.661 ;extruding 
G1 X65.010 Y42.204 ;extruding 
G1 X64.407 Y44.608 ;extruding 
G1 X65.886 Y45.627 ;extruding 
G1 X64.990 Y47.591 ;extruding 
G1 X64.647 Y48.184 ;extruding 
G1 X62.923 Y47.626 ;extruding 
G1 X60.702 Y50.566 ;extruding 
G1 X59.272 Y52.591 ;extruding 
G1 X60.284 Y54.075 ;extruding 
G1 X58.725 Y55.595 ;extruding 
G1 X58.208 Y56.015 ;extruding 
G1 X56.798 Y54.868 ;extruding 
G1 X53.665 Y56.808 ;extruding 
G1 X51.601 Y58.179 ;extruding 
G1 X52.007 Y59.928 ;extruding 
G1 X50.021 Y60.776 ;extruding 
G1 X49.368 Y60.983 ;extruding 
G1 X48.470 Y59.409 ;extruding 
G1 X44.848 Y60.086 ;extruding 
G1 X42.428 Y60.618 ;extruding 
G1 X42.175 Y62.396 ;extruding 
G1 X40.017 Y62.469 ;extruding 
G1 X39.334 Y62.427 ;extruding 
G1 X39.065 Y60.634 ;extruding 
G1 X35.443 Y59.957 ;extruding 
G1 X32.994 Y59.580 ;extruding 
G1 X32.116 Y61.146 ;extruding 
G1 X30.077 Y60.435 ;extruding 
G1 X29.455 Y60.148 ;extruding 
G1 X29.852 Y58.380 ;extruding 
G1 X26.719 Y56.440 ;extruding 
G1 X24.572 Y55.203 ;extruding 
G1 X23.187 Y56.347 ;extruding 
G1 X21.543 Y54.947 ;extruding 
G1 X21.066 Y54.455 ;extruding 
G1 X22.075 Y52.949 ;extruding 
G1 X19.855 Y50.009 ;extruding 
G1 X18.299 Y48.080 ;extruding 
G1 X16.595 Y48.646 ;extruding 
G1 X15.568 Y46.746 ;extruding 
G1 X15.301 Y46.116 ;extruding 
G1 X16.786 Y45.076 ;extruding 
G1 X15.778 Y41.532 ;extruding 
G1 X15.024 Y39.171 ;extruding 
G1 X13.230 Y39.084 ;extruding 
G1 X12.958 Y36.942 ;extruding 
G1 X12.938 Y36.257 ;extruding 
G1 X14.698 Y35.824 ;extruding 
G1 X15.038 Y32.155 ;extruding 
G1 X15.188 Y29.681 ;extruding 
G1 X13.547 Y28.952 ;extruding 
G1 X14.067 Y26.856 ;extruding 
G1 X14.295 Y26.210 ;extruding 
G1 X16.093 Y26.442 ;extruding 
G1 X17.735 Y23.144 ;extruding 
G1 X18.769 Y20.891 ;extruding 
G1 X17.502 Y19.618 ;extruding 
G1 X18.744 Y17.852 ;extruding 
G1 X19.190 Y17.332 ;extruding 
G1 X20.783 Y18.198 ;extruding 
G1 X23.506 Y15.715 ;extruding 
G1 X25.283 Y13.989 ;extruding 
G1 X24.562 Y12.344 ;extruding 
G1 X26.358 Y11.146 ;extruding 
G1 X26.962 Y10.822 ;extruding 
G1 X28.134 Y12.204 ;extruding 
G1 X31.570 Y10.873 ;extruding 
G1 X33.851 Y9.905 ;extruding 
G1 X33.773 Y8.111 ;extruding 
G1 X35.881 Y7.643 ;extruding 
G1 X36.560 Y7.559 ;extruding 
G1 X37.154 Y9.271 ;extruding 
G1 X40.839 Y9.271 ;extruding 
G1 X43.315 Y9.193 ;extruding 
G1 X43.891 Y7.492 ;extruding 
G1 X46.025 Y7.816 ;extruding 
G1 X46.690 Y7.983 ;extruding 
G1 X46.628 Y9.708 ;extruding 
FILEWRITE $hFile"\x05\x02\x30\x34\x44\x49\x20\x20\x43\x46\x03"
G1 X47.027 Y9.530 ;not extruding 
FILEWRITE $hFile"\x05\x02\x30\x34\x44\x49\x20\x20\x43\x46\x03"
DWELL 0.15
G1 X50.196 Y10.757 ;extruding 
G1 X52.271 Y11.486 ;extruding 
G1 X53.458 Y10.065 ;extruding 
G1 X55.634 Y11.312 ;extruding 
G1 X56.468 Y11.902 ;extruding 
G1 X55.738 Y13.602 ;extruding 
G1 X58.249 Y15.892 ;extruding 
G1 X59.921 Y17.321 ;extruding 
G1 X61.542 Y16.424 ;extruding 
G1 X63.120 Y18.372 ;extruding 
G1 X63.684 Y19.224 ;extruding 
G1 X62.389 Y20.546 ;extruding 
G1 X63.904 Y23.589 ;extruding 
G1 X64.946 Y25.525 ;extruding 
G1 X66.781 Y25.274 ;extruding 
G1 X67.549 Y27.661 ;extruding 
G1 X67.767 Y28.659 ;extruding 
G1 X66.082 Y29.424 ;extruding 
G1 X66.396 Y32.808 ;extruding 
G1 X66.668 Y34.991 ;extruding 
G1 X68.470 Y35.420 ;extruding 
G1 X68.324 Y37.923 ;extruding 
G1 X68.167 Y38.932 ;extruding 
G1 X66.319 Y39.037 ;extruding 
G1 X65.389 Y42.306 ;extruding 
G1 X64.855 Y44.439 ;extruding 
G1 X66.380 Y45.490 ;extruding 
G1 X65.339 Y47.771 ;extruding 
G1 X64.828 Y48.656 ;extruding 
G1 X63.068 Y48.086 ;extruding 
G1 X61.019 Y50.798 ;extruding 
G1 X59.750 Y52.595 ;extruding 
G1 X60.794 Y54.126 ;extruding 
G1 X58.988 Y55.887 ;extruding 
G1 X58.206 Y56.520 ;extruding 
G1 X56.767 Y55.349 ;extruding 
G1 X53.877 Y57.138 ;extruding 
G1 X52.045 Y58.355 ;extruding 
G1 X52.464 Y60.160 ;extruding 
G1 X50.158 Y61.144 ;extruding 
G1 X49.185 Y61.454 ;extruding 
G1 X48.267 Y59.846 ;extruding 
G1 X44.927 Y60.471 ;extruding 
G1 X42.779 Y60.943 ;extruding 
G1 X42.518 Y62.777 ;extruding 
G1 X40.012 Y62.862 ;extruding 
G1 X38.992 Y62.799 ;extruding 
G1 X38.718 Y60.969 ;extruding 
G1 X35.377 Y60.345 ;extruding 
G1 X33.203 Y60.009 ;extruding 
G1 X32.298 Y61.625 ;extruding 
G1 X29.930 Y60.799 ;extruding 
G1 X29.002 Y60.372 ;extruding 
G1 X29.407 Y58.566 ;extruding 
G1 X26.518 Y56.777 ;extruding 
G1 X24.612 Y55.679 ;extruding 
G1 X23.184 Y56.859 ;extruding 
G1 X21.274 Y55.234 ;extruding 
G1 X20.563 Y54.500 ;extruding 
G1 X21.593 Y52.963 ;extruding 
G1 X19.545 Y50.250 ;extruding 
G1 X18.165 Y48.538 ;extruding 
G1 X16.407 Y49.122 ;extruding 
G1 X15.214 Y46.917 ;extruding 
G1 X14.816 Y45.976 ;extruding 
G1 X16.332 Y44.915 ;extruding 
G1 X15.402 Y41.646 ;extruding 
G1 X14.733 Y39.550 ;extruding 
G1 X12.882 Y39.460 ;extruding 
G1 X12.567 Y36.972 ;extruding 
G1 X12.535 Y35.952 ;extruding 
G1 X14.332 Y35.509 ;extruding 
G1 X14.646 Y32.125 ;extruding 
G1 X14.779 Y29.930 ;extruding 
G1 X13.086 Y29.177 ;extruding 
G1 X13.691 Y26.743 ;extruding 
G1 X14.030 Y25.780 ;extruding 
G1 X15.866 Y26.017 ;extruding 
G1 X17.381 Y22.974 ;extruding 
G1 X18.298 Y20.975 ;extruding 
G1 X16.991 Y19.662 ;extruding 
G1 X18.434 Y17.611 ;extruding 
G1 X19.099 Y16.835 ;extruding 
G1 X20.725 Y17.719 ;extruding 
G1 X23.236 Y15.429 ;extruding 
G1 X24.814 Y13.897 ;extruding 
G1 X24.070 Y12.200 ;extruding 
G1 X26.156 Y10.809 ;extruding 
G1 X27.056 Y10.326 ;extruding 
G1 X28.253 Y11.737 ;extruding 
G1 X31.422 Y10.509 ;extruding 
G1 X33.447 Y9.650 ;extruding 
G1 X33.366 Y7.799 ;extruding 
G1 X35.814 Y7.255 ;extruding 
G1 X36.827 Y7.130 ;extruding 
G1 X37.434 Y8.879 ;extruding 
G1 X40.832 Y8.879 ;extruding 
G1 X43.031 Y8.809 ;extruding 
G1 X43.624 Y7.054 ;extruding 
G1 X46.103 Y7.431 ;extruding 
G1 X47.093 Y7.680 ;extruding 
G1 X47.030 Y9.443 ;extruding 
FILEWRITE $hFile"\x05\x02\x30\x34\x44\x49\x20\x20\x43\x46\x03"
G1 X47.430 Y9.264 ;not extruding 
FILEWRITE $hFile"\x05\x02\x30\x34\x44\x49\x20\x20\x43\x46\x03"
DWELL 0.15
G1 X50.332 Y10.389 ;extruding 
G1 X52.145 Y11.026 ;extruding 
G1 X53.367 Y9.561 ;extruding 
G1 X55.846 Y10.980 ;extruding 
G1 X56.954 Y11.765 ;extruding 
G1 X56.209 Y13.500 ;extruding 
G1 X58.509 Y15.597 ;extruding 
G1 X59.969 Y16.846 ;extruding 
G1 X61.638 Y15.922 ;extruding 
G1 X63.437 Y18.140 ;extruding 
G1 X64.186 Y19.272 ;extruding 
G1 X62.865 Y20.622 ;extruding 
G1 X64.252 Y23.408 ;extruding 
G1 X65.163 Y25.099 ;extruding 
G1 X67.054 Y24.841 ;extruding 
G1 X67.929 Y27.559 ;extruding 
G1 X68.219 Y28.886 ;extruding 
G1 X66.499 Y29.666 ;extruding 
G1 X66.786 Y32.766 ;extruding 
G1 X67.024 Y34.672 ;extruding 
G1 X68.882 Y35.114 ;extruding 
G1 X68.715 Y37.965 ;extruding 
G1 X68.506 Y39.306 ;extruding 
G1 X66.620 Y39.413 ;extruding 
G1 X65.768 Y42.407 ;extruding 
G1 X65.302 Y44.270 ;extruding 
G1 X66.874 Y45.354 ;extruding 
G1 X65.689 Y47.952 ;extruding 
G1 X65.010 Y49.127 ;extruding 
G1 X63.212 Y48.546 ;extruding 
G1 X61.337 Y51.030 ;extruding 
G1 X60.228 Y52.599 ;extruding 
G1 X61.302 Y54.175 ;extruding 
G1 X61.271 Y54.210 ;extruding 
G1 X59.251 Y56.179 ;extruding 
G1 X58.204 Y57.024 ;extruding 
G1 X56.736 Y55.830 ;extruding 
G1 X54.089 Y57.469 ;extruding 
G1 X52.489 Y58.532 ;extruding 
G1 X52.921 Y60.391 ;extruding 
G1 X50.295 Y61.513 ;extruding 
G1 X49.001 Y61.924 ;extruding 
G1 X48.065 Y60.284 ;extruding 
G1 X45.005 Y60.856 ;extruding 
G1 X43.129 Y61.268 ;extruding 
G1 X42.860 Y63.159 ;extruding 
G1 X40.006 Y63.255 ;extruding 
G1 X38.651 Y63.172 ;extruding 
G1 X38.371 Y61.304 ;extruding 
G1 X35.311 Y60.732 ;extruding 
G1 X33.413 Y60.439 ;extruding 
G1 X32.479 Y62.105 ;extruding 
G1 X29.783 Y61.164 ;extruding 
G1 X28.550 Y60.596 ;extruding 
G1 X28.963 Y58.753 ;extruding 
G1 X26.316 Y57.114 ;extruding 
G1 X24.652 Y56.156 ;extruding 
G1 X23.180 Y57.372 ;extruding 
G1 X21.005 Y55.520 ;extruding 
G1 X20.060 Y54.545 ;extruding 
G1 X21.112 Y52.976 ;extruding 
G1 X19.236 Y50.492 ;extruding 
G1 X18.030 Y48.997 ;extruding 
G1 X16.218 Y49.599 ;extruding 
G1 X14.859 Y47.087 ;extruding 
G1 X14.330 Y45.837 ;extruding 
G1 X15.877 Y44.753 ;extruding 
G1 X15.026 Y41.759 ;extruding 
G1 X14.441 Y39.929 ;extruding 
G1 X12.534 Y39.836 ;extruding 
G1 X12.175 Y37.003 ;extruding 
G1 X12.133 Y35.646 ;extruding 
G1 X13.967 Y35.195 ;extruding 
G1 X14.254 Y32.095 ;extruding 
G1 X14.371 Y30.178 ;extruding 
G1 X12.626 Y29.402 ;extruding 
G1 X13.314 Y26.630 ;extruding 
G1 X13.766 Y25.350 ;extruding 
G1 X15.639 Y25.591 ;extruding 
G1 X17.026 Y22.805 ;extruding 
G1 X17.827 Y21.059 ;extruding 
G1 X16.481 Y19.705 ;extruding 
G1 X18.124 Y17.370 ;extruding 
G1 X19.007 Y16.339 ;extruding 
G1 X20.667 Y17.241 ;extruding 
G1 X22.967 Y15.143 ;extruding 
G1 X24.345 Y13.805 ;extruding 
G1 X23.578 Y12.056 ;extruding 
G1 X25.954 Y10.472 ;extruding 
G1 X27.150 Y9.829 ;extruding 
G1 X28.372 Y11.270 ;extruding 
G1 X31.274 Y10.146 ;extruding 
G1 X33.043 Y9.395 ;extruding 
G1 X32.959 Y7.487 ;extruding 
G1 X35.747 Y6.868 ;extruding 
G1 X37.094 Y6.701 ;extruding 
G1 X37.713 Y8.486 ;extruding 
G1 X40.826 Y8.486 ;extruding 
G1 X42.746 Y8.425 ;extruding 
G1 X43.357 Y6.616 ;extruding 
G1 X46.181 Y7.045 ;extruding 
G1 X47.497 Y7.377 ;extruding 
G1 X47.433 Y9.177 ;extruding 
FILEWRITE $hFile"\x05\x02\x30\x34\x44\x49\x20\x20\x43\x46\x03"
G1 X47.832 Y8.999 ;not extruding 
FILEWRITE $hFile"\x05\x02\x30\x34\x44\x49\x20\x20\x43\x46\x03"
DWELL 0.15
G1 X50.468 Y10.021 ;extruding 
G1 X52.018 Y10.565 ;extruding 
G1 X53.265 Y9.070 ;extruding 
G1 X53.483 Y9.175 ;extruding 
G1 X56.058 Y10.649 ;extruding 
G1 X57.440 Y11.628 ;extruding 
G1 X56.680 Y13.398 ;extruding 
G1 X58.769 Y15.303 ;extruding 
G1 X60.017 Y16.370 ;extruding 
G1 X61.716 Y15.430 ;extruding 
G1 X61.967 Y15.699 ;extruding 
G1 X63.754 Y17.908 ;extruding 
G1 X64.689 Y19.320 ;extruding 
G1 X63.341 Y20.697 ;extruding 
G1 X64.601 Y23.227 ;extruding 
G1 X65.379 Y24.673 ;extruding 
G1 X67.307 Y24.410 ;extruding 
G1 X67.411 Y24.667 ;extruding 
G1 X68.308 Y27.457 ;extruding 
G1 X68.670 Y29.112 ;extruding 
G1 X66.916 Y29.908 ;extruding 
G1 X67.177 Y32.724 ;extruding 
G1 X67.380 Y34.353 ;extruding 
G1 X69.273 Y34.803 ;extruding 
G1 X69.277 Y35.081 ;extruding 
G1 X69.106 Y38.006 ;extruding 
G1 X68.845 Y39.680 ;extruding 
G1 X66.921 Y39.789 ;extruding 
G1 X66.148 Y42.509 ;extruding 
G1 X65.749 Y44.102 ;extruding 
G1 X67.351 Y45.205 ;extruding 
G1 X67.254 Y45.466 ;extruding 
G1 X66.038 Y48.132 ;extruding 
G1 X65.191 Y49.599 ;extruding 
G1 X63.357 Y49.005 ;extruding 
G1 X61.654 Y51.261 ;extruding 
G1 X60.706 Y52.603 ;extruding 
G1 X61.799 Y54.208 ;extruding 
G1 X61.554 Y54.482 ;extruding 
G1 X59.514 Y56.471 ;extruding 
G1 X58.202 Y57.529 ;extruding 
G1 X56.705 Y56.311 ;extruding 
G1 X54.301 Y57.800 ;extruding 
G1 X52.933 Y58.708 ;extruding 
G1 X53.374 Y60.603 ;extruding 
G1 X53.127 Y60.731 ;extruding 
G1 X50.432 Y61.881 ;extruding 
G1 X48.817 Y62.394 ;extruding 
G1 X47.862 Y60.721 ;extruding 
G1 X45.083 Y61.240 ;extruding 
G1 X43.480 Y61.593 ;extruding 
G1 X43.206 Y63.520 ;extruding 
G1 X42.929 Y63.549 ;extruding 
G1 X40.001 Y63.649 ;extruding 
G1 X38.310 Y63.544 ;extruding 
G1 X38.024 Y61.638 ;extruding 
G1 X35.245 Y61.119 ;extruding 
G1 X33.622 Y60.869 ;extruding 
G1 X32.671 Y62.566 ;extruding 
G1 X32.402 Y62.494 ;extruding 
G1 X29.636 Y61.528 ;extruding 
G1 X28.097 Y60.820 ;extruding 
G1 X28.519 Y58.940 ;extruding 
G1 X26.115 Y57.451 ;extruding 
G1 X24.692 Y56.632 ;extruding 
G1 X23.192 Y57.871 ;extruding 
G1 X22.967 Y57.707 ;extruding 
G1 X20.736 Y55.807 ;extruding 
G1 X19.557 Y54.591 ;extruding 
G1 X20.630 Y52.990 ;extruding 
G1 X18.926 Y50.734 ;extruding 
G1 X17.895 Y49.455 ;extruding 
G1 X16.049 Y50.069 ;extruding 
G1 X15.899 Y49.835 ;extruding 
G1 X14.505 Y47.257 ;extruding 
G1 X13.845 Y45.697 ;extruding 
G1 X15.423 Y44.592 ;extruding 
G1 X14.650 Y41.873 ;extruding 
G1 X14.150 Y40.308 ;extruding 
G1 X12.207 Y40.213 ;extruding 
G1 X12.152 Y39.941 ;extruding 
G1 X11.783 Y37.034 ;extruding 
G1 X11.731 Y35.341 ;extruding 
G1 X13.602 Y34.880 ;extruding 
G1 X13.863 Y32.065 ;extruding 
G1 X13.962 Y30.426 ;extruding 
G1 X12.184 Y29.635 ;extruding 
G1 X12.232 Y29.361 ;extruding 
G1 X12.937 Y26.517 ;extruding 
G1 X13.501 Y24.920 ;extruding 
G1 X15.412 Y25.166 ;extruding 
G1 X16.672 Y22.635 ;extruding 
G1 X17.357 Y21.143 ;extruding 
G1 X15.985 Y19.764 ;extruding 
G1 X16.128 Y19.525 ;extruding 
G1 X17.813 Y17.128 ;extruding 
G1 X18.916 Y15.842 ;extruding 
G1 X20.609 Y16.762 ;extruding 
G1 X22.698 Y14.857 ;extruding 
G1 X23.876 Y13.713 ;extruding 
G1 X23.094 Y11.931 ;extruding 
G1 X23.314 Y11.760 ;extruding 
G1 X25.751 Y10.134 ;extruding 
G1 X27.244 Y9.333 ;extruding 
G1 X28.490 Y10.803 ;extruding 
G1 X31.127 Y9.782 ;extruding 
G1 X32.638 Y9.140 ;extruding 
G1 X32.553 Y7.196 ;extruding 
G1 X32.820 Y7.116 ;extruding 
G1 X35.680 Y6.480 ;extruding 
G1 X37.361 Y6.273 ;extruding 
G1 X37.993 Y8.093 ;extruding 
G1 X40.820 Y8.093 ;extruding 
G1 X42.461 Y8.041 ;extruding 
G1 X43.083 Y6.201 ;extruding 
G1 X43.366 Y6.220 ;extruding 
G1 X46.258 Y6.660 ;extruding 
G1 X47.901 Y7.074 ;extruding 
G1 X47.835 Y8.912 ;extruding 
FILEWRITE $hFile"\x05\x02\x30\x34\x44\x49\x20\x20\x43\x46\x03"
G1 X48.235 Y8.734 ;not extruding 
FILEWRITE $hFile"\x05\x02\x30\x34\x44\x49\x20\x20\x43\x46\x03"
DWELL 0.15
G1 X50.604 Y9.652 ;extruding 
G1 X51.891 Y10.104 ;extruding 
G1 X53.156 Y8.583 ;extruding 
G1 X53.666 Y8.827 ;extruding 
G1 X56.269 Y10.317 ;extruding 
G1 X57.926 Y11.491 ;extruding 
G1 X57.151 Y13.296 ;extruding 
G1 X59.029 Y15.009 ;extruding 
G1 X60.065 Y15.895 ;extruding 
G1 X61.792 Y14.934 ;extruding 
G1 X62.263 Y15.442 ;extruding 
G1 X64.071 Y17.675 ;extruding 
G1 X65.192 Y19.368 ;extruding 
G1 X63.817 Y20.772 ;extruding 
G1 X64.950 Y23.047 ;extruding 
G1 X65.596 Y24.247 ;extruding 
G1 X67.555 Y23.975 ;extruding 
G1 X67.781 Y24.534 ;extruding 
G1 X68.688 Y27.355 ;extruding 
G1 X69.122 Y29.338 ;extruding 
G1 X67.333 Y30.150 ;extruding 
G1 X67.567 Y32.681 ;extruding 
G1 X67.736 Y34.034 ;extruding 
G1 X69.661 Y34.488 ;extruding 
G1 X69.670 Y35.090 ;extruding 
G1 X69.496 Y38.048 ;extruding 
G1 X69.185 Y40.055 ;extruding 
G1 X67.223 Y40.166 ;extruding 
G1 X66.527 Y42.610 ;extruding 
G1 X66.196 Y43.933 ;extruding 
G1 X67.827 Y45.051 ;extruding 
G1 X67.618 Y45.616 ;extruding 
G1 X66.388 Y48.312 ;extruding 
G1 X65.372 Y50.070 ;extruding 
G1 X63.502 Y49.465 ;extruding 
G1 X61.971 Y51.493 ;extruding 
G1 X61.184 Y52.607 ;extruding 
G1 X62.300 Y54.237 ;extruding 
G1 X61.838 Y54.754 ;extruding 
G1 X59.777 Y56.763 ;extruding 
G1 X58.200 Y58.033 ;extruding 
G1 X56.674 Y56.792 ;extruding 
G1 X54.513 Y58.130 ;extruding 
G1 X53.377 Y58.885 ;extruding 
G1 X53.829 Y60.810 ;extruding 
G1 X53.294 Y61.086 ;extruding 
G1 X50.569 Y62.250 ;extruding 
G1 X48.634 Y62.865 ;extruding 
G1 X47.660 Y61.158 ;extruding 
G1 X45.162 Y61.625 ;extruding 
G1 X43.830 Y61.918 ;extruding 
G1 X43.556 Y63.877 ;extruding 
G1 X42.957 Y63.941 ;extruding 
G1 X39.995 Y64.042 ;extruding 
G1 X37.969 Y63.916 ;extruding 
G1 X37.677 Y61.973 ;extruding 
G1 X35.179 Y61.506 ;extruding 
G1 X33.831 Y61.298 ;extruding 
G1 X32.868 Y63.026 ;extruding 
G1 X32.286 Y62.869 ;extruding 
G1 X29.489 Y61.893 ;extruding 
G1 X27.644 Y61.044 ;extruding 
G1 X28.074 Y59.127 ;extruding 
G1 X25.913 Y57.789 ;extruding 
G1 X24.732 Y57.108 ;extruding 
G1 X23.210 Y58.371 ;extruding 
G1 X22.724 Y58.015 ;extruding 
G1 X20.468 Y56.094 ;extruding 
G1 X19.054 Y54.636 ;extruding 
G1 X20.148 Y53.003 ;extruding 
G1 X18.616 Y50.975 ;extruding 
G1 X17.761 Y49.914 ;extruding 
G1 X15.885 Y50.541 ;extruding 
G1 X15.560 Y50.034 ;extruding 
G1 X14.151 Y47.428 ;extruding 
G1 X13.360 Y45.558 ;extruding 
G1 X14.969 Y44.431 ;extruding 
G1 X14.274 Y41.986 ;extruding 
G1 X13.859 Y40.687 ;extruding 
G1 X11.883 Y40.595 ;extruding 
G1 X11.764 Y40.004 ;extruding 
G1 X11.391 Y37.065 ;extruding 
G1 X11.329 Y35.035 ;extruding 
G1 X13.237 Y34.566 ;extruding 
G1 X13.471 Y32.035 ;extruding 
G1 X13.554 Y30.674 ;extruding 
G1 X11.745 Y29.874 ;extruding 
G1 X11.847 Y29.281 ;extruding 
G1 X12.561 Y26.405 ;extruding 
G1 X13.236 Y24.490 ;extruding 
G1 X15.185 Y24.741 ;extruding 
G1 X16.318 Y22.466 ;extruding 
G1 X16.886 Y21.227 ;extruding 
G1 X15.489 Y19.827 ;extruding 
G1 X15.798 Y19.311 ;extruding 
G1 X17.503 Y16.887 ;extruding 
G1 X18.824 Y15.345 ;extruding 
G1 X20.551 Y16.284 ;extruding 
G1 X22.429 Y14.571 ;extruding 
G1 X23.407 Y13.621 ;extruding 
G1 X22.609 Y11.812 ;extruding 
G1 X23.084 Y11.442 ;extruding 
G1 X25.549 Y9.797 ;extruding 
G1 X27.338 Y8.837 ;extruding 
G1 X28.609 Y10.336 ;extruding 
G1 X30.979 Y9.418 ;extruding 
G1 X32.234 Y8.885 ;extruding 
G1 X32.144 Y6.909 ;extruding 
G1 X32.721 Y6.736 ;extruding 
G1 X35.613 Y6.093 ;extruding 
G1 X37.628 Y5.844 ;extruding 
G1 X38.272 Y7.701 ;extruding 
G1 X40.814 Y7.701 ;extruding 
G1 X42.176 Y7.657 ;extruding 
G1 X42.805 Y5.786 ;extruding 
G1 X43.409 Y5.830 ;extruding 
G1 X46.336 Y6.275 ;extruding 
G1 X48.305 Y6.770 ;extruding 
G1 X48.238 Y8.647 ;extruding 
FILEWRITE $hFile"\x05\x02\x30\x34\x44\x49\x20\x20\x43\x46\x03"
G1 X48.637 Y8.469 ;not extruding 
FILEWRITE $hFile"\x05\x02\x30\x34\x44\x49\x20\x20\x43\x46\x03"
DWELL 0.15
G1 X50.740 Y9.284 ;extruding 
G1 X51.764 Y9.643 ;extruding 
G1 X53.040 Y8.092 ;extruding 
G1 X53.848 Y8.479 ;extruding 
G1 X56.481 Y9.986 ;extruding 
G1 X58.412 Y11.354 ;extruding 
G1 X57.622 Y13.195 ;extruding 
G1 X59.289 Y14.714 ;extruding 
G1 X60.114 Y15.419 ;extruding 
G1 X61.863 Y14.434 ;extruding 
G1 X62.560 Y15.184 ;extruding 
G1 X64.388 Y17.443 ;extruding 
G1 X65.695 Y19.416 ;extruding 
G1 X64.293 Y20.847 ;extruding 
G1 X65.299 Y22.866 ;extruding 
G1 X65.813 Y23.821 ;extruding 
G1 X67.801 Y23.535 ;extruding 
G1 X68.150 Y24.400 ;extruding 
G1 X69.067 Y27.252 ;extruding 
G1 X69.573 Y29.564 ;extruding 
G1 X67.749 Y30.392 ;extruding 
G1 X67.957 Y32.639 ;extruding 
G1 X68.092 Y33.715 ;extruding 
G1 X70.049 Y34.166 ;extruding 
G1 X70.063 Y35.099 ;extruding 
G1 X69.887 Y38.090 ;extruding 
G1 X69.524 Y40.429 ;extruding 
G1 X67.524 Y40.542 ;extruding 
G1 X66.907 Y42.712 ;extruding 
G1 X66.643 Y43.764 ;extruding 
G1 X68.305 Y44.891 ;extruding 
G1 X67.981 Y45.766 ;extruding 
G1 X66.737 Y48.492 ;extruding 
G1 X65.553 Y50.541 ;extruding 
G1 X63.647 Y49.925 ;extruding 
G1 X62.288 Y51.725 ;extruding 
G1 X61.662 Y52.611 ;extruding 
G1 X62.804 Y54.262 ;extruding 
G1 X62.122 Y55.025 ;extruding 
G1 X60.040 Y57.055 ;extruding 
G1 X58.198 Y58.537 ;extruding 
G1 X56.643 Y57.273 ;extruding 
G1 X54.725 Y58.461 ;extruding 
G1 X53.822 Y59.061 ;extruding 
G1 X54.291 Y61.014 ;extruding 
G1 X53.461 Y61.442 ;extruding 
G1 X50.706 Y62.618 ;extruding 
G1 X48.450 Y63.335 ;extruding 
G1 X47.457 Y61.596 ;extruding 
G1 X45.240 Y62.010 ;extruding 
G1 X44.180 Y62.243 ;extruding 
G1 X43.912 Y64.234 ;extruding 
G1 X42.984 Y64.333 ;extruding 
G1 X39.990 Y64.435 ;extruding 
G1 X37.628 Y64.289 ;extruding 
G1 X37.330 Y62.308 ;extruding 
G1 X35.113 Y61.893 ;extruding 
G1 X34.041 Y61.728 ;extruding 
G1 X33.072 Y63.487 ;extruding 
G1 X32.171 Y63.245 ;extruding 
G1 X29.341 Y62.258 ;extruding 
G1 X27.192 Y61.268 ;extruding 
G1 X27.630 Y59.313 ;extruding 
G1 X25.712 Y58.126 ;extruding 
G1 X24.772 Y57.584 ;extruding 
G1 X23.233 Y58.875 ;extruding 
G1 X22.480 Y58.323 ;extruding 
G1 X20.199 Y56.381 ;extruding 
G1 X18.551 Y54.681 ;extruding 
G1 X19.666 Y53.017 ;extruding 
G1 X18.307 Y51.217 ;extruding 
G1 X17.626 Y50.372 ;extruding 
G1 X15.725 Y51.020 ;extruding 
G1 X15.222 Y50.233 ;extruding 
G1 X13.796 Y47.598 ;extruding 
G1 X12.874 Y45.418 ;extruding 
G1 X14.515 Y44.269 ;extruding 
G1 X13.898 Y42.099 ;extruding 
G1 X13.568 Y41.066 ;extruding 
G1 X11.561 Y40.983 ;extruding 
G1 X11.376 Y40.068 ;extruding 
G1 X10.999 Y37.096 ;extruding 
G1 X10.926 Y34.730 ;extruding 
G1 X12.871 Y34.251 ;extruding 
G1 X13.080 Y32.005 ;extruding 
G1 X13.145 Y30.922 ;extruding 
G1 X11.304 Y30.120 ;extruding 
G1 X11.462 Y29.200 ;extruding 
G1 X12.184 Y26.292 ;extruding 
G1 X12.971 Y24.060 ;extruding 
G1 X14.958 Y24.316 ;extruding 
G1 X15.963 Y22.297 ;extruding 
G1 X16.416 Y21.311 ;extruding 
G1 X14.989 Y19.897 ;extruding 
G1 X15.469 Y19.097 ;extruding 
G1 X17.192 Y16.646 ;extruding 
G1 X18.733 Y14.849 ;extruding 
G1 X20.493 Y15.805 ;extruding 
G1 X22.160 Y14.285 ;extruding 
G1 X22.938 Y13.530 ;extruding 
G1 X22.118 Y11.696 ;extruding 
G1 X22.854 Y11.123 ;extruding 
G1 X25.347 Y9.460 ;extruding 
G1 X27.432 Y8.341 ;extruding 
G1 X28.728 Y9.869 ;extruding 
G1 X30.831 Y9.054 ;extruding 
G1 X31.830 Y8.630 ;extruding 
G1 X31.728 Y6.624 ;extruding 
G1 X32.621 Y6.356 ;extruding 
G1 X35.546 Y5.706 ;extruding 
G1 X37.895 Y5.415 ;extruding 
G1 X38.552 Y7.308 ;extruding 
G1 X40.807 Y7.308 ;extruding 
G1 X41.892 Y7.273 ;extruding 
G1 X42.520 Y5.368 ;extruding 
G1 X43.452 Y5.439 ;extruding 
G1 X46.414 Y5.889 ;extruding 
G1 X48.709 Y6.467 ;extruding 
G1 X48.640 Y8.382 ;extruding 
FILEWRITE $hFile"\x05\x02\x30\x34\x44\x49\x20\x20\x43\x46\x03"
G1 X48.632 Y9.049 ;not extruding 
G1 X50.943 Y6.935 ;not extruding 
G1 X42.472 Y29.415 ;not extruding 
FILEWRITE $hFile"\x05\x02\x30\x34\x44\x49\x20\x20\x43\x46\x03"
DWELL 0.15
G1 X43.389 Y29.842 ;extruding 
G1 X44.217 Y30.422 ;extruding 
G1 X44.931 Y31.137 ;extruding 
G1 X45.511 Y31.965 ;extruding 
G1 X45.938 Y32.881 ;extruding 
G1 X46.200 Y33.857 ;extruding 
G1 X46.288 Y34.864 ;extruding 
G1 X46.200 Y35.871 ;extruding 
G1 X45.938 Y36.848 ;extruding 
G1 X45.511 Y37.764 ;extruding 
G1 X44.931 Y38.592 ;extruding 
G1 X44.217 Y39.306 ;extruding 
G1 X43.389 Y39.886 ;extruding 
G1 X42.472 Y40.313 ;extruding 
G1 X41.496 Y40.575 ;extruding 
G1 X40.489 Y40.663 ;extruding 
G1 X39.482 Y40.575 ;extruding 
G1 X38.506 Y40.313 ;extruding 
G1 X37.590 Y39.886 ;extruding 
G1 X36.762 Y39.306 ;extruding 
G1 X36.047 Y38.592 ;extruding 
G1 X35.467 Y37.764 ;extruding 
G1 X35.040 Y36.848 ;extruding 
G1 X34.779 Y35.871 ;extruding 
G1 X34.690 Y34.864 ;extruding 
G1 X34.779 Y33.857 ;extruding 
G1 X35.040 Y32.881 ;extruding 
G1 X35.467 Y31.965 ;extruding 
G1 X36.047 Y31.137 ;extruding 
G1 X36.762 Y30.422 ;extruding 
G1 X37.590 Y29.842 ;extruding 
G1 X38.506 Y29.415 ;extruding 
G1 X39.482 Y29.154 ;extruding 
G1 X40.489 Y29.066 ;extruding 
G1 X41.496 Y29.154 ;extruding 
G1 X42.388 Y29.393 ;extruding 
FILEWRITE $hFile"\x05\x02\x30\x34\x44\x49\x20\x20\x43\x46\x03"
G1 X42.338 Y29.786 ;not extruding 
FILEWRITE $hFile"\x05\x02\x30\x34\x44\x49\x20\x20\x43\x46\x03"
DWELL 0.15
G1 X43.191 Y30.184 ;extruding 
G1 X43.963 Y30.724 ;extruding 
G1 X44.629 Y31.390 ;extruding 
G1 X45.170 Y32.162 ;extruding 
G1 X45.568 Y33.016 ;extruding 
G1 X45.812 Y33.926 ;extruding 
G1 X45.894 Y34.864 ;extruding 
G1 X45.812 Y35.803 ;extruding 
G1 X45.568 Y36.713 ;extruding 
G1 X45.170 Y37.567 ;extruding 
G1 X44.629 Y38.338 ;extruding 
G1 X43.963 Y39.004 ;extruding 
G1 X43.191 Y39.545 ;extruding 
G1 X42.338 Y39.943 ;extruding 
G1 X41.428 Y40.187 ;extruding 
G1 X40.489 Y40.269 ;extruding 
G1 X39.551 Y40.187 ;extruding 
G1 X38.641 Y39.943 ;extruding 
G1 X37.787 Y39.545 ;extruding 
G1 X37.015 Y39.004 ;extruding 
G1 X36.349 Y38.338 ;extruding 
G1 X35.809 Y37.567 ;extruding 
G1 X35.411 Y36.713 ;extruding 
G1 X35.167 Y35.803 ;extruding 
G1 X35.085 Y34.864 ;extruding 
G1 X35.167 Y33.926 ;extruding 
G1 X35.411 Y33.016 ;extruding 
G1 X35.809 Y32.162 ;extruding 
G1 X36.349 Y31.390 ;extruding 
G1 X37.015 Y30.724 ;extruding 
G1 X37.787 Y30.184 ;extruding 
G1 X38.641 Y29.786 ;extruding 
G1 X39.551 Y29.542 ;extruding 
G1 X40.489 Y29.460 ;extruding 
G1 X41.428 Y29.542 ;extruding 
G1 X42.254 Y29.763 ;extruding 
FILEWRITE $hFile"\x05\x02\x30\x34\x44\x49\x20\x20\x43\x46\x03"
G1 X42.203 Y30.156 ;not extruding 
FILEWRITE $hFile"\x05\x02\x30\x34\x44\x49\x20\x20\x43\x46\x03"
DWELL 0.15
G1 X42.994 Y30.525 ;extruding 
G1 X43.710 Y31.026 ;extruding 
G1 X44.327 Y31.644 ;extruding 
G1 X44.828 Y32.359 ;extruding 
G1 X45.197 Y33.151 ;extruding 
G1 X45.423 Y33.994 ;extruding 
G1 X45.500 Y34.864 ;extruding 
G1 X45.423 Y35.734 ;extruding 
G1 X45.197 Y36.578 ;extruding 
G1 X44.828 Y37.370 ;extruding 
G1 X44.327 Y38.085 ;extruding 
G1 X43.710 Y38.702 ;extruding 
G1 X42.994 Y39.203 ;extruding 
G1 X42.203 Y39.573 ;extruding 
G1 X41.359 Y39.799 ;extruding 
G1 X40.489 Y39.875 ;extruding 
G1 X39.619 Y39.799 ;extruding 
G1 X38.776 Y39.573 ;extruding 
G1 X37.984 Y39.203 ;extruding 
G1 X37.269 Y38.702 ;extruding 
G1 X36.651 Y38.085 ;extruding 
G1 X36.150 Y37.370 ;extruding 
G1 X35.781 Y36.578 ;extruding 
G1 X35.555 Y35.734 ;extruding 
G1 X35.479 Y34.864 ;extruding 
G1 X35.555 Y33.994 ;extruding 
G1 X35.781 Y33.151 ;extruding 
G1 X36.150 Y32.359 ;extruding 
G1 X36.651 Y31.644 ;extruding 
G1 X37.269 Y31.026 ;extruding 
G1 X37.984 Y30.525 ;extruding 
G1 X38.776 Y30.156 ;extruding 
G1 X39.619 Y29.930 ;extruding 
G1 X40.489 Y29.854 ;extruding 
G1 X41.359 Y29.930 ;extruding 
G1 X42.119 Y30.134 ;extruding 
FILEWRITE $hFile"\x05\x02\x30\x34\x44\x49\x20\x20\x43\x46\x03"
G1 X42.068 Y30.527 ;not extruding 
FILEWRITE $hFile"\x05\x02\x30\x34\x44\x49\x20\x20\x43\x46\x03"
DWELL 0.15
G1 X42.797 Y30.867 ;extruding 
G1 X43.456 Y31.328 ;extruding 
G1 X44.025 Y31.897 ;extruding 
G1 X44.487 Y32.556 ;extruding 
G1 X44.827 Y33.286 ;extruding 
G1 X45.035 Y34.063 ;extruding 
G1 X45.105 Y34.864 ;extruding 
G1 X45.035 Y35.666 ;extruding 
G1 X44.827 Y36.443 ;extruding 
G1 X44.487 Y37.172 ;extruding 
G1 X44.025 Y37.832 ;extruding 
G1 X43.456 Y38.401 ;extruding 
G1 X42.797 Y38.862 ;extruding 
G1 X42.068 Y39.202 ;extruding 
G1 X41.291 Y39.410 ;extruding 
G1 X40.489 Y39.481 ;extruding 
G1 X39.688 Y39.410 ;extruding 
G1 X38.910 Y39.202 ;extruding 
G1 X38.181 Y38.862 ;extruding 
G1 X37.522 Y38.401 ;extruding 
G1 X36.953 Y37.832 ;extruding 
G1 X36.491 Y37.172 ;extruding 
G1 X36.151 Y36.443 ;extruding 
G1 X35.943 Y35.666 ;extruding 
G1 X35.873 Y34.864 ;extruding 
G1 X35.943 Y34.063 ;extruding 
G1 X36.151 Y33.286 ;extruding 
G1 X36.491 Y32.556 ;extruding 
G1 X36.953 Y31.897 ;extruding 
G1 X37.522 Y31.328 ;extruding 
G1 X38.181 Y30.867 ;extruding 
G1 X38.910 Y30.527 ;extruding 
G1 X39.688 Y30.318 ;extruding 
G1 X40.489 Y30.248 ;extruding 
G1 X41.291 Y30.318 ;extruding 
G1 X41.984 Y30.504 ;extruding 
FILEWRITE $hFile"\x05\x02\x30\x34\x44\x49\x20\x20\x43\x46\x03"
G1 X41.933 Y30.897 ;not extruding 
FILEWRITE $hFile"\x05\x02\x30\x34\x44\x49\x20\x20\x43\x46\x03"
DWELL 0.15
G1 X42.600 Y31.208 ;extruding 
G1 X43.203 Y31.630 ;extruding 
G1 X43.723 Y32.151 ;extruding 
G1 X44.145 Y32.753 ;extruding 
G1 X44.456 Y33.420 ;extruding 
G1 X44.647 Y34.131 ;extruding 
G1 X44.711 Y34.864 ;extruding 
G1 X44.647 Y35.597 ;extruding 
G1 X44.456 Y36.308 ;extruding 
G1 X44.145 Y36.975 ;extruding 
G1 X43.723 Y37.578 ;extruding 
G1 X43.203 Y38.099 ;extruding 
G1 X42.600 Y38.521 ;extruding 
G1 X41.933 Y38.832 ;extruding 
G1 X41.222 Y39.022 ;extruding 
G1 X40.489 Y39.086 ;extruding 
G1 X39.756 Y39.022 ;extruding 
G1 X39.045 Y38.832 ;extruding 
G1 X38.378 Y38.521 ;extruding 
G1 X37.775 Y38.099 ;extruding 
G1 X37.255 Y37.578 ;extruding 
G1 X36.833 Y36.975 ;extruding 
G1 X36.522 Y36.308 ;extruding 
G1 X36.331 Y35.597 ;extruding 
G1 X36.267 Y34.864 ;extruding 
G1 X36.331 Y34.131 ;extruding 
G1 X36.522 Y33.420 ;extruding 
G1 X36.833 Y32.753 ;extruding 
G1 X37.255 Y32.151 ;extruding 
G1 X37.775 Y31.630 ;extruding 
G1 X38.378 Y31.208 ;extruding 
G1 X39.045 Y30.897 ;extruding 
G1 X39.756 Y30.707 ;extruding 
G1 X40.489 Y30.642 ;extruding 
G1 X41.222 Y30.707 ;extruding 
G1 X41.849 Y30.874 ;extruding 
FILEWRITE $hFile"\x05\x02\x30\x34\x44\x49\x20\x20\x43\x46\x03"
G1 X41.798 Y31.267 ;not extruding 
FILEWRITE $hFile"\x05\x02\x30\x34\x44\x49\x20\x20\x43\x46\x03"
DWELL 0.15
G1 X42.403 Y31.549 ;extruding 
G1 X42.950 Y31.932 ;extruding 
G1 X43.421 Y32.404 ;extruding 
G1 X43.804 Y32.950 ;extruding 
G1 X44.086 Y33.555 ;extruding 
G1 X44.259 Y34.200 ;extruding 
G1 X44.317 Y34.864 ;extruding 
G1 X44.259 Y35.529 ;extruding 
G1 X44.086 Y36.174 ;extruding 
G1 X43.804 Y36.778 ;extruding 
G1 X43.421 Y37.325 ;extruding 
G1 X42.950 Y37.797 ;extruding 
G1 X42.403 Y38.179 ;extruding 
G1 X41.798 Y38.461 ;extruding 
G1 X41.154 Y38.634 ;extruding 
G1 X40.489 Y38.692 ;extruding 
G1 X39.824 Y38.634 ;extruding 
G1 X39.180 Y38.461 ;extruding 
G1 X38.575 Y38.179 ;extruding 
G1 X38.029 Y37.797 ;extruding 
G1 X37.557 Y37.325 ;extruding 
G1 X37.174 Y36.778 ;extruding 
G1 X36.892 Y36.174 ;extruding 
G1 X36.720 Y35.529 ;extruding 
G1 X36.661 Y34.864 ;extruding 
G1 X36.720 Y34.200 ;extruding 
G1 X36.892 Y33.555 ;extruding 
G1 X37.174 Y32.950 ;extruding 
G1 X37.557 Y32.404 ;extruding 
G1 X38.029 Y31.932 ;extruding 
G1 X38.575 Y31.549 ;extruding 
G1 X39.180 Y31.267 ;extruding 
G1 X39.824 Y31.095 ;extruding 
G1 X40.489 Y31.037 ;extruding 
G1 X41.154 Y31.095 ;extruding 
G1 X41.714 Y31.245 ;extruding 
FILEWRITE $hFile"\x05\x02\x30\x34\x44\x49\x20\x20\x43\x46\x03"
G1 X41.664 Y31.638 ;not extruding 
FILEWRITE $hFile"\x05\x02\x30\x34\x44\x49\x20\x20\x43\x46\x03"
DWELL 0.15
G1 X42.206 Y31.891 ;extruding 
G1 X42.696 Y32.234 ;extruding 
G1 X43.119 Y32.657 ;extruding 
G1 X43.463 Y33.148 ;extruding 
G1 X43.716 Y33.690 ;extruding 
G1 X43.871 Y34.268 ;extruding 
G1 X43.923 Y34.864 ;extruding 
G1 X43.871 Y35.461 ;extruding 
G1 X43.716 Y36.039 ;extruding 
G1 X43.463 Y36.581 ;extruding 
G1 X43.119 Y37.071 ;extruding 
G1 X42.696 Y37.495 ;extruding 
G1 X42.206 Y37.838 ;extruding 
G1 X41.664 Y38.091 ;extruding 
G1 X41.085 Y38.246 ;extruding 
G1 X40.489 Y38.298 ;extruding 
G1 X39.893 Y38.246 ;extruding 
G1 X39.315 Y38.091 ;extruding 
G1 X38.772 Y37.838 ;extruding 
G1 X38.282 Y37.495 ;extruding 
G1 X37.859 Y37.071 ;extruding 
G1 X37.516 Y36.581 ;extruding 
G1 X37.263 Y36.039 ;extruding 
G1 X37.108 Y35.461 ;extruding 
G1 X37.056 Y34.864 ;extruding 
G1 X37.108 Y34.268 ;extruding 
G1 X37.263 Y33.690 ;extruding 
G1 X37.516 Y33.148 ;extruding 
G1 X37.859 Y32.657 ;extruding 
G1 X38.282 Y32.234 ;extruding 
G1 X38.772 Y31.891 ;extruding 
G1 X39.315 Y31.638 ;extruding 
G1 X39.893 Y31.483 ;extruding 
G1 X40.489 Y31.431 ;extruding 
G1 X41.085 Y31.483 ;extruding 
G1 X41.579 Y31.615 ;extruding 
FILEWRITE $hFile"\x05\x02\x30\x34\x44\x49\x20\x20\x43\x46\x03"
G1 X41.529 Y32.008 ;not extruding 
FILEWRITE $hFile"\x05\x02\x30\x34\x44\x49\x20\x20\x43\x46\x03"
DWELL 0.15
G1 X42.009 Y32.232 ;extruding 
G1 X42.443 Y32.536 ;extruding 
G1 X42.817 Y32.911 ;extruding 
G1 X43.121 Y33.345 ;extruding 
G1 X43.345 Y33.825 ;extruding 
G1 X43.482 Y34.337 ;extruding 
G1 X43.529 Y34.864 ;extruding 
G1 X43.482 Y35.392 ;extruding 
G1 X43.345 Y35.904 ;extruding 
G1 X43.121 Y36.384 ;extruding 
G1 X42.817 Y36.818 ;extruding 
G1 X42.443 Y37.193 ;extruding 
G1 X42.009 Y37.497 ;extruding 
G1 X41.529 Y37.720 ;extruding 
G1 X41.017 Y37.858 ;extruding 
G1 X40.489 Y37.904 ;extruding 
G1 X39.961 Y37.858 ;extruding 
G1 X39.450 Y37.720 ;extruding 
G1 X38.969 Y37.497 ;extruding 
G1 X38.536 Y37.193 ;extruding 
G1 X38.161 Y36.818 ;extruding 
G1 X37.857 Y36.384 ;extruding 
G1 X37.633 Y35.904 ;extruding 
G1 X37.496 Y35.392 ;extruding 
G1 X37.450 Y34.864 ;extruding 
G1 X37.496 Y34.337 ;extruding 
G1 X37.633 Y33.825 ;extruding 
G1 X37.857 Y33.345 ;extruding 
G1 X38.161 Y32.911 ;extruding 
G1 X38.536 Y32.536 ;extruding 
G1 X38.969 Y32.232 ;extruding 
G1 X39.450 Y32.008 ;extruding 
G1 X39.961 Y31.871 ;extruding 
G1 X40.489 Y31.825 ;extruding 
G1 X41.017 Y31.871 ;extruding 
G1 X41.445 Y31.986 ;extruding 
FILEWRITE $hFile"\x05\x02\x30\x34\x44\x49\x20\x20\x43\x46\x03"
G1 X41.394 Y32.379 ;not extruding 
FILEWRITE $hFile"\x05\x02\x30\x34\x44\x49\x20\x20\x43\x46\x03"
DWELL 0.15
G1 X41.812 Y32.574 ;extruding 
G1 X42.189 Y32.838 ;extruding 
G1 X42.515 Y33.164 ;extruding 
G1 X42.780 Y33.542 ;extruding 
G1 X42.975 Y33.960 ;extruding 
G1 X43.094 Y34.405 ;extruding 
G1 X43.134 Y34.864 ;extruding 
G1 X43.094 Y35.324 ;extruding 
G1 X42.975 Y35.769 ;extruding 
G1 X42.780 Y36.187 ;extruding 
G1 X42.515 Y36.565 ;extruding 
G1 X42.189 Y36.891 ;extruding 
G1 X41.812 Y37.155 ;extruding 
G1 X41.394 Y37.350 ;extruding 
G1 X40.948 Y37.469 ;extruding 
G1 X40.489 Y37.510 ;extruding 
G1 X40.030 Y37.469 ;extruding 
G1 X39.584 Y37.350 ;extruding 
G1 X39.167 Y37.155 ;extruding 
G1 X38.789 Y36.891 ;extruding 
G1 X38.463 Y36.565 ;extruding 
G1 X38.198 Y36.187 ;extruding 
G1 X38.004 Y35.769 ;extruding 
G1 X37.884 Y35.324 ;extruding 
G1 X37.844 Y34.864 ;extruding 
G1 X37.884 Y34.405 ;extruding 
G1 X38.004 Y33.960 ;extruding 
G1 X38.198 Y33.542 ;extruding 
G1 X38.463 Y33.164 ;extruding 
G1 X38.789 Y32.838 ;extruding 
G1 X39.167 Y32.574 ;extruding 
G1 X39.584 Y32.379 ;extruding 
G1 X40.030 Y32.259 ;extruding 
G1 X40.489 Y32.219 ;extruding 
G1 X40.948 Y32.259 ;extruding 
G1 X41.310 Y32.356 ;extruding 
FILEWRITE $hFile"\x05\x02\x30\x34\x44\x49\x20\x20\x43\x46\x03"
G1 X41.259 Y32.749 ;not extruding 
FILEWRITE $hFile"\x05\x02\x30\x34\x44\x49\x20\x20\x43\x46\x03"
DWELL 0.15
G1 X41.615 Y32.915 ;extruding 
G1 X41.936 Y33.140 ;extruding 
G1 X42.213 Y33.417 ;extruding 
G1 X42.439 Y33.739 ;extruding 
G1 X42.604 Y34.094 ;extruding 
G1 X42.706 Y34.473 ;extruding 
G1 X42.740 Y34.864 ;extruding 
G1 X42.706 Y35.255 ;extruding 
G1 X42.604 Y35.634 ;extruding 
G1 X42.439 Y35.990 ;extruding 
G1 X42.213 Y36.311 ;extruding 
G1 X41.936 Y36.589 ;extruding 
G1 X41.615 Y36.814 ;extruding 
G1 X41.259 Y36.980 ;extruding 
G1 X40.880 Y37.081 ;extruding 
G1 X40.489 Y37.115 ;extruding 
G1 X40.098 Y37.081 ;extruding 
G1 X39.719 Y36.980 ;extruding 
G1 X39.364 Y36.814 ;extruding 
G1 X39.042 Y36.589 ;extruding 
G1 X38.765 Y36.311 ;extruding 
G1 X38.540 Y35.990 ;extruding 
G1 X38.374 Y35.634 ;extruding 
G1 X38.272 Y35.255 ;extruding 
G1 X38.238 Y34.864 ;extruding 
G1 X38.272 Y34.473 ;extruding 
G1 X38.374 Y34.094 ;extruding 
G1 X38.540 Y33.739 ;extruding 
G1 X38.765 Y33.417 ;extruding 
G1 X39.042 Y33.140 ;extruding 
G1 X39.364 Y32.915 ;extruding 
G1 X39.719 Y32.749 ;extruding 
G1 X40.098 Y32.648 ;extruding 
G1 X40.489 Y32.613 ;extruding 
G1 X40.880 Y32.648 ;extruding 
G1 X41.175 Y32.727 ;extruding 
FILEWRITE $hFile"\x05\x02\x30\x34\x44\x49\x20\x20\x43\x46\x03"
G1 X41.259 Y32.749 ;not extruding 
G1 X42.740 Y29.174 ;not extruding 
FILEWRITE $hFile"\x05\x02\x30\x34\x44\x49\x20\x20\x43\x46\x03"
DWELL 0.15
G1 X43.148 Y29.343 ;extruding 
G1 X43.750 Y29.675 ;extruding 
G1 X44.310 Y30.073 ;extruding 
G1 X44.823 Y30.531 ;extruding 
G1 X45.281 Y31.043 ;extruding 
G1 X45.678 Y31.604 ;extruding 
G1 X46.011 Y32.205 ;extruding 
G1 X46.274 Y32.840 ;extruding 
G1 X46.464 Y33.501 ;extruding 
G1 X46.579 Y34.178 ;extruding 
G1 X46.617 Y34.860 ;extruding 
G1 X46.579 Y35.551 ;extruding 
G1 X46.464 Y36.228 ;extruding 
G1 X46.274 Y36.888 ;extruding 
G1 X46.011 Y37.523 ;extruding 
G1 X45.678 Y38.125 ;extruding 
G1 X45.281 Y38.685 ;extruding 
G1 X44.823 Y39.198 ;extruding 
G1 X44.310 Y39.656 ;extruding 
G1 X43.750 Y40.054 ;extruding 
G1 X43.148 Y40.386 ;extruding 
G1 X42.513 Y40.649 ;extruding 
G1 X41.853 Y40.839 ;extruding 
G1 X41.175 Y40.954 ;extruding 
G1 X40.493 Y40.993 ;extruding 
G1 X39.802 Y40.954 ;extruding 
G1 X39.125 Y40.839 ;extruding 
G1 X38.465 Y40.649 ;extruding 
G1 X37.830 Y40.386 ;extruding 
G1 X37.232 Y40.055 ;extruding 
G1 X36.667 Y39.655 ;extruding 
G1 X36.156 Y39.198 ;extruding 
G1 X35.698 Y38.685 ;extruding 
G1 X35.300 Y38.125 ;extruding 
G1 X34.968 Y37.523 ;extruding 
G1 X34.705 Y36.888 ;extruding 
G1 X34.515 Y36.232 ;extruding 
G1 X34.399 Y35.550 ;extruding 
G1 X34.361 Y34.864 ;extruding 
G1 X34.399 Y34.178 ;extruding 
G1 X34.514 Y33.501 ;extruding 
G1 X34.703 Y32.844 ;extruding 
G1 X34.968 Y32.204 ;extruding 
G1 X35.300 Y31.604 ;extruding 
G1 X35.698 Y31.043 ;extruding 
G1 X36.156 Y30.531 ;extruding 
G1 X36.668 Y30.073 ;extruding 
G1 X37.229 Y29.675 ;extruding 
G1 X37.827 Y29.345 ;extruding 
G1 X38.466 Y29.079 ;extruding 
G1 X39.125 Y28.889 ;extruding 
G1 X39.803 Y28.774 ;extruding 
G1 X40.489 Y28.736 ;extruding 
G1 X41.171 Y28.774 ;extruding 
G1 X41.854 Y28.890 ;extruding 
G1 X42.513 Y29.080 ;extruding 
G1 X42.660 Y29.140 ;extruding 
FILEWRITE $hFile"\x05\x02\x30\x34\x44\x49\x20\x20\x43\x46\x03"
G1 X42.890 Y28.811 ;not extruding 
FILEWRITE $hFile"\x05\x02\x30\x34\x44\x49\x20\x20\x43\x46\x03"
DWELL 0.15
G1 X43.319 Y28.988 ;extruding 
G1 X43.959 Y29.342 ;extruding 
G1 X44.555 Y29.765 ;extruding 
G1 X45.101 Y30.253 ;extruding 
G1 X45.588 Y30.798 ;extruding 
G1 X46.011 Y31.395 ;extruding 
G1 X46.365 Y32.035 ;extruding 
G1 X46.645 Y32.710 ;extruding 
G1 X46.847 Y33.413 ;extruding 
G1 X46.970 Y34.134 ;extruding 
G1 X47.011 Y34.860 ;extruding 
G1 X46.970 Y35.595 ;extruding 
G1 X46.847 Y36.316 ;extruding 
G1 X46.645 Y37.018 ;extruding 
G1 X46.365 Y37.694 ;extruding 
G1 X46.011 Y38.334 ;extruding 
G1 X45.588 Y38.931 ;extruding 
G1 X45.101 Y39.476 ;extruding 
G1 X44.555 Y39.963 ;extruding 
G1 X43.959 Y40.387 ;extruding 
G1 X43.319 Y40.740 ;extruding 
G1 X42.643 Y41.020 ;extruding 
G1 X41.940 Y41.223 ;extruding 
G1 X41.219 Y41.345 ;extruding 
G1 X40.493 Y41.386 ;extruding 
G1 X39.758 Y41.345 ;extruding 
G1 X39.038 Y41.223 ;extruding 
G1 X38.335 Y41.020 ;extruding 
G1 X37.659 Y40.740 ;extruding 
G1 X37.023 Y40.389 ;extruding 
G1 X36.422 Y39.963 ;extruding 
G1 X35.878 Y39.476 ;extruding 
G1 X35.390 Y38.931 ;extruding 
G1 X34.967 Y38.334 ;extruding 
G1 X34.613 Y37.694 ;extruding 
G1 X34.333 Y37.018 ;extruding 
G1 X34.132 Y36.320 ;extruding 
G1 X34.008 Y35.594 ;extruding 
G1 X33.967 Y34.864 ;extruding 
G1 X34.008 Y34.134 ;extruding 
G1 X34.131 Y33.413 ;extruding 
G1 X34.332 Y32.714 ;extruding 
G1 X34.614 Y32.034 ;extruding 
G1 X34.967 Y31.395 ;extruding 
G1 X35.390 Y30.798 ;extruding 
G1 X35.878 Y30.253 ;extruding 
G1 X36.423 Y29.765 ;extruding 
G1 X37.019 Y29.342 ;extruding 
G1 X37.656 Y28.990 ;extruding 
G1 X38.336 Y28.708 ;extruding 
G1 X39.038 Y28.506 ;extruding 
G1 X39.759 Y28.384 ;extruding 
G1 X40.489 Y28.343 ;extruding 
G1 X41.215 Y28.383 ;extruding 
G1 X41.941 Y28.506 ;extruding 
G1 X42.643 Y28.709 ;extruding 
G1 X42.810 Y28.778 ;extruding 
FILEWRITE $hFile"\x05\x02\x30\x34\x44\x49\x20\x20\x43\x46\x03"
G1 X43.041 Y28.448 ;not extruding 
FILEWRITE $hFile"\x05\x02\x30\x34\x44\x49\x20\x20\x43\x46\x03"
DWELL 0.15
G1 X43.490 Y28.634 ;extruding 
G1 X44.168 Y29.009 ;extruding 
G1 X44.801 Y29.458 ;extruding 
G1 X45.379 Y29.975 ;extruding 
G1 X45.896 Y30.553 ;extruding 
G1 X46.344 Y31.185 ;extruding 
G1 X46.720 Y31.864 ;extruding 
G1 X47.016 Y32.580 ;extruding 
G1 X47.231 Y33.326 ;extruding 
G1 X47.361 Y34.090 ;extruding 
G1 X47.404 Y34.860 ;extruding 
G1 X47.361 Y35.639 ;extruding 
G1 X47.231 Y36.403 ;extruding 
G1 X47.016 Y37.148 ;extruding 
G1 X46.720 Y37.865 ;extruding 
G1 X46.344 Y38.543 ;extruding 
G1 X45.896 Y39.176 ;extruding 
G1 X45.379 Y39.754 ;extruding 
G1 X44.801 Y40.271 ;extruding 
G1 X44.168 Y40.720 ;extruding 
G1 X43.490 Y41.095 ;extruding 
G1 X42.773 Y41.391 ;extruding 
G1 X42.028 Y41.606 ;extruding 
G1 X41.263 Y41.736 ;extruding 
G1 X40.493 Y41.779 ;extruding 
G1 X39.714 Y41.736 ;extruding 
G1 X38.950 Y41.606 ;extruding 
G1 X38.205 Y41.391 ;extruding 
G1 X37.489 Y41.095 ;extruding 
G1 X36.814 Y40.722 ;extruding 
G1 X36.177 Y40.270 ;extruding 
G1 X35.599 Y39.754 ;extruding 
G1 X35.083 Y39.176 ;extruding 
G1 X34.634 Y38.543 ;extruding 
G1 X34.259 Y37.865 ;extruding 
G1 X33.962 Y37.148 ;extruding 
G1 X33.749 Y36.407 ;extruding 
G1 X33.617 Y35.638 ;extruding 
G1 X33.574 Y34.864 ;extruding 
G1 X33.617 Y34.090 ;extruding 
G1 X33.747 Y33.326 ;extruding 
G1 X33.961 Y32.584 ;extruding 
G1 X34.259 Y31.863 ;extruding 
G1 X34.634 Y31.185 ;extruding 
G1 X35.083 Y30.553 ;extruding 
G1 X35.599 Y29.975 ;extruding 
G1 X36.178 Y29.458 ;extruding 
G1 X36.810 Y29.009 ;extruding 
G1 X37.485 Y28.636 ;extruding 
G1 X38.206 Y28.337 ;extruding 
G1 X38.950 Y28.123 ;extruding 
G1 X39.715 Y27.993 ;extruding 
G1 X40.489 Y27.949 ;extruding 
G1 X41.259 Y27.992 ;extruding 
G1 X42.029 Y28.123 ;extruding 
G1 X42.773 Y28.337 ;extruding 
G1 X42.960 Y28.415 ;extruding 
FILEWRITE $hFile"\x05\x02\x30\x34\x44\x49\x20\x20\x43\x46\x03"
G1 X43.191 Y28.085 ;not extruding 
FILEWRITE $hFile"\x05\x02\x30\x34\x44\x49\x20\x20\x43\x46\x03"
DWELL 0.15
G1 X43.660 Y28.280 ;extruding 
G1 X44.378 Y28.676 ;extruding 
G1 X45.046 Y29.150 ;extruding 
G1 X45.657 Y29.696 ;extruding 
G1 X46.203 Y30.308 ;extruding 
G1 X46.677 Y30.976 ;extruding 
G1 X47.074 Y31.693 ;extruding 
G1 X47.388 Y32.451 ;extruding 
G1 X47.614 Y33.238 ;extruding 
G1 X47.752 Y34.046 ;extruding 
G1 X47.797 Y34.860 ;extruding 
G1 X47.752 Y35.683 ;extruding 
G1 X47.614 Y36.491 ;extruding 
G1 X47.388 Y37.278 ;extruding 
G1 X47.074 Y38.035 ;extruding 
G1 X46.677 Y38.753 ;extruding 
G1 X46.203 Y39.421 ;extruding 
G1 X45.657 Y40.032 ;extruding 
G1 X45.046 Y40.578 ;extruding 
G1 X44.378 Y41.053 ;extruding 
G1 X43.660 Y41.449 ;extruding 
G1 X42.903 Y41.763 ;extruding 
G1 X42.115 Y41.990 ;extruding 
G1 X41.307 Y42.127 ;extruding 
G1 X40.493 Y42.173 ;extruding 
G1 X39.670 Y42.127 ;extruding 
G1 X38.863 Y41.990 ;extruding 
G1 X38.075 Y41.763 ;extruding 
G1 X37.318 Y41.449 ;extruding 
G1 X36.605 Y41.055 ;extruding 
G1 X35.932 Y40.578 ;extruding 
G1 X35.321 Y40.032 ;extruding 
G1 X34.775 Y39.421 ;extruding 
G1 X34.301 Y38.753 ;extruding 
G1 X33.904 Y38.035 ;extruding 
G1 X33.591 Y37.278 ;extruding 
G1 X33.365 Y36.495 ;extruding 
G1 X33.227 Y35.682 ;extruding 
G1 X33.181 Y34.864 ;extruding 
G1 X33.227 Y34.046 ;extruding 
G1 X33.364 Y33.238 ;extruding 
G1 X33.590 Y32.455 ;extruding 
G1 X33.905 Y31.693 ;extruding 
G1 X34.301 Y30.976 ;extruding 
G1 X34.775 Y30.308 ;extruding 
G1 X35.321 Y29.696 ;extruding 
G1 X35.932 Y29.150 ;extruding 
G1 X36.601 Y28.676 ;extruding 
G1 X37.314 Y28.282 ;extruding 
G1 X38.076 Y27.966 ;extruding 
G1 X38.863 Y27.739 ;extruding 
G1 X39.671 Y27.602 ;extruding 
G1 X40.489 Y27.556 ;extruding 
G1 X41.303 Y27.602 ;extruding 
G1 X42.116 Y27.739 ;extruding 
G1 X42.903 Y27.966 ;extruding 
G1 X43.110 Y28.052 ;extruding 
FILEWRITE $hFile"\x05\x02\x30\x34\x44\x49\x20\x20\x43\x46\x03"
G1 X43.341 Y27.722 ;not extruding 
FILEWRITE $hFile"\x05\x02\x30\x34\x44\x49\x20\x20\x43\x46\x03"
DWELL 0.15
G1 X43.831 Y27.925 ;extruding 
G1 X44.587 Y28.343 ;extruding 
G1 X45.291 Y28.843 ;extruding 
G1 X45.935 Y29.418 ;extruding 
G1 X46.511 Y30.062 ;extruding 
G1 X47.010 Y30.767 ;extruding 
G1 X47.428 Y31.523 ;extruding 
G1 X47.759 Y32.321 ;extruding 
G1 X47.998 Y33.151 ;extruding 
G1 X48.143 Y34.002 ;extruding 
G1 X48.191 Y34.860 ;extruding 
G1 X48.142 Y35.727 ;extruding 
G1 X47.998 Y36.578 ;extruding 
G1 X47.759 Y37.408 ;extruding 
G1 X47.428 Y38.206 ;extruding 
G1 X47.010 Y38.962 ;extruding 
G1 X46.511 Y39.666 ;extruding 
G1 X45.935 Y40.310 ;extruding 
G1 X45.291 Y40.886 ;extruding 
G1 X44.587 Y41.386 ;extruding 
G1 X43.831 Y41.803 ;extruding 
G1 X43.033 Y42.134 ;extruding 
G1 X42.203 Y42.373 ;extruding 
G1 X41.351 Y42.518 ;extruding 
G1 X40.494 Y42.566 ;extruding 
G1 X39.626 Y42.518 ;extruding 
G1 X38.775 Y42.373 ;extruding 
G1 X37.945 Y42.134 ;extruding 
G1 X37.147 Y41.803 ;extruding 
G1 X36.395 Y41.388 ;extruding 
G1 X35.687 Y40.885 ;extruding 
G1 X35.043 Y40.310 ;extruding 
G1 X34.468 Y39.666 ;extruding 
G1 X33.968 Y38.962 ;extruding 
G1 X33.550 Y38.206 ;extruding 
G1 X33.220 Y37.408 ;extruding 
G1 X32.982 Y36.582 ;extruding 
G1 X32.836 Y35.726 ;extruding 
G1 X32.787 Y34.864 ;extruding 
G1 X32.836 Y34.002 ;extruding 
G1 X32.980 Y33.151 ;extruding 
G1 X33.218 Y32.325 ;extruding 
G1 X33.550 Y31.522 ;extruding 
G1 X33.968 Y30.767 ;extruding 
G1 X34.468 Y30.062 ;extruding 
G1 X35.043 Y29.418 ;extruding 
G1 X35.687 Y28.843 ;extruding 
G1 X36.392 Y28.343 ;extruding 
G1 X37.144 Y27.927 ;extruding 
G1 X37.946 Y27.595 ;extruding 
G1 X38.775 Y27.356 ;extruding 
G1 X39.627 Y27.211 ;extruding 
G1 X40.489 Y27.163 ;extruding 
G1 X41.347 Y27.211 ;extruding 
G1 X42.203 Y27.356 ;extruding 
G1 X43.033 Y27.595 ;extruding 
G1 X43.261 Y27.689 ;extruding 
FILEWRITE $hFile"\x05\x02\x30\x34\x44\x49\x20\x20\x43\x46\x03"
G1 X43.491 Y27.360 ;not extruding 
FILEWRITE $hFile"\x05\x02\x30\x34\x44\x49\x20\x20\x43\x46\x03"
DWELL 0.15
G1 X44.001 Y27.571 ;extruding 
G1 X44.796 Y28.010 ;extruding 
G1 X45.536 Y28.535 ;extruding 
G1 X46.213 Y29.140 ;extruding 
G1 X46.818 Y29.817 ;extruding 
G1 X47.343 Y30.557 ;extruding 
G1 X47.783 Y31.352 ;extruding 
G1 X48.130 Y32.191 ;extruding 
G1 X48.381 Y33.063 ;extruding 
G1 X48.533 Y33.958 ;extruding 
G1 X48.584 Y34.860 ;extruding 
G1 X48.533 Y35.771 ;extruding 
G1 X48.381 Y36.666 ;extruding 
G1 X48.130 Y37.538 ;extruding 
G1 X47.783 Y38.377 ;extruding 
G1 X47.343 Y39.171 ;extruding 
G1 X46.818 Y39.912 ;extruding 
G1 X46.213 Y40.588 ;extruding 
G1 X45.536 Y41.193 ;extruding 
G1 X44.796 Y41.719 ;extruding 
G1 X44.001 Y42.158 ;extruding 
G1 X43.163 Y42.505 ;extruding 
G1 X42.290 Y42.757 ;extruding 
G1 X41.396 Y42.909 ;extruding 
G1 X40.494 Y42.959 ;extruding 
G1 X39.582 Y42.908 ;extruding 
G1 X38.688 Y42.756 ;extruding 
G1 X37.816 Y42.505 ;extruding 
G1 X36.977 Y42.158 ;extruding 
G1 X36.186 Y41.721 ;extruding 
G1 X35.442 Y41.193 ;extruding 
G1 X34.765 Y40.588 ;extruding 
G1 X34.160 Y39.912 ;extruding 
G1 X33.635 Y39.171 ;extruding 
G1 X33.196 Y38.377 ;extruding 
G1 X32.848 Y37.538 ;extruding 
G1 X32.598 Y36.670 ;extruding 
G1 X32.445 Y35.770 ;extruding 
G1 X32.394 Y34.864 ;extruding 
G1 X32.445 Y33.958 ;extruding 
G1 X32.597 Y33.063 ;extruding 
G1 X32.847 Y32.195 ;extruding 
G1 X33.196 Y31.352 ;extruding 
G1 X33.635 Y30.557 ;extruding 
G1 X34.160 Y29.817 ;extruding 
G1 X34.765 Y29.140 ;extruding 
G1 X35.442 Y28.535 ;extruding 
G1 X36.182 Y28.010 ;extruding 
G1 X36.973 Y27.573 ;extruding 
G1 X37.816 Y27.223 ;extruding 
G1 X38.688 Y26.972 ;extruding 
G1 X39.583 Y26.820 ;extruding 
G1 X40.489 Y26.769 ;extruding 
G1 X41.391 Y26.820 ;extruding 
G1 X42.291 Y26.972 ;extruding 
G1 X43.163 Y27.224 ;extruding 
G1 X43.411 Y27.326 ;extruding 
FILEWRITE $hFile"\x05\x02\x30\x34\x44\x49\x20\x20\x43\x46\x03"
G1 X43.642 Y26.997 ;not extruding 
FILEWRITE $hFile"\x05\x02\x30\x34\x44\x49\x20\x20\x43\x46\x03"
DWELL 0.15
G1 X44.172 Y27.217 ;extruding 
G1 X45.005 Y27.677 ;extruding 
G1 X45.782 Y28.228 ;extruding 
G1 X46.491 Y28.862 ;extruding 
G1 X47.126 Y29.572 ;extruding 
G1 X47.677 Y30.348 ;extruding 
G1 X48.137 Y31.181 ;extruding 
G1 X48.501 Y32.061 ;extruding 
G1 X48.765 Y32.975 ;extruding 
G1 X48.924 Y33.914 ;extruding 
G1 X48.977 Y34.860 ;extruding 
G1 X48.924 Y35.815 ;extruding 
G1 X48.765 Y36.753 ;extruding 
G1 X48.501 Y37.668 ;extruding 
G1 X48.137 Y38.547 ;extruding 
G1 X47.677 Y39.380 ;extruding 
G1 X47.126 Y40.157 ;extruding 
G1 X46.491 Y40.867 ;extruding 
G1 X45.782 Y41.501 ;extruding 
G1 X45.005 Y42.052 ;extruding 
G1 X44.172 Y42.512 ;extruding 
G1 X43.293 Y42.876 ;extruding 
G1 X42.378 Y43.140 ;extruding 
G1 X41.440 Y43.299 ;extruding 
G1 X40.494 Y43.353 ;extruding 
G1 X39.538 Y43.299 ;extruding 
G1 X38.600 Y43.140 ;extruding 
G1 X37.686 Y42.876 ;extruding 
G1 X36.806 Y42.512 ;extruding 
G1 X35.977 Y42.054 ;extruding 
G1 X35.196 Y41.501 ;extruding 
G1 X34.487 Y40.867 ;extruding 
G1 X33.853 Y40.157 ;extruding 
G1 X33.302 Y39.380 ;extruding 
G1 X32.841 Y38.547 ;extruding 
G1 X32.477 Y37.668 ;extruding 
G1 X32.215 Y36.758 ;extruding 
G1 X32.054 Y35.814 ;extruding 
G1 X32.001 Y34.864 ;extruding 
G1 X32.054 Y33.914 ;extruding 
G1 X32.214 Y32.975 ;extruding 
G1 X32.476 Y32.065 ;extruding 
G1 X32.842 Y31.181 ;extruding 
G1 X33.302 Y30.348 ;extruding 
G1 X33.853 Y29.572 ;extruding 
G1 X34.487 Y28.862 ;extruding 
G1 X35.197 Y28.228 ;extruding 
G1 X35.973 Y27.677 ;extruding 
G1 X36.802 Y27.219 ;extruding 
G1 X37.686 Y26.852 ;extruding 
G1 X38.600 Y26.589 ;extruding 
G1 X39.539 Y26.429 ;extruding 
G1 X40.489 Y26.376 ;extruding 
G1 X41.435 Y26.429 ;extruding 
G1 X42.378 Y26.589 ;extruding 
G1 X43.293 Y26.852 ;extruding 
G1 X43.561 Y26.964 ;extruding 
FILEWRITE $hFile"\x05\x02\x30\x34\x44\x49\x20\x20\x43\x46\x03"
G1 X43.792 Y26.634 ;not extruding 
FILEWRITE $hFile"\x05\x02\x30\x34\x44\x49\x20\x20\x43\x46\x03"
DWELL 0.15
G1 X44.343 Y26.862 ;extruding 
G1 X45.215 Y27.344 ;extruding 
G1 X46.027 Y27.920 ;extruding 
G1 X46.770 Y28.584 ;extruding 
G1 X47.433 Y29.327 ;extruding 
G1 X48.010 Y30.139 ;extruding 
G1 X48.491 Y31.011 ;extruding 
G1 X48.872 Y31.931 ;extruding 
G1 X49.148 Y32.888 ;extruding 
G1 X49.315 Y33.870 ;extruding 
G1 X49.371 Y34.860 ;extruding 
G1 X49.315 Y35.859 ;extruding 
G1 X49.148 Y36.841 ;extruding 
G1 X48.872 Y37.798 ;extruding 
G1 X48.491 Y38.718 ;extruding 
G1 X48.010 Y39.590 ;extruding 
G1 X47.433 Y40.402 ;extruding 
G1 X46.770 Y41.145 ;extruding 
G1 X46.027 Y41.808 ;extruding 
G1 X45.215 Y42.385 ;extruding 
G1 X44.343 Y42.867 ;extruding 
G1 X43.423 Y43.248 ;extruding 
G1 X42.466 Y43.523 ;extruding 
G1 X41.484 Y43.690 ;extruding 
G1 X40.494 Y43.746 ;extruding 
G1 X39.494 Y43.690 ;extruding 
G1 X38.513 Y43.523 ;extruding 
G1 X37.556 Y43.248 ;extruding 
G1 X36.636 Y42.867 ;extruding 
G1 X35.768 Y42.387 ;extruding 
G1 X34.951 Y41.808 ;extruding 
G1 X34.209 Y41.145 ;extruding 
G1 X33.545 Y40.402 ;extruding 
G1 X32.969 Y39.590 ;extruding 
G1 X32.487 Y38.718 ;extruding 
G1 X32.106 Y37.798 ;extruding 
G1 X31.831 Y36.845 ;extruding 
G1 X31.663 Y35.859 ;extruding 
G1 X31.607 Y34.864 ;extruding 
G1 X31.663 Y33.870 ;extruding 
G1 X31.830 Y32.888 ;extruding 
G1 X32.105 Y31.935 ;extruding 
G1 X32.487 Y31.010 ;extruding 
G1 X32.969 Y30.139 ;extruding 
G1 X33.545 Y29.327 ;extruding 
G1 X34.209 Y28.584 ;extruding 
G1 X34.951 Y27.920 ;extruding 
G1 X35.764 Y27.344 ;extruding 
G1 X36.631 Y26.864 ;extruding 
G1 X37.556 Y26.481 ;extruding 
G1 X38.513 Y26.205 ;extruding 
G1 X39.495 Y26.038 ;extruding 
G1 X40.489 Y25.983 ;extruding 
G1 X41.479 Y26.038 ;extruding 
G1 X42.466 Y26.205 ;extruding 
G1 X43.423 Y26.481 ;extruding 
G1 X43.712 Y26.601 ;extruding 
FILEWRITE $hFile"\x05\x02\x30\x34\x44\x49\x20\x20\x43\x46\x03"
G1 X43.942 Y26.271 ;not extruding 
FILEWRITE $hFile"\x05\x02\x30\x34\x44\x49\x20\x20\x43\x46\x03"
DWELL 0.15
G1 X44.513 Y26.508 ;extruding 
G1 X45.424 Y27.011 ;extruding 
G1 X46.272 Y27.613 ;extruding 
G1 X47.048 Y28.306 ;extruding 
G1 X47.741 Y29.081 ;extruding 
G1 X48.343 Y29.930 ;extruding 
G1 X48.846 Y30.840 ;extruding 
G1 X49.244 Y31.801 ;extruding 
G1 X49.532 Y32.800 ;extruding 
G1 X49.706 Y33.826 ;extruding 
G1 X49.764 Y34.860 ;extruding 
G1 X49.706 Y35.903 ;extruding 
G1 X49.532 Y36.928 ;extruding 
G1 X49.244 Y37.928 ;extruding 
G1 X48.846 Y38.889 ;extruding 
G1 X48.343 Y39.799 ;extruding 
G1 X47.741 Y40.647 ;extruding 
G1 X47.048 Y41.423 ;extruding 
G1 X46.272 Y42.116 ;extruding 
G1 X45.424 Y42.718 ;extruding 
G1 X44.513 Y43.221 ;extruding 
G1 X43.553 Y43.619 ;extruding 
G1 X42.553 Y43.907 ;extruding 
G1 X41.528 Y44.081 ;extruding 
G1 X40.494 Y44.139 ;extruding 
G1 X39.451 Y44.081 ;extruding 
G1 X38.425 Y43.907 ;extruding 
G1 X37.426 Y43.619 ;extruding 
G1 X36.465 Y43.221 ;extruding 
G1 X35.559 Y42.720 ;extruding 
G1 X34.706 Y42.116 ;extruding 
G1 X33.931 Y41.423 ;extruding 
G1 X33.238 Y40.647 ;extruding 
G1 X32.636 Y39.799 ;extruding 
G1 X32.133 Y38.889 ;extruding 
G1 X31.735 Y37.928 ;extruding 
G1 X31.448 Y36.933 ;extruding 
G1 X31.272 Y35.903 ;extruding 
G1 X31.214 Y34.864 ;extruding 
G1 X31.272 Y33.826 ;extruding 
G1 X31.447 Y32.800 ;extruding 
G1 X31.733 Y31.806 ;extruding 
G1 X32.133 Y30.840 ;extruding 
G1 X32.636 Y29.930 ;extruding 
G1 X33.238 Y29.081 ;extruding 
G1 X33.931 Y28.306 ;extruding 
G1 X34.706 Y27.613 ;extruding 
G1 X35.555 Y27.011 ;extruding 
G1 X36.461 Y26.510 ;extruding 
G1 X37.426 Y26.110 ;extruding 
G1 X38.425 Y25.822 ;extruding 
G1 X39.451 Y25.648 ;extruding 
G1 X40.489 Y25.589 ;extruding 
G1 X41.523 Y25.647 ;extruding 
G1 X42.553 Y25.822 ;extruding 
G1 X43.553 Y26.110 ;extruding 
G1 X43.862 Y26.238 ;extruding 
FILEWRITE $hFile"\x05\x02\x30\x34\x44\x49\x20\x20\x43\x46\x03"
G1 X44.093 Y25.908 ;not extruding 
FILEWRITE $hFile"\x05\x02\x30\x34\x44\x49\x20\x20\x43\x46\x03"
DWELL 0.15
G1 X44.684 Y26.153 ;extruding 
G1 X45.633 Y26.678 ;extruding 
G1 X46.517 Y27.305 ;extruding 
G1 X47.326 Y28.028 ;extruding 
G1 X48.048 Y28.836 ;extruding 
G1 X48.676 Y29.720 ;extruding 
G1 X49.200 Y30.669 ;extruding 
G1 X49.615 Y31.671 ;extruding 
G1 X49.915 Y32.713 ;extruding 
G1 X50.097 Y33.782 ;extruding 
G1 X50.157 Y34.860 ;extruding 
G1 X50.097 Y35.947 ;extruding 
G1 X49.915 Y37.016 ;extruding 
G1 X49.615 Y38.058 ;extruding 
G1 X49.200 Y39.059 ;extruding 
G1 X48.676 Y40.008 ;extruding 
G1 X48.048 Y40.892 ;extruding 
G1 X47.326 Y41.701 ;extruding 
G1 X46.517 Y42.423 ;extruding 
G1 X45.633 Y43.051 ;extruding 
G1 X44.684 Y43.575 ;extruding 
G1 X43.682 Y43.990 ;extruding 
G1 X42.641 Y44.290 ;extruding 
G1 X41.572 Y44.472 ;extruding 
G1 X40.494 Y44.532 ;extruding 
G1 X39.407 Y44.472 ;extruding 
G1 X38.338 Y44.290 ;extruding 
G1 X37.296 Y43.990 ;extruding 
G1 X36.294 Y43.575 ;extruding 
G1 X35.350 Y43.053 ;extruding 
G1 X34.461 Y42.423 ;extruding 
G1 X33.653 Y41.701 ;extruding 
G1 X32.930 Y40.892 ;extruding 
G1 X32.303 Y40.008 ;extruding 
G1 X31.778 Y39.059 ;extruding 
G1 X31.363 Y38.058 ;extruding 
G1 X31.065 Y37.020 ;extruding 
G1 X30.882 Y35.947 ;extruding 
G1 X30.821 Y34.864 ;extruding 
G1 X30.882 Y33.782 ;extruding 
G1 X31.063 Y32.713 ;extruding 
G1 X31.362 Y31.676 ;extruding 
G1 X31.778 Y30.669 ;extruding 
G1 X32.303 Y29.720 ;extruding 
G1 X32.930 Y28.836 ;extruding 
G1 X33.653 Y28.028 ;extruding 
G1 X34.461 Y27.305 ;extruding 
G1 X35.345 Y26.678 ;extruding 
G1 X36.290 Y26.156 ;extruding 
G1 X37.296 Y25.739 ;extruding 
G1 X38.338 Y25.438 ;extruding 
G1 X39.407 Y25.257 ;extruding 
G1 X40.489 Y25.196 ;extruding 
G1 X41.567 Y25.256 ;extruding 
G1 X42.641 Y25.438 ;extruding 
G1 X43.682 Y25.739 ;extruding 
G1 X44.012 Y25.875 ;extruding 
FILEWRITE $hFile"\x05\x02\x30\x34\x44\x49\x20\x20\x43\x46\x03"
G1 X44.183 Y26.481 ;not extruding 
G1 D-149.000 ;not extruding 
G1 X50.355 Y7.090 ;not extruding 
G1 X48.505 Y12.619 ;not extruding 
FILEWRITE $hFile"\x05\x02\x30\x34\x44\x49\x20\x20\x43\x46\x03"
DWELL 0.15
G1 X49.378 Y12.909 ;extruding 
G1 X52.113 Y14.226 ;extruding 
G1 X54.656 Y15.881 ;extruding 
G1 X56.968 Y17.849 ;extruding 
G1 X59.008 Y20.096 ;extruding 
G1 X60.745 Y22.585 ;extruding 
G1 X62.149 Y25.276 ;extruding 
G1 X63.197 Y28.125 ;extruding 
G1 X63.872 Y31.084 ;extruding 
G1 X64.164 Y34.105 ;extruding 
G1 X64.066 Y37.139 ;extruding 
G1 X63.582 Y40.135 ;extruding 
G1 X62.718 Y43.045 ;extruding 
G1 X61.490 Y45.820 ;extruding 
G1 X59.916 Y48.416 ;extruding 
G1 X58.024 Y50.789 ;extruding 
G1 X55.844 Y52.900 ;extruding 
G1 X53.411 Y54.716 ;extruding 
G1 X50.766 Y56.205 ;extruding 
G1 X47.953 Y57.344 ;extruding 
G1 X45.017 Y58.114 ;extruding 
G1 X42.007 Y58.502 ;extruding 
G1 X38.972 Y58.502 ;extruding 
G1 X35.961 Y58.114 ;extruding 
G1 X33.025 Y57.344 ;extruding 
G1 X30.212 Y56.205 ;extruding 
G1 X27.567 Y54.716 ;extruding 
G1 X25.135 Y52.900 ;extruding 
G1 X22.954 Y50.789 ;extruding 
G1 X21.062 Y48.416 ;extruding 
G1 X19.489 Y45.820 ;extruding 
G1 X18.260 Y43.045 ;extruding 
G1 X17.415 Y40.197 ;extruding 
G1 X16.912 Y37.143 ;extruding 
G1 X16.815 Y34.105 ;extruding 
G1 X17.106 Y31.084 ;extruding 
G1 X17.781 Y28.125 ;extruding 
G1 X18.830 Y25.276 ;extruding 
G1 X20.204 Y22.642 ;extruding 
G1 X21.967 Y20.099 ;extruding 
G1 X24.011 Y17.849 ;extruding 
G1 X26.361 Y15.848 ;extruding 
G1 X28.869 Y14.224 ;extruding 
G1 X31.600 Y12.909 ;extruding 
G1 X34.481 Y11.952 ;extruding 
G1 X37.460 Y11.372 ;extruding 
G1 X40.425 Y11.182 ;extruding 
G1 X43.514 Y11.371 ;extruding 
G1 X46.497 Y11.952 ;extruding 
G1 X48.422 Y12.591 ;extruding 
FILEWRITE $hFile"\x05\x02\x30\x34\x44\x49\x20\x20\x43\x46\x03"
G1 X48.381 Y12.992 ;not extruding 
FILEWRITE $hFile"\x05\x02\x30\x34\x44\x49\x20\x20\x43\x46\x03"
DWELL 0.15
G1 X49.230 Y13.273 ;extruding 
G1 X51.920 Y14.569 ;extruding 
G1 X54.421 Y16.197 ;extruding 
G1 X56.694 Y18.132 ;extruding 
G1 X58.701 Y20.341 ;extruding 
G1 X60.408 Y22.789 ;extruding 
G1 X61.789 Y25.436 ;extruding 
G1 X62.820 Y28.237 ;extruding 
G1 X63.484 Y31.147 ;extruding 
G1 X63.770 Y34.118 ;extruding 
G1 X63.675 Y37.101 ;extruding 
G1 X63.198 Y40.048 ;extruding 
G1 X62.349 Y42.909 ;extruding 
G1 X61.141 Y45.638 ;extruding 
G1 X59.594 Y48.191 ;extruding 
G1 X57.733 Y50.524 ;extruding 
G1 X55.588 Y52.601 ;extruding 
G1 X53.196 Y54.386 ;extruding 
G1 X50.596 Y55.851 ;extruding 
G1 X47.829 Y56.971 ;extruding 
G1 X44.942 Y57.728 ;extruding 
G1 X41.982 Y58.110 ;extruding 
G1 X38.997 Y58.110 ;extruding 
G1 X36.036 Y57.728 ;extruding 
G1 X33.149 Y56.971 ;extruding 
G1 X30.383 Y55.851 ;extruding 
G1 X27.782 Y54.386 ;extruding 
G1 X25.390 Y52.601 ;extruding 
G1 X23.246 Y50.524 ;extruding 
G1 X21.385 Y48.191 ;extruding 
G1 X19.837 Y45.638 ;extruding 
G1 X18.629 Y42.909 ;extruding 
G1 X17.798 Y40.109 ;extruding 
G1 X17.304 Y37.105 ;extruding 
G1 X17.208 Y34.118 ;extruding 
G1 X17.495 Y31.147 ;extruding 
G1 X18.159 Y28.237 ;extruding 
G1 X19.190 Y25.436 ;extruding 
G1 X20.541 Y22.846 ;extruding 
G1 X22.275 Y20.344 ;extruding 
G1 X24.284 Y18.132 ;extruding 
G1 X26.596 Y16.164 ;extruding 
G1 X29.062 Y14.567 ;extruding 
G1 X31.748 Y13.273 ;extruding 
G1 X34.581 Y12.333 ;extruding 
G1 X37.510 Y11.762 ;extruding 
G1 X40.425 Y11.575 ;extruding 
G1 X43.464 Y11.762 ;extruding 
G1 X46.398 Y12.333 ;extruding 
G1 X48.299 Y12.964 ;extruding 
FILEWRITE $hFile"\x05\x02\x30\x34\x44\x49\x20\x20\x43\x46\x03"
G1 X48.257 Y13.364 ;not extruding 
FILEWRITE $hFile"\x05\x02\x30\x34\x44\x49\x20\x20\x43\x46\x03"
DWELL 0.15
G1 X49.083 Y13.638 ;extruding 
G1 X51.726 Y14.911 ;extruding 
G1 X54.186 Y16.512 ;extruding 
G1 X56.420 Y18.414 ;extruding 
G1 X58.393 Y20.587 ;extruding 
G1 X60.072 Y22.993 ;extruding 
G1 X61.429 Y25.595 ;extruding 
G1 X62.442 Y28.349 ;extruding 
G1 X63.095 Y31.210 ;extruding 
G1 X63.377 Y34.130 ;extruding 
G1 X63.283 Y37.063 ;extruding 
G1 X62.815 Y39.960 ;extruding 
G1 X61.980 Y42.773 ;extruding 
G1 X60.792 Y45.456 ;extruding 
G1 X59.271 Y47.966 ;extruding 
G1 X57.441 Y50.260 ;extruding 
G1 X55.333 Y52.301 ;extruding 
G1 X52.982 Y54.056 ;extruding 
G1 X50.425 Y55.496 ;extruding 
G1 X47.705 Y56.597 ;extruding 
G1 X44.867 Y57.342 ;extruding 
G1 X41.956 Y57.717 ;extruding 
G1 X39.022 Y57.717 ;extruding 
G1 X36.112 Y57.342 ;extruding 
G1 X33.273 Y56.597 ;extruding 
G1 X30.553 Y55.496 ;extruding 
G1 X27.997 Y54.056 ;extruding 
G1 X25.645 Y52.301 ;extruding 
G1 X23.537 Y50.260 ;extruding 
G1 X21.707 Y47.966 ;extruding 
G1 X20.186 Y45.456 ;extruding 
G1 X18.999 Y42.773 ;extruding 
G1 X18.182 Y40.021 ;extruding 
G1 X17.695 Y37.066 ;extruding 
G1 X17.601 Y34.130 ;extruding 
G1 X17.883 Y31.210 ;extruding 
G1 X18.536 Y28.349 ;extruding 
G1 X19.549 Y25.595 ;extruding 
G1 X20.877 Y23.049 ;extruding 
G1 X22.583 Y20.589 ;extruding 
G1 X24.558 Y18.414 ;extruding 
G1 X26.831 Y16.479 ;extruding 
G1 X29.254 Y14.910 ;extruding 
G1 X31.896 Y13.638 ;extruding 
G1 X34.681 Y12.714 ;extruding 
G1 X37.561 Y12.153 ;extruding 
G1 X40.426 Y11.969 ;extruding 
G1 X43.414 Y12.152 ;extruding 
G1 X46.298 Y12.714 ;extruding 
G1 X48.175 Y13.337 ;extruding 
FILEWRITE $hFile"\x05\x02\x30\x34\x44\x49\x20\x20\x43\x46\x03"
G1 X48.134 Y13.737 ;not extruding 
FILEWRITE $hFile"\x05\x02\x30\x34\x44\x49\x20\x20\x43\x46\x03"
DWELL 0.15
G1 X48.935 Y14.003 ;extruding 
G1 X51.533 Y15.254 ;extruding 
G1 X53.950 Y16.828 ;extruding 
G1 X56.146 Y18.697 ;extruding 
G1 X58.085 Y20.832 ;extruding 
G1 X59.735 Y23.197 ;extruding 
G1 X61.069 Y25.754 ;extruding 
G1 X62.065 Y28.461 ;extruding 
G1 X62.707 Y31.272 ;extruding 
G1 X62.984 Y34.143 ;extruding 
G1 X62.891 Y37.025 ;extruding 
G1 X62.431 Y39.872 ;extruding 
G1 X61.611 Y42.637 ;extruding 
G1 X60.443 Y45.274 ;extruding 
G1 X58.948 Y47.741 ;extruding 
G1 X57.150 Y49.995 ;extruding 
G1 X55.078 Y52.002 ;extruding 
G1 X52.767 Y53.727 ;extruding 
G1 X50.254 Y55.142 ;extruding 
G1 X47.581 Y56.224 ;extruding 
G1 X44.791 Y56.956 ;extruding 
G1 X41.931 Y57.324 ;extruding 
G1 X39.047 Y57.324 ;extruding 
G1 X36.187 Y56.956 ;extruding 
G1 X33.397 Y56.224 ;extruding 
G1 X30.724 Y55.142 ;extruding 
G1 X28.211 Y53.727 ;extruding 
G1 X25.900 Y52.002 ;extruding 
G1 X23.828 Y49.995 ;extruding 
G1 X22.030 Y47.741 ;extruding 
G1 X20.535 Y45.274 ;extruding 
G1 X19.368 Y42.637 ;extruding 
G1 X18.565 Y39.933 ;extruding 
G1 X18.087 Y37.028 ;extruding 
G1 X17.995 Y34.143 ;extruding 
G1 X18.271 Y31.272 ;extruding 
G1 X18.913 Y28.461 ;extruding 
G1 X19.909 Y25.754 ;extruding 
G1 X21.214 Y23.253 ;extruding 
G1 X22.891 Y20.834 ;extruding 
G1 X24.832 Y18.697 ;extruding 
G1 X27.066 Y16.795 ;extruding 
G1 X29.447 Y15.253 ;extruding 
G1 X32.043 Y14.003 ;extruding 
G1 X34.780 Y13.094 ;extruding 
G1 X37.611 Y12.543 ;extruding 
G1 X40.427 Y12.362 ;extruding 
G1 X43.365 Y12.542 ;extruding 
G1 X46.198 Y13.094 ;extruding 
G1 X48.051 Y13.710 ;extruding 
FILEWRITE $hFile"\x05\x02\x30\x34\x44\x49\x20\x20\x43\x46\x03"
G1 X48.010 Y14.110 ;not extruding 
FILEWRITE $hFile"\x05\x02\x30\x34\x44\x49\x20\x20\x43\x46\x03"
DWELL 0.15
G1 X48.787 Y14.368 ;extruding 
G1 X51.340 Y15.597 ;extruding 
G1 X53.715 Y17.143 ;extruding 
G1 X55.873 Y18.980 ;extruding 
G1 X57.778 Y21.077 ;extruding 
G1 X59.399 Y23.401 ;extruding 
G1 X60.709 Y25.914 ;extruding 
G1 X61.688 Y28.573 ;extruding 
G1 X62.318 Y31.335 ;extruding 
G1 X62.590 Y34.156 ;extruding 
G1 X62.500 Y36.988 ;extruding 
G1 X62.047 Y39.785 ;extruding 
G1 X61.241 Y42.501 ;extruding 
G1 X60.094 Y45.092 ;extruding 
G1 X58.625 Y47.515 ;extruding 
G1 X56.859 Y49.731 ;extruding 
G1 X54.823 Y51.702 ;extruding 
G1 X52.552 Y53.397 ;extruding 
G1 X50.083 Y54.787 ;extruding 
G1 X47.457 Y55.851 ;extruding 
G1 X44.716 Y56.569 ;extruding 
G1 X41.906 Y56.932 ;extruding 
G1 X39.072 Y56.932 ;extruding 
G1 X36.262 Y56.569 ;extruding 
G1 X33.521 Y55.851 ;extruding 
G1 X30.895 Y54.787 ;extruding 
G1 X28.426 Y53.397 ;extruding 
G1 X26.155 Y51.702 ;extruding 
G1 X24.120 Y49.731 ;extruding 
G1 X22.353 Y47.515 ;extruding 
G1 X20.884 Y45.092 ;extruding 
G1 X19.737 Y42.501 ;extruding 
G1 X18.949 Y39.844 ;extruding 
G1 X18.479 Y36.990 ;extruding 
G1 X18.388 Y34.156 ;extruding 
G1 X18.660 Y31.335 ;extruding 
G1 X19.290 Y28.573 ;extruding 
G1 X20.269 Y25.914 ;extruding 
G1 X21.551 Y23.456 ;extruding 
G1 X23.199 Y21.079 ;extruding 
G1 X25.106 Y18.980 ;extruding 
G1 X27.301 Y17.111 ;extruding 
G1 X29.640 Y15.596 ;extruding 
G1 X32.191 Y14.368 ;extruding 
G1 X34.880 Y13.475 ;extruding 
G1 X37.661 Y12.933 ;extruding 
G1 X40.427 Y12.756 ;extruding 
G1 X43.315 Y12.933 ;extruding 
G1 X46.098 Y13.475 ;extruding 
G1 X47.927 Y14.082 ;extruding 
FILEWRITE $hFile"\x05\x02\x30\x34\x44\x49\x20\x20\x43\x46\x03"
G1 X47.886 Y14.482 ;not extruding 
FILEWRITE $hFile"\x05\x02\x30\x34\x44\x49\x20\x20\x43\x46\x03"
DWELL 0.15
G1 X48.640 Y14.732 ;extruding 
G1 X51.147 Y15.940 ;extruding 
G1 X53.480 Y17.458 ;extruding 
G1 X55.599 Y19.262 ;extruding 
G1 X57.470 Y21.323 ;extruding 
G1 X59.062 Y23.605 ;extruding 
G1 X60.349 Y26.073 ;extruding 
G1 X61.311 Y28.685 ;extruding 
G1 X61.930 Y31.398 ;extruding 
G1 X62.197 Y34.168 ;extruding 
G1 X62.108 Y36.950 ;extruding 
G1 X61.664 Y39.697 ;extruding 
G1 X60.872 Y42.365 ;extruding 
G1 X59.745 Y44.910 ;extruding 
G1 X58.303 Y47.290 ;extruding 
G1 X56.567 Y49.466 ;extruding 
G1 X54.568 Y51.402 ;extruding 
G1 X52.338 Y53.067 ;extruding 
G1 X49.913 Y54.433 ;extruding 
G1 X47.333 Y55.477 ;extruding 
G1 X44.641 Y56.183 ;extruding 
G1 X41.881 Y56.539 ;extruding 
G1 X39.098 Y56.539 ;extruding 
G1 X36.337 Y56.183 ;extruding 
G1 X33.645 Y55.477 ;extruding 
G1 X31.066 Y54.433 ;extruding 
G1 X28.641 Y53.067 ;extruding 
G1 X26.410 Y51.402 ;extruding 
G1 X24.411 Y49.466 ;extruding 
G1 X22.676 Y47.290 ;extruding 
G1 X21.233 Y44.910 ;extruding 
G1 X20.106 Y42.365 ;extruding 
G1 X19.332 Y39.756 ;extruding 
G1 X18.870 Y36.951 ;extruding 
G1 X18.781 Y34.168 ;extruding 
G1 X19.048 Y31.398 ;extruding 
G1 X19.668 Y28.685 ;extruding 
G1 X20.629 Y26.073 ;extruding 
G1 X21.888 Y23.660 ;extruding 
G1 X23.507 Y21.324 ;extruding 
G1 X25.380 Y19.262 ;extruding 
G1 X27.536 Y17.426 ;extruding 
G1 X29.832 Y15.939 ;extruding 
G1 X32.339 Y14.732 ;extruding 
G1 X34.980 Y13.856 ;extruding 
G1 X37.712 Y13.323 ;extruding 
G1 X40.428 Y13.149 ;extruding 
G1 X43.265 Y13.323 ;extruding 
G1 X45.998 Y13.856 ;extruding 
G1 X47.804 Y14.455 ;extruding 
FILEWRITE $hFile"\x05\x02\x30\x34\x44\x49\x20\x20\x43\x46\x03"
G1 X47.763 Y14.855 ;not extruding 
FILEWRITE $hFile"\x05\x02\x30\x34\x44\x49\x20\x20\x43\x46\x03"
DWELL 0.15
G1 X48.492 Y15.097 ;extruding 
G1 X50.954 Y16.283 ;extruding 
G1 X53.244 Y17.774 ;extruding 
G1 X55.325 Y19.545 ;extruding 
G1 X57.162 Y21.568 ;extruding 
G1 X58.726 Y23.809 ;extruding 
G1 X59.990 Y26.232 ;extruding 
G1 X60.933 Y28.797 ;extruding 
G1 X61.541 Y31.461 ;extruding 
G1 X61.804 Y34.181 ;extruding 
G1 X61.716 Y36.912 ;extruding 
G1 X61.280 Y39.610 ;extruding 
G1 X60.503 Y42.229 ;extruding 
G1 X59.396 Y44.728 ;extruding 
G1 X57.980 Y47.065 ;extruding 
G1 X56.276 Y49.202 ;extruding 
G1 X54.313 Y51.103 ;extruding 
G1 X52.123 Y52.737 ;extruding 
G1 X49.742 Y54.078 ;extruding 
G1 X47.209 Y55.104 ;extruding 
G1 X44.566 Y55.797 ;extruding 
G1 X41.856 Y56.146 ;extruding 
G1 X39.123 Y56.146 ;extruding 
G1 X36.413 Y55.797 ;extruding 
G1 X33.769 Y55.104 ;extruding 
G1 X31.236 Y54.078 ;extruding 
G1 X28.855 Y52.737 ;extruding 
G1 X26.665 Y51.103 ;extruding 
G1 X24.702 Y49.202 ;extruding 
G1 X22.998 Y47.065 ;extruding 
G1 X21.582 Y44.728 ;extruding 
G1 X20.476 Y42.229 ;extruding 
G1 X19.716 Y39.668 ;extruding 
G1 X19.262 Y36.913 ;extruding 
G1 X19.174 Y34.181 ;extruding 
G1 X19.437 Y31.461 ;extruding 
G1 X20.045 Y28.797 ;extruding 
G1 X20.989 Y26.232 ;extruding 
G1 X22.224 Y23.863 ;extruding 
G1 X23.815 Y21.569 ;extruding 
G1 X25.653 Y19.545 ;extruding 
G1 X27.771 Y17.742 ;extruding 
G1 X30.025 Y16.283 ;extruding 
G1 X32.486 Y15.097 ;extruding 
G1 X35.080 Y14.236 ;extruding 
G1 X37.762 Y13.714 ;extruding 
G1 X40.428 Y13.543 ;extruding 
G1 X43.215 Y13.714 ;extruding 
G1 X45.899 Y14.236 ;extruding 
G1 X47.680 Y14.828 ;extruding 
FILEWRITE $hFile"\x05\x02\x30\x34\x44\x49\x20\x20\x43\x46\x03"
G1 X47.639 Y15.228 ;not extruding 
FILEWRITE $hFile"\x05\x02\x30\x34\x44\x49\x20\x20\x43\x46\x03"
DWELL 0.15
G1 X48.344 Y15.462 ;extruding 
G1 X50.761 Y16.626 ;extruding 
G1 X53.009 Y18.089 ;extruding 
G1 X55.051 Y19.828 ;extruding 
G1 X56.855 Y21.813 ;extruding 
G1 X58.389 Y24.013 ;extruding 
G1 X59.630 Y26.391 ;extruding 
G1 X60.556 Y28.909 ;extruding 
G1 X61.153 Y31.524 ;extruding 
G1 X61.411 Y34.193 ;extruding 
G1 X61.325 Y36.874 ;extruding 
G1 X60.897 Y39.522 ;extruding 
