; Postprocessed by [ArcWelder](https://github.com/FormerLurker/ArcWelderLib)
; Copyright(C) 2021 - Brad Hochgesang
; Version: 1.2.0, Branch: master, BuildDate: 2021-11-22T09:56:32Z
; resolution=0.05mm
; path_tolerance=5.0%
; max_radius=9999.00mm
; default_xyz_precision=3
; default_e_precision=5
; extrusion_rate_variance_percent=5.0%

; generated by Slic3r 1.3.0 on 2023-04-14 at 13:45:51

; external perimeters extrusion width = 0.50mm (2.95mm^3/s)
; perimeters extrusion width = 0.50mm (2.95mm^3/s)
; infill extrusion width = 0.50mm (2.95mm^3/s)
; solid infill extrusion width = 0.50mm (2.95mm^3/s)
; top infill extrusion width = 0.50mm (2.95mm^3/s)


; Filament gcode

G21 ; set units to millimeters
G90 ; use absolute coordinates
M82 ; use absolute distances for extrusion
G92 E0
G1 Z-149.500 F900.000
G1 X24.527 Y23.971 F900.000
G1 F900
G3 X30.712 Y19.880 I13.361 J13.478 E0.20738
G3 X35.526 Y18.283 I8.287 J16.926 E0.34869
G3 X44.652 Y18.452 I4.222 J18.473 E0.60484
G3 X49.070 Y19.892 I-3.358 J17.799 E0.73433
G3 X54.905 Y23.793 I-6.664 J16.283 E0.93058
G3 X57.460 Y26.650 I-40.757 J39.020 E1.03710
G3 X60.621 Y32.257 I-18.609 J14.185 E1.21660
G3 X61.811 Y38.168 I-24.306 J7.969 E1.38457
G3 X61.123 Y45.937 I-22.537 J1.919 E1.60235
G3 X58.766 Y51.086 I-19.542 J-5.832 E1.76014
G3 X56.030 Y54.842 I-15.899 J-8.707 E1.88963
G3 X50.518 Y59.187 I-14.123 J-12.247 E2.08588
G3 X45.488 Y61.206 I-13.250 J-25.734 E2.23672
G3 X35.050 Y61.365 I-5.505 J-18.672 E2.53033
G1 X34.712 Y61.312 E2.53986
G3 X30.678 Y59.935 I4.028 J-18.397 E2.65851
G3 X29.641 Y59.449 I1.202 J-3.913 E2.69038
G1 X29.294 Y59.303 E2.70084
G3 X23.670 Y54.746 I9.327 J-17.260 E2.90314
G3 X20.668 Y50.672 I13.779 J-13.296 E3.04410
G3 X20.112 Y49.672 I2.942 J-2.290 E3.07597
G1 X19.915 Y49.354 E3.08634
G3 X18.093 Y42.883 I16.801 J-8.223 E3.27419
G3 X17.993 Y37.253 I19.285 J-3.158 E3.43115
G3 X19.894 Y30.532 I17.445 J1.305 E3.62643
G1 X20.583 Y29.244 E3.66701
G2 X21.109 Y28.344 I-4.550 J-3.263 E3.69600
G3 X24.466 Y24.034 I22.077 J13.733 E3.84821
G1 X24.803 Y24.250 F900.000
G1 F900
G3 X30.853 Y20.247 I13.082 J13.199 E4.05106
G3 X35.614 Y18.666 I8.169 J16.642 E4.19085
G3 X43.190 Y18.527 I4.118 J17.936 E4.40291
G3 X47.216 Y19.550 I-5.751 J31.067 E4.51845
G3 X50.065 Y20.766 I-17.610 J45.205 E4.60460
G3 X56.080 Y25.649 I-9.017 J17.254 E4.82130
G3 X58.627 Y29.106 I-13.478 J12.597 E4.94091
G1 X58.825 Y29.383 E4.95038
G3 X61.367 Y37.876 I-16.641 J9.608 E5.19886
G3 X60.748 Y45.821 I-21.411 J2.329 E5.42160
G3 X58.422 Y50.896 I-19.179 J-5.720 E5.57719
G3 X55.733 Y54.585 I-15.561 J-8.518 E5.70438
G3 X50.336 Y58.838 I-13.090 J-11.060 E5.89652
G3 X45.384 Y60.827 I-12.972 J-25.137 E6.04501
G3 X35.127 Y60.980 I-5.403 J-18.295 E6.33358
G3 X30.827 Y59.571 I3.302 J-17.344 E6.45964
G3 X29.809 Y59.094 I1.152 J-3.783 E6.49094
G1 X29.470 Y58.951 E6.50118
G3 X23.974 Y54.497 I9.153 J-16.912 E6.69886
G3 X21.001 Y50.465 I13.592 J-13.134 E6.83843
G3 X20.456 Y49.482 I3.017 J-2.315 E6.86972
G1 X20.264 Y49.171 E6.87988
G3 X18.485 Y42.857 I16.441 J-8.040 E7.06314
G3 X18.384 Y37.290 I18.913 J-3.128 E7.21834
G3 X20.246 Y30.707 I17.046 J1.266 E7.40963
G1 X20.918 Y29.451 E7.44920
G2 X21.451 Y28.539 I-4.912 J-3.482 E7.47858
G3 X24.743 Y24.313 I21.682 J13.495 E7.62782
G1 X25.080 Y24.529 F900.000
G1 F900
G3 X30.993 Y20.615 I12.793 J12.904 E7.82614
G3 X35.702 Y19.049 I8.059 J16.371 E7.96440
G3 X43.120 Y18.913 I4.033 J17.588 E8.17205
G3 X47.083 Y19.919 I-5.830 J31.277 E8.28576
G3 X49.885 Y21.116 I-18.133 J46.326 E8.37050
G3 X55.792 Y25.916 I-8.831 J16.902 E8.58339
G3 X58.295 Y29.317 I-14.375 J13.201 E8.70104
G1 X58.491 Y29.591 E8.71039
G3 X60.976 Y37.922 I-16.303 J9.399 E8.95410
G3 X60.373 Y45.704 I-21.042 J2.284 E9.17227
G3 X58.077 Y50.707 I-18.839 J-5.617 E9.32565
G3 X55.436 Y54.328 I-15.208 J-8.318 E9.45055
G3 X50.154 Y58.490 I-12.805 J-10.818 E9.63858
G3 X45.281 Y60.448 I-12.826 J-24.879 E9.78472
G3 X35.204 Y60.594 I-5.299 J-17.875 E10.06824
G3 X30.977 Y59.208 I3.210 J-16.929 E10.19218
G3 X29.977 Y58.738 I1.133 J-3.709 E10.22292
G1 X29.645 Y58.599 E10.23292
G3 X24.279 Y54.248 I8.945 J-16.516 E10.42599
G3 X21.335 Y50.257 I13.271 J-12.871 E10.56417
G3 X20.800 Y49.292 I2.933 J-2.257 E10.59490
G1 X20.612 Y48.987 E10.60483
G3 X18.878 Y42.832 I16.055 J-7.845 E10.78350
G3 X18.775 Y37.328 I18.606 J-3.101 E10.93694
G3 X20.598 Y30.882 I16.644 J1.226 E11.12425
G1 X21.252 Y29.658 E11.16281
G2 X21.792 Y28.734 I-4.973 J-3.526 E11.19258
G3 X25.019 Y24.592 I19.153 J11.594 E11.33883
G1 X25.356 Y24.808 F900.000
G1 F900
G3 X31.607 Y20.775 I12.980 J13.258 E11.54697
G3 X35.790 Y19.432 I7.229 J15.330 E11.66936
G3 X44.431 Y19.609 I3.966 J17.395 E11.91193
G3 X48.612 Y20.979 I-3.168 J16.733 E12.03454
G3 X55.503 Y26.183 I-7.010 J16.446 E12.27689
G3 X57.963 Y29.528 I-12.970 J12.115 E12.39255
G1 X58.156 Y29.798 E12.40178
G3 X60.586 Y37.968 I-15.942 J9.188 E12.64072
G3 X60.572 Y42.354 I-16.786 J2.139 E12.76292
G3 X57.733 Y50.517 I-17.753 J-1.599 E13.00549
G3 X55.139 Y54.071 I-14.950 J-8.188 E13.12810
G3 X48.784 Y58.718 I-13.435 J-11.704 E13.34869
G3 X46.612 Y59.624 I-12.221 J-26.242 E13.41409
G3 X40.649 Y60.828 I-7.284 J-20.707 E13.58371
G3 X34.950 Y60.157 I-0.030 J-24.280 E13.74358
G3 X31.126 Y58.844 I3.824 J-17.362 E13.85611
G3 X30.145 Y58.383 I1.127 J-3.673 E13.88629
G1 X29.821 Y58.247 E13.89606
G3 X24.584 Y54.000 I8.743 J-16.133 E14.08451
G3 X21.669 Y50.049 I13.058 J-12.685 E14.22129
G3 X21.144 Y49.101 I2.839 J-2.192 E14.25145
G1 X20.960 Y48.804 E14.26117
G3 X19.270 Y42.806 I15.718 J-7.666 E14.43525
G3 X19.166 Y37.366 I18.333 J-3.071 E14.58692
G3 X20.950 Y31.057 I16.242 J1.186 E14.77025
G1 X21.587 Y29.865 E14.80780
G3 X22.793 Y27.893 I26.765 J15.014 E14.87206
G3 X25.296 Y24.871 I19.022 J13.207 E14.98124
G1 X25.633 Y25.087 F900.000
G1 F900
G3 X31.775 Y21.130 I12.518 J12.685 E15.18567
G3 X35.878 Y19.815 I7.075 J15.016 E15.30572
G3 X43.821 Y19.877 I3.842 J16.650 E15.52852
G3 X48.459 Y21.341 I-2.950 J17.423 E15.66406
G3 X54.704 Y25.850 I-6.826 J16.034 E15.87990
G3 X57.054 Y28.794 I-17.173 J16.118 E15.98467
G3 X59.140 Y32.787 I-17.063 J11.455 E16.11014
G3 X60.248 Y38.342 I-22.560 J7.388 E16.26795
G3 X59.623 Y45.472 I-20.995 J1.752 E16.46778
G3 X57.389 Y50.328 I-18.536 J-5.586 E16.61673
G3 X54.841 Y53.814 I-14.588 J-7.988 E16.73704
G3 X49.790 Y57.794 I-12.219 J-10.311 E16.91686
G3 X45.075 Y59.690 I-12.482 J-24.230 E17.05829
G3 X40.644 Y60.435 I-5.560 J-19.520 E17.18343
G3 X35.357 Y59.823 I-0.446 J-19.294 E17.33173
G3 X31.276 Y58.481 I3.055 J-16.166 E17.45144
G3 X30.313 Y58.028 I1.119 J-3.629 E17.48105
G1 X29.997 Y57.894 E17.49058
G3 X24.888 Y53.751 I8.554 J-15.770 E17.67442
G3 X22.003 Y49.841 I12.794 J-12.460 E17.80981
G3 X21.488 Y48.911 I2.755 J-2.133 E17.83940
G1 X21.308 Y48.620 E17.84890
G3 X19.663 Y42.780 I15.314 J-7.465 E18.01840
G3 X19.557 Y37.404 I18.022 J-3.044 E18.16830
G3 X21.301 Y31.232 I15.849 J1.146 E18.34765
G1 X21.922 Y30.072 E18.38419
G3 X23.117 Y28.115 I25.941 J14.497 E18.44793
G3 X25.572 Y25.150 I18.886 J13.139 E18.55505
G1 X25.909 Y25.366 F900.000
G1 F900
G3 X31.942 Y21.486 I12.317 J12.521 E18.75576
G3 X35.966 Y20.198 I6.927 J14.711 E18.87346
G3 X44.283 Y20.381 I3.794 J16.652 E19.10698
G3 X48.307 Y21.703 I-3.021 J15.980 E19.22499
G3 X53.530 Y25.196 I-5.863 J14.418 E19.40070
G3 X56.732 Y29.021 I-18.833 J19.018 E19.53953
G3 X59.161 Y34.185 I-14.433 J9.942 E19.69883
G3 X59.871 Y41.621 I-23.019 J5.950 E19.90729
G3 X59.666 Y43.421 I-20.595 J-1.434 E19.95764
G1 X59.332 Y45.055 E20.00395
G3 X57.045 Y50.139 I-18.231 J-5.145 E20.15938
G3 X54.544 Y53.557 I-14.271 J-7.818 E20.27740
G3 X48.463 Y58.001 I-12.838 J-11.185 E20.48847
G3 X40.949 Y60.030 I-9.439 J-20.026 E20.70594
G3 X35.109 Y59.387 I-0.417 J-23.055 E20.86971
G3 X31.425 Y58.117 I3.654 J-16.578 E20.97817
G3 X30.481 Y57.672 I1.058 J-3.469 E21.00722
G1 X30.173 Y57.542 E21.01652
G3 X25.193 Y53.502 I8.337 J-15.366 E21.19574
G3 X22.336 Y49.633 I12.532 J-12.244 E21.32974
G3 X21.832 Y48.721 I2.720 J-2.099 E21.35876
G1 X21.656 Y48.437 E21.36804
G3 X20.055 Y42.755 I14.982 J-7.288 E21.53295
G3 X19.948 Y37.442 I17.654 J-3.013 E21.68109
G3 X21.250 Y32.282 I14.711 J0.968 E21.82967
G3 X24.300 Y27.187 I22.892 J10.243 E21.99510
G3 X25.849 Y25.429 I16.778 J13.222 E22.06026
G1 X25.909 Y25.366 F900.000
G92 E0
G1 X36.087 Y17.348 F900.000
G1 F900
G1 X35.537 Y15.348 E0.05763
G1 X35.253 Y13.806 E0.10117
G3 X35.335 Y10.474 I11.762 J-1.378 E0.19405
G3 X36.605 Y15.324 I-10.205 J5.264 E0.33443
G1 X36.972 Y17.210 E0.38782
G1 X36.173 Y17.333 E0.41029
G1 X35.805 Y17.802 F900.000
G1 F900
G1 X35.154 Y15.435 E0.47848
G1 X34.864 Y13.860 E0.52297
G3 X35.171 Y9.356 I12.210 J-1.430 E0.64908
G3 X36.995 Y15.271 I-10.560 J6.495 E0.82289
G1 X37.439 Y17.553 E0.88747
G2 X35.889 Y17.781 I1.108 J12.914 E0.93102
G92 E0
G1 X24.137 Y23.259 F900.000
G1 F900
G1 X23.645 Y23.755 E0.01940
G1 X21.933 Y22.461 E0.07900
G3 X18.966 Y18.756 I7.578 J-9.109 E0.21172
G3 X22.719 Y21.859 I-5.269 J10.194 E0.34799
G1 X24.075 Y23.198 E0.40093
G1 X24.702 Y23.265 F900.000
G1 F900
G2 X23.686 Y24.278 I10.133 J11.179 E0.44080
G1 X21.682 Y22.764 E0.51057
G3 X18.170 Y17.948 I7.684 J-9.292 E0.67781
G3 X23.007 Y21.591 I-4.519 J11.033 E0.84784
G1 X24.640 Y23.204 E0.91161
G92 E0
G1 X17.364 Y35.803 F900.000
G1 F900
G1 X17.268 Y36.375 E0.01609
G1 X15.181 Y36.308 E0.07409
G3 X11.173 Y35.280 I0.663 J-10.913 E0.18971
G3 X10.541 Y35.022 I0.838 J-2.955 E0.20870
G3 X15.002 Y35.181 I1.813 J11.803 E0.33341
G1 X17.280 Y35.781 E0.39886
G1 X17.811 Y35.515 F900.000
G1 F900
G2 X17.633 Y36.779 I6.261 J1.526 E0.43435
G1 X15.153 Y36.700 E0.50327
G3 X12.224 Y36.135 I0.797 J-12.008 E0.58632
G1 X10.514 Y35.450 E0.63749
G3 X9.408 Y34.829 I4.822 J-9.883 E0.67274
G3 X15.089 Y34.798 I2.909 J12.522 E0.83187
G1 X17.727 Y35.493 E0.90765
G92 E0
G1 X19.424 Y50.053 F900.000
G1 F900
G1 X19.628 Y50.467 E0.01283
G1 X17.008 Y51.991 E0.09701
G3 X13.301 Y53.206 I-5.478 J-10.451 E0.20588
G3 X17.007 Y50.689 I8.677 J8.789 E0.33103
G1 X19.272 Y49.808 E0.39855
G1 X19.378 Y49.979 E0.40414
G1 X19.567 Y49.538 F900.000
G1 F900
G3 X20.151 Y50.618 I-6.089 J3.990 E0.43825
G1 X17.195 Y52.337 E0.53322
G3 X12.288 Y53.704 I-5.569 J-10.499 E0.67581
G3 X16.855 Y50.326 I9.792 J8.462 E0.83491
G1 X19.467 Y49.311 E0.91275
G1 X19.532 Y49.458 E0.91723
G92 E0
G1 X28.942 Y60.007 F900.000
G1 F900
G3 X29.646 Y60.340 I-1.562 J4.212 E0.02165
G1 X28.916 Y62.296 E0.07965
G1 X28.242 Y63.706 E0.12305
G3 X26.228 Y66.342 I-10.324 J-5.801 E0.21550
G3 X28.054 Y61.670 I11.377 J1.754 E0.35596
G1 X28.867 Y59.963 E0.40847
G1 X28.683 Y59.402 F900.000
G1 F900
G2 X29.473 Y59.804 I1.940 J-2.835 E0.43314
G1 X30.135 Y60.153 E0.45393
G1 X29.278 Y62.450 E0.52202
G1 X28.589 Y63.891 E0.56638
G3 X25.704 Y67.343 I-10.690 J-6.003 E0.69207
G3 X27.708 Y61.483 I12.345 J0.949 E0.86599
G1 X28.646 Y59.480 E0.92743
G92 E0
G1 X42.782 Y62.588 F900.000
G1 F900
G1 X43.521 Y62.467 E0.02080
G1 X44.125 Y64.505 E0.07983
G3 X44.342 Y69.281 I-11.551 J2.918 E0.21351
G3 X43.118 Y64.546 I10.246 J-5.174 E0.35040
G1 X42.797 Y62.673 E0.40316
G1 X42.326 Y62.251 F900.000
G1 F900
G2 X43.798 Y62.019 I-1.687 J-15.491 E0.44457
G1 X44.506 Y64.410 E0.51383
G3 X44.512 Y70.399 I-11.866 J3.006 E0.68190
G3 X42.728 Y64.594 I10.122 J-6.287 E0.85244
G1 X42.340 Y62.337 E0.91607
G92 E0
G1 X55.504 Y56.561 F900.000
G1 F900
G1 X56.100 Y55.961 E0.02349
G1 X57.744 Y57.257 E0.08164
G3 X60.745 Y61.039 I-7.632 J9.138 E0.21666
G3 X56.916 Y57.898 I5.222 J-10.270 E0.35530
G1 X55.567 Y56.621 E0.40690
G1 X54.932 Y56.561 F900.000
G1 F900
G2 X56.062 Y55.431 I-10.673 J-11.803 E0.45129
G1 X57.998 Y56.957 E0.51978
G3 X61.531 Y61.834 I-7.866 J9.416 E0.68876
G3 X56.631 Y58.169 I4.478 J-11.095 E0.86062
G1 X54.995 Y56.621 E0.92317
G92 E0
G1 X62.319 Y44.166 F900.000
G1 F900
G2 X62.485 Y43.120 I-8.323 J-1.857 E0.02942
G1 X66.151 Y43.597 E0.13212
G3 X69.223 Y44.691 I-2.301 J11.322 E0.22300
G3 X64.227 Y44.399 I-1.844 J-11.335 E0.36312
G1 X62.406 Y44.176 E0.41409
G1 X61.850 Y44.504 F900.000
G1 F900
G2 X62.128 Y42.676 I-7.805 J-2.122 E0.46549
G1 X66.212 Y43.208 E0.57989
G3 X70.346 Y44.879 I-2.399 J11.885 E0.70444
G3 X64.157 Y44.786 I-2.915 J-12.016 E0.87825
G1 X61.936 Y44.514 E0.94041
G92 E0
G1 X60.530 Y30.099 F900.000
G1 F900
G1 X60.188 Y29.433 E0.02080
G1 X61.939 Y28.229 E0.07983
G3 X66.404 Y26.556 I6.228 J9.828 E0.21320
G3 X62.288 Y29.174 I-8.065 J-8.135 E0.34972
G1 X60.607 Y30.058 E0.40248
G1 X60.351 Y30.637 F900.000
G1 F900
G2 X59.676 Y29.308 I-14.239 J6.396 E0.44389
G1 X61.730 Y27.896 E0.51315
G3 X67.425 Y26.040 I6.525 J10.357 E0.68120
G3 X62.455 Y29.530 I-9.119 J-7.702 E0.85174
G1 X60.428 Y30.596 E0.91537
G92 E0
G1 X50.867 Y19.862 F900.000
G1 F900
G1 X50.005 Y19.429 E0.02680
G1 X51.231 Y16.649 E0.11119
G3 X53.507 Y13.493 I10.559 J5.216 E0.21975
G3 X51.702 Y18.106 I-11.372 J-1.790 E0.35838
G1 X50.905 Y19.783 E0.40998
G1 X51.044 Y20.406 F900.000
G1 F900
G2 X49.487 Y19.630 I-7.044 J12.183 E0.45830
G1 X50.877 Y16.479 E0.55395
G3 X54.020 Y12.500 I10.862 J5.349 E0.69585
G3 X52.048 Y18.293 I-11.938 J-0.832 E0.86771
G1 X51.081 Y20.327 E0.93026
G1 X51.511 Y20.338 F900.000
G1 F900
G1 X54.681 Y22.876 E1.04307
G3 X57.807 Y26.272 I-14.777 J16.739 E1.17150
G1 X59.647 Y28.852 E1.25951
G1 X61.522 Y27.563 E1.32271
G3 X68.266 Y25.605 I6.795 J10.810 E1.52025
G3 X62.622 Y29.885 I-9.918 J-7.218 E1.71983
G1 X60.794 Y30.848 E1.77722
G1 X61.874 Y34.787 E1.89068
G3 X62.406 Y39.365 I-21.799 J4.853 E2.01891
G1 X62.380 Y42.314 E2.10083
G1 X66.272 Y42.819 E2.20985
G3 X71.223 Y45.019 I-2.383 J12.033 E2.36155
G3 X66.158 Y45.566 I-3.812 J-11.571 E2.50407
G3 X64.087 Y45.173 I0.776 J-9.740 E2.56272
G1 X62.050 Y44.924 E2.61973
G1 X60.618 Y48.709 E2.73215
G3 X58.348 Y52.735 I-20.595 J-8.959 E2.86075
G1 X56.480 Y55.260 E2.94801
G1 X58.253 Y56.658 E3.01073
G3 X62.199 Y62.493 I-8.315 J9.875 E3.20891
G3 X56.346 Y58.439 I3.766 J-11.690 E3.40955
G1 X54.852 Y57.026 E3.46668
G1 X51.459 Y59.256 E3.57948
G3 X47.263 Y61.180 I-11.395 J-19.315 E3.70791
G1 X44.241 Y62.133 E3.79593
G1 X44.887 Y64.314 E3.85912
G3 X44.665 Y71.333 I-12.354 J3.122 E4.05668
G3 X42.338 Y64.643 I9.960 J-7.214 E4.25626
G1 X41.988 Y62.607 E4.31364
G1 X37.908 Y62.417 E4.42711
G3 X33.390 Y61.508 I2.124 J-22.239 E4.55534
G1 X30.419 Y60.514 E4.64235
G1 X29.640 Y62.603 E4.70429
G1 X28.936 Y64.075 E4.74961
G3 X25.300 Y68.135 I-10.623 J-5.855 E4.90226
G3 X26.346 Y63.147 I12.194 J-0.047 E5.04484
G3 X27.361 Y61.297 I9.018 J3.744 E5.10357
G1 X28.233 Y59.436 E5.16064
G1 X25.074 Y56.902 E5.27314
G3 X21.949 Y53.496 I15.074 J-16.967 E5.40175
G1 X20.200 Y51.043 E5.48543
G1 X17.382 Y52.682 E5.57597
G3 X11.475 Y54.134 I-5.886 J-11.205 E5.74657
G3 X15.256 Y50.707 I9.876 J7.097 E5.88936
G3 X16.703 Y49.964 I5.649 J9.220 E5.93457
G1 X19.029 Y49.060 E6.00390
G1 X17.893 Y44.909 E6.12344
G3 X17.363 Y40.321 I22.090 J-4.876 E6.25194
G1 X17.390 Y37.164 E6.33963
G1 X15.124 Y37.092 E6.40261
G3 X12.094 Y36.506 I0.828 J-12.406 E6.48853
G1 X10.344 Y35.804 E6.54091
G3 X8.508 Y34.685 I4.244 J-9.029 E6.60073
G3 X15.177 Y34.415 I3.839 J12.331 E6.78830
G1 X17.576 Y35.047 E6.85722
G1 X19.095 Y31.022 E6.97673
G3 X21.358 Y27.002 I20.548 J8.920 E7.10507
G1 X23.252 Y24.443 E7.19352
G1 X21.431 Y23.066 E7.25695
G3 X17.491 Y17.278 I8.196 J-9.814 E7.45391
G3 X23.295 Y21.323 I-3.841 J11.697 E7.65322
G1 X24.768 Y22.779 E7.71075
G1 X28.191 Y20.529 E7.82453
G3 X32.379 Y18.612 I11.374 J19.315 E7.95269
G1 X35.361 Y17.671 E8.03956
G1 X34.771 Y15.523 E8.10144
G1 X34.475 Y13.914 E8.14689
G3 X35.033 Y8.479 I12.043 J-1.510 E8.29992
G3 X37.118 Y13.127 I-9.822 J7.198 E8.44243
G3 X37.384 Y15.218 I-9.463 J2.266 E8.50109
G1 X37.777 Y17.232 E8.55810
G1 X41.819 Y17.424 E8.67051
G3 X46.350 Y18.339 I-2.182 J22.482 E8.79911
G1 X49.206 Y19.295 E8.88278
G1 X50.522 Y16.310 E8.97339
G3 X54.440 Y11.661 I11.390 J5.624 E9.14389
G3 X52.394 Y18.481 I-12.300 J0.027 E9.34454
G1 X51.548 Y20.260 E9.39925
G1 X51.999 Y20.226 F900.000
G1 F900
G1 X54.939 Y22.580 E9.50388
G3 X58.122 Y26.037 I-15.211 J17.199 E9.63463
G1 X59.742 Y28.309 E9.71215
G1 X61.313 Y27.230 E9.76509
G3 X69.007 Y25.228 I7.014 J11.171 E9.98935
G1 X68.889 Y25.436 E9.99599
G3 X62.789 Y30.241 I-10.614 J-7.200 E10.21506
G1 X61.256 Y31.048 E10.26317
G1 X62.257 Y34.699 E10.36834
G3 X62.799 Y39.360 I-22.158 J4.939 E10.49889
G1 X62.776 Y41.970 E10.57140
G1 X66.333 Y42.430 E10.67102
G3 X72.064 Y45.168 I-2.517 J12.636 E10.84949
G1 X70.480 Y45.660 E10.89557
G3 X64.017 Y45.560 I-3.035 J-12.767 E11.07702
G1 X62.308 Y45.351 E11.12484
G1 X60.980 Y48.864 E11.22917
G3 X58.669 Y52.962 I-21.122 J-9.211 E11.36007
G1 X57.022 Y55.188 E11.43698
G3 X59.383 Y57.161 I-11.854 J16.585 E11.52251
G3 X62.773 Y63.076 I-9.242 J9.226 E11.71406
G1 X62.533 Y63.027 E11.72089
G3 X56.061 Y58.710 I3.554 J-12.338 E11.94037
G1 X54.808 Y57.525 E11.98828
G1 X51.661 Y59.594 E12.09291
G3 X47.389 Y61.552 I-11.609 J-19.689 E12.22366
G1 X44.727 Y62.391 E12.30118
G1 X45.269 Y64.219 E12.35413
G3 X44.795 Y72.154 I-12.767 J3.219 E12.57839
G1 X44.633 Y71.978 E12.58503
G3 X41.948 Y64.692 I10.148 J-7.878 E12.80410
G1 X41.655 Y62.985 E12.85221
G1 X37.873 Y62.808 E12.95738
G3 X33.273 Y61.883 I2.167 J-22.676 E13.08793
G1 X30.655 Y61.007 E13.16463
G3 X28.953 Y64.818 I-17.543 J-5.549 E13.28079
G3 X24.898 Y68.894 I-10.960 J-6.848 E13.44198
G1 X24.920 Y67.229 E13.48824
G3 X27.015 Y61.110 I13.104 J1.068 E13.66978
G1 X27.747 Y59.549 E13.71767
G1 X24.815 Y57.197 E13.82206
G3 X21.634 Y53.731 I15.295 J-17.230 E13.95298
G1 X20.088 Y51.563 E14.02694
G1 X17.569 Y53.028 E14.10787
G3 X10.720 Y54.489 I-5.992 J-11.304 E14.30497
G1 X11.710 Y53.165 E14.35089
G3 X16.551 Y49.602 I10.802 J9.607 E14.51924
G1 X18.557 Y48.822 E14.57902
G1 X17.510 Y44.996 E14.68920
G3 X16.970 Y40.326 I22.448 J-4.962 E14.82001
G1 X16.994 Y37.545 E14.89727
G3 X13.515 Y37.279 I-0.370 J-18.044 E14.99433
G3 X10.757 Y36.382 I1.909 J-10.557 E15.07510
G3 X7.674 Y34.549 I4.008 J-10.250 E15.17520
G3 X15.264 Y34.032 I4.664 J12.500 E15.38955
G1 X17.334 Y34.577 E15.44900
G1 X18.734 Y30.867 E15.55915
G3 X21.037 Y26.776 I20.953 J9.102 E15.68979
G1 X22.705 Y24.522 E15.76768
G1 X21.180 Y23.368 E15.82081
G3 X16.903 Y16.687 I8.445 J-10.116 E16.04457
G1 X17.128 Y16.734 E16.05093
G3 X23.582 Y21.056 I-3.580 J12.326 E16.27009
G1 X24.818 Y22.276 E16.31832
G1 X27.989 Y20.192 E16.42374
G3 X32.253 Y18.239 I11.635 J19.771 E16.55422
G1 X34.882 Y17.411 E16.63080
G3 X34.024 Y13.322 I17.899 J-5.890 E16.74707
G3 X34.915 Y7.633 I12.802 J-0.909 E16.90860
G1 X35.872 Y8.987 E16.95468
G3 X37.774 Y15.165 I-11.217 J6.835 E17.13613
G1 X38.103 Y16.855 E17.18396
G1 X41.855 Y17.033 E17.28828
G3 X46.467 Y17.964 I-2.221 J22.890 E17.41918
G1 X48.991 Y18.809 E17.49314
G1 X50.168 Y16.141 E17.57413
G3 X54.816 Y10.927 I11.733 J5.781 E17.77050
G1 X54.845 Y11.179 E17.77755
G3 X52.739 Y18.668 I-12.828 J0.433 E17.99703
G1 X52.036 Y20.147 E18.04253
G1 X52.487 Y20.114 F900.000
G1 F900
G1 X55.198 Y22.284 E18.13899
G3 X58.437 Y25.802 I-15.495 J17.516 E18.27205
G1 X59.838 Y27.767 E18.33908
G3 X67.769 Y24.830 I8.697 J11.308 E18.57775
G3 X69.284 Y24.851 I0.570 J13.530 E18.61983
G1 X69.489 Y25.202 E18.63112
G3 X62.956 Y30.597 I-11.128 J-6.822 E18.87082
G1 X61.718 Y31.249 E18.90967
G1 X62.640 Y34.612 E19.00654
G3 X63.172 Y41.627 I-27.724 J5.630 E19.20251
G1 X66.394 Y42.041 E19.29274
G3 X72.493 Y44.999 I-2.656 J13.243 E19.48304
G1 X72.414 Y45.448 E19.49570
G1 X72.189 Y45.542 E19.50246
G1 X70.577 Y46.041 E19.54935
G3 X65.070 Y46.217 I-3.228 J-14.751 E19.70345
G2 X62.567 Y45.778 I-3.167 J10.702 E19.77416
G1 X61.341 Y49.019 E19.87039
G3 X57.564 Y55.115 I-26.352 J-12.109 E20.07016
G3 X61.721 Y59.553 I-8.826 J12.433 E20.24030
G3 X63.222 Y63.224 I-11.352 J6.784 E20.35087
G1 X62.951 Y63.526 E20.36214
G3 X61.444 Y63.061 I1.281 J-6.825 E20.40602
G1 X61.322 Y63.033 E20.40950
G1 X60.361 Y62.597 E20.43881
G1 X60.242 Y62.559 E20.44229
G3 X55.776 Y58.981 I5.664 J-11.646 E20.60251
G1 X54.764 Y58.024 E20.64121
G1 X51.862 Y59.931 E20.73767
G3 X47.515 Y61.924 I-11.808 J-20.018 E20.87073
G1 X45.213 Y62.650 E20.93776
G3 X45.387 Y71.658 I-13.356 J4.764 E21.19261
G1 X45.068 Y72.534 E21.21852
G1 X44.671 Y72.621 E21.22981
G3 X41.558 Y64.741 I9.928 J-8.477 E21.46951
G1 X41.321 Y63.362 E21.50836
G1 X37.838 Y63.200 E21.60523
G3 X30.890 Y61.500 I3.331 J-28.663 E21.80448
G3 X28.650 Y65.954 I-15.267 J-4.888 E21.94355
G3 X24.922 Y69.351 I-10.784 J-8.091 E22.08447
G1 X24.523 Y69.140 E22.09701
G1 X24.504 Y68.892 E22.10390
G1 X24.528 Y67.203 E22.15084
G3 X26.067 Y61.906 I13.957 J1.183 E22.30508
G2 X27.260 Y59.662 I-9.381 J-6.427 E22.37580
G1 X24.556 Y57.493 E22.47208
G3 X19.976 Y52.082 I19.619 J-21.250 E22.66955
G1 X17.756 Y53.373 E22.74087
G3 X10.472 Y54.875 I-6.236 J-11.827 E22.95021
G1 X10.273 Y54.468 E22.96280
G1 X10.397 Y54.264 E22.96943
G1 X11.408 Y52.913 E23.01629
G3 X16.399 Y49.240 I10.596 J9.171 E23.18991
G1 X18.085 Y48.584 E23.24015
G1 X17.127 Y45.083 E23.34096
G3 X16.598 Y37.925 I28.461 J-5.702 E23.54092
G3 X11.835 Y37.249 I-0.281 J-15.138 E23.67515
G1 X10.005 Y36.513 E23.72993
G3 X7.248 Y34.709 I5.973 J-12.137 E23.82166
G1 X7.291 Y34.298 E23.83315
G3 X7.857 Y34.059 I1.401 J2.529 E23.85023
G3 X15.351 Y33.649 I4.471 J13.031 E24.06141
G1 X17.091 Y34.107 E24.11140
G1 X18.372 Y30.713 E24.21218
G3 X20.717 Y26.549 I21.295 J9.250 E24.34514
G1 X22.158 Y24.601 E24.41246
G3 X16.453 Y16.510 I7.622 J-11.431 E24.69377
G1 X16.723 Y16.236 E24.70444
G3 X23.870 Y20.788 I-3.067 J12.702 E24.94417
G1 X24.868 Y21.773 E24.98312
G1 X27.788 Y19.854 E25.08018
G3 X34.403 Y17.150 I14.133 J25.130 E25.27927
G3 X33.602 Y12.223 I15.553 J-5.057 E25.41850
G3 X34.622 Y7.277 I13.545 J0.215 E25.55958
G1 X35.073 Y7.214 E25.57224
G1 X35.231 Y7.399 E25.57900
G1 X36.205 Y8.778 E25.62589
G3 X38.073 Y13.961 I-12.972 J7.603 E25.77999
G2 X38.430 Y16.477 I11.229 J-0.310 E25.85070
G1 X41.890 Y16.641 E25.94693
G3 X48.776 Y18.323 I-3.323 J28.541 E26.14438
G1 X49.813 Y15.971 E26.21577
G3 X54.819 Y10.462 I12.093 J5.960 E26.42522
G1 X55.190 Y10.626 E26.43651
G3 X55.213 Y12.204 I-6.806 J0.888 E26.48040
G1 X55.224 Y12.329 E26.48388
G1 X55.107 Y13.377 E26.51319
G1 X55.107 Y13.502 E26.51666
G3 X53.085 Y18.856 I-12.858 J-1.797 E26.67688
G1 X52.524 Y20.035 E26.71316
G1 X52.975 Y20.001 F900.000
G1 F900
G1 X55.457 Y21.988 E26.80146
G3 X59.934 Y27.225 I-18.711 J20.528 E26.99337
G3 X69.540 Y24.481 I8.376 J11.137 E27.27713
G3 X69.940 Y25.223 I-7.274 J4.400 E27.30058
G3 X68.909 Y26.705 I-7.445 J-4.080 E27.35078
G1 X68.835 Y26.824 E27.35468
G3 X63.123 Y30.953 I-10.500 J-8.510 E27.55273
G1 X62.181 Y31.449 E27.58231
G1 X63.024 Y34.524 E27.67088
G3 X63.568 Y41.283 I-25.284 J5.436 E27.85976
G2 X66.454 Y41.652 I5.783 J-33.761 E27.94061
G3 X72.917 Y44.851 I-2.704 J13.592 E28.14323
G1 X72.763 Y45.728 E28.16796
G1 X72.323 Y45.911 E28.18121
G1 X70.673 Y46.422 E28.22918
G3 X64.990 Y46.601 I-3.321 J-15.134 E28.38823
G2 X62.825 Y46.206 I-2.797 J9.200 E28.44948
G1 X61.702 Y49.173 E28.53762
G3 X58.107 Y55.042 I-25.412 J-11.530 E28.72935
G3 X63.652 Y63.355 I-8.173 J11.457 E29.01307
G1 X63.070 Y63.962 E29.03643
G3 X55.490 Y59.252 I2.921 J-13.156 E29.28923
G1 X54.720 Y58.523 E29.31871
G1 X52.064 Y60.269 E29.40700
G3 X45.700 Y62.908 I-13.744 J-24.150 E29.59892
G3 X45.341 Y72.892 I-13.189 J4.524 E29.88268
G3 X44.511 Y73.043 I-1.871 J-7.928 E29.90613
G3 X43.421 Y71.605 I6.143 J-5.788 E29.95634
G1 X43.330 Y71.498 E29.96024
G1 X42.800 Y70.566 E29.99002
G1 X42.718 Y70.452 E29.99391
G3 X41.168 Y64.789 I11.793 J-6.271 E30.15829
G1 X40.988 Y63.740 E30.18787
G1 X37.803 Y63.591 E30.27644
G3 X31.125 Y61.993 I3.034 J-27.432 E30.46770
G3 X26.614 Y68.635 I-13.879 J-4.574 E30.69376
G1 X25.354 Y69.553 E30.73709
G1 X24.932 Y69.801 E30.75068
G1 X24.149 Y69.386 E30.77530
G1 X24.111 Y68.905 E30.78869
G1 X24.135 Y67.177 E30.83671
G3 X25.725 Y61.712 I15.421 J1.523 E30.99590
G2 X26.773 Y59.775 I-8.163 J-5.669 E31.05717
G1 X24.297 Y57.789 E31.14535
G3 X19.864 Y52.602 I17.443 J-19.395 E31.33541
G1 X17.943 Y53.719 E31.39712
G3 X10.216 Y55.245 I-6.412 J-12.144 E31.61902
G1 X9.824 Y54.449 E31.64367
G1 X10.072 Y54.043 E31.65686
G1 X11.106 Y52.662 E31.70480
G3 X17.612 Y48.347 I11.000 J9.524 E31.92437
G1 X16.744 Y45.171 E32.01582
G3 X16.202 Y38.305 I27.238 J-5.605 E32.20766
G3 X11.705 Y37.620 I-0.183 J-13.902 E32.33455
G1 X9.835 Y36.867 E32.39053
G3 X6.826 Y34.859 I5.983 J-12.224 E32.49131
G1 X6.942 Y34.018 E32.51490
G3 X12.316 Y32.938 I5.161 J11.769 E32.66840
G1 X12.456 Y32.919 E32.67231
G3 X16.849 Y33.637 I-0.328 J15.804 E32.79642
G1 X18.011 Y30.558 E32.88783
G3 X21.612 Y24.679 I25.318 J11.465 E33.07986
G3 X16.019 Y16.393 I7.963 J-11.405 E33.36387
G1 X16.607 Y15.801 E33.38706
G3 X24.158 Y20.520 I-2.964 J13.144 E33.63913
G1 X24.918 Y21.271 E33.66879
G1 X27.586 Y19.517 E33.75749
G3 X33.924 Y16.889 I13.695 J24.072 E33.94862
G3 X33.439 Y9.906 I14.203 J-4.495 E34.14502
G3 X34.349 Y6.919 I13.137 J2.370 E34.23192
G1 X35.231 Y6.795 E34.25665
G1 X35.542 Y7.157 E34.26991
G1 X36.537 Y8.568 E34.31788
G3 X38.464 Y13.917 I-13.389 J7.845 E34.47692
G2 X38.756 Y16.099 I9.764 J-0.196 E34.53818
G1 X41.926 Y16.250 E34.62631
G3 X48.561 Y17.837 I-2.665 J25.805 E34.81636
G1 X49.459 Y15.802 E34.87813
G3 X54.802 Y10.009 I12.477 J6.147 E35.10006
G3 X55.568 Y10.379 I-3.402 J8.021 E35.12372
G3 X53.431 Y19.043 I-13.409 J1.288 E35.37651
G1 X53.013 Y19.923 E35.40358
G1 X53.463 Y19.889 F900.000
G1 F900
G1 X55.715 Y21.692 E35.48370
G3 X60.029 Y26.683 I-16.848 J18.922 E35.66744
G3 X69.798 Y24.115 I8.264 J11.570 E35.95425
G2 X70.389 Y25.248 I13.206 J-6.168 E35.98979
G3 X63.290 Y31.309 I-12.044 J-6.919 E36.25435
G1 X62.643 Y31.650 E36.27466
G1 X63.407 Y34.437 E36.35494
G3 X63.963 Y40.940 I-24.669 J5.384 E36.53672
G2 X66.515 Y41.263 I4.935 J-28.744 E36.60817
G3 X73.342 Y44.703 I-2.774 J14.000 E36.82312
G1 X73.113 Y46.008 E36.85992
G1 X72.457 Y46.281 E36.87967
G1 X70.770 Y46.803 E36.92872
G3 X64.911 Y46.986 I-3.389 J-14.616 E37.09273
G2 X63.083 Y46.633 I-2.442 J7.736 E37.14453
G1 X62.064 Y49.328 E37.22457
G3 X58.649 Y54.970 I-23.372 J-10.292 E37.40825
G3 X64.081 Y63.485 I-8.603 J11.478 E37.69501
G3 X63.185 Y64.397 I-12.490 J-11.375 E37.73056
G3 X55.205 Y59.523 I2.843 J-13.624 E37.99561
G1 X54.676 Y59.021 E38.01587
G1 X52.265 Y60.606 E38.09599
G3 X46.186 Y63.167 I-12.848 J-22.002 E38.27973
G3 X45.609 Y73.251 I-13.578 J4.282 E38.56655
G2 X44.349 Y73.463 I1.754 J14.277 E38.60209
G3 X40.778 Y64.838 I10.306 J-9.319 E38.86665
G1 X40.654 Y64.117 E38.88696
G1 X37.767 Y63.983 E38.96724
G3 X31.360 Y62.486 I2.533 J-25.299 E39.15050
G1 X31.087 Y63.218 E39.17221
G1 X30.323 Y64.815 E39.22139
G3 X24.942 Y70.251 I-12.370 J-6.863 E39.43648
G1 X23.775 Y69.631 E39.47319
G1 X23.718 Y68.918 E39.49307
G1 X23.743 Y67.151 E39.54216
G3 X25.976 Y60.551 I14.226 J1.135 E39.73780
G1 X26.287 Y59.888 E39.75812
G1 X24.038 Y58.084 E39.83819
G3 X19.752 Y53.121 I16.928 J-18.951 E40.02084
G3 X16.839 Y54.666 I-9.989 J-15.316 E40.11255
G3 X9.960 Y55.615 I-5.297 J-12.990 E40.30740
G1 X9.370 Y54.439 E40.34395
G1 X9.746 Y53.823 E40.36399
G1 X10.803 Y52.410 E40.41301
G3 X17.140 Y48.109 I11.306 J9.840 E40.62828
G1 X16.361 Y45.258 E40.71038
G3 X15.806 Y38.685 I24.869 J-5.410 E40.89409
G3 X10.340 Y37.485 I0.044 J-13.251 E41.05071
G3 X6.402 Y35.006 I4.543 J-11.584 E41.18078
G1 X6.592 Y33.737 E41.21642
G3 X12.285 Y32.546 I5.515 J12.162 E41.37934
G1 X12.442 Y32.525 E41.38374
G3 X16.606 Y33.167 I-0.170 J14.929 E41.50119
G1 X17.649 Y30.404 E41.58324
G3 X21.065 Y24.758 I23.264 J10.219 E41.76702
G3 X15.593 Y16.267 I8.428 J-11.440 E42.05390
G1 X16.492 Y15.366 E42.08925
G3 X24.446 Y20.253 I-2.875 J13.595 E42.35374
G1 X24.967 Y20.768 E42.37411
G1 X27.385 Y19.179 E42.45446
G3 X33.445 Y16.628 I12.793 J21.916 E42.63761
G1 X33.238 Y15.874 E42.65934
G1 X32.917 Y14.131 E42.70858
G3 X34.077 Y6.561 I14.092 J-1.715 E42.92392
G1 X35.389 Y6.376 E42.96072
G1 X35.852 Y6.915 E42.98046
G1 X36.870 Y8.358 E43.02952
G3 X38.854 Y13.874 I-12.952 J7.774 E43.19352
G2 X39.083 Y15.722 I8.163 J-0.073 E43.24532
G1 X41.961 Y15.858 E43.32536
G3 X48.347 Y17.351 I-2.532 J25.232 E43.50800
G3 X49.796 Y14.383 I16.965 J6.445 E43.59984
G3 X54.796 Y9.561 I12.125 J7.569 E43.79471
G2 X55.946 Y10.135 I7.291 J-13.169 E43.83045
G3 X53.777 Y19.230 I-13.832 J1.507 E44.09550
G1 X53.501 Y19.811 E44.11334
G1 X53.952 Y19.777 F900.000
G1 F900
G1 X55.974 Y21.396 E44.18530
G3 X60.125 Y26.140 I-16.514 J18.638 E44.36087
G3 X70.056 Y23.748 I8.170 J12.110 E44.65074
G2 X70.532 Y24.646 I4.166 J-1.633 E44.67901
G1 X70.838 Y25.273 E44.69836
G3 X63.457 Y31.665 I-12.716 J-7.226 E44.97525
G1 X63.105 Y31.850 E44.98630
G1 X63.790 Y34.349 E45.05827
G3 X64.359 Y40.596 I-24.087 J5.343 E45.23296
G2 X66.575 Y40.875 I4.357 J-25.670 E45.29502
G3 X73.767 Y44.554 I-2.853 J14.447 E45.52230
G1 X73.495 Y46.102 E45.56594
G1 X73.481 Y46.275 E45.57076
G1 X72.591 Y46.651 E45.59761
G1 X70.867 Y47.185 E45.64774
G3 X64.832 Y47.371 I-3.488 J-15.157 E45.81670
G2 X63.341 Y47.060 I-2.085 J6.265 E45.85904
G1 X62.425 Y49.483 E45.93099
G3 X59.191 Y54.897 I-22.803 J-9.948 E46.10662
G3 X64.511 Y63.616 I-9.120 J11.547 E46.39641
G2 X63.802 Y64.346 I3.111 J3.731 E46.42472
G1 X63.300 Y64.831 E46.44410
G3 X54.920 Y59.794 I2.935 J-14.372 E46.72141
G1 X54.632 Y59.520 E46.73245
G1 X52.467 Y60.943 E46.80440
G3 X46.672 Y63.425 I-12.596 J-21.404 E46.97997
G3 X45.878 Y73.610 I-14.038 J4.029 E47.26984
G2 X44.877 Y73.785 I0.260 J4.440 E47.29811
G1 X44.187 Y73.882 E47.31747
G3 X40.388 Y64.887 I10.819 J-9.869 E47.59436
G1 X40.321 Y64.495 E47.60540
G1 X37.732 Y64.374 E47.67738
G3 X31.596 Y62.979 I2.397 J-24.735 E47.85264
G1 X31.449 Y63.372 E47.86430
G1 X30.670 Y65.000 E47.91445
G3 X24.951 Y70.700 I-12.747 J-7.071 E48.14163
G1 X23.562 Y69.963 E48.18533
G1 X23.406 Y69.897 E48.19003
G1 X23.325 Y68.931 E48.21697
G1 X23.351 Y67.125 E48.26714
G3 X25.042 Y61.323 I15.410 J1.344 E48.43624
G2 X25.800 Y60.001 I-5.496 J-4.030 E48.47861
G1 X23.780 Y58.380 E48.55057
G3 X19.640 Y53.640 I16.479 J-18.571 E48.72581
G3 X9.704 Y55.986 I-8.169 J-12.382 E49.01532
G2 X8.919 Y54.433 I-15.929 J7.077 E49.06365
G1 X9.421 Y53.603 E49.09061
G1 X10.501 Y52.159 E49.14071
G3 X16.668 Y47.871 I11.534 J10.009 E49.35169
G1 X15.977 Y45.346 E49.42442
G3 X15.410 Y39.066 I24.339 J-5.363 E49.60001
G3 X11.445 Y38.362 I0.468 J-14.156 E49.71224
G1 X9.496 Y37.576 E49.77062
G3 X5.977 Y35.153 I6.410 J-13.077 E49.88972
G3 X6.243 Y33.457 I27.235 J3.403 E49.93743
G3 X16.364 Y32.697 I6.099 J13.449 E50.22549
G1 X17.288 Y30.249 E50.29817
G3 X20.518 Y24.837 I22.806 J9.941 E50.47369
G3 X15.168 Y16.140 I8.965 J-11.509 E50.76347
G1 X16.377 Y14.931 E50.81097
G3 X24.734 Y19.985 I-2.808 J14.079 E51.08786
G1 X25.017 Y20.265 E51.09894
G1 X27.183 Y18.842 E51.17093
G3 X32.966 Y16.368 I12.536 J21.307 E51.34611
G1 X32.855 Y15.962 E51.35780
G1 X32.528 Y14.185 E51.40799
G3 X33.805 Y6.203 I14.532 J-1.768 E51.63542
G1 X35.361 Y5.983 E51.67906
G1 X35.530 Y5.943 E51.68389
G1 X36.162 Y6.674 E51.71074
G1 X37.203 Y8.148 E51.76087
G3 X39.245 Y13.831 I-13.320 J7.995 E51.92982
G2 X39.409 Y15.344 I6.739 J0.035 E51.97216
G1 X41.997 Y15.467 E52.04411
G3 X48.132 Y16.865 I-2.405 J24.714 E52.21934
G3 X54.791 Y9.114 I13.926 J5.228 E52.50911
G2 X55.707 Y9.564 I2.576 J-4.087 E52.53750
G1 X56.324 Y9.891 E52.55688
G2 X56.419 Y11.058 I4.993 J0.181 E52.58941
G1 X56.393 Y12.165 E52.62018
G1 X56.408 Y12.342 E52.62511
G1 X56.285 Y13.442 E52.65587
G1 X56.286 Y13.619 E52.66079
G1 X56.067 Y14.705 E52.69155
G1 X56.051 Y14.881 E52.69646
G1 X55.738 Y15.943 E52.72723
G1 X55.707 Y16.117 E52.73212
G1 X55.302 Y17.148 E52.76289
G1 X55.256 Y17.317 E52.76778
G1 X54.762 Y18.309 E52.79854
G1 X54.701 Y18.474 E52.80342
G2 X53.989 Y19.698 I5.356 J3.935 E52.84281
G1 X53.613 Y20.248 F900.000
G92 E0
G1 X58.928 Y21.094 F900.000
G1 X45.282 Y36.968 F900.000
G1 F900
G1 X45.282 Y42.824 E0.16267
G1 X42.469 Y42.824 E0.24081
G3 X42.469 Y36.968 I-2.620 J-2.928 E0.74272
G1 X45.195 Y36.968 E0.81844
G1 X44.889 Y37.360 F900.000
G1 F900
G1 X44.889 Y42.431 E0.95930
G1 X42.317 Y42.431 E1.03075
G3 X42.317 Y37.360 I-2.466 J-2.536 E1.49059
G1 X44.802 Y37.360 E1.55963
G1 X44.497 Y37.753 F900.000
G1 F900
G1 X44.497 Y42.038 E1.67867
G1 X42.141 Y42.038 E1.74409
G3 X42.141 Y37.753 I-2.294 J-2.142 E2.16097
G1 X44.410 Y37.753 E2.22398
G1 X44.104 Y38.146 F900.000
G1 F900
G1 X44.104 Y41.646 E2.32120
G1 X41.966 Y41.646 E2.38060
G3 X41.966 Y38.146 I-2.117 J-1.750 E2.75449
G3 X44.684 Y38.166 I1.026 J45.333 E2.81147
G92 E0
G1 X45.476 Y36.774 F900.000
G1 F900
G1 X45.476 Y43.018 E0.17345
G1 X42.623 Y43.018 E0.25271
G3 X39.932 Y44.014 I-2.988 J-3.941 E0.33368
G3 X41.856 Y36.295 I-0.078 J-4.119 E0.75316
G1 X42.623 Y36.774 E0.77826
G1 X45.389 Y36.774 E0.85510
G1 X45.869 Y36.381 F900.000
G1 F900
G1 X45.869 Y43.411 E1.05037
G1 X42.735 Y43.411 E1.13741
G3 X36.892 Y43.301 I-2.853 J-3.685 E1.31320
G3 X42.045 Y35.950 I2.962 J-3.405 E1.68062
G1 X42.735 Y36.381 E1.70321
G1 X45.782 Y36.381 E1.78784
G1 X46.261 Y35.988 F900.000
G1 F900
G1 X46.261 Y43.803 E2.00493
G1 X42.848 Y43.803 E2.09975
G3 X42.848 Y35.988 I-2.984 J-3.908 E2.70580
G1 X46.174 Y35.988 E2.79821
G1 X46.654 Y35.595 F900.000
G1 F900
G1 X46.654 Y44.196 E3.03711
G1 X42.960 Y44.196 E3.13972
G3 X42.960 Y35.595 I-3.103 J-4.301 E3.78602
G1 X46.567 Y35.595 E3.88621
G1 X46.351 Y36.090 F900.000
G92 E0
G1 X60.704 Y23.267 F900.000
G1 X60.695 Y29.560 F900.000
G1 F900
G1 X62.147 Y28.562 E0.05783
G1 X62.616 Y28.296 E0.07550
G1 X62.064 Y28.848 E0.10110
G2 X63.235 Y28.334 I-2.530 J-7.355 E0.14309
G1 X63.911 Y27.658 E0.17447
G1 X64.929 Y27.295 E0.20995
G92 E0
G1 X60.735 Y29.428 F900.000
G1 X59.859 Y28.980 F900.000
G1 X58.756 Y28.016 F900.000
G1 X55.688 Y24.246 F900.000
G1 X51.945 Y21.026 F900.000
G1 X50.610 Y19.172 F900.000
G1 X50.685 Y19.331 F900.000
G1 F900
G1 X51.209 Y18.228 E0.03531
G1 X50.770 Y18.667 E0.05326
G1 X51.226 Y17.633 E0.08595
G1 X51.959 Y16.901 E0.11591
G2 X52.446 Y15.835 I-5.830 J-3.308 E0.14984
G1 X51.716 Y16.565 E0.17970
G3 X52.758 Y14.945 I8.917 J4.590 E0.23546
G92 E0
G1 X50.610 Y19.172 F900.000
G1 X49.793 Y19.315 F900.000
G1 X48.162 Y19.193 F900.000
G1 X43.390 Y17.904 F900.000
G1 X38.609 Y17.540 F900.000
G1 X36.337 Y16.848 F900.000
G1 X36.509 Y16.885 F900.000
G1 F900
G1 X36.415 Y16.405 E0.01404
G1 X36.274 Y16.546 E0.01979
G1 X36.150 Y16.096 E0.03319
G1 X36.322 Y15.924 E0.04016
G1 X36.228 Y15.444 E0.05421
G1 X36.026 Y15.646 E0.06241
G3 X35.907 Y15.191 I2.716 J-0.953 E0.07591
G1 X36.179 Y14.920 E0.08694
G1 X36.137 Y14.388 E0.10225
G1 X35.818 Y14.707 E0.11520
G1 X35.729 Y14.222 E0.12935
G1 X36.064 Y13.887 E0.14294
G1 X35.970 Y13.407 E0.15698
G1 X35.641 Y13.736 E0.17035
G1 X35.593 Y13.211 E0.18549
G1 X35.849 Y12.954 E0.19591
G1 X35.728 Y12.502 E0.20935
G1 X35.578 Y12.652 E0.21545
G1 X35.577 Y12.079 E0.23191
G92 E0
G1 X36.337 Y16.848 F900.000
G1 X34.910 Y17.999 F900.000
G1 X29.801 Y19.995 F900.000
G1 X25.688 Y22.552 F900.000
G1 X23.478 Y23.282 F900.000
G1 X23.170 Y22.983 F900.000
G1 X23.376 Y23.059 F900.000
G1 F900
G1 X23.085 Y22.773 E0.01177
G1 X23.047 Y22.811 E0.01333
G1 X22.719 Y22.563 E0.02521
G1 X22.795 Y22.486 E0.02833
G1 X22.505 Y22.199 E0.04010
G1 X22.390 Y22.314 E0.04479
G1 X22.072 Y22.056 E0.05662
G1 X22.233 Y21.895 E0.06321
G1 X21.967 Y21.584 E0.07501
G1 X21.770 Y21.781 E0.08307
G1 X21.468 Y21.506 E0.09484
G1 X21.693 Y21.282 E0.10400
G1 X21.400 Y20.997 E0.11577
G1 X21.189 Y21.208 E0.12438
G1 X20.913 Y20.908 E0.13616
G1 X21.108 Y20.713 E0.14413
G1 X20.793 Y20.451 E0.15594
G1 X20.646 Y20.598 E0.16195
G1 X20.394 Y20.273 E0.17380
G1 X20.475 Y20.192 E0.17712
G1 X20.145 Y19.945 E0.18901
G92 E0
G1 X23.478 Y23.282 F900.000
G1 X23.326 Y24.122 F900.000
G1 X22.745 Y25.574 F900.000
G1 X20.075 Y29.636 F900.000
G1 X18.180 Y34.199 F900.000
G1 X16.818 Y36.049 F900.000
G1 X16.288 Y35.969 F900.000
G1 X16.394 Y35.954 F900.000
G1 F900
G1 X15.917 Y35.828 E0.01484
G1 X15.810 Y35.935 E0.01940
G1 X15.226 Y35.917 E0.03699
G1 X15.440 Y35.703 E0.04610
G1 X14.964 Y35.577 E0.06094
G1 X14.684 Y35.857 E0.07285
G1 X14.148 Y35.796 E0.08909
G1 X14.462 Y35.477 E0.10256
G1 X13.953 Y35.384 E0.11814
G1 X13.641 Y35.695 E0.13143
G1 X13.153 Y35.582 E0.14653
G1 X13.395 Y35.340 E0.15683
G1 X12.829 Y35.304 E0.17392
G1 X12.682 Y35.451 E0.18017
G1 X12.238 Y35.292 E0.19436
G92 E0
G1 X16.818 Y36.049 F900.000
G1 X17.078 Y36.494 F900.000
G1 X17.633 Y38.360 F900.000
G1 X17.898 Y43.206 F900.000
G1 X18.986 Y47.928 F900.000
G1 X19.097 Y49.598 F900.000
G1 X18.982 Y50.319 F900.000
G1 X19.113 Y50.312 F900.000
G1 F900
G1 X19.105 Y50.294 E0.00067
G1 X18.058 Y50.701 E0.03811
G1 X17.520 Y51.239 E0.06347
G3 X16.105 Y51.988 I-5.283 J-8.270 E0.11689
G1 X16.937 Y51.156 E0.15610
G2 X15.415 Y52.012 I3.661 J8.290 E0.21438
G1 X15.037 Y52.390 E0.23219
G1 X14.767 Y52.471 E0.24161
G3 X15.415 Y52.012 I3.146 J3.755 E0.26811
G92 E0
G1 X16.291 Y51.715 F900.000
G1 X18.982 Y50.319 F900.000
G1 X21.008 Y51.721 F900.000
G1 X24.053 Y55.543 F900.000
G1 X27.789 Y58.760 F900.000
G1 X29.135 Y60.655 F900.000
G1 X29.047 Y60.477 F900.000
G1 F900
G1 X28.528 Y61.583 E0.03592
G1 X28.903 Y61.208 E0.05151
G1 X28.555 Y62.143 E0.08082
G1 X27.734 Y62.965 E0.11497
G2 X27.282 Y64.005 I7.043 J3.679 E0.14832
G1 X28.014 Y63.273 E0.17875
G3 X26.977 Y64.897 I-7.882 J-3.890 E0.23550
G92 E0
G1 X29.135 Y60.655 F900.000
G1 X29.774 Y60.541 F900.000
G1 X31.580 Y60.645 F900.000
G1 X37.003 Y62.009 F900.000
G1 X41.187 Y62.294 F900.000
G1 X43.343 Y62.974 F900.000
G1 X43.236 Y62.912 F900.000
G1 F900
G1 X43.318 Y63.388 E0.01351
G1 X43.369 Y63.337 E0.01554
G1 X43.497 Y63.768 E0.02809
G1 X43.400 Y63.865 E0.03192
G1 X43.482 Y64.342 E0.04543
G1 X43.625 Y64.199 E0.05107
G1 X43.750 Y64.632 E0.06366
G1 X43.536 Y64.846 E0.07211
G1 X43.577 Y65.364 E0.08662
G1 X43.845 Y65.095 E0.09722
G1 X43.940 Y65.559 E0.11044
G1 X43.650 Y65.849 E0.12190
G1 X43.732 Y66.325 E0.13541
G1 X44.004 Y66.054 E0.14613
G1 X44.061 Y66.555 E0.16022
G1 X43.839 Y66.777 E0.16898
G1 X43.956 Y67.219 E0.18175
G1 X44.080 Y67.094 E0.18665
G1 X44.089 Y67.644 E0.20201
G92 E0
G1 X43.343 Y62.974 F900.000
G1 X44.015 Y62.314 F900.000
G1 X45.293 Y61.557 F900.000
G1 X49.851 Y59.804 F900.000
G1 X53.984 Y57.269 F900.000
G1 X56.251 Y56.526 F900.000
G1 X56.132 Y56.486 F900.000
G1 F900
G1 X56.066 Y56.552 E0.00268
G1 X56.360 Y56.831 E0.01426
G1 X56.452 Y56.738 E0.01800
G1 X56.772 Y56.991 E0.02967
G1 X56.654 Y57.109 E0.03446
G1 X56.948 Y57.387 E0.04605
G1 X57.092 Y57.243 E0.05189
G1 X57.412 Y57.495 E0.06356
G1 X57.238 Y57.670 E0.07063
G1 X57.501 Y57.979 E0.08226
G1 X57.716 Y57.764 E0.09095
G1 X58.015 Y58.038 E0.10255
G1 X57.765 Y58.287 E0.11266
G1 X58.048 Y58.577 E0.12425
G1 X58.311 Y58.314 E0.13490
G1 X58.584 Y58.613 E0.14650
G1 X58.338 Y58.859 E0.15645
G1 X58.635 Y59.135 E0.16804
G1 X58.857 Y58.913 E0.17706
G1 X59.112 Y59.230 E0.18871
G1 X58.950 Y59.392 E0.19528
G1 X59.266 Y59.649 E0.20693
G1 X59.361 Y59.553 E0.21080
G1 X59.601 Y59.886 E0.22254
G92 E0
G1 X60.199 Y60.499 F900.000
G1 X56.251 Y56.526 F900.000
G1 X56.376 Y55.656 F900.000
G1 X56.974 Y54.167 F900.000
G1 X59.651 Y50.105 F900.000
G1 X61.511 Y45.597 F900.000
G1 X62.932 Y43.661 F900.000
G1 X62.819 Y43.560 F900.000
G1 F900
G1 X62.781 Y43.826 E0.00762
G1 X63.084 Y43.863 E0.01626
G1 X63.320 Y43.627 E0.02575
G1 X63.821 Y43.694 E0.04008
G1 X63.589 Y43.925 E0.04938
G1 X64.095 Y43.987 E0.06383
G1 X64.321 Y43.760 E0.07294
G1 X64.822 Y43.827 E0.08727
G1 X64.571 Y44.078 E0.09734
G1 X65.029 Y44.188 E0.11069
G1 X65.323 Y43.893 E0.12250
G1 X65.824 Y43.960 E0.13684
G1 X65.489 Y44.294 E0.15026
G1 X65.993 Y44.358 E0.16468
G1 X66.315 Y44.036 E0.17761
G1 X66.765 Y44.153 E0.19081
G1 X66.516 Y44.402 E0.20080
G1 X67.055 Y44.430 E0.21612
G1 X67.203 Y44.282 E0.22206
G1 X67.629 Y44.425 E0.23478
G1 Z-149.000 F900.000
G92 E0
G1 X68.010 Y43.766 F900.000
G1 X62.785 Y43.086 F900.000
G1 X61.780 Y40.670 F900.000
G1 X61.424 Y35.958 F900.000
G1 X60.200 Y30.664 F900.000
G1 X60.268 Y29.117 F900.000
G1 X59.245 Y28.696 F900.000
G1 X58.106 Y27.797 F900.000
G1 X57.359 Y26.846 F900.000
G1 X56.966 Y26.658 F900.000
G1 F900
G3 X60.196 Y31.586 I-16.345 J14.235 E0.16414
G3 X61.259 Y37.110 I-17.672 J6.265 E0.32103
G3 X61.163 Y45.083 I-22.427 J3.717 E0.54373
G3 X58.601 Y50.436 I-18.379 J-5.507 E0.70923
G3 X53.993 Y56.644 I-20.718 J-10.564 E0.92507
G3 X49.592 Y59.194 I-12.436 J-16.391 E1.06667
G2 X47.910 Y59.942 I2.262 J7.352 E1.11790
G3 X41.488 Y61.811 I-9.436 J-20.455 E1.30435
G3 X36.474 Y61.296 I-0.405 J-20.727 E1.44465
G2 X34.678 Y60.912 I-2.461 J7.119 E1.49581
G3 X28.344 Y58.537 I4.555 J-21.782 E1.68443
G3 X24.567 Y55.090 I11.839 J-16.765 E1.82681
G2 X23.345 Y53.700 I-6.177 J4.198 E1.87835
G3 X19.597 Y48.080 I16.999 J-15.396 E2.06667
G3 X18.738 Y44.343 I16.720 J-5.811 E2.17342
G3 X18.587 Y42.852 I4.354 J-1.194 E2.21518
G2 X18.365 Y41.274 I-17.773 J1.696 E2.25946
G3 X18.592 Y34.571 I23.846 J-2.548 E2.44641
G3 X20.652 Y29.935 I19.562 J5.916 E2.58765
G1 X20.997 Y29.448 E2.60424
G3 X25.655 Y23.099 I20.534 J10.182 E2.82407
G3 X30.805 Y20.296 I11.385 J14.785 E2.98761
G3 X38.178 Y18.026 I10.153 J19.869 E3.20303
G3 X43.859 Y18.760 I0.523 J18.303 E3.36281
G3 X51.414 Y21.273 I-3.596 J23.423 E3.58505
G3 X55.198 Y24.671 I-11.703 J16.839 E3.72666
G2 X56.430 Y26.039 I6.305 J-4.439 E3.77788
G1 X56.909 Y26.592 E3.79823
G1 X56.670 Y26.915 F900.000
G1 F900
G3 X59.830 Y31.732 I-16.109 J14.013 E3.95872
G3 X60.859 Y36.542 I-18.798 J6.537 E4.09567
G1 X60.866 Y37.133 E4.11209
G3 X60.781 Y44.985 I-22.012 J3.688 E4.33142
G3 X58.387 Y50.023 I-17.099 J-5.038 E4.48697
G3 X53.738 Y56.343 I-20.781 J-10.417 E4.70599
G3 X49.448 Y58.828 I-12.095 J-15.935 E4.84404
G2 X47.744 Y59.586 I2.355 J7.589 E4.89595
G3 X41.459 Y61.417 I-9.229 J-19.977 E5.07843
G3 X36.570 Y60.914 I-0.386 J-20.262 E5.21525
G2 X34.752 Y60.526 I-2.535 J7.424 E5.26698
G3 X28.556 Y58.206 I4.500 J-21.452 E5.45149
G3 X24.347 Y54.159 I10.327 J-14.952 E5.61434
G3 X19.963 Y47.936 I15.582 J-15.633 E5.82687
G3 X19.127 Y44.290 I16.414 J-5.682 E5.93103
G3 X18.979 Y42.829 I4.276 J-1.171 E5.97196
G2 X18.755 Y41.228 I-17.766 J1.670 E6.01688
G3 X18.975 Y34.665 I23.360 J-2.502 E6.19989
G3 X20.983 Y30.147 I19.104 J5.786 E6.33755
G1 X21.328 Y29.661 E6.35411
G3 X25.910 Y23.400 I20.232 J9.999 E6.57073
G3 X30.974 Y20.650 I11.216 J14.617 E6.73142
G3 X38.207 Y18.419 I9.976 J19.501 E6.94280
G3 X43.758 Y19.140 I0.502 J17.863 E7.09892
G3 X51.205 Y21.608 I-3.507 J23.051 E7.31794
G3 X54.895 Y24.921 I-11.486 J16.505 E7.45599
G2 X56.142 Y26.307 I6.522 J-4.614 E7.50790
G1 X56.613 Y26.849 E7.52784
G1 X56.373 Y27.172 F900.000
G1 F900
G3 X59.464 Y31.878 I-15.763 J13.722 E7.68469
G3 X60.503 Y37.440 I-16.847 J6.025 E7.84248
G3 X60.400 Y44.887 I-21.268 J3.430 E8.05049
G3 X58.058 Y49.809 I-16.717 J-4.936 E8.20251
G3 X53.484 Y56.041 I-20.484 J-10.240 E8.41831
G3 X48.468 Y58.774 I-11.059 J-14.327 E8.57760
G3 X41.430 Y61.024 I-9.863 J-18.720 E8.78390
G3 X36.665 Y60.533 I-0.367 J-19.810 E8.91724
G2 X34.827 Y60.140 I-2.572 J7.533 E8.96956
G3 X28.768 Y57.874 I4.410 J-21.026 E9.14994
G3 X24.634 Y53.891 I10.204 J-14.728 E9.31006
G3 X20.330 Y47.792 I15.299 J-15.365 E9.51846
G3 X19.516 Y44.237 I15.804 J-5.489 E9.62003
G3 X19.372 Y42.805 I4.229 J-1.148 E9.66013
G2 X19.145 Y41.181 I-18.689 J1.784 E9.70569
G3 X19.358 Y34.760 I22.961 J-2.452 E9.88475
G3 X21.804 Y29.623 I17.181 J5.030 E10.04345
G3 X26.166 Y23.700 I19.316 J9.657 E10.24879
G3 X31.142 Y21.005 I11.015 J14.397 E10.40663
G3 X38.236 Y18.813 I9.784 J19.089 E10.61397
G3 X43.656 Y19.520 I0.488 J17.390 E10.76644
G3 X50.997 Y21.943 I-3.421 J22.697 E10.98223
G3 X55.146 Y25.869 I-10.209 J14.945 E11.14153
G3 X56.316 Y27.107 I-7.822 J8.564 E11.18886
G1 X56.076 Y27.430 F900.000
G1 F900
G3 X59.098 Y32.025 I-15.367 J13.398 E11.34206
G3 X60.114 Y37.491 I-16.647 J5.922 E11.49712
G3 X60.019 Y44.789 I-20.877 J3.378 E11.70096
G3 X57.568 Y49.869 I-17.434 J-5.280 E11.85826
G3 X53.230 Y55.740 I-19.586 J-9.934 E12.06203
G3 X48.299 Y58.419 I-10.881 J-14.150 E12.21852
G3 X41.401 Y60.630 I-9.663 J-18.283 E12.42078
G3 X35.880 Y59.907 I-0.450 J-18.006 E12.57605
G3 X28.981 Y57.542 I2.930 J-19.794 E12.77980
G3 X24.922 Y53.623 I10.033 J-14.453 E12.93718
G3 X20.697 Y47.648 I15.277 J-15.284 E13.14146
G3 X19.906 Y44.183 I15.285 J-5.312 E13.24043
G3 X19.764 Y42.782 I4.103 J-1.124 E13.27970
G2 X19.535 Y41.134 I-17.876 J1.644 E13.32591
G3 X19.741 Y34.855 I22.565 J-2.403 E13.50102
G3 X22.149 Y29.811 I16.911 J4.977 E13.65691
G3 X26.421 Y24.001 I18.929 J9.443 E13.85824
G3 X31.311 Y21.360 I10.804 J14.157 E14.01323
G3 X38.265 Y19.206 I9.594 J18.673 E14.21653
G3 X43.865 Y19.967 I0.378 J18.201 E14.37416
G3 X50.789 Y22.278 I-3.410 J21.745 E14.57793
G3 X54.861 Y26.139 I-10.121 J14.752 E14.73442
G3 X56.019 Y27.364 I-7.681 J8.421 E14.78127
G1 X55.779 Y27.687 F900.000
G1 F900
G3 X58.732 Y32.171 I-15.099 J13.158 E14.93083
G3 X59.724 Y37.543 I-16.293 J5.786 E15.08317
G3 X59.637 Y44.691 I-20.414 J3.326 E15.28283
G3 X57.223 Y49.679 I-17.119 J-5.207 E15.43740
G3 X52.976 Y55.438 I-19.192 J-9.707 E15.63715
G3 X48.131 Y58.064 I-10.665 J-13.894 E15.79083
G3 X41.372 Y60.237 I-9.499 J-17.947 E15.98905
G3 X35.952 Y59.521 I-0.422 J-17.677 E16.14151
G3 X29.193 Y57.210 I2.865 J-19.419 E16.34105
G3 X25.209 Y53.355 I9.911 J-14.228 E16.49570
G3 X21.064 Y47.504 I14.984 J-15.008 E16.69585
G3 X20.295 Y44.130 I14.842 J-5.157 E16.79222
G3 X20.157 Y42.758 I3.989 J-1.094 E16.83067
G2 X19.925 Y41.087 I-18.739 J1.750 E16.87753
G3 X20.124 Y34.949 I22.074 J-2.357 E17.04869
G3 X22.494 Y29.999 I16.649 J4.929 E17.20177
G3 X26.677 Y24.301 I18.576 J9.253 E17.39910
G3 X31.479 Y21.715 I10.569 J13.874 E17.55123
G3 X38.294 Y19.599 I9.434 J18.352 E17.75050
G3 X43.791 Y20.353 I0.338 J17.953 E17.90527
G3 X50.581 Y22.613 I-3.308 J21.269 E18.10502
G3 X54.576 Y26.410 I-9.911 J14.428 E18.25871
G3 X55.722 Y27.621 I-7.456 J8.203 E18.30508
G1 X55.483 Y27.944 F900.000
G1 F900
G3 X58.366 Y32.318 I-14.770 J12.872 E18.45099
G3 X59.335 Y37.594 I-16.636 J5.782 E18.60061
G3 X59.256 Y44.593 I-20.094 J3.273 E18.79609
G3 X56.879 Y49.490 I-16.866 J-5.162 E18.94793
G3 X52.721 Y55.136 I-18.805 J-9.495 E19.14365
G3 X47.962 Y57.710 I-10.834 J-14.343 E19.29454
G3 X41.343 Y59.844 I-9.314 J-17.558 E19.48871
G3 X36.023 Y59.134 I-0.394 J-17.331 E19.63837
G3 X29.405 Y56.878 I2.765 J-18.947 E19.83369
G3 X25.744 Y53.367 I9.105 J-13.158 E19.97521
G3 X21.431 Y47.361 I15.187 J-15.458 E20.18164
G3 X20.685 Y44.077 I14.405 J-4.999 E20.27541
G3 X20.549 Y42.734 I3.948 J-1.078 E20.31303
G2 X20.316 Y41.041 I-19.357 J1.801 E20.36053
G3 X20.507 Y35.044 I21.637 J-2.312 E20.52775
G3 X22.839 Y30.187 I16.379 J4.876 E20.67803
G3 X26.932 Y24.602 I18.224 J9.063 E20.87134
G3 X31.648 Y22.070 I10.678 J14.230 E21.02063
G3 X38.323 Y19.992 I9.245 J17.937 E21.21585
G3 X43.718 Y20.739 I0.307 J17.639 E21.36777
G3 X50.372 Y22.948 I-3.226 J20.845 E21.56349
G3 X54.290 Y26.680 I-9.774 J14.184 E21.71438
G3 X55.426 Y27.878 I-7.561 J8.308 E21.76027
G1 X55.903 Y27.857 F900.000
G92 E0
G1 X56.342 Y27.788 F900.000
G1 X57.359 Y26.846 F900.000
G1 X55.044 Y24.202 F900.000
G1 X51.394 Y21.010 F900.000
G1 X50.077 Y19.186 F900.000
G1 X49.618 Y19.334 F900.000
G1 X47.472 Y19.421 F900.000
G1 X42.851 Y18.277 F900.000
G1 X37.412 Y17.774 F900.000
G1 X35.829 Y17.156 F900.000
G1 X36.476 Y17.506 F900.000
G1 F900
G1 X35.490 Y17.728 E0.02808
G1 X34.913 Y15.632 E0.08846
G3 X34.706 Y11.087 I11.316 J-2.793 E0.21561
G3 X35.308 Y12.442 I-3.356 J2.302 E0.25696
G3 X35.635 Y13.361 I-2.066 J1.253 E0.28421
G3 X35.853 Y14.054 I-1.798 J0.946 E0.30445
G1 X35.992 Y14.536 E0.31839
G1 X36.059 Y15.369 E0.34160
G1 X36.459 Y17.420 E0.39966
G1 X36.937 Y17.819 F900.000
G1 F900
G2 X35.213 Y18.205 I2.594 J15.630 E0.44874
G1 X34.530 Y15.720 E0.52032
G3 X34.528 Y9.992 I11.695 J-2.868 E0.68097
G3 X35.116 Y11.034 I-4.343 J3.137 E0.71428
G1 X35.382 Y11.473 E0.72856
G2 X35.871 Y12.699 I5.421 J-1.452 E0.76526
G2 X36.184 Y13.694 I4.394 J-0.836 E0.79429
G2 X36.377 Y14.453 I4.092 J-0.636 E0.81608
G1 X36.449 Y15.316 E0.84012
G1 X36.920 Y17.734 E0.90856
G92 E0
G1 X23.899 Y23.791 F900.000
G1 F900
G1 X23.480 Y24.268 E0.01762
G1 X21.704 Y22.926 E0.07946
G3 X18.943 Y19.622 I7.590 J-9.148 E0.19968
G3 X19.920 Y20.188 I-1.262 J3.305 E0.23113
G3 X20.748 Y20.771 I-1.223 J2.617 E0.25939
G3 X21.521 Y21.426 I-1.475 J2.524 E0.28764
G3 X22.234 Y22.147 I-1.678 J2.373 E0.31590
G1 X23.837 Y23.730 E0.37848
G1 X24.442 Y23.776 F900.000
G1 F900
G1 X23.535 Y24.802 E0.41652
G1 X21.454 Y23.228 E0.48898
G3 X18.100 Y18.808 I7.653 J-9.290 E0.64447
G3 X19.221 Y19.328 I-1.110 J3.860 E0.67890
G3 X20.127 Y19.854 I-0.985 J2.740 E0.70812
G3 X20.984 Y20.457 I-1.230 J2.659 E0.73734
G3 X21.784 Y21.134 I-1.508 J2.593 E0.76656
G3 X22.522 Y21.879 I-1.754 J2.475 E0.79579
G1 X24.380 Y23.715 E0.86835
G92 E0
G1 X17.559 Y36.241 F900.000
G1 F900
G1 X17.505 Y36.849 E0.01697
G1 X15.378 Y36.782 E0.07610
G3 X11.069 Y35.648 I0.998 J-12.545 E0.20048
G1 X11.546 Y35.542 E0.21407
G2 X12.806 Y35.466 I0.266 J-6.081 E0.24917
G2 X13.808 Y35.481 I0.573 J-4.793 E0.27705
G3 X15.466 Y35.690 I-0.154 J7.905 E0.32355
G1 X17.474 Y36.219 E0.38124
G1 X17.990 Y35.948 F900.000
G1 F900
G2 X17.880 Y37.254 I9.990 J1.499 E0.41766
G1 X15.349 Y37.174 E0.48800
G3 X9.902 Y35.473 I1.013 J-12.815 E0.64783
G3 X10.997 Y35.262 I1.589 J5.299 E0.67885
G1 X11.488 Y35.152 E0.69283
G2 X12.793 Y35.071 I0.265 J-6.283 E0.72919
G2 X13.825 Y35.087 I0.591 J-4.813 E0.75791
G2 X14.771 Y35.161 I0.991 J-6.587 E0.78429
G1 X15.552 Y35.306 E0.80635
G1 X17.906 Y35.926 E0.87397
G92 E0
G1 X19.736 Y50.050 F900.000
G1 F900
G1 X20.116 Y50.682 E0.02049
G1 X18.361 Y51.851 E0.07905
G3 X14.141 Y53.457 I-6.265 J-10.114 E0.20522
G3 X15.208 Y52.503 I3.059 J2.348 E0.24516
G3 X15.978 Y51.911 I1.835 J1.589 E0.27228
G3 X16.567 Y51.495 I1.442 J1.416 E0.29240
G3 X17.796 Y50.804 I3.311 J4.451 E0.33163
G1 X19.654 Y50.082 E0.38700
G1 X19.976 Y49.689 F900.000
G1 F900
G1 X20.647 Y50.800 E0.42306
G1 X18.566 Y52.186 E0.49253
G3 X13.138 Y53.974 I-6.400 J-10.296 E0.65274
G3 X13.930 Y53.116 I4.273 J3.150 E0.68525
G1 X14.265 Y52.731 E0.69942
G2 X15.277 Y51.891 I-3.297 J-5.002 E0.73599
G2 X16.124 Y51.290 I-2.217 J-4.022 E0.76490
G3 X17.641 Y50.443 I5.167 J7.473 E0.81323
G1 X19.908 Y49.562 E0.88080
G1 X19.935 Y49.612 E0.88239
G92 E0
G1 X29.456 Y59.994 F900.000
G1 F900
G1 X30.354 Y60.383 E0.02718
G1 X29.590 Y62.431 E0.08789
G3 X27.122 Y66.189 I-10.683 J-4.327 E0.21354
G3 X27.433 Y64.740 I4.161 J0.135 E0.25487
G3 X27.711 Y63.800 I2.475 J0.221 E0.28225
G3 X27.945 Y63.108 I2.049 J0.307 E0.30262
G1 X28.119 Y62.633 E0.31667
G1 X28.554 Y61.918 E0.33991
G1 X29.419 Y60.073 E0.39652
G1 X29.269 Y59.467 F900.000
G1 F900
G2 X30.854 Y60.164 I7.516 J-14.942 E0.44464
G1 X29.952 Y62.585 E0.51640
G3 X26.622 Y67.182 I-11.081 J-4.523 E0.67560
G3 X26.758 Y65.996 I5.353 J0.013 E0.70883
G1 X26.805 Y65.481 E0.72320
G2 X27.131 Y64.198 I-5.508 J-2.083 E0.76003
G2 X27.465 Y63.204 I-4.148 J-1.947 E0.78919
G2 X27.760 Y62.473 I-3.778 J-1.950 E0.81111
G1 X28.208 Y61.732 E0.83517
G1 X29.232 Y59.546 E0.90222
G92 E0
G1 X43.294 Y62.288 F900.000
G1 F900
G1 X44.007 Y62.131 E0.02028
G1 X44.628 Y64.226 E0.08098
G3 X44.900 Y68.603 I-11.343 J2.902 E0.20348
G3 X44.418 Y67.527 I3.111 J-2.039 E0.23635
G3 X44.089 Y66.570 I2.355 J-1.345 E0.26457
G3 X43.845 Y65.589 I2.498 J-1.142 E0.29277
G3 X43.690 Y64.590 I2.638 J-0.921 E0.32097
G1 X43.309 Y62.373 E0.38345
G1 X42.842 Y61.977 F900.000
G1 F900
G2 X44.277 Y61.658 I-3.019 J-16.968 E0.42427
G1 X45.009 Y64.131 E0.49590
G3 X45.109 Y69.753 I-11.945 J3.024 E0.65344
G2 X44.735 Y69.186 I-2.953 J1.541 E0.67233
G2 X44.258 Y68.250 I-4.813 J1.863 E0.70153
G2 X43.866 Y67.277 I-5.179 J1.521 E0.73072
G2 X43.562 Y66.273 I-5.365 J1.076 E0.75990
G2 X43.348 Y65.246 I-5.625 J0.636 E0.78907
G1 X43.300 Y64.639 E0.80599
G1 X42.857 Y62.063 E0.87859
G92 E0
G1 X55.670 Y56.048 F900.000
G1 F900
G1 X56.277 Y55.362 E0.02544
G1 X57.956 Y56.685 E0.08482
G3 X60.789 Y60.187 I-7.688 J9.117 E0.21067
G2 X60.123 Y59.866 I-1.795 J2.872 E0.23125
G2 X59.255 Y59.329 I-2.844 J3.627 E0.25964
G2 X58.439 Y58.718 I-3.203 J3.427 E0.28800
G2 X57.681 Y58.038 I-3.479 J3.116 E0.31633
G1 X57.296 Y57.588 E0.33277
G1 X55.733 Y56.108 E0.39258
G1 X55.114 Y56.062 F900.000
G1 F900
G2 X56.214 Y54.812 I-8.638 J-8.711 E0.43886
G1 X58.211 Y56.386 E0.50950
G3 X61.594 Y60.957 I-8.237 J9.634 E0.66886
G2 X60.877 Y60.687 I-1.586 J3.124 E0.69016
G2 X59.933 Y60.213 I-2.611 J4.022 E0.71956
G2 X59.036 Y59.657 I-2.977 J3.801 E0.74892
G2 X58.191 Y59.025 I-3.257 J3.474 E0.77825
G2 X57.407 Y58.322 I-3.588 J3.213 E0.80755
G1 X57.011 Y57.859 E0.82448
G1 X55.177 Y56.122 E0.89465
G92 E0
G1 X62.192 Y43.602 F900.000
G1 F900
G2 X62.287 Y42.456 I-8.974 J-1.321 E0.03195
G1 X64.940 Y42.809 E0.10631
G3 X68.849 Y43.901 I-0.533 J9.451 E0.21993
G3 X67.369 Y44.056 I-1.161 J-3.941 E0.26145
G3 X66.393 Y44.083 I-0.554 J-2.366 E0.28870
G3 X65.667 Y44.076 I-0.344 J-1.956 E0.30894
G1 X65.166 Y44.059 E0.32288
G1 X64.353 Y43.866 E0.34609
G1 X62.278 Y43.612 E0.40415
G1 X61.751 Y43.944 F900.000
G1 F900
G2 X61.923 Y42.012 I-15.084 J-2.316 E0.45805
G1 X64.975 Y42.417 E0.54359
G3 X68.879 Y43.474 I-0.567 J9.833 E0.65674
G1 X69.940 Y44.072 E0.69056
G3 X68.768 Y44.308 I-1.618 J-5.006 E0.72387
G1 X68.267 Y44.425 E0.73815
G2 X66.951 Y44.512 I-0.280 J5.754 E0.77485
G2 X65.907 Y44.503 I-0.561 J4.472 E0.80388
G2 X65.126 Y44.451 I-0.663 J4.067 E0.82566
G1 X64.283 Y44.253 E0.84970
G1 X61.837 Y43.954 E0.91814
G92 E0
G1 X60.081 Y29.707 F900.000
G1 F900
G1 X59.717 Y29.074 E0.02028
G1 X61.518 Y27.837 E0.08098
G3 X65.597 Y26.225 I6.272 J9.905 E0.20348
G3 X64.722 Y27.016 I-2.879 J-2.305 E0.23634
G3 X63.915 Y27.625 I-2.012 J-1.827 E0.26456
G3 X63.056 Y28.160 I-1.854 J-2.019 E0.29276
G3 X62.154 Y28.616 I-1.696 J-2.234 E0.32096
G1 X60.158 Y29.666 E0.38360
G1 X59.927 Y30.232 F900.000
G1 F900
G2 X59.184 Y28.964 I-13.921 J7.305 E0.42443
G1 X61.310 Y27.503 E0.49605
G3 X66.626 Y25.671 I6.579 J10.460 E0.65360
G2 X66.202 Y26.202 I2.367 J2.325 E0.67248
G2 X65.460 Y26.945 I3.296 J4.033 E0.70168
G2 X64.655 Y27.618 I3.007 J4.415 E0.73087
G2 X63.794 Y28.218 I2.733 J4.839 E0.76005
G2 X62.884 Y28.739 I2.261 J5.005 E0.78922
G1 X62.321 Y28.972 E0.80614
G1 X60.004 Y30.192 E0.87888
G92 E0
G1 X50.328 Y19.863 F900.000
G1 F900
G1 X49.488 Y19.497 E0.02544
G1 X50.228 Y17.492 E0.08482
G3 X52.683 Y13.714 I11.098 J4.525 E0.21068
G2 X52.584 Y14.448 I3.141 J0.797 E0.23127
G2 X52.341 Y15.439 I4.280 J1.575 E0.25966
G2 X52.012 Y16.404 I4.166 J1.959 E0.28802
G2 X51.599 Y17.335 I4.153 J2.399 E0.31635
G1 X51.290 Y17.840 E0.33279
G1 X50.365 Y19.784 E0.39260
G1 X50.514 Y20.387 F900.000
G1 F900
G2 X48.985 Y19.727 I-5.579 J10.823 E0.43888
G1 X49.865 Y17.341 E0.50952
G3 X53.166 Y12.712 I11.415 J4.649 E0.66889
G2 X53.131 Y13.477 I3.436 J0.540 E0.69019
G2 X52.972 Y14.521 I4.612 J1.236 E0.71959
G2 X52.721 Y15.546 I4.428 J1.628 E0.74895
G2 X52.381 Y16.544 I4.261 J2.009 E0.77828
G2 X51.954 Y17.507 I4.299 J2.482 E0.80758
G1 X51.636 Y18.027 E0.82451
G1 X50.551 Y20.308 E0.89468
G1 X50.941 Y20.404 F900.000
G1 F900
G2 X54.013 Y22.853 I49.853 J-59.384 E1.00383
G3 X57.277 Y26.396 I-14.339 J16.485 E1.13790
G1 X58.905 Y28.679 E1.21581
G1 X61.101 Y27.170 E1.28981
G3 X67.449 Y25.218 I6.799 J10.812 E1.47639
G3 X66.769 Y26.096 I-2.675 J-1.370 E1.50737
G3 X66.034 Y26.890 I-2.403 J-1.488 E1.53757
G3 X65.232 Y27.615 I-2.300 J-1.738 E1.56774
G3 X64.369 Y28.267 I-2.159 J-1.960 E1.59790
G3 X63.452 Y28.839 I-1.982 J-2.157 E1.62805
G3 X62.488 Y29.328 I-1.817 J-2.387 E1.65819
G1 X60.337 Y30.460 E1.72571
G2 X61.385 Y34.255 I72.928 J-18.097 E1.83507
G3 X61.945 Y39.030 I-20.949 J4.877 E1.96889
G1 X61.922 Y41.615 E2.04071
G1 X65.010 Y42.026 E2.12724
G3 X69.838 Y43.576 I-0.588 J10.127 E2.26963
G3 X70.822 Y44.206 I-1.538 J3.485 E2.30217
G3 X68.838 Y44.695 I-2.698 J-6.675 E2.35907
G1 X68.329 Y44.814 E2.37359
G2 X66.966 Y44.906 I-0.269 J6.157 E2.41160
G2 X65.893 Y44.897 I-0.575 J4.572 E2.44146
G2 X65.085 Y44.842 I-0.700 J4.320 E2.46397
G1 X64.213 Y44.640 E2.48884
G1 X61.792 Y44.344 E2.55660
G1 X60.433 Y47.994 E2.66479
G3 X58.046 Y52.219 I-20.375 J-8.724 E2.79985
G1 X56.393 Y54.453 E2.87705
G1 X58.466 Y56.087 E2.95038
G3 X62.265 Y61.582 I-8.256 J9.768 E3.13807
G3 X61.162 Y61.192 I0.482 J-3.117 E3.17070
G3 X60.171 Y60.741 I0.610 J-2.654 E3.20110
G3 X59.226 Y60.204 I0.854 J-2.604 E3.23145
G3 X58.332 Y59.586 I1.086 J-2.527 E3.26178
G3 X57.496 Y58.893 I1.304 J-2.424 E3.29207
G3 X56.726 Y58.130 I1.579 J-2.364 E3.32234
G1 X54.966 Y56.463 E3.38967
G2 X51.687 Y58.628 I40.782 J65.331 E3.49883
G3 X47.309 Y60.638 I-11.218 J-18.662 E3.63290
G1 X44.634 Y61.481 E3.71080
G1 X45.391 Y64.035 E3.78481
G3 X45.286 Y70.676 I-12.397 J3.125 E3.97139
G3 X44.661 Y69.758 I2.112 J-2.110 E4.00237
G3 X44.133 Y68.813 I2.202 J-1.850 E4.03256
G3 X43.691 Y67.826 I2.365 J-1.652 E4.06273
G3 X43.338 Y66.804 I2.508 J-1.438 E4.09290
G3 X43.077 Y65.755 I2.710 J-1.231 E4.12304
G3 X42.910 Y64.688 I2.816 J-0.987 E4.15319
G1 X42.498 Y62.292 E4.22071
G2 X38.565 Y62.117 I-5.160 J71.693 E4.33007
G3 X33.851 Y61.173 I1.860 J-21.532 E4.46389
G1 X31.225 Y60.294 E4.54080
G1 X30.313 Y62.738 E4.61326
G3 X27.103 Y67.259 I-11.079 J-4.466 E4.76871
G3 X26.220 Y67.984 I-2.807 J-2.519 E4.80055
G3 X26.369 Y65.943 I7.284 J-0.494 E4.85756
G1 X26.416 Y65.419 E4.87217
G2 X26.752 Y64.090 I-5.971 J-2.217 E4.91030
G2 X27.095 Y63.068 I-4.269 J-2.001 E4.94029
G2 X27.400 Y62.313 I-3.992 J-2.052 E4.96294
G1 X27.862 Y61.545 E4.98782
G1 X28.898 Y59.334 E5.05567
G1 X25.850 Y56.908 E5.16388
G3 X22.575 Y53.325 I14.763 J-16.782 E5.29899
G1 X20.962 Y51.063 E5.37616
G1 X18.770 Y52.521 E5.44929
G3 X12.316 Y54.422 I-6.676 J-10.760 E5.63838
G3 X13.646 Y52.844 I6.137 J3.823 E5.69584
G1 X13.986 Y52.453 E5.71025
G2 X15.033 Y51.581 I-3.473 J-5.234 E5.74813
G2 X15.905 Y50.962 I-2.303 J-4.169 E5.77788
G3 X17.485 Y50.082 I5.402 J7.840 E5.82821
G1 X19.620 Y49.253 E5.89182
G1 X18.501 Y45.254 E6.00715
G3 X17.946 Y40.444 I21.520 J-4.920 E6.14191
G1 X17.971 Y37.650 E6.21953
G1 X15.320 Y37.566 E6.29320
G3 X8.978 Y35.342 I0.989 J-12.974 E6.48203
G3 X10.928 Y34.875 I2.729 J7.091 E6.53786
G1 X11.428 Y34.764 E6.55208
G2 X12.780 Y34.677 I0.241 J-6.798 E6.58976
G2 X13.842 Y34.693 I0.605 J-4.919 E6.61932
G2 X14.830 Y34.773 I1.095 J-7.386 E6.64686
G1 X15.638 Y34.923 E6.66969
G1 X17.835 Y35.501 E6.73279
G2 X19.300 Y31.600 I-77.117 J-31.186 E6.84856
G3 X21.657 Y27.411 I20.035 J8.515 E6.98234
G1 X23.335 Y25.143 E7.06070
G1 X21.203 Y23.531 E7.13497
G3 X17.392 Y18.149 I8.131 J-9.798 E7.32020
G3 X18.416 Y18.520 I-0.488 J2.945 E7.35057
G3 X19.398 Y18.977 I-0.759 J2.914 E7.38077
G3 X20.335 Y19.520 I-1.016 J2.834 E7.41096
G3 X21.220 Y20.143 I-1.300 J2.787 E7.44116
G3 X22.047 Y20.842 I-1.548 J2.670 E7.47135
G3 X22.809 Y21.612 I-1.804 J2.547 E7.50156
G1 X24.544 Y23.325 E7.56927
G2 X27.846 Y21.146 I-44.251 J-70.649 E7.67917
G3 X32.202 Y19.154 I11.140 J18.603 E7.81248
G1 X34.839 Y18.323 E7.88928
G1 X34.147 Y15.808 E7.96175
G3 X34.088 Y10.242 I11.702 J-2.907 E8.11780
G3 X34.383 Y9.112 I3.813 J0.392 E8.15033
G3 X35.462 Y10.847 I-5.493 J4.619 E8.20724
G1 X35.732 Y11.294 E8.22176
G2 X36.241 Y12.562 I5.816 J-1.599 E8.25977
G2 X36.564 Y13.586 I4.537 J-0.868 E8.28963
G2 X36.761 Y14.371 I4.331 J-0.670 E8.31214
G1 X36.839 Y15.263 E8.33701
G1 X37.305 Y17.657 E8.40477
G1 X41.197 Y17.821 E8.51296
G3 X45.953 Y18.786 I-2.000 J22.062 E8.64802
G1 X48.588 Y19.668 E8.72522
G1 X49.502 Y17.191 E8.79855
G3 X53.554 Y11.880 I11.840 J4.832 E8.98625
G3 X53.524 Y13.049 I-3.199 J0.503 E9.01888
G3 X53.400 Y14.131 I-2.745 J0.234 E9.04928
G3 X53.182 Y15.196 I-2.759 J-0.010 E9.07963
G3 X52.871 Y16.238 I-2.772 J-0.260 E9.10996
G3 X52.470 Y17.246 I-2.751 J-0.511 E9.14025
G3 X51.981 Y18.214 I-2.687 J-0.750 E9.17052
G1 X50.978 Y20.325 E9.23544
G1 X51.428 Y20.292 F900.000
G1 F900
G2 X54.267 Y22.553 I47.330 J-56.516 E9.33625
G3 X57.592 Y26.161 I-14.589 J16.780 E9.47280
G1 X59.001 Y28.137 E9.54022
G1 X60.892 Y26.837 E9.60397
G3 X68.213 Y24.817 I7.023 J11.177 E9.81788
G1 X68.148 Y24.949 E9.82198
G2 X67.507 Y25.870 I4.069 J3.515 E9.85317
G2 X66.789 Y26.730 I3.822 J3.921 E9.88433
G2 X65.997 Y27.522 I3.524 J4.316 E9.91548
G2 X65.139 Y28.241 I3.296 J4.804 E9.94662
G2 X64.221 Y28.881 I2.913 J5.156 E9.97774
G2 X63.250 Y29.437 I2.533 J5.549 E10.00885
G1 X62.655 Y29.684 E10.02675
G1 X60.798 Y30.661 E10.08503
G2 X61.768 Y34.163 I67.182 J-16.723 E10.18598
G3 X62.338 Y39.025 I-21.552 J4.991 E10.32223
G1 X62.318 Y41.272 E10.38464
G1 X65.045 Y41.634 E10.46106
G3 X70.031 Y43.233 I-0.624 J10.518 E10.60806
G3 X71.077 Y43.906 I-1.684 J3.767 E10.64271
G3 X71.622 Y44.262 I-1.929 J3.549 E10.66080
G1 X71.611 Y44.327 E10.66264
G1 X71.219 Y44.493 E10.67446
G1 X69.833 Y44.929 E10.71481
G2 X68.392 Y45.203 I1.358 J11.070 E10.75560
G2 X66.982 Y45.301 I-0.261 J6.433 E10.79491
G2 X65.879 Y45.291 I-0.593 J4.614 E10.82561
G2 X65.045 Y45.234 I-0.725 J4.481 E10.84884
G1 X64.143 Y45.027 E10.87454
G1 X62.052 Y44.772 E10.93307
G1 X60.795 Y48.147 E11.03311
G3 X58.366 Y52.447 I-20.791 J-8.908 E11.17056
G1 X56.935 Y54.381 E11.23739
G1 X58.721 Y55.788 E11.30057
G3 X62.871 Y62.173 I-8.547 J10.096 E11.51506
G1 X62.690 Y62.148 E11.52014
G2 X61.608 Y61.826 I-1.954 J4.588 E11.55154
G2 X60.560 Y61.410 I-2.357 J4.410 E11.58291
G2 X59.554 Y60.905 I-2.727 J4.178 E11.61424
G2 X58.597 Y60.313 I-3.140 J4.006 E11.64554
G2 X57.697 Y59.640 I-3.512 J3.759 E11.67681
G2 X56.860 Y58.891 I-3.905 J3.522 E11.70804
G1 X56.441 Y58.400 E11.72596
G1 X54.921 Y56.961 E11.78410
G2 X51.894 Y58.963 I36.771 J58.886 E11.88491
G3 X47.435 Y61.010 I-11.459 J-19.082 E12.02146
G1 X45.120 Y61.739 E12.08888
G1 X45.772 Y63.940 E12.15263
G3 X45.425 Y71.520 I-12.680 J3.217 E12.36645
G1 X45.325 Y71.423 E12.37031
G2 X44.648 Y70.530 I-4.615 J2.796 E12.40149
G2 X44.052 Y69.581 I-4.981 J2.466 E12.43266
G2 X43.543 Y68.583 I-5.211 J2.029 E12.46381
G2 X43.124 Y67.545 I-5.472 J1.605 E12.49494
G2 X42.799 Y66.474 I-5.743 J1.158 E12.52606
G2 X42.570 Y65.379 I-5.808 J0.643 E12.55718
G1 X42.520 Y64.736 E12.57508
G1 X42.164 Y62.669 E12.63336
G2 X38.534 Y62.509 I-4.825 J68.216 E12.73431
G3 X33.734 Y61.548 I1.897 J-21.943 E12.87055
G1 X31.460 Y60.787 E12.93715
G1 X30.675 Y62.892 E12.99955
G3 X27.370 Y67.548 I-11.456 J-4.631 E13.15964
G3 X26.410 Y68.332 I-3.074 J-2.784 E13.19415
G1 X25.909 Y68.734 E13.21201
G1 X25.860 Y68.708 E13.21355
G1 X25.824 Y68.272 E13.22570
G1 X25.840 Y66.813 E13.26622
G2 X26.027 Y65.357 I-12.095 J-2.293 E13.30704
G2 X26.372 Y63.982 I-6.331 J-2.319 E13.34647
G2 X26.725 Y62.932 I-4.467 J-2.086 E13.37729
G2 X27.040 Y62.153 I-3.898 J-2.029 E13.40065
G1 X27.515 Y61.359 E13.42637
G1 X28.411 Y59.448 E13.48499
G1 X25.592 Y57.205 E13.58505
G3 X22.259 Y53.558 I15.010 J-17.064 E13.72254
G1 X20.863 Y51.600 E13.78935
G1 X18.975 Y52.857 E13.85233
G3 X11.601 Y54.800 I-6.845 J-11.013 E14.06730
G1 X11.842 Y54.402 E14.08023
G1 X12.706 Y53.238 E14.12049
G2 X13.708 Y52.174 I-8.039 J-8.574 E14.16111
G2 X14.789 Y51.270 I-3.677 J-5.495 E14.20030
G2 X15.685 Y50.634 I-2.320 J-4.217 E14.23088
G2 X16.414 Y50.179 I-2.138 J-4.237 E14.25478
G3 X17.330 Y49.722 I5.481 J9.840 E14.28322
G1 X19.146 Y49.015 E14.33734
G1 X18.119 Y45.344 E14.44323
G3 X17.554 Y40.449 I21.762 J-4.992 E14.58039
G1 X17.575 Y38.030 E14.64757
G1 X15.291 Y37.958 E14.71103
G3 X8.170 Y35.239 I1.009 J-13.327 E14.92578
G3 X10.859 Y34.488 I3.651 J7.884 E15.00363
G1 X11.367 Y34.375 E15.01810
G2 X12.766 Y34.283 I0.228 J-7.210 E15.05709
G2 X13.859 Y34.300 I0.629 J-5.315 E15.08749
G2 X14.888 Y34.384 I1.159 J-7.850 E15.11619
G1 X15.724 Y34.539 E15.13980
G1 X17.593 Y35.032 E15.19349
G2 X18.936 Y31.451 I-70.828 J-28.605 E15.29974
G3 X21.337 Y27.184 I20.365 J8.650 E15.43600
G1 X22.789 Y25.222 E15.50379
G1 X20.952 Y23.834 E15.56774
G3 X16.771 Y17.540 I8.365 J-10.092 E15.78056
G1 X16.902 Y17.560 E15.78426
G2 X17.974 Y17.888 I2.230 J-5.373 E15.81543
G2 X19.013 Y18.310 I2.811 J-5.431 E15.84660
G2 X20.010 Y18.821 I3.305 J-5.219 E15.87777
G2 X20.959 Y19.419 I3.723 J-4.856 E15.90894
G2 X21.850 Y20.098 I4.177 J-4.558 E15.94010
G2 X22.679 Y20.854 I4.723 J-4.346 E15.97127
G1 X23.097 Y21.344 E15.98918
G1 X24.594 Y22.823 E16.04763
G2 X27.639 Y20.811 I-39.375 J-62.902 E16.14901
G3 X32.076 Y18.782 I11.381 J19.023 E16.28480
G1 X34.360 Y18.062 E16.35131
G1 X33.764 Y15.895 E16.41373
G3 X33.703 Y10.164 I12.088 J-2.994 E16.57440
G3 X34.019 Y8.961 I4.103 J0.435 E16.60905
G3 X34.190 Y8.333 I3.770 J0.689 E16.62714
G1 X34.255 Y8.324 E16.62898
G1 X34.533 Y8.646 E16.64079
G1 X35.376 Y9.829 E16.68115
G2 X36.082 Y11.115 I10.606 J-4.986 E16.72193
G2 X36.612 Y12.425 I6.129 J-1.717 E16.76125
G2 X36.943 Y13.478 I4.554 J-0.853 E16.79195
G2 X37.146 Y14.288 I4.377 J-0.667 E16.81518
G1 X37.229 Y15.209 E16.84088
G1 X37.632 Y17.278 E16.89941
G1 X41.230 Y17.430 E16.99945
G3 X46.070 Y18.411 I-2.024 J22.415 E17.13690
G1 X48.352 Y19.174 E17.20373
G1 X49.138 Y17.041 E17.26690
G3 X53.928 Y11.121 I12.206 J4.978 E17.48141
G1 X53.960 Y11.301 E17.48649
G2 X53.988 Y12.429 I5.020 J0.440 E17.51790
G2 X53.917 Y13.555 I4.893 J0.874 E17.54926
G2 X53.747 Y14.668 I4.831 J1.307 E17.58059
G2 X53.480 Y15.761 I4.882 J1.772 E17.61189
G2 X53.118 Y16.825 I4.654 J2.177 E17.64316
G2 X52.664 Y17.852 I4.590 J2.643 E17.67440
G1 X52.327 Y18.402 E17.69231
G1 X51.466 Y20.214 E17.74803
G1 X51.916 Y20.181 F900.000
G1 F900
G2 X54.521 Y22.253 I43.018 J-51.411 E17.84051
G3 X57.907 Y25.927 I-14.890 J17.120 E17.97954
G1 X59.097 Y27.595 E18.03646
G1 X60.684 Y26.504 E18.08996
G3 X68.483 Y24.431 I7.233 J11.506 E18.31748
G1 X68.685 Y24.748 E18.32792
G3 X68.081 Y25.684 I-2.698 J-1.078 E18.35901
G3 X67.377 Y26.596 I-2.701 J-1.357 E18.39117
G3 X66.595 Y27.442 I-2.628 J-1.644 E18.42330
G3 X65.741 Y28.214 I-2.456 J-1.859 E18.45542
G3 X64.823 Y28.909 I-2.319 J-2.109 E18.48753
G3 X63.848 Y29.519 I-2.126 J-2.314 E18.51962
G3 X62.822 Y30.040 I-1.925 J-2.519 E18.55171
G1 X61.260 Y30.862 E18.60075
G2 X62.151 Y34.072 I57.153 J-14.135 E18.69329
G3 X62.730 Y39.020 I-21.881 J5.068 E18.83196
G1 X62.714 Y40.928 E18.88496
G1 X65.080 Y41.243 E18.95127
G3 X70.223 Y42.891 I-0.658 J10.902 E19.10290
G3 X71.299 Y43.581 I-1.694 J3.826 E19.13850
G3 X72.050 Y44.095 I-2.645 J4.670 E19.16380
G1 X71.976 Y44.600 E19.17796
G3 X68.980 Y45.469 I-4.406 J-9.590 E19.26495
G1 X68.454 Y45.591 E19.27995
G2 X66.997 Y45.695 I-0.240 J6.901 E19.32058
G2 X65.864 Y45.685 I-0.610 J4.869 E19.35211
G2 X65.005 Y45.625 I-0.742 J4.443 E19.37606
G1 X64.073 Y45.415 E19.40259
G1 X62.312 Y45.199 E19.45189
G1 X61.157 Y48.299 E19.54379
G3 X58.687 Y52.674 I-21.075 J-9.014 E19.68362
G1 X57.477 Y54.308 E19.74009
G3 X59.849 Y56.296 I-11.563 J16.206 E19.82612
G3 X63.314 Y62.298 I-9.590 J9.538 E20.02072
G1 X63.066 Y62.596 E20.03148
G3 X61.971 Y62.312 I0.157 J-2.859 E20.06305
G3 X60.878 Y61.926 I0.402 J-2.879 E20.09541
G3 X59.824 Y61.446 I0.653 J-2.831 E20.12774
G3 X58.817 Y60.876 I0.902 J-2.769 E20.16004
G3 X57.866 Y60.220 I1.154 J-2.691 E20.19230
G3 X56.976 Y59.483 I1.410 J-2.608 E20.22453
G3 X56.156 Y58.671 I1.635 J-2.471 E20.25674
G1 X54.876 Y57.460 E20.30569
G2 X52.100 Y59.297 I34.870 J55.710 E20.39817
G3 X47.561 Y61.382 I-11.665 J-19.410 E20.53720
G1 X45.606 Y61.998 E20.59412
G1 X46.153 Y63.844 E20.64762
G3 X45.707 Y71.904 I-13.109 J3.317 E20.87527
G1 X45.351 Y71.997 E20.88548
G3 X44.647 Y71.133 I1.863 J-2.237 E20.91657
G3 X43.998 Y70.181 I2.126 J-2.147 E20.94872
G3 X43.435 Y69.176 I2.346 J-1.974 E20.98086
G3 X42.964 Y68.126 I2.490 J-1.747 E21.01298
G3 X42.587 Y67.038 I2.677 J-1.537 E21.04509
G3 X42.308 Y65.922 I2.874 J-1.311 E21.07718
G3 X42.130 Y64.785 I3.042 J-1.059 E21.10927
G1 X41.831 Y63.045 E21.15831
G2 X38.503 Y62.901 I-4.328 J61.505 E21.25085
G3 X33.617 Y61.923 I1.940 J-22.388 E21.38952
G1 X31.696 Y61.280 E21.44580
G3 X30.387 Y64.405 I-18.169 J-5.774 E21.54000
G3 X27.636 Y67.837 I-10.806 J-5.844 E21.66288
G3 X26.650 Y68.643 I-3.152 J-2.849 E21.69834
G3 X25.935 Y69.193 I-3.642 J-3.994 E21.72342
G1 X25.487 Y68.969 E21.73733
G3 X25.590 Y65.837 I10.654 J-1.217 E21.82470
G1 X25.638 Y65.295 E21.83980
G2 X25.992 Y63.874 I-6.507 J-2.376 E21.88054
G2 X26.355 Y62.796 I-4.524 J-2.123 E21.91219
G2 X26.681 Y61.993 I-4.183 J-2.166 E21.93627
G1 X27.169 Y61.172 E21.96281
G1 X27.924 Y59.562 E22.01220
G1 X25.335 Y57.502 E22.10411
G3 X21.944 Y53.792 I15.288 J-17.378 E22.24399
G1 X20.764 Y52.138 E22.30044
G3 X18.127 Y53.780 I-11.842 J-16.080 E22.38678
G3 X11.366 Y55.189 I-6.033 J-12.025 E22.58075
G1 X11.148 Y54.789 E22.59339
G3 X13.078 Y52.300 I9.385 J5.284 E22.68122
G1 X13.430 Y51.896 E22.69610
G2 X14.545 Y50.960 I-3.885 J-5.759 E22.73661
G2 X15.466 Y50.307 I-2.440 J-4.417 E22.76803
G2 X16.213 Y49.842 I-2.293 J-4.516 E22.79248
G3 X18.672 Y48.778 I6.939 J12.662 E22.86698
G1 X17.736 Y45.434 E22.96345
G3 X17.161 Y40.453 I22.338 J-5.102 E23.10300
G1 X17.179 Y38.411 E23.15974
G3 X14.066 Y38.212 I-0.360 J-18.820 E23.24645
G3 X7.735 Y35.399 I2.275 J-13.652 E23.44095
G1 X7.777 Y35.002 E23.45202
G3 X10.790 Y34.101 I4.006 J7.909 E23.53983
G1 X11.307 Y33.986 E23.55454
G2 X12.753 Y33.888 I0.217 J-7.520 E23.59485
G2 X13.876 Y33.906 I0.647 J-5.331 E23.62609
G2 X14.947 Y33.995 I1.250 J-8.557 E23.65595
G3 X17.352 Y34.562 I-2.673 J16.724 E23.72463
G2 X18.572 Y31.301 I-63.974 J-25.793 E23.82134
G3 X21.016 Y26.957 I20.842 J8.867 E23.96008
G1 X22.242 Y25.301 E24.01730
G1 X20.701 Y24.136 E24.07095
G3 X16.310 Y17.363 I8.605 J-10.389 E24.29858
G1 X16.551 Y17.109 E24.30830
G3 X17.623 Y17.397 I-0.238 J3.026 E24.33925
G3 X18.707 Y17.789 I-0.519 J3.131 E24.37140
G3 X19.752 Y18.275 I-0.801 J3.088 E24.40354
G3 X20.749 Y18.852 I-1.080 J3.017 E24.43568
G3 X21.692 Y19.514 I-1.375 J2.962 E24.46782
G3 X22.573 Y20.258 I-1.645 J2.841 E24.49995
G3 X23.385 Y21.076 I-1.922 J2.720 E24.53210
G1 X24.645 Y22.321 E24.58129
G2 X27.433 Y20.476 I-36.220 J-57.762 E24.67415
G3 X31.951 Y18.410 I11.594 J19.381 E24.81242
G1 X33.881 Y17.801 E24.86863
G3 X33.028 Y13.652 I17.058 J-5.669 E24.98656
G3 X33.318 Y10.087 I10.905 J-0.907 E25.08630
G3 X33.642 Y8.851 I4.232 J0.449 E25.12190
G3 X33.899 Y7.978 I5.147 J1.041 E25.14721
G1 X34.401 Y7.892 E25.16137
G3 X36.154 Y10.473 I-7.747 J7.147 E25.24836
G1 X36.433 Y10.935 E25.26336
G2 X36.982 Y12.289 I6.601 J-1.888 E25.30398
G2 X37.322 Y13.370 I4.776 J-0.908 E25.33551
G2 X37.531 Y14.205 I4.656 J-0.722 E25.35947
G1 X37.618 Y15.156 E25.38600
G1 X37.958 Y16.898 E25.43530
G1 X41.263 Y17.038 E25.52719
G3 X46.187 Y18.036 I-2.066 J22.838 E25.66703
G1 X48.115 Y18.681 E25.72349
G3 X49.281 Y15.792 I18.885 J5.942 E25.81010
G3 X53.910 Y10.661 I12.033 J6.202 E26.00413
G1 X54.270 Y10.805 E26.01490
G3 X54.338 Y11.934 I-2.716 J0.730 E26.04646
G3 X54.309 Y13.093 I-2.850 J0.509 E26.07882
G3 X54.179 Y14.243 I-2.885 J0.256 E26.11115
G3 X53.947 Y15.377 I-2.923 J-0.007 E26.14345
G3 X53.617 Y16.485 I-2.901 J-0.261 E26.17571
G3 X53.192 Y17.558 I-2.899 J-0.527 E26.20794
G3 X52.673 Y18.589 I-2.883 J-0.805 E26.24015
G1 X51.953 Y20.102 E26.28669
G1 X52.404 Y20.070 F900.000
G1 F900
G2 X54.775 Y21.953 I38.775 J-46.390 E26.37082
G3 X59.192 Y27.053 I-16.338 J18.613 E26.55877
G3 X67.731 Y24.028 I8.910 J11.587 E26.81476
G1 X68.708 Y24.047 E26.84190
G1 X69.148 Y24.743 E26.86476
G2 X68.818 Y25.365 I2.706 J1.834 E26.88436
G2 X68.139 Y26.344 I4.377 J3.761 E26.91749
G2 X67.375 Y27.257 I4.066 J4.179 E26.95060
G2 X66.535 Y28.099 I3.787 J4.618 E26.98369
G2 X65.623 Y28.864 I3.457 J5.047 E27.01677
G2 X64.648 Y29.544 I3.093 J5.473 E27.04984
G2 X63.617 Y30.136 I2.560 J5.652 E27.08290
G2 X61.721 Y31.063 I4.091 J10.770 E27.14159
G2 X62.533 Y33.981 I54.934 J-13.715 E27.22572
G3 X63.109 Y40.585 I-23.754 J5.399 E27.41040
G1 X65.115 Y40.851 E27.46660
G3 X70.416 Y42.548 I-0.704 J11.327 E27.62284
G3 X71.520 Y43.257 I-1.765 J3.963 E27.65939
G3 X72.477 Y43.937 I-2.972 J5.196 E27.69202
G2 X72.349 Y44.869 I4.691 J1.119 E27.71818
G3 X69.051 Y45.855 I-4.947 J-10.540 E27.81418
G3 X67.532 Y46.016 I-1.228 J-4.341 E27.85679
G3 X66.384 Y46.050 I-0.656 J-2.742 E27.88886
G3 X65.509 Y46.035 I-0.397 J-2.377 E27.91327
G1 X64.964 Y46.017 E27.92841
G2 X62.571 Y45.626 I-3.189 J11.998 E27.99583
G1 X61.520 Y48.452 E28.07958
G3 X58.020 Y54.236 I-23.114 J-10.036 E28.26790
G3 X62.897 Y60.002 I-8.739 J12.337 E28.48004
G3 X63.746 Y62.397 I-12.457 J5.764 E28.55072
G1 X63.211 Y63.035 E28.57384
G2 X62.504 Y62.915 I-0.876 J3.017 E28.59378
G2 X61.356 Y62.574 I-2.050 J4.799 E28.62711
G2 X60.243 Y62.133 I-2.522 J4.740 E28.66041
G2 X59.174 Y61.597 I-2.926 J4.501 E28.69368
G2 X58.158 Y60.969 I-3.327 J4.247 E28.72691
G2 X57.202 Y60.255 I-3.736 J4.005 E28.76012
G2 X56.313 Y59.459 I-4.168 J3.761 E28.79330
G1 X55.871 Y58.942 E28.81219
G1 X54.831 Y57.958 E28.85195
G2 X52.307 Y59.632 I31.036 J49.536 E28.93609
G3 X46.092 Y62.256 I-12.695 J-21.397 E29.12403
G3 X46.332 Y71.304 I-13.494 J4.885 E29.37980
G1 X46.007 Y72.236 E29.40720
G1 X45.213 Y72.439 E29.42998
G2 X44.722 Y71.932 I-2.666 J2.090 E29.44958
G2 X44.002 Y70.984 I-4.852 J2.937 E29.48270
G2 X43.369 Y69.976 I-5.244 J2.590 E29.51581
G2 X42.828 Y68.916 I-5.610 J2.195 E29.54891
G2 X42.383 Y67.813 I-5.947 J1.758 E29.58199
G2 X42.037 Y66.675 I-6.122 J1.240 E29.61506
G2 X41.793 Y65.512 I-6.381 J0.732 E29.64812
G2 X41.497 Y63.422 I-11.424 J0.552 E29.70680
G2 X38.471 Y63.293 I-3.970 J57.564 E29.79093
G3 X31.931 Y61.773 I2.257 J-24.542 E29.97800
G3 X28.817 Y67.266 I-14.533 J-4.610 E30.15474
G3 X27.902 Y68.126 I-5.732 J-5.182 E30.18965
G3 X26.890 Y68.954 I-3.268 J-2.962 E30.22607
G3 X25.953 Y69.647 I-3.942 J-4.349 E30.25848
G2 X25.115 Y69.238 I-2.754 J4.579 E30.28441
G3 X25.200 Y65.784 I11.770 J-1.438 E30.38076
G3 X25.520 Y64.286 I4.596 J0.199 E30.42347
G3 X25.845 Y63.180 I2.891 J0.249 E30.45565
G3 X26.132 Y62.349 I2.446 J0.380 E30.48018
G1 X26.321 Y61.833 E30.49543
G2 X27.437 Y59.676 I-10.558 J-6.830 E30.56297
G1 X25.077 Y57.799 E30.64672
G3 X20.665 Y52.676 I16.750 J-18.886 E30.83507
G3 X13.970 Y55.474 I-9.008 J-12.146 E31.03873
G3 X11.125 Y55.568 I-1.856 J-13.082 E31.11794
G1 X10.695 Y54.779 E31.14289
G3 X12.794 Y52.029 I10.328 J5.707 E31.23936
G1 X13.151 Y51.618 E31.25449
G2 X14.301 Y50.650 I-4.156 J-6.104 E31.29631
G2 X15.247 Y49.979 I-2.452 J-4.460 E31.32856
G2 X16.011 Y49.504 I-2.293 J-4.540 E31.35357
G3 X18.198 Y48.541 I6.290 J11.321 E31.42001
G1 X17.353 Y45.524 E31.50705
G3 X16.783 Y38.791 I24.395 J-5.456 E31.69529
G3 X8.400 Y36.377 I-0.311 J-14.683 E31.94143
G3 X7.318 Y35.567 I8.006 J-11.822 E31.97901
G1 X7.399 Y34.758 E32.00158
G3 X10.721 Y33.714 I4.352 J8.039 E32.09888
G3 X12.230 Y33.561 I1.228 J4.594 E32.14117
G3 X13.368 Y33.534 I0.638 J2.879 E32.17293
G3 X14.233 Y33.556 I0.369 J2.522 E32.19706
G3 X17.111 Y34.092 I-0.637 J11.417 E32.27862
G2 X18.208 Y31.152 I-58.271 J-23.417 E32.36579
G3 X21.695 Y25.380 I22.784 J9.825 E32.55366
G3 X15.870 Y17.242 I7.864 J-11.782 E32.83777
G2 X16.404 Y16.671 I-2.301 J-2.687 E32.85953
G3 X17.735 Y17.020 I-0.417 J4.304 E32.89790
G3 X18.852 Y17.424 I-0.527 J3.203 E32.93101
G3 X19.929 Y17.924 I-0.816 J3.167 E32.96413
G3 X20.957 Y18.518 I-1.112 J3.111 E32.99724
G3 X21.929 Y19.200 I-1.424 J3.063 E33.03035
G3 X22.836 Y19.966 I-1.693 J2.924 E33.06345
G3 X23.673 Y20.809 I-1.953 J2.776 E33.09657
G1 X24.695 Y21.819 E33.13649
G2 X27.227 Y20.142 I-34.185 J-54.364 E33.22084
G3 X33.402 Y17.541 I12.571 J21.213 E33.40750
G3 X32.697 Y11.244 I14.657 J-4.829 E33.58484
G3 X32.932 Y10.010 I7.653 J0.818 E33.61976
G3 X33.265 Y8.740 I4.322 J0.455 E33.65631
G3 X33.616 Y7.621 I5.847 J1.219 E33.68894
G2 X34.542 Y7.455 I-0.408 J-4.944 E33.71510
G3 X36.500 Y10.286 I-8.503 J7.973 E33.81110
G3 X37.121 Y11.681 I-3.762 J2.510 E33.85371
G3 X37.509 Y12.762 I-2.418 J1.478 E33.88577
G3 X37.765 Y13.599 I-2.185 J1.126 E33.91018
G1 X37.916 Y14.123 E33.92532
G2 X38.284 Y16.519 I12.258 J-0.656 E33.99275
G1 X41.296 Y16.646 E34.07650
G3 X47.878 Y18.188 I-2.382 J24.986 E34.26482
G3 X51.855 Y11.768 I14.438 J4.502 E34.47697
G3 X53.871 Y10.219 I9.385 J10.128 E34.54765
G1 X54.642 Y10.531 E34.57077
G2 X54.747 Y11.240 I3.207 J-0.113 E34.59071
G2 X54.777 Y12.438 I5.330 J0.466 E34.62404
G2 X54.702 Y13.633 I5.348 J0.936 E34.65734
G2 X54.523 Y14.815 I5.208 J1.393 E34.69061
G2 X54.240 Y15.976 I4.984 J1.830 E34.72384
G2 X53.856 Y17.106 I4.945 J2.311 E34.75705
G2 X53.374 Y18.197 I4.733 J2.743 E34.79023
G2 X52.441 Y19.991 I8.054 J5.328 E34.84647
G1 X52.892 Y19.958 F900.000
G1 F900
G2 X55.030 Y21.653 I34.507 J-41.330 E34.92226
G3 X59.288 Y26.510 I-16.027 J18.346 E35.10219
G3 X68.962 Y23.673 I8.623 J11.490 E35.38825
G2 X69.534 Y24.618 I4.481 J-2.067 E35.41897
G1 X69.603 Y24.758 E35.42332
G2 X69.153 Y25.573 I3.663 J2.554 E35.44922
G2 X68.454 Y26.580 I4.519 J3.883 E35.48332
G2 X67.669 Y27.521 I4.252 J4.345 E35.51740
G2 X66.804 Y28.388 I3.824 J4.681 E35.55146
G2 X65.866 Y29.175 I3.478 J5.098 E35.58552
G2 X64.862 Y29.876 I3.101 J5.511 E35.61956
G2 X63.800 Y30.485 I2.658 J5.866 E35.65359
G2 X62.182 Y31.264 I3.462 J9.261 E35.70353
G2 X62.916 Y33.889 I49.542 J-12.438 E35.77925
G3 X63.505 Y40.241 I-23.375 J5.371 E35.95695
G1 X65.150 Y40.460 E36.00304
G3 X70.609 Y42.206 I-0.729 J11.686 E36.16390
G3 X71.742 Y42.933 I-1.802 J4.054 E36.20140
G3 X72.901 Y43.789 I-3.092 J5.399 E36.24151
G2 X72.723 Y45.118 I6.855 J1.594 E36.27881
G3 X69.121 Y46.242 I-5.225 J-10.412 E36.38410
G1 X68.579 Y46.369 E36.39958
G2 X67.028 Y46.484 I-0.215 J7.623 E36.44282
G2 X65.835 Y46.473 I-0.643 J5.019 E36.47602
G2 X64.924 Y46.409 I-0.790 J4.736 E36.50142
G2 X62.831 Y46.054 I-2.879 J10.627 E36.56046
G1 X61.882 Y48.605 E36.63606
G3 X58.562 Y54.163 I-22.515 J-9.678 E36.81640
G3 X64.185 Y62.519 I-8.437 J11.748 E37.10207
G2 X63.450 Y63.361 I3.492 J3.790 E37.13313
G1 X63.336 Y63.472 E37.13755
G2 X62.412 Y63.299 I-1.216 J3.939 E37.16372
G2 X61.230 Y62.948 I-2.113 J4.951 E37.19801
G2 X60.085 Y62.495 I-2.591 J4.876 E37.23228
G2 X58.985 Y61.943 I-3.005 J4.617 E37.26651
G2 X57.938 Y61.297 I-3.409 J4.353 E37.30072
G2 X56.954 Y60.562 I-3.845 J4.121 E37.33489
G2 X56.039 Y59.744 I-4.219 J3.799 E37.36904
G2 X54.787 Y58.456 I-6.674 J5.235 E37.41900
G2 X52.514 Y59.966 I29.922 J47.507 E37.49479
G3 X46.579 Y62.515 I-12.492 J-20.903 E37.67472
G3 X46.288 Y72.592 I-13.593 J4.650 E37.96077
G2 X45.212 Y72.845 I0.606 J4.990 E37.99149
G1 X45.057 Y72.867 E37.99584
G2 X44.421 Y72.187 I-3.528 J2.663 E38.02174
G2 X43.680 Y71.211 I-5.105 J3.106 E38.05584
G2 X43.028 Y70.173 I-5.392 J2.663 E38.08992
G2 X42.470 Y69.083 I-5.744 J2.252 E38.12399
G2 X42.012 Y67.947 I-5.912 J1.723 E38.15804
G2 X41.655 Y66.776 I-6.333 J1.291 E38.19208
G2 X41.404 Y65.578 I-6.413 J0.718 E38.22612
G2 X41.163 Y63.798 I-9.649 J0.400 E38.27605
G2 X38.440 Y63.685 I-3.483 J51.076 E38.35178
G3 X32.166 Y62.266 I2.142 J-24.051 E38.53095
G3 X28.636 Y68.011 I-13.801 J-4.523 E38.72001
G2 X27.779 Y68.796 I5.806 J7.199 E38.75231
G2 X26.692 Y69.625 I6.112 J9.142 E38.79030
G3 X25.963 Y70.097 I-3.739 J-4.975 E38.81444
G2 X24.761 Y69.514 I-3.971 J6.657 E38.85157
G3 X24.811 Y65.730 I11.714 J-1.738 E38.95717
G1 X24.861 Y65.172 E38.97274
G2 X25.233 Y63.658 I-7.481 J-2.641 E39.01609
G2 X25.615 Y62.524 I-4.659 J-2.201 E39.04940
G2 X25.961 Y61.674 I-4.409 J-2.290 E39.07492
G2 X26.949 Y59.790 I-9.363 J-6.111 E39.13407
G1 X24.819 Y58.096 E39.20968
G3 X20.566 Y53.213 I16.268 J-18.463 E39.39004
G3 X10.882 Y55.942 I-8.472 J-11.518 E39.67554
G1 X10.253 Y54.788 E39.71203
G3 X12.510 Y51.757 I10.325 J5.333 E39.81750
G3 X13.670 Y50.712 I3.767 J3.015 E39.86106
G3 X14.604 Y49.993 I2.233 J1.934 E39.89397
G3 X15.344 Y49.478 I1.802 J1.801 E39.91911
G3 X17.724 Y48.304 I5.413 J7.974 E39.99305
G1 X16.971 Y45.614 E40.07067
G3 X16.387 Y39.171 I23.803 J-5.406 E40.25086
G3 X6.902 Y35.727 I-0.110 J-14.481 E40.53717
G1 X7.041 Y34.485 E40.57189
G3 X10.652 Y33.327 I4.921 J9.135 E40.67783
G3 X12.199 Y33.169 I1.270 J4.782 E40.72120
G3 X13.372 Y33.141 I0.658 J2.980 E40.75393
G3 X14.267 Y33.164 I0.381 J2.605 E40.77890
G3 X16.869 Y33.623 I-0.187 J8.662 E40.85251
G2 X17.845 Y31.003 I-52.187 J-20.932 E40.93016
G3 X21.148 Y25.459 I22.316 J9.540 E41.10994
G3 X15.435 Y17.130 I8.158 J-11.719 E41.39660
G2 X16.279 Y16.233 I-6.136 J-6.619 E41.43084
G2 X17.189 Y16.413 I1.373 J-4.552 E41.45665
G2 X18.362 Y16.771 I2.467 J-5.981 E41.49074
G2 X19.498 Y17.231 I3.061 J-5.927 E41.52482
G2 X20.589 Y17.789 I3.574 J-5.643 E41.55891
G2 X21.626 Y18.443 I4.103 J-5.357 E41.59298
G2 X22.601 Y19.185 I4.749 J-5.229 E41.62706
G2 X23.508 Y20.010 I5.234 J-4.843 E41.66115
G2 X24.746 Y21.316 I8.237 J-6.568 E41.71119
G2 X27.020 Y19.807 I-30.026 J-47.715 E41.78701
G3 X32.923 Y17.280 I12.379 J20.759 E41.96587
G3 X32.406 Y10.535 I14.031 J-4.468 E42.15552
G2 X32.638 Y9.391 I-8.848 J-2.390 E42.18795
G2 X33.031 Y8.077 I-9.997 J-3.706 E42.22608
G3 X33.344 Y7.263 I5.655 J1.707 E42.25031
G2 X34.664 Y7.022 I-0.638 J-7.227 E42.28761
G3 X36.846 Y10.100 I-8.315 J8.207 E42.39290
G1 X37.134 Y10.576 E42.40838
G2 X37.723 Y12.015 I7.117 J-2.073 E42.45162
G2 X38.081 Y13.154 I4.936 J-0.926 E42.48482
G2 X38.301 Y14.040 I4.861 J-0.737 E42.51022
G2 X38.610 Y16.140 I11.018 J-0.549 E42.56926
G1 X41.329 Y16.255 E42.64486
G3 X47.642 Y17.695 I-2.239 J24.373 E42.82520
G3 X53.852 Y9.765 I13.760 J4.379 E43.11089
G2 X54.879 Y10.203 I2.535 J-4.521 E43.14195
G1 X55.020 Y10.277 E43.14636
G2 X55.141 Y11.210 I4.005 J-0.045 E43.17253
G2 X55.172 Y12.442 I5.396 J0.481 E43.20683
G2 X55.095 Y13.672 I5.504 J0.962 E43.24109
G2 X54.910 Y14.888 I5.364 J1.438 E43.27533
G2 X54.619 Y16.083 I5.325 J1.930 E43.30953
G2 X54.224 Y17.246 I5.143 J2.395 E43.34371
G2 X53.729 Y18.369 I4.941 J2.848 E43.37786
G2 X52.929 Y19.880 I6.641 J4.483 E43.42539
G1 X53.379 Y19.847 F900.000
G1 F900
G2 X55.284 Y21.353 I30.840 J-37.053 E43.49285
G3 X59.384 Y25.968 I-15.703 J18.080 E43.66477
G3 X69.220 Y23.306 I8.498 J11.896 E43.95389
G2 X69.877 Y24.425 I5.263 J-2.338 E43.98998
G1 X70.052 Y24.783 E44.00105
G2 X69.489 Y25.781 I4.386 J3.132 E44.03294
G2 X68.770 Y26.817 I4.620 J3.974 E44.06801
G2 X67.962 Y27.785 I4.292 J4.404 E44.10307
G2 X67.072 Y28.677 I3.964 J4.845 E44.13810
G2 X66.108 Y29.486 I3.692 J5.378 E44.17313
G2 X65.075 Y30.207 I3.264 J5.777 E44.20814
G2 X63.983 Y30.834 I2.830 J6.193 E44.24315
G2 X62.643 Y31.465 I2.828 J7.744 E44.28435
G2 X63.298 Y33.798 I46.033 J-11.665 E44.35166
G2 X63.650 Y35.627 I33.087 J-5.419 E44.40339
G3 X63.901 Y39.898 I-23.696 J3.535 E44.52237
G2 X65.756 Y40.094 I2.062 J-10.644 E44.57423
G3 X70.801 Y41.863 I-1.735 J13.026 E44.72383
G3 X71.964 Y42.608 I-1.883 J4.220 E44.76229
G3 X73.326 Y43.640 I-3.787 J6.413 E44.80987
G2 X73.097 Y45.363 I8.939 J2.065 E44.85820
G3 X71.761 Y45.969 I-3.911 J-6.846 E44.89899
G1 X70.223 Y46.453 E44.94375
G3 X69.192 Y46.629 I-1.916 J-8.114 E44.97283
G3 X67.597 Y46.800 I-1.324 J-4.824 E45.01758
G3 X66.381 Y46.837 I-0.697 J-2.903 E45.05156
G3 X65.446 Y46.819 I-0.418 J-2.566 E45.07764
G3 X63.864 Y46.576 I-0.004 J-5.246 E45.12229
G1 X63.091 Y46.481 E45.14390
G1 X62.244 Y48.757 E45.21136
G3 X59.104 Y54.090 I-22.053 J-9.393 E45.38372
G3 X64.612 Y62.653 I-8.841 J11.740 E45.67246
G2 X63.739 Y63.629 I4.096 J4.542 E45.70889
G1 X63.452 Y63.907 E45.71998
G2 X62.319 Y63.682 I-1.559 J4.884 E45.75210
G2 X61.104 Y63.322 I-2.184 J5.140 E45.78737
G2 X59.926 Y62.856 I-2.632 J4.931 E45.82260
G2 X58.795 Y62.289 I-3.108 J4.788 E45.85780
G2 X57.719 Y61.625 I-3.567 J4.576 E45.89298
G2 X56.707 Y60.869 I-4.014 J4.318 E45.92812
G2 X55.765 Y60.028 I-4.364 J3.940 E45.96324
G2 X54.742 Y58.955 I-5.517 J4.236 E46.00449
G2 X52.721 Y60.300 I26.675 J42.273 E46.07195
G3 X47.065 Y62.773 I-12.313 J-20.457 E46.24387
G3 X46.556 Y72.951 I-13.930 J4.405 E46.53299
G2 X45.290 Y73.230 I0.580 J5.644 E46.56908
G1 X44.895 Y73.286 E46.58015
G2 X44.120 Y72.442 I-4.348 J3.215 E46.61204
G2 X43.357 Y71.438 I-5.174 J3.140 E46.64711
G2 X42.686 Y70.371 I-5.570 J2.759 E46.68217
G2 X42.113 Y69.249 I-5.924 J2.318 E46.71720
G2 X41.641 Y68.081 I-6.239 J1.842 E46.75223
G2 X41.274 Y66.877 I-6.454 J1.309 E46.78724
G2 X41.016 Y65.645 I-6.627 J0.745 E46.82225
G2 X40.829 Y64.175 I-8.181 J0.294 E46.86345
G2 X38.408 Y64.077 I-2.981 J43.700 E46.93076
G2 X36.561 Y63.846 I-5.245 J34.441 E46.98249
G3 X32.401 Y62.759 I3.961 J-23.664 E47.10205
G3 X28.434 Y68.704 I-13.260 J-4.552 E47.30286
G3 X27.370 Y69.576 I-3.380 J-3.039 E47.34120
G3 X25.973 Y70.546 I-4.948 J-5.635 E47.38854
G2 X24.411 Y69.793 I-5.126 J8.636 E47.43677
G3 X24.421 Y65.677 I11.946 J-2.029 E47.55167
G3 X24.755 Y64.104 I5.157 J0.273 E47.59651
G3 X25.098 Y62.933 I3.017 J0.248 E47.63060
G3 X25.407 Y62.046 I2.585 J0.403 E47.65680
G3 X26.130 Y60.613 I5.089 J1.669 E47.70156
G1 X26.462 Y59.905 E47.72328
G1 X24.562 Y58.393 E47.79073
G3 X20.467 Y53.751 I15.883 J-18.139 E47.96312
G3 X10.638 Y56.315 I-8.370 J-11.964 E48.25125
G1 X9.811 Y54.799 E48.29924
G3 X10.537 Y53.525 I7.193 J3.255 E48.34000
G1 X11.495 Y52.234 E48.38465
G3 X12.791 Y50.890 I21.605 J19.536 E48.43658
G2 X13.814 Y50.029 I-3.253 J-4.903 E48.47378
G2 X14.809 Y49.323 I-2.607 J-4.729 E48.50771
G2 X15.608 Y48.829 I-2.366 J-4.720 E48.53384
G3 X17.250 Y48.067 I4.900 J8.409 E48.58416
G1 X16.588 Y45.703 E48.65235
G3 X15.991 Y39.552 I23.378 J-5.373 E48.82449
G3 X6.485 Y35.888 I0.234 J-14.772 E49.11341
G2 X6.692 Y34.205 I-99.875 J-13.138 E49.16056
G2 X7.526 Y33.802 I-1.744 J-4.674 E49.18632
G3 X10.583 Y32.940 I4.534 J10.229 E49.27487
G3 X12.169 Y32.777 I1.321 J5.055 E49.31932
G3 X13.376 Y32.747 I0.680 J3.043 E49.35302
G3 X14.302 Y32.773 I0.386 J2.756 E49.37883
G3 X16.628 Y33.153 I-0.343 J9.406 E49.44448
G2 X17.481 Y30.854 I-46.320 J-18.494 E49.51259
G3 X20.601 Y25.538 I21.924 J9.294 E49.68428
G3 X15.014 Y17.023 I8.581 J-11.720 E49.97326
G3 X15.602 Y16.409 I3.099 J2.379 E49.99692
G3 X16.164 Y15.799 I2.973 J2.175 E50.01999
G2 X17.285 Y16.030 I1.740 J-5.609 E50.05184
G2 X18.491 Y16.398 I2.518 J-6.092 E50.08690
G2 X19.660 Y16.871 I3.112 J-6.009 E50.12196
G2 X20.782 Y17.446 I3.707 J-5.851 E50.15701
G2 X21.848 Y18.117 I4.283 J-5.622 E50.19206
G2 X22.852 Y18.880 I4.763 J-5.225 E50.22712
G2 X23.784 Y19.729 I5.338 J-4.924 E50.26217
G2 X24.796 Y20.814 I6.826 J-5.352 E50.30344
G2 X26.814 Y19.473 I-27.567 J-43.674 E50.37074
G3 X32.444 Y17.019 I12.206 J20.319 E50.54178
G3 X32.162 Y9.855 I13.482 J-4.118 E50.74319
G3 X32.511 Y8.519 I4.599 J0.488 E50.78165
G3 X33.072 Y6.905 I7.243 J1.613 E50.82923
G2 X34.781 Y6.590 I-0.819 J-9.235 E50.87756
G3 X35.770 Y7.674 I-5.343 J5.868 E50.91835
G1 X36.705 Y8.986 E50.96312
G3 X37.191 Y9.913 I-6.705 J4.106 E50.99219
G3 X37.847 Y11.377 I-4.197 J2.760 E51.03694
G3 X38.258 Y12.522 I-2.555 J1.564 E51.07093
G3 X38.530 Y13.417 I-2.303 J1.189 E51.09701
G3 X38.788 Y14.997 I-5.022 J1.631 E51.14165
G1 X38.936 Y15.761 E51.16327
G1 X41.363 Y15.863 E51.23072
G3 X47.405 Y17.201 I-2.141 J23.980 E51.40308
G3 X53.847 Y9.317 I13.882 J4.769 E51.69184
G2 X55.045 Y9.846 I2.998 J-5.168 E51.72826
G1 X55.397 Y10.033 E51.73936
G2 X55.534 Y11.180 I5.151 J-0.034 E51.77148
G2 X55.567 Y12.447 I5.544 J0.490 E51.80674
G2 X55.488 Y13.711 I5.487 J0.977 E51.84197
G2 X55.298 Y14.962 I5.426 J1.464 E51.87718
G2 X54.999 Y16.190 I5.447 J1.977 E51.91235
G2 X54.593 Y17.387 I5.217 J2.437 E51.94749
G2 X54.084 Y18.542 I5.025 J2.904 E51.98261
G2 X53.417 Y19.768 I5.426 J3.747 E52.02145
G1 X53.044 Y20.320 F900.000
G92 E0
G1 X58.253 Y21.044 F900.000
G1 X45.282 Y36.968 F900.000
G1 F900
G1 X45.282 Y42.824 E0.16267
G1 X42.469 Y42.824 E0.24081
G3 X42.469 Y36.968 I-2.620 J-2.928 E0.74271
G1 X45.195 Y36.968 E0.81843
G1 X44.889 Y37.360 F900.000
G1 F900
G1 X44.889 Y42.431 E0.95928
G1 X42.317 Y42.431 E1.03073
G3 X42.312 Y37.360 I-2.467 J-2.533 E1.49044
G1 X44.802 Y37.360 E1.55962
G1 X44.497 Y37.753 F900.000
G1 F900
G1 X44.497 Y42.038 E1.67866
G1 X42.141 Y42.038 E1.74408
G3 X42.138 Y37.753 I-2.295 J-2.141 E2.16088
G1 X44.410 Y37.753 E2.22398
G1 X44.104 Y38.146 F900.000
G1 F900
G1 X44.104 Y41.646 E2.32120
G1 X41.966 Y41.646 E2.38059
G3 X41.964 Y38.146 I-2.117 J-1.749 E2.75443
G3 X44.683 Y38.167 I1.027 J43.126 E2.81145
G1 X45.424 Y36.826 F900.000
G1 F900
G1 X45.424 Y42.965 E2.98198
G1 X42.605 Y42.965 E3.06028
G3 X39.924 Y43.962 I-2.963 J-3.863 E3.14100
G3 X41.830 Y36.341 I-0.070 J-4.066 E3.55489
G1 X42.605 Y36.826 E3.58030
G1 X45.337 Y36.826 E3.65618
G1 X45.816 Y36.433 F900.000
G1 F900
G1 X45.816 Y43.358 E3.84853
G1 X42.718 Y43.358 E3.93461
G3 X36.927 Y43.262 I-2.836 J-3.630 E4.10887
G3 X42.019 Y35.996 I2.927 J-3.366 E4.47199
G1 X42.718 Y36.433 E4.49489
G1 X45.729 Y36.433 E4.57855
G1 X46.209 Y36.041 F900.000
G1 F900
G1 X46.209 Y43.751 E4.79272
G1 X42.830 Y43.751 E4.88656
G3 X42.830 Y36.041 I-2.966 J-3.855 E5.48712
G1 X46.122 Y36.041 E5.57855
G1 X46.602 Y35.648 F900.000
G1 F900
G1 X46.602 Y44.143 E5.81453
G1 X42.943 Y44.143 E5.91615
G3 X42.943 Y35.648 I-3.086 J-4.248 E6.55697
G1 X46.515 Y35.648 E6.65618
G1 X46.298 Y36.142 F900.000
G92 E0
G1 X59.937 Y23.081 F900.000
G1 X60.313 Y29.141 F900.000
G1 F900
G1 X60.699 Y28.938 E0.01211
G1 X60.662 Y28.901 E0.01356
G1 X61.011 Y28.661 E0.02533
G1 X61.085 Y28.735 E0.02822
G1 X61.471 Y28.532 E0.04033
G1 X61.360 Y28.421 E0.04468
G1 X61.709 Y28.182 E0.05644
G1 X61.857 Y28.329 E0.06223
G1 X62.263 Y28.146 E0.07461
G1 X62.084 Y27.967 E0.08165
G1 X62.459 Y27.754 E0.09365
G1 X62.656 Y27.951 E0.10139
G1 X63.027 Y27.732 E0.11334
G1 X62.852 Y27.557 E0.12023
G1 X63.255 Y27.372 E0.13257
G1 X63.407 Y27.524 E0.13853
G1 X63.742 Y27.269 E0.15020
G1 X63.668 Y27.196 E0.15311
G1 X64.101 Y27.040 E0.16590
G92 E0
G1 X64.214 Y27.013 F900.000
G1 X60.268 Y29.117 F900.000
G1 X59.245 Y28.696 F900.000
G1 X58.106 Y27.797 F900.000
G1 X55.044 Y24.202 F900.000
G1 X51.394 Y21.010 F900.000
G1 X50.077 Y19.186 F900.000
G1 X49.985 Y19.285 F900.000
G1 F900
G1 X50.135 Y18.877 E0.01208
G1 X50.289 Y19.030 E0.01811
G1 X50.469 Y18.652 E0.02976
G1 X50.286 Y18.469 E0.03695
G1 X50.437 Y18.061 E0.04903
G1 X50.649 Y18.273 E0.05738
G1 X50.829 Y17.895 E0.06903
G1 X50.587 Y17.653 E0.07853
G1 X50.765 Y17.272 E0.09020
G1 X51.021 Y17.528 E0.10023
G1 X51.233 Y17.181 E0.11152
G1 X50.944 Y16.893 E0.12285
G1 X51.123 Y16.513 E0.13451
G1 X51.387 Y16.777 E0.14488
G1 X51.573 Y16.404 E0.15645
G1 X51.329 Y16.160 E0.16604
G1 X51.537 Y15.809 E0.17736
G1 X51.717 Y15.990 E0.18444
G1 X51.864 Y15.578 E0.19658
G1 X51.765 Y15.479 E0.20046
G1 X51.994 Y15.148 E0.21162
G92 E0
G1 X52.064 Y14.982 F900.000
G1 X50.077 Y19.186 F900.000
G1 X49.618 Y19.334 F900.000
G1 X47.472 Y19.421 F900.000
G1 X42.851 Y18.277 F900.000
G1 X37.735 Y17.831 F900.000
G1 X35.829 Y17.156 F900.000
G1 X35.769 Y17.262 F900.000
G1 F900
G1 X36.017 Y17.207 E0.00708
G1 X35.937 Y16.795 E0.01873
G1 X35.528 Y16.385 E0.03482
G1 X35.290 Y15.512 E0.05995
G1 X35.783 Y16.005 E0.07932
G3 X35.655 Y15.241 I3.434 J-0.968 E0.10087
G1 X35.147 Y14.733 E0.12081
G3 X35.031 Y13.981 I4.213 J-1.035 E0.14198
G1 X35.582 Y14.531 E0.16361
G2 X35.319 Y13.633 I-102.393 J29.501 E0.18968
G1 X34.985 Y13.298 E0.20282
G1 X34.972 Y12.650 E0.22083
G92 E0
G1 X35.829 Y17.156 F900.000
G1 X33.814 Y18.807 F900.000
G1 X29.437 Y20.583 F900.000
G1 X25.385 Y23.028 F900.000
G1 X23.342 Y23.791 F900.000
G1 X23.240 Y24.870 F900.000
G1 X22.740 Y26.190 F900.000
G1 X20.233 Y30.190 F900.000
G1 X18.338 Y34.704 F900.000
G1 X17.124 Y36.457 F900.000
G1 X16.625 Y36.406 F900.000
G1 X16.744 Y36.432 F900.000
G1 F900
G1 X15.967 Y36.228 E0.02233
G1 X16.153 Y36.414 E0.02964
G1 X15.561 Y36.395 E0.04608
G1 X15.207 Y36.041 E0.05997
G2 X14.526 Y35.933 I-0.739 J2.460 E0.07916
G1 X14.924 Y36.331 E0.09480
G1 X14.272 Y36.251 E0.11306
G1 X13.911 Y35.890 E0.12724
G2 X13.341 Y35.893 I-0.276 J1.720 E0.14309
G1 X13.521 Y36.073 E0.15016
G1 X12.745 Y35.870 E0.17245
G92 E0
G1 X17.124 Y36.457 F900.000
G1 X17.841 Y37.748 F900.000
G1 X18.083 Y38.799 F900.000
G1 X18.424 Y43.543 F900.000
G1 X19.606 Y48.906 F900.000
G1 X19.570 Y50.536 F900.000
G1 F900
G1 X19.166 Y50.693 E0.01202
G1 X19.256 Y50.783 E0.01555
G1 X18.920 Y51.007 E0.02677
G1 X18.763 Y50.850 E0.03293
G1 X18.360 Y51.006 E0.04495
G1 X18.584 Y51.230 E0.05375
G1 X18.248 Y51.454 E0.06497
G1 X17.957 Y51.163 E0.07640
G1 X17.583 Y51.350 E0.08800
G1 X17.893 Y51.659 E0.10016
G1 X17.531 Y51.857 E0.11162
G1 X17.210 Y51.537 E0.12421
G1 X16.875 Y51.761 E0.13543
G1 X17.169 Y52.056 E0.14699
G1 X16.788 Y52.235 E0.15868
G1 X16.527 Y51.973 E0.16894
G1 X16.217 Y52.223 E0.18000
G1 X16.399 Y52.405 E0.18713
G1 X15.986 Y52.552 E0.19930
G1 X15.875 Y52.441 E0.20366
G2 X15.571 Y52.698 I0.489 J0.887 E0.21474
G92 E0
G1 X15.410 Y52.793 F900.000
G1 X19.490 Y50.553 F900.000
G1 X21.729 Y51.911 F900.000
G1 X24.753 Y55.592 F900.000
G1 X28.316 Y58.650 F900.000
G1 X29.093 Y59.505 F900.000
G1 X29.756 Y60.665 F900.000
G1 X29.855 Y60.595 F900.000
G1 F900
G1 X29.650 Y60.506 E0.00623
G1 X29.507 Y60.810 E0.01554
G1 X29.703 Y61.005 E0.02321
G1 X29.550 Y61.414 E0.03535
G1 X29.328 Y61.193 E0.04407
G1 X29.149 Y61.575 E0.05581
G1 X29.397 Y61.824 E0.06558
G1 X29.244 Y62.233 E0.07772
G1 X28.969 Y61.958 E0.08853
G1 X28.769 Y62.321 E0.10002
G1 X29.066 Y62.617 E0.11167
G1 X28.884 Y62.998 E0.12338
G1 X28.556 Y62.670 E0.13625
G2 X28.382 Y63.058 I0.907 J0.640 E0.14811
G1 X28.702 Y63.378 E0.16069
G1 X28.501 Y63.739 E0.17217
G1 X28.216 Y63.454 E0.18335
G1 X28.093 Y63.894 E0.19602
G1 X28.291 Y64.092 E0.20380
G1 X28.060 Y64.423 E0.21502
G1 X27.936 Y64.299 E0.21991
G2 X27.830 Y64.755 I1.095 J0.495 E0.23297
G92 E0
G1 X29.756 Y60.665 F900.000
G1 X32.342 Y60.506 F900.000
G1 X36.932 Y61.633 F900.000
G1 X41.737 Y62.033 F900.000
G1 X43.760 Y62.677 F900.000
G1 F900
G1 X43.878 Y63.366 E0.01943
G1 X44.000 Y63.488 E0.02421
G1 X44.240 Y64.299 E0.04771
G1 X43.996 Y64.055 E0.05728
G1 X44.094 Y64.724 E0.07606
G1 X44.390 Y65.020 E0.08768
G3 X44.495 Y65.696 I-3.867 J0.947 E0.10669
G1 X44.202 Y65.402 E0.11821
G1 X44.338 Y66.109 E0.13822
G1 X44.569 Y66.340 E0.14729
G1 X44.587 Y66.929 E0.16365
G92 E0
G1 X43.784 Y62.588 F900.000
G1 X45.325 Y61.183 F900.000
G1 X50.100 Y59.222 F900.000
G1 X54.231 Y56.720 F900.000
G1 X56.410 Y56.017 F900.000
G1 X56.215 Y56.024 F900.000
G1 F900
G1 X56.218 Y56.026 E0.00010
G92 E0
G1 X58.455 Y57.682 F900.000
G1 F900
G1 X58.455 Y57.682 E0.00000
G1 X58.850 Y58.374 F900.000
G1 X56.410 Y56.017 F900.000
G1 X56.411 Y55.412 F900.000
G1 X56.955 Y53.424 F900.000
G1 X59.494 Y49.430 F900.000
G1 X61.385 Y44.984 F900.000
G1 X62.626 Y43.259 F900.000
G1 F900
G1 X62.650 Y42.901 E0.00999
G1 X62.907 Y42.935 E0.01719
G1 X63.317 Y43.344 E0.03326
G1 X64.007 Y43.428 E0.05257
G1 X63.606 Y43.028 E0.06831
G1 X64.304 Y43.120 E0.08789
G1 X64.738 Y43.554 E0.10492
G2 X65.466 Y43.676 I0.663 J-1.726 E0.12552
G1 X64.994 Y43.204 E0.14406
G1 X65.644 Y43.249 E0.16216
G1 X66.101 Y43.706 E0.18011
G3 X66.711 Y43.710 I0.288 J2.584 E0.19707
G1 X66.412 Y43.411 E0.20880
G1 X67.278 Y43.672 E0.23393
G1 Z-148.500 F900.000
G92 E0
G1 X67.244 Y42.976 F900.000
G1 X62.635 Y42.486 F900.000
G1 X62.513 Y42.348 F900.000
G1 X61.466 Y40.381 F900.000
G1 X60.986 Y35.428 F900.000
G1 X59.872 Y30.617 F900.000
G1 X59.829 Y28.786 F900.000
G1 X59.163 Y28.617 F900.000
G1 X57.483 Y27.602 F900.000
G1 X55.271 Y25.159 F900.000
G1 X55.939 Y26.063 F900.000
G1 F900
G3 X59.773 Y30.911 I-17.091 J17.456 E0.17213
G3 X60.485 Y33.565 I-19.807 J6.736 E0.24848
G3 X60.806 Y36.773 I-15.142 J3.135 E0.33820
G2 X61.131 Y38.444 I34.916 J-5.924 E0.38553
G3 X61.195 Y44.251 I-24.237 J3.171 E0.54721
G3 X58.476 Y49.723 I-17.477 J-5.273 E0.71772
G3 X57.490 Y51.661 I-9.866 J-3.800 E0.77822
G1 X57.275 Y52.098 E0.79176
G3 X54.463 Y56.016 I-21.266 J-12.295 E0.92590
G3 X49.115 Y58.859 I-11.404 J-15.000 E1.09491
G3 X42.243 Y61.616 I-12.161 J-20.370 E1.30143
G3 X39.500 Y61.473 I-0.282 J-20.973 E1.37777
G3 X36.350 Y60.787 I1.704 J-15.398 E1.46749
G2 X34.657 Y60.580 I-5.015 J33.989 E1.51491
G3 X29.140 Y58.819 I4.505 J-23.635 E1.67613
G3 X24.790 Y54.501 I10.431 J-14.859 E1.84721
G3 X22.887 Y52.527 I9.305 J-10.874 E1.92349
G1 X22.553 Y52.201 E1.93645
G3 X20.081 Y48.690 I18.793 J-15.858 E2.05586
G1 X19.515 Y46.686 E2.11370
G3 X19.171 Y44.362 I12.719 J-3.070 E2.17901
G1 X19.090 Y43.908 E2.19184
G1 X19.070 Y42.744 E2.22416
G3 X18.715 Y40.572 I10.229 J-2.787 E2.28542
G3 X18.599 Y35.286 I21.615 J-3.119 E2.43265
G3 X21.242 Y29.891 I17.850 J5.400 E2.60028
G3 X25.144 Y23.698 I22.180 J9.649 E2.80444
G3 X30.439 Y20.909 I10.677 J13.850 E2.97148
G3 X37.390 Y18.253 I11.302 J19.154 E3.17914
G3 X43.446 Y19.148 I0.385 J18.331 E3.34997
G3 X45.594 Y19.487 I-0.573 J10.606 E3.41048
G1 X46.076 Y19.557 E3.42401
G3 X50.671 Y21.020 I-5.125 J24.045 E3.55815
G3 X55.028 Y25.228 I-10.771 J15.512 E3.72716
G3 X55.877 Y26.002 I-3.702 J4.913 E3.75913
G1 X55.665 Y26.344 F900.000
G1 F900
G1 X56.025 Y26.694 E3.77306
G1 X57.541 Y28.408 E3.83662
G3 X59.410 Y31.073 I-17.725 J14.419 E3.92711
G3 X60.402 Y35.901 I-18.280 J6.272 E4.06439
G1 X60.414 Y36.832 E4.09023
G2 X60.743 Y38.505 I42.078 J-7.406 E4.13764
G3 X60.808 Y44.168 I-23.688 J3.104 E4.29529
G3 X58.129 Y49.534 I-17.077 J-5.174 E4.46268
G3 X57.145 Y51.473 I-9.758 J-3.733 E4.52317
G1 X56.931 Y51.907 E4.53663
G3 X54.196 Y55.723 I-20.879 J-12.076 E4.66724
G3 X48.941 Y58.504 I-11.129 J-14.674 E4.83312
G3 X42.202 Y61.221 I-11.948 J-19.919 E5.03582
G3 X37.303 Y60.672 I-0.311 J-19.354 E5.17310
G1 X36.415 Y60.396 E5.19895
G2 X34.719 Y60.191 I-6.222 J44.357 E5.24643
G3 X29.339 Y58.477 I4.412 J-23.149 E5.40364
G3 X25.080 Y54.232 I10.230 J-14.523 E5.57149
G3 X23.173 Y52.257 I9.177 J-10.769 E5.64785
G1 X22.845 Y51.937 E5.66057
G3 X20.443 Y48.529 I18.338 J-15.476 E5.77651
G1 X19.898 Y46.596 E5.83231
G3 X19.560 Y44.309 I12.513 J-3.018 E5.89659
G1 X19.483 Y43.871 E5.90894
G1 X19.457 Y42.672 E5.94225
G3 X19.105 Y40.520 I9.819 J-2.711 E6.00294
G3 X18.987 Y35.368 I21.141 J-3.062 E6.14644
G3 X21.591 Y30.078 I17.351 J5.255 E6.31100
G3 X25.414 Y23.989 I21.742 J9.406 E6.51154
G3 X30.610 Y21.266 I10.401 J13.529 E6.67528
G3 X37.432 Y18.647 I11.086 J18.682 E6.87924
G3 X43.373 Y19.537 I0.363 J17.853 E7.04688
G3 X45.521 Y19.873 I-0.534 J10.449 E7.10738
G1 X46.000 Y19.943 E7.12083
G3 X50.475 Y21.365 I-5.034 J23.595 E7.25144
G3 X54.743 Y25.503 I-10.499 J15.099 E7.41732
G3 X55.603 Y26.284 I-3.677 J4.913 E7.44962
G1 X55.391 Y26.626 F900.000
G1 F900
G1 X55.742 Y26.967 E7.46321
G1 X57.237 Y28.656 E7.52588
G3 X59.048 Y31.234 I-17.442 J14.178 E7.61346
G3 X60.009 Y35.922 I-17.721 J6.075 E7.74672
G1 X60.022 Y36.891 E7.77364
G2 X60.354 Y38.567 I49.989 J-9.031 E7.82114
G3 X60.422 Y44.084 I-23.271 J3.046 E7.97475
G3 X57.778 Y49.351 I-16.743 J-5.108 E8.13922
G3 X56.800 Y51.284 I-9.558 J-3.622 E8.19949
G1 X56.587 Y51.716 E8.21287
G3 X53.928 Y55.430 I-20.292 J-11.719 E8.33994
G3 X48.763 Y58.151 I-10.826 J-14.286 E8.50286
G3 X45.689 Y59.690 I-9.969 J-16.073 E8.59847
G3 X42.160 Y60.827 I-8.441 J-20.153 E8.70158
G3 X37.405 Y60.293 I-0.290 J-18.852 E8.83485
G1 X36.480 Y60.005 E8.86176
G2 X34.781 Y59.803 I-7.616 J56.808 E8.90932
G3 X29.538 Y58.134 I4.305 J-22.592 E9.06251
G3 X25.363 Y53.957 I10.073 J-14.243 E9.22735
G3 X23.459 Y51.988 I8.997 J-10.605 E9.30357
G1 X23.137 Y51.674 E9.31604
G3 X20.806 Y48.369 I17.889 J-15.091 E9.42851
G1 X20.280 Y46.506 E9.48228
G3 X19.950 Y44.256 I12.246 J-2.945 E9.54552
G1 X19.875 Y43.835 E9.55739
G2 X19.845 Y42.600 I-6.323 J-0.464 E9.59172
G3 X19.495 Y40.469 I9.571 J-2.666 E9.65184
G3 X19.374 Y35.451 I20.604 J-3.007 E9.79162
G3 X21.942 Y30.259 I17.004 J5.179 E9.95327
G3 X23.515 Y27.237 I17.179 J7.022 E10.04803
G3 X25.683 Y24.280 I18.620 J11.379 E10.15000
G3 X30.775 Y21.625 I10.121 J13.200 E10.31029
G3 X37.474 Y19.040 I10.935 J18.366 E10.51071
G3 X43.308 Y19.926 I0.313 J17.587 E10.67537
G3 X45.448 Y20.259 I-0.510 J10.321 E10.73565
G3 X50.279 Y21.710 I-3.685 J21.036 E10.87609
G3 X54.463 Y25.782 I-10.264 J14.732 E11.03901
G3 X55.329 Y26.565 I-3.692 J4.954 E11.07148
G1 X55.117 Y26.907 F900.000
G1 F900
G1 X55.459 Y27.239 E11.08472
G3 X57.661 Y29.851 I-17.955 J17.371 E11.17966
G3 X58.686 Y31.396 I-17.466 J12.700 E11.23117
G3 X59.635 Y36.966 I-16.404 J5.661 E11.38885
G2 X59.966 Y38.628 I55.544 J-10.198 E11.43597
G3 X60.035 Y44.001 I-22.871 J2.981 E11.58556
G3 X57.424 Y49.179 I-16.519 J-5.082 E11.74739
G3 X56.455 Y51.096 I-9.329 J-3.512 E11.80715
G1 X56.244 Y51.525 E11.82045
G3 X53.661 Y55.137 I-19.894 J-11.497 E11.94397
G3 X48.575 Y57.805 I-10.420 J-13.682 E12.10423
G3 X45.538 Y59.328 I-9.743 J-15.639 E12.19874
G3 X42.119 Y60.433 I-8.243 J-19.662 E12.29867
G3 X36.528 Y59.614 I-0.304 J-17.421 E12.45635
G2 X34.843 Y59.415 I-7.258 J54.224 E12.50352
G3 X29.737 Y57.792 I4.241 J-22.185 E12.65269
G3 X25.638 Y53.675 I9.967 J-14.023 E12.81483
G3 X23.745 Y51.718 I8.769 J-10.377 E12.89059
G1 X23.430 Y51.410 E12.90282
G3 X21.169 Y48.208 I17.043 J-14.434 E13.01182
G3 X20.437 Y45.220 I16.483 J-5.622 E13.09738
G2 X20.267 Y43.799 I-8.914 J0.346 E13.13715
G2 X20.232 Y42.528 I-6.257 J-0.464 E13.17247
G3 X19.884 Y40.417 I9.511 J-2.652 E13.23202
G3 X19.762 Y35.533 I20.209 J-2.948 E13.36808
G3 X22.298 Y30.429 I16.175 J4.855 E13.52713
G3 X23.851 Y27.440 I16.763 J6.812 E13.62084
G3 X25.953 Y24.570 I18.108 J11.057 E13.71974
G3 X30.916 Y21.992 I9.850 J12.896 E13.87589
G3 X37.517 Y19.434 I10.849 J18.201 E14.07343
G3 X43.253 Y20.317 I0.275 J17.286 E14.23541
G3 X45.376 Y20.646 I-0.456 J9.957 E14.29517
G1 X45.849 Y20.714 E14.30847
G3 X50.083 Y22.055 I-4.761 J22.388 E14.43199
G3 X54.192 Y26.067 I-9.777 J14.124 E14.59224
G3 X55.055 Y26.846 I-3.758 J5.030 E14.62458
G1 X54.843 Y27.188 F900.000
G1 F900
G1 X55.176 Y27.512 E14.63747
G3 X57.343 Y30.082 I-17.670 J17.098 E14.73091
G3 X58.324 Y31.557 I-16.291 J11.899 E14.78012
G3 X59.248 Y37.042 I-15.916 J5.502 E14.93534
G2 X59.578 Y38.690 I65.013 J-12.161 E14.98205
G3 X59.648 Y43.918 I-22.316 J2.913 E15.12760
G3 X57.070 Y49.007 I-16.327 J-5.074 E15.28680
G3 X56.110 Y50.907 I-9.123 J-3.417 E15.34604
G3 X53.393 Y54.845 I-17.907 J-9.449 E15.47925
G3 X48.387 Y57.459 I-10.245 J-13.519 E15.63683
