; Postprocessed by [ArcWelder](https://github.com/FormerLurker/ArcWelderLib)
; Copyright(C) 2021 - Brad Hochgesang
; Version: 1.2.0, Branch: master, BuildDate: 2021-11-22T09:56:32Z
; resolution=0.05mm
; path_tolerance=5.0%
; max_radius=9999.00mm
; default_xyz_precision=3
; default_e_precision=5
; extrusion_rate_variance_percent=5.0%

; generated by Slic3r 1.3.0 on 2023-04-24 at 09:01:00

; external perimeters extrusion width = 0.50mm (2.95mm^3/s)
; perimeters extrusion width = 0.50mm (2.95mm^3/s)
; infill extrusion width = 0.50mm (2.95mm^3/s)
; solid infill extrusion width = 0.50mm (2.95mm^3/s)
; top infill extrusion width = 0.50mm (2.95mm^3/s)


; Filament gcode

G21 ; set units to millimeters
G90 ; use absolute coordinates
M82 ; use absolute distances for extrusion
G92 E0
G1 Z-149.500 F900.000
G1 X23.540 Y15.152 F900.000
G1 F900
G1 X23.540 Y19.437 E0.11904
G1 X21.186 Y19.437 E0.18443
G3 X21.186 Y15.152 I-2.294 J-2.143 E0.60137
G1 X23.453 Y15.152 E0.66435
G1 X23.147 Y15.544 F900.000
G1 F900
G1 X23.147 Y19.044 E0.76157
G1 X21.010 Y19.044 E0.82095
G3 X21.010 Y15.544 I-2.117 J-1.750 E1.19489
G3 X23.727 Y15.564 I1.025 J45.316 E1.25185
G1 X24.028 Y14.664 F900.000
G1 F900
G1 X24.028 Y19.925 E1.39798
G1 X21.438 Y19.925 E1.46993
G3 X17.648 Y20.701 I-2.565 J-2.884 E1.58278
G3 X20.781 Y14.193 I1.249 J-3.407 E1.91879
G1 X21.438 Y14.664 E1.94125
G1 X23.941 Y14.664 E2.01079
G1 X24.421 Y14.271 F900.000
G1 F900
G1 X24.421 Y20.317 E2.17873
G1 X21.564 Y20.317 E2.25808
G3 X21.564 Y14.271 I-2.662 J-3.023 E2.77030
G1 X24.334 Y14.271 E2.84723
G1 X24.111 Y14.762 F900.000
G1 Z-149.000 F900.000
G1 X23.540 Y15.152 F900.000
G1 F900
G1 X23.540 Y19.437 E2.96627
G1 X21.186 Y19.437 E3.03166
G1 X21.066 Y19.572 E3.03669
G1 X19.589 Y20.760 E3.08932
G1 X19.589 Y20.354 E3.10060
G3 X21.186 Y15.152 I-0.698 J-3.060 E3.46552
G1 X23.453 Y15.152 E3.52850
G1 X23.147 Y15.544 F900.000
G1 F900
G1 X23.147 Y19.044 E3.62572
G1 X21.010 Y19.044 E3.68510
G1 X20.794 Y19.287 E3.69411
G1 X19.982 Y19.940 E3.72306
G1 X19.982 Y19.818 E3.72646
G3 X21.010 Y15.544 I-1.089 J-2.522 E4.06429
G3 X23.727 Y15.564 I1.025 J45.316 E4.12125
G1 X24.002 Y14.690 F900.000
G1 F900
G1 X24.002 Y19.899 E4.26593
G1 X21.427 Y19.899 E4.33743
G3 X17.657 Y20.677 I-2.554 J-2.853 E4.44976
G3 X20.767 Y14.215 I1.241 J-3.382 E4.78332
G1 X21.427 Y14.690 E4.80594
G1 X23.915 Y14.690 E4.87503
G1 X24.394 Y14.298 F900.000
G1 F900
G1 X24.394 Y20.291 E5.04152
G1 X21.554 Y20.291 E5.12041
G3 X21.554 Y14.298 I-2.652 J-2.996 E5.62983
G1 X24.307 Y14.298 E5.70631
G1 X24.084 Y14.788 F900.000
G1 Z-148.500 F900.000
G1 X23.540 Y15.152 F900.000
G1 F900
G1 X23.540 Y19.437 E5.82535
G1 X21.186 Y19.437 E5.89074
G3 X21.186 Y15.152 I-2.294 J-2.143 E6.30768
G1 X23.453 Y15.152 E6.37065
G1 X23.147 Y15.544 F900.000
G1 F900
G1 X23.147 Y19.044 E6.46787
G1 X21.010 Y19.044 E6.52726
G3 X21.010 Y15.544 I-2.117 J-1.750 E6.90118
G3 X23.727 Y15.564 I1.025 J45.316 E6.95815
G1 X23.975 Y14.717 F900.000
G1 F900
G1 X23.975 Y19.872 E7.10136
G1 X21.417 Y19.872 E7.17243
G3 X17.666 Y20.652 I-2.543 J-2.818 E7.28424
G3 X20.753 Y14.237 I1.231 J-3.358 E7.61536
G1 X21.417 Y14.717 E7.63812
G1 X23.888 Y14.717 E7.70677
G1 X24.368 Y14.324 F900.000
G1 F900
G1 X24.368 Y20.265 E7.87180
G1 X21.544 Y20.265 E7.95025
G3 X21.544 Y14.324 I-2.641 J-2.971 E8.45686
G1 X24.281 Y14.324 E8.53290
G1 X24.058 Y14.814 F900.000
G1 Z-148.000 F900.000
G1 X23.540 Y15.152 F900.000
G1 F900
G1 X23.540 Y19.437 E8.65193
G1 X21.186 Y19.437 E8.71733
G3 X21.186 Y15.152 I-2.294 J-2.143 E9.13425
G1 X23.453 Y15.152 E9.19722
G1 X23.147 Y15.544 F900.000
G1 F900
G1 X23.147 Y19.044 E9.29444
G1 X21.010 Y19.044 E9.35383
G3 X21.010 Y15.544 I-2.117 J-1.750 E9.72773
G3 X23.727 Y15.564 I1.025 J45.316 E9.78470
G1 X23.949 Y14.743 F900.000
G1 F900
G1 X23.949 Y19.846 E9.92646
G1 X21.407 Y19.846 E9.99708
G3 X17.675 Y20.628 I-2.533 J-2.793 E10.10839
G3 X20.739 Y14.259 I1.222 J-3.333 E10.43706
G1 X21.407 Y14.743 E10.45997
G1 X23.862 Y14.743 E10.52818
G1 X24.342 Y14.350 F900.000
G1 F900
G1 X24.342 Y20.239 E10.69175
G1 X21.534 Y20.239 E10.76975
G3 X21.534 Y14.350 I-2.631 J-2.945 E11.27358
G1 X24.255 Y14.350 E11.34916
G1 X24.031 Y14.840 F900.000
G1 Z-147.500 F900.000
G1 X23.540 Y15.152 F900.000
G1 F900
G1 X23.540 Y19.437 E11.46820
G1 X21.186 Y19.437 E11.53359
G3 X21.186 Y15.152 I-2.294 J-2.143 E11.95054
G1 X23.453 Y15.152 E12.01352
G1 X23.147 Y15.544 F900.000
G1 F900
G1 X23.147 Y19.044 E12.11074
G1 X21.010 Y19.044 E12.17012
G3 X21.010 Y15.544 I-2.117 J-1.750 E12.54407
G3 X23.727 Y15.564 I1.025 J45.316 E12.60103
G1 X23.923 Y14.769 F900.000
G1 F900
G1 X23.923 Y19.820 E12.74134
G1 X21.397 Y19.820 E12.81152
G3 X17.684 Y20.603 I-2.523 J-2.767 E12.92230
G3 X20.725 Y14.281 I1.214 J-3.309 E13.24854
G1 X21.397 Y14.769 E13.27160
G1 X23.836 Y14.769 E13.33936
G1 X24.316 Y14.376 F900.000
G1 F900
G1 X24.316 Y20.213 E13.50148
G1 X21.524 Y20.213 E13.57902
G3 X21.524 Y14.376 I-2.621 J-2.918 E14.08005
G1 X24.229 Y14.376 E14.15518
G1 X24.005 Y14.866 F900.000
G1 Z-147.000 F900.000
G1 X23.540 Y15.152 F900.000
G1 F900
G1 X23.540 Y19.437 E14.27422
G1 X21.186 Y19.437 E14.33961
G3 X21.186 Y15.152 I-2.294 J-2.142 E14.75654
G1 X23.453 Y15.152 E14.81951
G1 X23.147 Y15.544 F900.000
G1 F900
G1 X23.147 Y19.044 E14.91674
G1 X21.010 Y19.044 E14.97612
G3 X21.010 Y15.544 I-2.117 J-1.750 E15.35003
G3 X23.727 Y15.564 I1.025 J45.316 E15.40700
G1 X23.897 Y14.795 F900.000
G1 F900
G1 X23.897 Y19.794 E15.54585
G1 X21.386 Y19.794 E15.61558
G3 X17.693 Y20.578 I-2.512 J-2.744 E15.72585
G3 X20.711 Y14.304 I1.204 J-3.284 E16.04966
G1 X21.386 Y14.795 E16.07287
G1 X23.810 Y14.795 E16.14018
G1 X24.289 Y14.402 F900.000
G1 F900
G1 X24.289 Y20.186 E16.30085
G1 X21.514 Y20.186 E16.37794
G3 X21.514 Y14.402 I-2.611 J-2.892 E16.87619
G1 X24.202 Y14.402 E16.95087
G1 X23.978 Y14.892 F900.000
G1 Z-146.500 F900.000
G1 X23.540 Y15.152 F900.000
G1 F900
G1 X23.540 Y19.437 E17.06991
G1 X21.186 Y19.437 E17.13530
G3 X21.186 Y15.152 I-2.295 J-2.143 E17.55217
G1 X23.453 Y15.152 E17.61514
G1 X23.147 Y15.544 F900.000
G1 F900
G1 X23.147 Y19.044 E17.71237
G1 X21.010 Y19.044 E17.77175
G3 X21.010 Y15.544 I-2.117 J-1.750 E18.14560
G3 X23.727 Y15.564 I1.025 J45.316 E18.20257
G1 X23.871 Y14.821 F900.000
G1 F900
G1 X23.871 Y19.768 E18.33996
G1 X21.376 Y19.768 E18.40925
G3 X17.702 Y20.554 I-2.503 J-2.720 E18.51901
G3 X20.697 Y14.326 I1.195 J-3.259 E18.84036
G1 X21.376 Y14.821 E18.86371
G1 X23.784 Y14.821 E18.93059
G1 X24.263 Y14.429 F900.000
G1 F900
G1 X24.263 Y20.160 E19.08980
G1 X21.504 Y20.160 E19.16644
G3 X21.504 Y14.429 I-2.602 J-2.865 E19.66188
G1 X24.176 Y14.429 E19.73610
G1 X23.952 Y14.918 F900.000
G1 Z-146.000 F900.000
G1 X23.540 Y15.152 F900.000
G1 F900
G1 X23.540 Y19.437 E19.85514
G1 X21.186 Y19.437 E19.92054
G3 X21.186 Y15.152 I-2.294 J-2.142 E20.33748
G1 X23.453 Y15.152 E20.40046
G1 X23.147 Y15.544 F900.000
G1 F900
G1 X23.147 Y19.044 E20.49768
G1 X21.010 Y19.044 E20.55706
G3 X21.010 Y15.544 I-2.117 J-1.750 E20.93100
G3 X23.727 Y15.564 I1.025 J45.316 E20.98797
G1 X23.844 Y14.848 F900.000
G1 F900
G1 X23.844 Y19.741 E21.12390
G1 X21.366 Y19.741 E21.19275
G3 X17.711 Y20.529 I-2.492 J-2.687 E21.30199
G3 X20.683 Y14.348 I1.186 J-3.235 E21.62087
G1 X21.366 Y14.848 E21.64438
G1 X23.757 Y14.848 E21.71081
G1 X24.237 Y14.455 F900.000
G1 F900
G1 X24.237 Y20.134 E21.86857
G1 X21.494 Y20.134 E21.94476
G3 X21.494 Y14.455 I-2.592 J-2.840 E22.43738
G1 X24.150 Y14.455 E22.51115
G1 X23.925 Y14.944 F900.000
G1 Z-145.500 F900.000
G1 X23.540 Y15.152 F900.000
G1 F900
G1 X23.540 Y19.437 E22.63019
G1 X21.186 Y19.437 E22.69558
G3 X21.186 Y15.152 I-2.294 J-2.143 E23.11253
G1 X23.453 Y15.152 E23.17551
G1 X23.147 Y15.544 F900.000
G1 F900
G1 X23.147 Y19.044 E23.27273
G1 X21.010 Y19.044 E23.33211
G3 X21.010 Y15.544 I-2.117 J-1.750 E23.70605
G3 X23.727 Y15.564 I1.025 J45.316 E23.76301
G1 X23.818 Y14.874 F900.000
G1 F900
G1 X23.818 Y19.715 E23.89750
G1 X21.356 Y19.715 E23.96590
G3 X18.140 Y20.629 I-2.503 J-2.691 E24.06245
G3 X20.669 Y14.370 I0.757 J-3.334 E24.39112
G1 X21.356 Y14.874 E24.41478
G1 X23.731 Y14.874 E24.48076
G1 X24.211 Y14.481 F900.000
G1 F900
G1 X24.211 Y20.108 E24.63706
G1 X21.484 Y20.108 E24.71280
G3 X21.484 Y14.481 I-2.581 J-2.814 E25.20268
G1 X24.124 Y14.481 E25.27600
G1 X23.899 Y14.970 F900.000
G1 Z-145.000 F900.000
G1 X23.540 Y15.152 F900.000
G1 F900
G1 X23.540 Y19.437 E25.39504
G1 X21.186 Y19.437 E25.46043
G3 X21.186 Y15.152 I-2.294 J-2.143 E25.87738
G1 X23.453 Y15.152 E25.94035
G1 X23.147 Y15.544 F900.000
G1 F900
G1 X23.147 Y19.044 E26.03757
G1 X21.010 Y19.044 E26.09696
G3 X21.010 Y15.544 I-2.117 J-1.750 E26.47089
G3 X23.727 Y15.564 I1.025 J45.316 E26.52786
G1 X23.792 Y14.900 F900.000
G1 F900
G1 X23.792 Y19.689 E26.66089
G1 X21.346 Y19.689 E26.72884
G3 X18.576 Y20.672 I-2.518 J-2.701 E26.81288
G3 X20.655 Y14.392 I0.321 J-3.378 E27.15113
G1 X21.346 Y14.900 E27.17494
G1 X23.705 Y14.900 E27.24048
G1 X24.185 Y14.507 F900.000
G1 F900
G1 X24.185 Y20.082 E27.39532
G1 X21.474 Y20.082 E27.47061
G3 X21.474 Y14.507 I-2.571 J-2.788 E27.95771
G1 X24.098 Y14.507 E28.03058
G1 X23.872 Y14.996 F900.000
G1 Z-144.500 F900.000
G1 X23.540 Y15.152 F900.000
G1 F900
G1 X23.540 Y19.437 E28.14962
G1 X21.186 Y19.437 E28.21501
G3 X21.186 Y15.152 I-2.294 J-2.143 E28.63196
G1 X23.453 Y15.152 E28.69494
G1 X23.147 Y15.544 F900.000
G1 F900
G1 X23.147 Y19.044 E28.79216
G1 X21.010 Y19.044 E28.85154
G3 X21.010 Y15.544 I-2.117 J-1.750 E29.22548
G3 X23.727 Y15.564 I1.025 J45.316 E29.28245
G1 X23.766 Y14.926 F900.000
G1 F900
G1 X23.766 Y19.663 E29.41402
G1 X21.335 Y19.663 E29.48153
G3 X19.010 Y20.660 I-2.549 J-2.735 E29.55325
G3 X20.641 Y14.415 I-0.113 J-3.365 E29.90086
G1 X21.335 Y14.926 E29.92482
G1 X23.679 Y14.926 E29.98992
G1 X24.158 Y14.533 F900.000
G1 F900
G1 X24.158 Y20.055 E30.14330
G1 X21.464 Y20.055 E30.21814
G3 X21.464 Y14.533 I-2.561 J-2.761 E30.70245
G1 X24.071 Y14.533 E30.77487
G1 X23.846 Y15.022 F900.000
G1 Z-144.000 F900.000
G1 X23.540 Y15.152 F900.000
G1 F900
G1 X23.540 Y19.437 E30.89391
G1 X21.186 Y19.437 E30.95930
G3 X21.186 Y15.152 I-2.294 J-2.143 E31.37625
G1 X23.453 Y15.152 E31.43923
G1 X23.147 Y15.544 F900.000
G1 F900
G1 X23.147 Y19.044 E31.53645
G1 X21.010 Y19.044 E31.59583
G3 X21.010 Y15.544 I-2.117 J-1.750 E31.96977
G3 X23.727 Y15.564 I1.025 J45.316 E32.02673
G1 X23.740 Y14.952 F900.000
G1 F900
G1 X23.740 Y19.637 E32.15685
G1 X21.301 Y19.637 E32.22458
G3 X21.301 Y14.952 I-2.394 J-2.342 E32.66407
G1 X23.653 Y14.952 E32.72938
G1 X24.132 Y14.560 F900.000
G1 F900
G1 X24.132 Y20.029 E32.88131
G1 X21.445 Y20.029 E32.95595
G3 X21.445 Y14.560 I-2.546 J-2.734 E33.43711
G1 X24.045 Y14.560 E33.50933
G1 X23.832 Y15.056 F900.000
G1 Z-143.500 F900.000
G1 X23.540 Y15.152 F900.000
G1 F900
G1 X23.540 Y19.437 E33.62837
G1 X21.186 Y19.437 E33.69376
G3 X21.186 Y15.152 I-2.294 J-2.143 E34.11071
G1 X23.453 Y15.152 E34.17369
G1 X23.147 Y15.544 F900.000
G1 F900
G1 X23.147 Y19.044 E34.27091
G1 X21.010 Y19.044 E34.33029
G3 X21.010 Y15.544 I-2.117 J-1.750 E34.70423
G3 X23.727 Y15.564 I1.025 J45.316 E34.76119
G1 X23.713 Y14.979 F900.000
G1 F900
G1 X23.713 Y19.610 E34.88985
G1 X21.290 Y19.610 E34.95716
G3 X21.290 Y14.979 I-2.384 J-2.316 E35.39382
G1 X23.626 Y14.979 E35.45870
G1 X24.106 Y14.586 F900.000
G1 F900
G1 X24.106 Y20.003 E35.60918
G1 X21.435 Y20.003 E35.68338
G3 X21.435 Y14.586 I-2.536 J-2.708 E36.16173
G1 X24.019 Y14.586 E36.23351
G1 X23.805 Y15.082 F900.000
G1 Z-143.000 F900.000
G1 X23.540 Y15.152 F900.000
G1 F900
G1 X23.540 Y19.437 E36.35255
G1 X21.186 Y19.437 E36.41795
G3 X21.186 Y15.152 I-2.294 J-2.143 E36.83489
G1 X23.453 Y15.152 E36.89787
G1 X23.147 Y15.544 F900.000
G1 F900
G1 X23.147 Y19.044 E36.99509
G1 X21.010 Y19.044 E37.05447
G3 X21.010 Y15.544 I-2.117 J-1.750 E37.42841
G3 X23.727 Y15.564 I1.025 J45.316 E37.48538
G1 X23.687 Y15.005 F900.000
G1 F900
G1 X23.687 Y19.584 E37.61258
G1 X21.281 Y19.584 E37.67942
G3 X21.281 Y15.005 I-2.374 J-2.290 E38.11331
G1 X23.600 Y15.005 E38.17773
G1 X24.080 Y14.612 F900.000
G1 F900
G1 X24.080 Y19.977 E38.32676
G1 X21.425 Y19.977 E38.40050
G3 X21.425 Y14.612 I-2.525 J-2.683 E38.87607
G1 X23.993 Y14.612 E38.94740
G1 X23.779 Y15.108 F900.000
G1 Z-142.500 F900.000
G1 X23.540 Y15.152 F900.000
G1 F900
G1 X23.540 Y19.437 E39.06643
G1 X21.186 Y19.437 E39.13183
G3 X21.186 Y15.152 I-2.294 J-2.143 E39.54877
G1 X23.453 Y15.152 E39.61175
G1 X23.147 Y15.544 F900.000
G1 F900
G1 X23.147 Y19.044 E39.70897
G1 X21.010 Y19.044 E39.76835
G3 X21.010 Y15.544 I-2.117 J-1.750 E40.14229
G3 X23.727 Y15.564 I1.025 J45.316 E40.19926
G1 X23.661 Y15.031 F900.000
G1 F900
G1 X23.661 Y19.558 E40.32500
G1 X21.271 Y19.558 E40.39139
G3 X21.271 Y15.031 I-2.363 J-2.264 E40.82250
G1 X23.574 Y15.031 E40.88646
G1 X24.054 Y14.638 F900.000
G1 F900
G1 X24.054 Y19.951 E41.03403
G1 X21.415 Y19.951 E41.10731
G3 X21.415 Y14.638 I-2.515 J-2.656 E41.58011
G1 X23.967 Y14.638 E41.65097
G1 X23.752 Y15.134 F900.000
G1 Z-142.000 F900.000
G1 X23.540 Y15.152 F900.000
G1 F900
G1 X23.540 Y19.437 E41.77001
G1 X21.186 Y19.437 E41.83540
G3 X21.186 Y15.152 I-2.294 J-2.143 E42.25235
G1 X23.453 Y15.152 E42.31533
G1 X23.147 Y15.544 F900.000
G1 F900
G1 X23.147 Y19.044 E42.41255
G1 X21.010 Y19.044 E42.47193
G3 X21.010 Y15.544 I-2.117 J-1.750 E42.84587
G3 X23.727 Y15.564 I1.025 J45.316 E42.90283
G1 X23.635 Y15.057 F900.000
G1 F900
G1 X23.635 Y19.532 E43.02713
G1 X21.262 Y19.532 E43.09305
G3 X21.262 Y15.057 I-2.353 J-2.238 E43.52139
G1 X23.548 Y15.057 E43.58489
G1 X24.027 Y14.665 F900.000
G1 F900
G1 X24.027 Y19.924 E43.73100
G1 X21.406 Y19.924 E43.80382
G3 X21.406 Y14.665 I-2.505 J-2.630 E44.27384
G1 X23.940 Y14.665 E44.34425
G1 X23.726 Y15.160 F900.000
G1 Z-141.500 F900.000
G1 X23.540 Y15.152 F900.000
G1 F900
G1 X23.540 Y19.437 E44.46328
G1 X21.186 Y19.437 E44.52868
G3 X21.186 Y15.152 I-2.294 J-2.143 E44.94562
G1 X23.453 Y15.152 E45.00860
G1 X23.147 Y15.544 F900.000
G1 F900
G1 X23.147 Y19.044 E45.10582
G1 X21.010 Y19.044 E45.16520
G3 X21.010 Y15.544 I-2.117 J-1.750 E45.53914
G3 X23.727 Y15.564 I1.025 J45.316 E45.59611
G1 X23.609 Y15.083 F900.000
G1 F900
G1 X23.609 Y19.506 E45.71894
G1 X21.250 Y19.506 E45.78447
G3 X21.250 Y15.083 I-2.342 J-2.211 E46.20993
G1 X23.522 Y15.083 E46.27304
G1 X24.001 Y14.691 F900.000
G1 F900
G1 X24.001 Y19.898 E46.41769
G1 X21.395 Y19.898 E46.49010
G3 X21.395 Y14.691 I-2.495 J-2.604 E46.95728
G1 X23.914 Y14.691 E47.02727
G1 X23.699 Y15.186 F900.000
G1 Z-141.000 F900.000
G1 X23.540 Y15.152 F900.000
G1 F900
G1 X23.540 Y19.437 E47.14631
G1 X21.186 Y19.437 E47.21170
G3 X21.186 Y15.152 I-2.294 J-2.142 E47.62865
G1 X23.453 Y15.152 E47.69162
G1 X23.147 Y15.544 F900.000
G1 F900
G1 X23.147 Y19.044 E47.78884
G1 X21.010 Y19.044 E47.84823
G3 X21.010 Y15.544 I-2.117 J-1.750 E48.22216
G3 X23.727 Y15.564 I1.025 J45.316 E48.27913
G1 X23.582 Y15.110 F900.000
G1 F900
G1 X23.582 Y19.479 E48.40051
G1 X21.239 Y19.479 E48.46561
G3 X21.239 Y15.110 I-2.330 J-2.184 E48.88824
G1 X23.495 Y15.110 E48.95093
G1 X23.975 Y14.717 F900.000
G1 F900
G1 X23.975 Y19.872 E49.09413
G1 X21.384 Y19.872 E49.16610
G3 X21.384 Y14.717 I-2.484 J-2.578 E49.63046
G1 X23.888 Y14.717 E49.70002
G1 X23.673 Y15.212 F900.000
G1 Z-140.500 F900.000
G1 X23.540 Y15.152 F900.000
G1 F900
G1 X23.540 Y19.437 E49.81906
G1 X21.186 Y19.437 E49.88445
G3 X21.186 Y15.152 I-2.294 J-2.143 E50.30140
G1 X23.453 Y15.152 E50.36437
G1 X23.147 Y15.544 F900.000
G1 F900
G1 X23.147 Y19.044 E50.46159
G1 X21.010 Y19.044 E50.52098
G3 X21.010 Y15.544 I-2.117 J-1.750 E50.89491
G3 X23.727 Y15.564 I1.025 J45.316 E50.95188
G1 X23.556 Y15.136 F900.000
G1 F900
G1 X23.556 Y19.453 E51.07180
G1 X21.228 Y19.453 E51.13648
G3 X21.228 Y15.136 I-2.319 J-2.158 E51.55628
G1 X23.469 Y15.136 E51.61855
G1 X23.949 Y14.743 F900.000
G1 F900
G1 X23.949 Y19.846 E51.76029
G1 X21.373 Y19.846 E51.83183
G3 X21.373 Y14.743 I-2.473 J-2.552 E52.29337
G1 X23.862 Y14.743 E52.36250
G1 X23.646 Y15.238 F900.000
G1 Z-140.000 F900.000
G1 X23.147 Y15.544 F900.000
G1 F900
G1 X23.147 Y19.044 E52.45972
G1 X21.010 Y19.044 E52.51910
G3 X21.010 Y15.544 I-2.112 J-1.750 E52.89304
G3 X23.727 Y15.564 I1.025 J45.316 E52.95000
G1 X21.205 Y15.152 F900.000
G1 F900
G1 X21.124 Y15.082 E52.95297
G1 X21.139 Y15.095 E52.95353
G92 E0
G1 X21.205 Y19.437 F900.000
G1 F900
G1 X21.124 Y19.507 E0.00297
G1 X21.141 Y19.488 E0.00367
G92 E0
G1 X23.923 Y19.820 F900.000
G1 F900
G1 X21.363 Y19.820 E0.07111
G3 X21.363 Y14.769 I-2.463 J-2.525 E0.52984
G1 X23.923 Y14.769 E0.60094
G1 X23.923 Y19.733 E0.73881
G1 X23.381 Y19.611 F900.000
G1 Z-139.500 F900.000
G1 X23.147 Y19.044 F900.000
G1 F900
G1 X21.010 Y19.044 E0.79819
G3 X21.010 Y15.544 I-2.117 J-1.750 E1.17213
G1 X23.147 Y15.544 E1.23151
G1 X23.147 Y18.957 E1.32632
G1 X23.253 Y19.615 F900.000
G1 X23.896 Y19.793 F900.000
G1 F900
G1 X21.352 Y19.793 E1.39699
G3 X21.352 Y14.796 I-2.452 J-2.499 E1.85291
G1 X23.896 Y14.796 E1.92358
G1 X23.896 Y19.706 E2.05999
G1 X23.355 Y19.585 F900.000
G1 Z-139.000 F900.000
G1 X23.147 Y19.044 F900.000
G1 F900
G1 X21.010 Y19.044 E2.11937
G3 X21.010 Y15.544 I-2.117 J-1.750 E2.49331
G1 X23.147 Y15.544 E2.55269
G1 X23.147 Y18.957 E2.64750
G1 X23.253 Y19.615 F900.000
G1 X23.870 Y19.767 F900.000
G1 F900
G1 X21.342 Y19.767 E2.71774
G3 X21.342 Y14.822 I-2.442 J-2.472 E3.17084
G1 X23.870 Y14.822 E3.24108
G1 X23.870 Y19.680 E3.37603
G1 X23.329 Y19.560 F900.000
G1 Z-138.500 F900.000
G1 X23.147 Y19.044 F900.000
G1 F900
G1 X21.010 Y19.044 E3.43541
G3 X21.010 Y15.544 I-2.117 J-1.750 E3.80935
G1 X23.147 Y15.544 E3.86873
G1 X23.147 Y18.957 E3.96354
G1 X23.253 Y19.615 F900.000
G1 X23.844 Y19.741 F900.000
G1 F900
G1 X21.331 Y19.741 E4.03334
G3 X21.331 Y14.848 I-2.430 J-2.446 E4.48359
G1 X23.844 Y14.848 E4.55339
G1 X23.844 Y19.654 E4.68689
G1 X23.302 Y19.534 F900.000
G1 Z-138.000 F900.000
G1 X23.147 Y19.044 F900.000
G1 F900
G1 X21.010 Y19.044 E4.74627
G3 X21.010 Y15.544 I-2.117 J-1.750 E5.12013
G1 X23.147 Y15.544 E5.17951
G1 X23.147 Y18.957 E5.27432
G1 X23.253 Y19.615 F900.000
G1 X23.818 Y19.715 F900.000
G1 F900
G1 X21.321 Y19.715 E5.34368
G3 X21.321 Y14.874 I-2.420 J-2.420 E5.79111
G1 X23.818 Y14.874 E5.86048
G1 X23.818 Y19.628 E5.99253
G1 X23.276 Y19.508 F900.000
G1 Z-137.500 F900.000
G1 X23.147 Y19.044 F900.000
G1 F900
G1 X21.010 Y19.044 E6.05191
G3 X21.010 Y15.544 I-2.117 J-1.750 E6.42580
G1 X23.147 Y15.544 E6.48518
G1 X23.147 Y18.957 E6.57999
G1 X23.253 Y19.615 F900.000
G1 X23.792 Y19.689 F900.000
G1 F900
G1 X21.310 Y19.689 E6.64892
G3 X21.310 Y14.900 I-2.409 J-2.394 E7.09354
G1 X23.792 Y14.900 E7.16248
G1 X23.792 Y19.602 E7.29307
G1 X23.250 Y19.482 F900.000
G1 Z-137.000 F900.000
G1 X23.147 Y19.044 F900.000
G1 F900
G1 X21.010 Y19.044 E7.35245
G3 X21.010 Y15.544 I-2.117 J-1.750 E7.72628
G1 X23.147 Y15.544 E7.78566
G1 X23.147 Y18.957 E7.88047
G1 X23.253 Y19.615 F900.000
G1 X23.765 Y19.662 F900.000
G1 F900
G1 X21.299 Y19.662 E7.94897
G3 X21.299 Y14.927 I-2.396 J-2.368 E8.39077
G1 X23.765 Y14.927 E8.45927
G1 X23.765 Y19.575 E8.58840
G1 X23.223 Y19.456 F900.000
G1 Z-136.500 F900.000
G1 X23.147 Y19.044 F900.000
G1 F900
G1 X21.010 Y19.044 E8.64778
G3 X21.010 Y15.544 I-2.115 J-1.750 E9.02167
G1 X23.147 Y15.544 E9.08106
G1 X23.147 Y18.957 E9.17586
G1 X23.253 Y19.615 F900.000
G1 X23.739 Y19.636 F900.000
G1 F900
G1 X21.289 Y19.636 E9.24392
G3 X21.289 Y14.953 I-2.388 J-2.342 E9.68292
G1 X23.739 Y14.953 E9.75098
G1 X23.739 Y19.549 E9.87866
G1 X23.197 Y19.430 F900.000
G1 Z-136.000 F900.000
G1 X23.147 Y19.044 F900.000
G1 F900
G1 X21.010 Y19.044 E9.93804
G3 X21.010 Y15.544 I-2.117 J-1.750 E10.31196
G1 X23.147 Y15.544 E10.37134
G1 X23.147 Y18.957 E10.46615
G1 X23.253 Y19.615 F900.000
G1 X23.713 Y19.610 F900.000
G1 F900
G1 X21.278 Y19.610 E10.53377
G3 X21.278 Y14.979 I-2.377 J-2.315 E10.96998
G1 X23.713 Y14.979 E11.03760
G1 X23.713 Y19.523 E11.16383
G1 X23.171 Y19.404 F900.000
G1 Z-135.500 F900.000
G1 X23.147 Y19.044 F900.000
G1 F900
G1 X21.010 Y19.044 E11.22321
G3 X19.982 Y14.771 I-2.116 J-1.751 E11.56103
G1 X19.982 Y14.649 E11.56443
G1 X20.794 Y15.302 E11.59338
G1 X21.010 Y15.544 E11.60239
G1 X23.147 Y15.544 E11.66177
G1 X23.147 Y18.957 E11.75658
G1 X23.253 Y19.615 F900.000
G1 X23.687 Y19.584 F900.000
G1 F900
G1 X21.268 Y19.584 E11.82377
G3 X21.268 Y15.005 I-2.366 J-2.290 E12.25717
G1 X23.687 Y15.005 E12.32436
G1 X23.687 Y19.497 E12.44913
G1 X23.144 Y19.379 F900.000
G1 Z-135.000 F900.000
G1 X23.147 Y19.044 F900.000
G1 F900
G1 X21.010 Y19.044 E12.50851
G3 X21.010 Y15.544 I-2.117 J-1.750 E12.88244
G1 X23.147 Y15.544 E12.94182
G1 X23.147 Y18.957 E13.03662
G1 X23.253 Y19.615 F900.000
G1 X23.661 Y19.558 F900.000
G1 F900
G1 X21.257 Y19.558 E13.10338
G3 X21.257 Y15.031 I-2.355 J-2.264 E13.53397
G1 X23.661 Y15.031 E13.60073
G1 X23.661 Y19.471 E13.72404
G1 X23.118 Y19.353 F900.000
G92 E0
; Filament-specific end gcode 
;END gcode for filament


M104 S0 ; set temperature
; filament used = 66.7mm (0.5cm3)
; total filament cost = 0.0

; avoid_crossing_perimeters = 1
; bed_shape = 0x0,250x0,250x250,0x250
; bed_temperature = 0
; before_layer_gcode = 
; between_objects_gcode = 
; bridge_acceleration = 0
; bridge_fan_speed = 0
; brim_connections_width = 0
; brim_width = 0
; complete_objects = 1
; cooling = 0
; default_acceleration = 0
; disable_fan_first_layers = 3
; duplicate_distance = 6
; end_filament_gcode = "; Filament-specific end gcode \n;END gcode for filament\n"
; end_gcode = 
; extruder_clearance_height = 20
; extruder_clearance_radius = 20
; extruder_offset = 0x0
; extrusion_axis = E
; extrusion_multiplier = 1
; fan_always_on = 0
; fan_below_layer_time = 60
; filament_colour = #FFFFFF
; filament_cost = 0
; filament_density = 0
; filament_diameter = 3
; filament_max_volumetric_speed = 0
; filament_notes = ""
; first_layer_acceleration = 0
; first_layer_bed_temperature = 0
; first_layer_extrusion_width = 100%
; first_layer_speed = 15
; first_layer_temperature = 0
; gcode_arcs = 0
; gcode_comments = 0
; gcode_flavor = reprap
; has_heatbed = 0
; infill_acceleration = 0
; infill_first = 0
; interior_brim_width = 0
; layer_gcode = 
; max_fan_speed = 100
; max_layer_height = 10
; max_print_speed = 80
; max_volumetric_speed = 0
; min_fan_speed = 35
; min_layer_height = 0
; min_print_speed = 10
; min_skirt_length = 0
; notes = 
; nozzle_diameter = 0.58
; only_retract_when_crossing_perimeters = 0
; ooze_prevention = 0
; output_filename_format = [input_filename_base].gcode
; perimeter_acceleration = 0
; post_process = /Users/nathanbrown/Downloads/macOS/ArcWelder
; pressure_advance = 0
; printer_notes = 
; resolution = 0
; retract_before_travel = 2
; retract_layer_change = 0
; retract_length = 0
; retract_length_toolchange = 10
; retract_lift = 0
; retract_lift_above = 0
; retract_lift_below = 0
; retract_restart_extra = 0
; retract_restart_extra_toolchange = 0
; retract_speed = 40
; skirt_distance = 6
; skirt_height = 1
; skirts = 0
; slowdown_below_layer_time = 5
; spiral_vase = 0
; standby_temperature_delta = -5
; start_filament_gcode = "; Filament gcode\n"
; start_gcode = 
; temperature = 0
; threads = 16
; toolchange_gcode = 
; travel_speed = 15
; use_firmware_retraction = 0
; use_relative_e_distances = 0
; use_set_and_wait_bed = 0
; use_set_and_wait_extruder = 0
; use_volumetric_e = 0
; vibration_limit = 0
; wipe = 0
; z_offset = -150
; z_steps_per_mm = 0
; adaptive_slicing = 0
; adaptive_slicing_quality = 75%
; dont_support_bridges = 1
; extrusion_width = 100%
; first_layer_height = 0.5
; infill_only_where_needed = 0
; interface_shells = 0
; layer_height = 0.5
; match_horizontal_surfaces = 0
; raft_layers = 0
; regions_overlap = 0
; seam_position = aligned
; sequential_print_priority = 0
; support_material = 0
; support_material_angle = 0
; support_material_buildplate_only = 0
; support_material_contact_distance = 0.2
; support_material_enforce_layers = 0
; support_material_extruder = 1
; support_material_extrusion_width = 0
; support_material_interface_extruder = 1
; support_material_interface_extrusion_width = 0
; support_material_interface_layers = 3
; support_material_interface_spacing = 0
; support_material_interface_speed = 100%
; support_material_max_layers = 0
; support_material_pattern = pillars
; support_material_spacing = 2.5
; support_material_speed = 15
; support_material_threshold = 60%
; xy_size_compensation = 0
; bottom_infill_pattern = rectilinear
; bottom_solid_layers = 1
; bridge_flow_ratio = 1
; bridge_speed = 15
; external_perimeter_extrusion_width = 100%
; external_perimeter_speed = 15
; external_perimeters_first = 0
; extra_perimeters = 0
; fill_angle = 45
; fill_density = 100%
; fill_gaps = 0
; fill_pattern = rectilinear
; gap_fill_speed = 15
; infill_every_layers = 1
; infill_extruder = 1
; infill_extrusion_width = 100%
; infill_overlap = 0
; infill_speed = 15
; overhangs = 0
; perimeter_extruder = 1
; perimeter_extrusion_width = 100%
; perimeter_speed = 15
; perimeters = 8
; small_perimeter_speed = 15
; solid_infill_below_area = 50
; solid_infill_every_layers = 0
; solid_infill_extruder = 1
; solid_infill_extrusion_width = 100%
; solid_infill_speed = 15
; thin_walls = 0
; top_infill_extrusion_width = 100%
; top_infill_pattern = rectilinear
; top_solid_infill_speed = 15
; top_solid_layers = 1
