DVAR $hFile
DVAR $cCheck
DVAR $press
DVAR $length
DVAR $lame
DVAR $comport
DVAR $COM5
DVAR $linepressure5


G71
G76
G91 ;G90 = absolute, G91 = relative
G68

RAMP TYPE SINE X Y
VELOCITY OFF
RAMP RATE 900

$linepressure5 = 20.0000
CALL setPress5 P$COM5 Q$linepressure5

ENABLE X Y D
'HOME X Y D
G90
G0 D-80 F60
G0 X0 Y0 D0 F60
G91

;Begin Motion
'G0 X150 Y50 F60
G0 D-149.5 F60
G1 F20

FILECLOSE
$hFile = FILEOPEN "COM5", 2
COMMINIT $hFile, "baud=115200 parity=N data=8 stop=1"
COMMSETTIMEOUT $hFile, -1, -1, 1000


FILEWRITE $hFile"\x05\x02\x30\x38\x50\x53\x20\x20\x30\x33\x34\x30\x45\x45\x03"

; generated by Slic3r 1.3.0 on 2023-04-14 at 09:16:48 
; external perimeters extrusion width = 0.50mm (2.95mm^3/s) 
; perimeters extrusion width = 0.50mm (2.95mm^3/s) 
; infill extrusion width = 0.50mm (2.95mm^3/s) 
; solid infill extrusion width = 0.50mm (2.95mm^3/s) 
; top infill extrusion width = 0.50mm (2.95mm^3/s) 
; Filament gcode 
; G21 ; set units to millimeters 
G90 ; use absolute coordinates 
G1 D-149.500 ;not extruding 
G1 X24.111 Y24.725 ;not extruding 
FILEWRITE $hFile"\x05\x02\x30\x34\x44\x49\x20\x20\x43\x46\x03"
DWELL 0.15
G1 X24.940 Y23.942 ;extruding 
G1 X25.489 Y23.463 ;extruding 
G1 X26.352 Y22.818 ;extruding 
G1 X26.882 Y22.455 ;extruding 
G1 X27.819 Y21.869 ;extruding 
G1 X28.752 Y21.347 ;extruding 
G1 X30.070 Y20.709 ;extruding 
G1 X30.297 Y20.634 ;extruding 
G1 X31.016 Y20.297 ;extruding 
G1 X32.235 Y19.817 ;extruding 
G1 X33.279 Y19.476 ;extruding 
G1 X34.454 Y19.164 ;extruding 
G1 X35.110 Y19.036 ;extruding 
G1 X35.540 Y18.922 ;extruding 
G1 X36.389 Y18.773 ;extruding 
G1 X38.176 Y18.571 ;extruding 
G1 X38.611 Y18.554 ;extruding 
G1 X39.930 Y18.570 ;extruding 
G1 X40.693 Y18.616 ;extruding 
G1 X42.106 Y18.774 ;extruding 
G1 X42.844 Y18.894 ;extruding 
G1 X43.597 Y19.043 ;extruding 
G1 X43.813 Y19.112 ;extruding 
G1 X44.237 Y19.205 ;extruding 
G1 X44.604 Y19.265 ;extruding 
G1 X45.876 Y19.594 ;extruding 
G1 X46.934 Y19.934 ;extruding 
G1 X47.761 Y20.265 ;extruding 
G1 X47.975 Y20.329 ;extruding 
G1 X48.655 Y20.646 ;extruding 
G1 X49.064 Y20.801 ;extruding 
G1 X49.829 Y21.171 ;extruding 
G1 X50.834 Y21.719 ;extruding 
G1 X51.436 Y22.079 ;extruding 
G1 X51.778 Y22.308 ;extruding 
G1 X52.923 Y23.165 ;extruding 
G1 X53.704 Y23.821 ;extruding 
G1 X54.490 Y24.546 ;extruding 
G1 X55.454 Y25.549 ;extruding 
G1 X55.953 Y26.136 ;extruding 
G1 X56.199 Y26.380 ;extruding 
G1 X57.044 Y27.403 ;extruding 
G1 X57.800 Y28.488 ;extruding 
G1 X57.923 Y28.638 ;extruding 
G1 X58.177 Y29.055 ;extruding 
G1 X58.296 Y29.209 ;extruding 
G1 X58.543 Y29.648 ;extruding 
G1 X58.744 Y29.929 ;extruding 
G1 X59.308 Y30.985 ;extruding 
G1 X59.806 Y32.032 ;extruding 
G1 X60.205 Y33.011 ;extruding 
G1 X60.640 Y34.417 ;extruding 
G1 X60.951 Y35.706 ;extruding 
G1 X61.094 Y36.455 ;extruding 
G1 X61.283 Y37.819 ;extruding 
G1 X61.341 Y38.583 ;extruding 
G1 X61.396 Y38.922 ;extruding 
G1 X61.477 Y40.235 ;extruding 
G1 X61.479 Y41.335 ;extruding 
G1 X61.413 Y42.549 ;extruding 
G1 X61.331 Y43.212 ;extruding 
G1 X61.307 Y43.656 ;extruding 
G1 X61.186 Y44.509 ;extruding 
G1 X60.826 Y46.272 ;extruding 
G1 X60.708 Y46.691 ;extruding 
G1 X60.285 Y47.940 ;extruding 
G1 X60.005 Y48.652 ;extruding 
G1 X59.419 Y49.947 ;extruding 
G1 X59.077 Y50.611 ;extruding 
G1 X58.702 Y51.281 ;extruding 
G1 X58.570 Y51.466 ;extruding 
G1 X58.350 Y51.839 ;extruding 
G1 X58.180 Y52.171 ;extruding 
G1 X57.474 Y53.278 ;extruding 
G1 X56.824 Y54.179 ;extruding 
G1 X56.253 Y54.864 ;extruding 
G1 X56.127 Y55.047 ;extruding 
G1 X55.615 Y55.596 ;extruding 
G1 X55.341 Y55.938 ;extruding 
G1 X54.753 Y56.551 ;extruding 
G1 X53.908 Y57.350 ;extruding 
G1 X53.099 Y58.032 ;extruding 
G1 X51.900 Y58.877 ;extruding 
G1 X51.035 Y59.417 ;extruding 
G1 X50.102 Y59.940 ;extruding 
G1 X48.851 Y60.548 ;extruding 
G1 X48.138 Y60.841 ;extruding 
G1 X47.830 Y60.999 ;extruding 
G1 X46.588 Y61.490 ;extruding 
G1 X45.072 Y61.960 ;extruding 
G1 X44.675 Y62.053 ;extruding 
G1 X44.492 Y62.119 ;extruding 
G1 X43.997 Y62.219 ;extruding 
G1 X43.668 Y62.323 ;extruding 
G1 X42.489 Y62.533 ;extruding 
G1 X41.358 Y62.681 ;extruding 
G1 X40.661 Y62.743 ;extruding 
G1 X40.248 Y62.760 ;extruding 
G1 X38.826 Y62.739 ;extruding 
G1 X37.912 Y62.679 ;extruding 
G1 X36.747 Y62.543 ;extruding 
G1 X35.380 Y62.299 ;extruding 
G1 X34.635 Y62.119 ;extruding 
G1 X34.296 Y62.066 ;extruding 
G1 X33.021 Y61.738 ;extruding 
G1 X31.975 Y61.398 ;extruding 
G1 X30.842 Y60.959 ;extruding 
G1 X30.262 Y60.689 ;extruding 
G1 X29.905 Y60.561 ;extruding 
G1 X29.225 Y60.203 ;extruding 
G1 X28.878 Y60.056 ;extruding 
G1 X27.461 Y59.231 ;extruding 
G1 X26.882 Y58.831 ;extruding 
G1 X26.052 Y58.204 ;extruding 
G1 X25.193 Y57.479 ;extruding 
G1 X24.408 Y56.750 ;extruding 
G1 X23.386 Y55.682 ;extruding 
G1 X23.254 Y55.500 ;extruding 
G1 X22.672 Y54.866 ;extruding 
G1 X21.864 Y53.884 ;extruding 
G1 X21.218 Y52.999 ;extruding 
G1 X20.558 Y51.978 ;extruding 
G1 X20.252 Y51.426 ;extruding 
G1 X20.036 Y51.116 ;extruding 
G1 X19.696 Y50.426 ;extruding 
G1 X19.500 Y50.108 ;extruding 
G1 X18.839 Y48.616 ;extruding 
G1 X18.690 Y48.214 ;extruding 
G1 X18.270 Y46.851 ;extruding 
G1 X18.047 Y45.969 ;extruding 
G1 X17.911 Y45.310 ;extruding 
G1 X17.889 Y45.077 ;extruding 
G1 X17.680 Y43.897 ;extruding 
G1 X17.677 Y43.637 ;extruding 
G1 X17.511 Y42.272 ;extruding 
G1 X17.433 Y40.999 ;extruding 
G1 X17.429 Y39.888 ;extruding 
G1 X17.489 Y39.000 ;extruding 
G1 X17.482 Y38.778 ;extruding 
G1 X17.578 Y38.006 ;extruding 
G1 X17.632 Y37.227 ;extruding 
G1 X17.792 Y36.279 ;extruding 
G1 X18.072 Y34.966 ;extruding 
G1 X18.188 Y34.553 ;extruding 
G1 X18.649 Y33.201 ;extruding 
G1 X19.031 Y32.257 ;extruding 
G1 X19.479 Y31.286 ;extruding 
G1 X20.167 Y29.998 ;extruding 
G1 X20.307 Y29.800 ;extruding 
G1 X20.527 Y29.426 ;extruding 
G1 X20.694 Y29.098 ;extruding 
G1 X21.405 Y27.980 ;extruding 
G1 X22.204 Y26.925 ;extruding 
G1 X22.308 Y26.763 ;extruding 
G1 X22.627 Y26.392 ;extruding 
G1 X22.736 Y26.232 ;extruding 
G1 X23.078 Y25.861 ;extruding 
G1 X23.283 Y25.585 ;extruding 
G1 X24.051 Y24.787 ;extruding 
FILEWRITE $hFile"\x05\x02\x30\x34\x44\x49\x20\x20\x43\x46\x03"
G1 X24.388 Y25.004 ;not extruding 
FILEWRITE $hFile"\x05\x02\x30\x34\x44\x49\x20\x20\x43\x46\x03"
DWELL 0.15
G1 X25.204 Y24.232 ;extruding 
G1 X25.735 Y23.769 ;extruding 
G1 X26.581 Y23.138 ;extruding 
G1 X27.097 Y22.783 ;extruding 
G1 X28.019 Y22.207 ;extruding 
G1 X28.933 Y21.695 ;extruding 
G1 X30.218 Y21.073 ;extruding 
G1 X30.437 Y21.001 ;extruding 
G1 X31.177 Y20.655 ;extruding 
G1 X32.368 Y20.187 ;extruding 
G1 X33.391 Y19.852 ;extruding 
G1 X34.542 Y19.547 ;extruding 
G1 X35.198 Y19.419 ;extruding 
G1 X35.625 Y19.306 ;extruding 
G1 X36.445 Y19.162 ;extruding 
G1 X38.206 Y18.963 ;extruding 
G1 X38.617 Y18.947 ;extruding 
G1 X39.916 Y18.963 ;extruding 
G1 X40.660 Y19.007 ;extruding 
G1 X42.053 Y19.163 ;extruding 
G1 X42.774 Y19.281 ;extruding 
G1 X43.500 Y19.424 ;extruding 
G1 X43.712 Y19.491 ;extruding 
G1 X44.163 Y19.591 ;extruding 
G1 X44.523 Y19.649 ;extruding 
G1 X45.766 Y19.971 ;extruding 
G1 X46.800 Y20.303 ;extruding 
G1 X47.632 Y20.637 ;extruding 
G1 X47.835 Y20.697 ;extruding 
G1 X48.502 Y21.008 ;extruding 
G1 X48.909 Y21.162 ;extruding 
G1 X49.649 Y21.520 ;extruding 
G1 X50.639 Y22.060 ;extruding 
G1 X51.551 Y22.628 ;extruding 
G1 X52.679 Y23.473 ;extruding 
G1 X53.445 Y24.116 ;extruding 
G1 X54.215 Y24.827 ;extruding 
G1 X55.163 Y25.812 ;extruding 
G1 X55.665 Y26.403 ;extruding 
G1 X55.908 Y26.645 ;extruding 
G1 X56.733 Y27.643 ;extruding 
G1 X57.483 Y28.720 ;extruding 
G1 X57.602 Y28.865 ;extruding 
G1 X57.853 Y29.278 ;extruding 
G1 X57.968 Y29.427 ;extruding 
G1 X58.212 Y29.859 ;extruding 
G1 X58.409 Y30.137 ;extruding 
G1 X58.958 Y31.162 ;extruding 
G1 X59.447 Y32.191 ;extruding 
G1 X59.835 Y33.143 ;extruding 
G1 X60.261 Y34.522 ;extruding 
G1 X60.567 Y35.789 ;extruding 
G1 X60.706 Y36.518 ;extruding 
G1 X60.892 Y37.861 ;extruding 
G1 X60.951 Y38.630 ;extruding 
G1 X61.005 Y38.965 ;extruding 
G1 X61.085 Y40.247 ;extruding 
G1 X61.086 Y41.324 ;extruding 
G1 X61.021 Y42.514 ;extruding 
G1 X60.939 Y43.177 ;extruding 
G1 X60.916 Y43.618 ;extruding 
G1 X60.799 Y44.442 ;extruding 
G1 X60.444 Y46.179 ;extruding 
G1 X60.333 Y46.574 ;extruding 
G1 X59.916 Y47.805 ;extruding 
G1 X59.644 Y48.499 ;extruding 
G1 X59.065 Y49.776 ;extruding 
G1 X58.731 Y50.425 ;extruding 
G1 X58.370 Y51.071 ;extruding 
G1 X58.240 Y51.252 ;extruding 
G1 X58.006 Y51.650 ;extruding 
G1 X57.839 Y51.975 ;extruding 
G1 X57.149 Y53.057 ;extruding 
G1 X56.514 Y53.938 ;extruding 
G1 X55.939 Y54.627 ;extruding 
G1 X55.820 Y54.801 ;extruding 
G1 X55.317 Y55.339 ;extruding 
G1 X55.045 Y55.679 ;extruding 
G1 X54.476 Y56.272 ;extruding 
G1 X53.646 Y57.057 ;extruding 
G1 X52.859 Y57.721 ;extruding 
G1 X51.683 Y58.550 ;extruding 
G1 X50.835 Y59.079 ;extruding 
G1 X49.920 Y59.592 ;extruding 
G1 X48.690 Y60.189 ;extruding 
G1 X47.974 Y60.484 ;extruding 
G1 X47.668 Y60.641 ;extruding 
G1 X46.458 Y61.119 ;extruding 
G1 X44.969 Y61.581 ;extruding 
G1 X44.563 Y61.676 ;extruding 
G1 X44.386 Y61.740 ;extruding 
G1 X43.899 Y61.838 ;extruding 
G1 X43.574 Y61.941 ;extruding 
G1 X42.429 Y62.145 ;extruding 
G1 X41.315 Y62.290 ;extruding 
G1 X40.635 Y62.351 ;extruding 
G1 X40.244 Y62.367 ;extruding 
G1 X38.842 Y62.346 ;extruding 
G1 X37.948 Y62.287 ;extruding 
G1 X36.805 Y62.154 ;extruding 
G1 X35.461 Y61.915 ;extruding 
G1 X34.712 Y61.733 ;extruding 
G1 X34.376 Y61.681 ;extruding 
G1 X33.131 Y61.360 ;extruding 
G1 X32.106 Y61.028 ;extruding 
G1 X30.996 Y60.598 ;extruding 
G1 X30.412 Y60.325 ;extruding 
G1 X30.064 Y60.201 ;extruding 
G1 X29.394 Y59.847 ;extruding 
G1 X29.054 Y59.704 ;extruding 
G1 X27.671 Y58.899 ;extruding 
G1 X27.112 Y58.513 ;extruding 
G1 X26.297 Y57.897 ;extruding 
G1 X25.453 Y57.185 ;extruding 
G1 X24.683 Y56.471 ;extruding 
G1 X23.688 Y55.430 ;extruding 
G1 X23.559 Y55.251 ;extruding 
G1 X22.968 Y54.609 ;extruding 
G1 X22.175 Y53.643 ;extruding 
G1 X21.542 Y52.776 ;extruding 
G1 X20.895 Y51.776 ;extruding 
G1 X20.586 Y51.218 ;extruding 
G1 X20.375 Y50.916 ;extruding 
G1 X20.040 Y50.236 ;extruding 
G1 X19.848 Y49.924 ;extruding 
G1 X19.203 Y48.468 ;extruding 
G1 X19.063 Y48.088 ;extruding 
G1 X18.649 Y46.744 ;extruding 
G1 X18.430 Y45.881 ;extruding 
G1 X18.300 Y45.252 ;extruding 
G1 X18.278 Y45.024 ;extruding 
G1 X18.072 Y43.861 ;extruding 
G1 X18.070 Y43.611 ;extruding 
G1 X17.902 Y42.236 ;extruding 
G1 X17.826 Y40.986 ;extruding 
G1 X17.822 Y39.900 ;extruding 
G1 X17.882 Y39.007 ;extruding 
G1 X17.876 Y38.797 ;extruding 
G1 X17.969 Y38.044 ;extruding 
G1 X18.023 Y37.273 ;extruding 
G1 X18.178 Y36.353 ;extruding 
G1 X18.453 Y35.060 ;extruding 
G1 X18.563 Y34.670 ;extruding 
G1 X19.018 Y33.338 ;extruding 
G1 X19.392 Y32.412 ;extruding 
G1 X19.830 Y31.461 ;extruding 
G1 X20.502 Y30.205 ;extruding 
G1 X20.637 Y30.013 ;extruding 
G1 X20.872 Y29.614 ;extruding 
G1 X21.035 Y29.293 ;extruding 
G1 X21.729 Y28.202 ;extruding 
G1 X22.522 Y27.155 ;extruding 
G1 X22.623 Y26.998 ;extruding 
G1 X22.939 Y26.632 ;extruding 
G1 X23.044 Y26.477 ;extruding 
G1 X23.380 Y26.112 ;extruding 
G1 X23.583 Y25.839 ;extruding 
G1 X24.327 Y25.067 ;extruding 
FILEWRITE $hFile"\x05\x02\x30\x34\x44\x49\x20\x20\x43\x46\x03"
G1 X24.664 Y25.283 ;not extruding 
FILEWRITE $hFile"\x05\x02\x30\x34\x44\x49\x20\x20\x43\x46\x03"
DWELL 0.15
G1 X25.468 Y24.523 ;extruding 
G1 X25.982 Y24.074 ;extruding 
G1 X26.810 Y23.457 ;extruding 
G1 X27.313 Y23.112 ;extruding 
G1 X28.219 Y22.545 ;extruding 
G1 X29.115 Y22.044 ;extruding 
G1 X30.366 Y21.438 ;extruding 
G1 X30.578 Y21.368 ;extruding 
G1 X31.338 Y21.014 ;extruding 
G1 X32.501 Y20.556 ;extruding 
G1 X33.502 Y20.229 ;extruding 
G1 X34.630 Y19.930 ;extruding 
G1 X35.286 Y19.802 ;extruding 
G1 X35.709 Y19.690 ;extruding 
G1 X36.501 Y19.551 ;extruding 
G1 X38.236 Y19.355 ;extruding 
G1 X38.622 Y19.340 ;extruding 
G1 X39.902 Y19.355 ;extruding 
G1 X40.626 Y19.399 ;extruding 
G1 X42.000 Y19.552 ;extruding 
G1 X42.704 Y19.667 ;extruding 
G1 X43.402 Y19.805 ;extruding 
G1 X43.610 Y19.871 ;extruding 
G1 X44.089 Y19.977 ;extruding 
G1 X44.443 Y20.034 ;extruding 
G1 X45.657 Y20.348 ;extruding 
G1 X46.667 Y20.673 ;extruding 
G1 X47.503 Y21.008 ;extruding 
G1 X47.696 Y21.065 ;extruding 
G1 X48.349 Y21.370 ;extruding 
G1 X48.754 Y21.523 ;extruding 
G1 X49.470 Y21.869 ;extruding 
G1 X50.444 Y22.401 ;extruding 
G1 X51.324 Y22.949 ;extruding 
G1 X52.435 Y23.781 ;extruding 
G1 X53.185 Y24.410 ;extruding 
G1 X53.940 Y25.108 ;extruding 
G1 X54.872 Y26.076 ;extruding 
G1 X55.376 Y26.669 ;extruding 
G1 X55.617 Y26.909 ;extruding 
G1 X56.422 Y27.883 ;extruding 
G1 X56.941 Y28.607 ;extruding 
G1 X57.166 Y28.953 ;extruding 
G1 X57.281 Y29.093 ;extruding 
G1 X57.528 Y29.501 ;extruding 
G1 X57.640 Y29.645 ;extruding 
G1 X57.880 Y30.070 ;extruding 
G1 X58.075 Y30.344 ;extruding 
G1 X58.607 Y31.339 ;extruding 
G1 X59.087 Y32.350 ;extruding 
G1 X59.465 Y33.275 ;extruding 
G1 X59.882 Y34.626 ;extruding 
G1 X60.184 Y35.872 ;extruding 
G1 X60.318 Y36.582 ;extruding 
G1 X60.501 Y37.903 ;extruding 
G1 X60.561 Y38.676 ;extruding 
G1 X60.614 Y39.009 ;extruding 
G1 X60.692 Y40.260 ;extruding 
G1 X60.694 Y41.314 ;extruding 
G1 X60.630 Y42.479 ;extruding 
G1 X60.548 Y43.143 ;extruding 
G1 X60.524 Y43.580 ;extruding 
G1 X60.412 Y44.375 ;extruding 
G1 X60.062 Y46.086 ;extruding 
G1 X59.957 Y46.458 ;extruding 
G1 X59.547 Y47.670 ;extruding 
G1 X59.282 Y48.346 ;extruding 
G1 X58.712 Y49.605 ;extruding 
G1 X58.385 Y50.239 ;extruding 
G1 X58.038 Y50.860 ;extruding 
G1 X57.911 Y51.037 ;extruding 
G1 X57.662 Y51.461 ;extruding 
G1 X57.498 Y51.779 ;extruding 
G1 X56.824 Y52.837 ;extruding 
G1 X56.203 Y53.697 ;extruding 
G1 X55.626 Y54.389 ;extruding 
G1 X55.513 Y54.554 ;extruding 
G1 X55.020 Y55.082 ;extruding 
G1 X54.750 Y55.420 ;extruding 
G1 X54.199 Y55.993 ;extruding 
G1 X53.384 Y56.764 ;extruding 
G1 X52.619 Y57.410 ;extruding 
G1 X51.465 Y58.222 ;extruding 
G1 X50.635 Y58.741 ;extruding 
G1 X49.738 Y59.244 ;extruding 
G1 X48.529 Y59.831 ;extruding 
G1 X47.809 Y60.127 ;extruding 
G1 X47.506 Y60.282 ;extruding 
G1 X46.327 Y60.748 ;extruding 
G1 X44.866 Y61.202 ;extruding 
G1 X44.451 Y61.299 ;extruding 
G1 X44.280 Y61.361 ;extruding 
G1 X43.801 Y61.457 ;extruding 
G1 X43.480 Y61.558 ;extruding 
G1 X42.370 Y61.757 ;extruding 
G1 X41.272 Y61.900 ;extruding 
G1 X40.610 Y61.959 ;extruding 
G1 X40.239 Y61.974 ;extruding 
G1 X38.858 Y61.954 ;extruding 
G1 X37.984 Y61.896 ;extruding 
G1 X36.862 Y61.766 ;extruding 
G1 X35.541 Y61.530 ;extruding 
G1 X34.788 Y61.348 ;extruding 
G1 X34.455 Y61.296 ;extruding 
G1 X33.241 Y60.983 ;extruding 
G1 X32.238 Y60.658 ;extruding 
G1 X31.150 Y60.237 ;extruding 
G1 X30.561 Y59.961 ;extruding 
G1 X30.222 Y59.840 ;extruding 
G1 X29.562 Y59.492 ;extruding 
G1 X29.230 Y59.352 ;extruding 
G1 X27.882 Y58.567 ;extruding 
G1 X27.343 Y58.194 ;extruding 
G1 X26.542 Y57.590 ;extruding 
G1 X25.714 Y56.891 ;extruding 
G1 X24.959 Y56.191 ;extruding 
G1 X23.990 Y55.178 ;extruding 
G1 X23.863 Y55.002 ;extruding 
G1 X23.265 Y54.351 ;extruding 
G1 X22.485 Y53.403 ;extruding 
G1 X21.866 Y52.554 ;extruding 
G1 X21.232 Y51.574 ;extruding 
G1 X20.920 Y51.010 ;extruding 
G1 X20.714 Y50.716 ;extruding 
G1 X20.384 Y50.045 ;extruding 
G1 X20.196 Y49.741 ;extruding 
G1 X19.567 Y48.320 ;extruding 
G1 X19.435 Y47.962 ;extruding 
G1 X19.027 Y46.638 ;extruding 
G1 X18.812 Y45.793 ;extruding 
G1 X18.689 Y45.193 ;extruding 
G1 X18.668 Y44.971 ;extruding 
G1 X18.465 Y43.824 ;extruding 
G1 X18.462 Y43.585 ;extruding 
G1 X18.294 Y42.200 ;extruding 
G1 X18.218 Y40.973 ;extruding 
G1 X18.214 Y39.913 ;extruding 
G1 X18.275 Y39.015 ;extruding 
G1 X18.269 Y38.816 ;extruding 
G1 X18.360 Y38.082 ;extruding 
G1 X18.413 Y37.320 ;extruding 
G1 X18.564 Y36.426 ;extruding 
G1 X18.835 Y35.154 ;extruding 
G1 X18.938 Y34.786 ;extruding 
G1 X19.386 Y33.475 ;extruding 
G1 X19.752 Y32.568 ;extruding 
G1 X20.182 Y31.636 ;extruding 
G1 X20.837 Y30.411 ;extruding 
G1 X20.967 Y30.227 ;extruding 
G1 X21.217 Y29.803 ;extruding 
G1 X21.377 Y29.488 ;extruding 
G1 X22.053 Y28.424 ;extruding 
G1 X22.939 Y27.234 ;extruding 
G1 X23.251 Y26.872 ;extruding 
G1 X23.353 Y26.722 ;extruding 
G1 X23.683 Y26.363 ;extruding 
G1 X23.884 Y26.093 ;extruding 
G1 X24.604 Y25.346 ;extruding 
FILEWRITE $hFile"\x05\x02\x30\x34\x44\x49\x20\x20\x43\x46\x03"
G1 X24.941 Y25.562 ;not extruding 
FILEWRITE $hFile"\x05\x02\x30\x34\x44\x49\x20\x20\x43\x46\x03"
DWELL 0.15
G1 X25.732 Y24.814 ;extruding 
G1 X26.229 Y24.380 ;extruding 
G1 X27.039 Y23.776 ;extruding 
G1 X27.528 Y23.440 ;extruding 
G1 X28.419 Y22.883 ;extruding 
G1 X29.296 Y22.392 ;extruding 
G1 X30.514 Y21.803 ;extruding 
G1 X30.718 Y21.735 ;extruding 
G1 X31.192 Y21.529 ;extruding 
G1 X31.499 Y21.373 ;extruding 
G1 X32.634 Y20.926 ;extruding 
G1 X33.613 Y20.606 ;extruding 
G1 X34.718 Y20.313 ;extruding 
G1 X35.374 Y20.185 ;extruding 
G1 X35.794 Y20.074 ;extruding 
G1 X36.557 Y19.940 ;extruding 
G1 X38.266 Y19.747 ;extruding 
G1 X38.627 Y19.732 ;extruding 
G1 X39.888 Y19.748 ;extruding 
G1 X40.593 Y19.790 ;extruding 
G1 X41.946 Y19.941 ;extruding 
G1 X42.634 Y20.054 ;extruding 
G1 X43.304 Y20.186 ;extruding 
G1 X43.508 Y20.251 ;extruding 
G1 X44.015 Y20.363 ;extruding 
G1 X44.362 Y20.419 ;extruding 
G1 X45.548 Y20.726 ;extruding 
G1 X46.534 Y21.043 ;extruding 
G1 X47.374 Y21.380 ;extruding 
G1 X47.556 Y21.433 ;extruding 
G1 X48.197 Y21.732 ;extruding 
G1 X48.599 Y21.884 ;extruding 
G1 X49.290 Y22.219 ;extruding 
G1 X50.249 Y22.742 ;extruding 
G1 X51.097 Y23.270 ;extruding 
G1 X52.191 Y24.089 ;extruding 
G1 X52.925 Y24.705 ;extruding 
G1 X53.665 Y25.388 ;extruding 
G1 X54.580 Y26.340 ;extruding 
G1 X55.088 Y26.936 ;extruding 
G1 X55.327 Y27.174 ;extruding 
G1 X56.110 Y28.122 ;extruding 
G1 X56.959 Y29.320 ;extruding 
G1 X57.204 Y29.724 ;extruding 
G1 X57.312 Y29.863 ;extruding 
G1 X57.548 Y30.281 ;extruding 
G1 X57.741 Y30.552 ;extruding 
G1 X58.256 Y31.516 ;extruding 
G1 X58.728 Y32.508 ;extruding 
G1 X59.095 Y33.408 ;extruding 
G1 X59.503 Y34.730 ;extruding 
G1 X59.800 Y35.955 ;extruding 
G1 X59.931 Y36.646 ;extruding 
G1 X60.111 Y37.945 ;extruding 
G1 X60.170 Y38.722 ;extruding 
G1 X60.223 Y39.052 ;extruding 
G1 X60.299 Y40.272 ;extruding 
G1 X60.301 Y41.303 ;extruding 
G1 X60.239 Y42.444 ;extruding 
G1 X60.157 Y43.108 ;extruding 
G1 X60.133 Y43.541 ;extruding 
G1 X60.025 Y44.308 ;extruding 
G1 X59.680 Y45.994 ;extruding 
G1 X59.582 Y46.342 ;extruding 
G1 X59.178 Y47.536 ;extruding 
G1 X58.920 Y48.193 ;extruding 
G1 X58.358 Y49.434 ;extruding 
G1 X58.038 Y50.054 ;extruding 
G1 X57.706 Y50.649 ;extruding 
G1 X57.581 Y50.823 ;extruding 
G1 X57.318 Y51.271 ;extruding 
G1 X57.157 Y51.584 ;extruding 
G1 X56.499 Y52.616 ;extruding 
G1 X55.893 Y53.457 ;extruding 
G1 X55.313 Y54.152 ;extruding 
G1 X55.206 Y54.308 ;extruding 
G1 X54.723 Y54.825 ;extruding 
G1 X54.454 Y55.160 ;extruding 
G1 X53.923 Y55.714 ;extruding 
G1 X53.123 Y56.471 ;extruding 
G1 X52.379 Y57.098 ;extruding 
G1 X51.248 Y57.895 ;extruding 
G1 X50.435 Y58.403 ;extruding 
G1 X49.556 Y58.896 ;extruding 
G1 X48.369 Y59.472 ;extruding 
G1 X47.644 Y59.770 ;extruding 
G1 X47.344 Y59.924 ;extruding 
G1 X46.197 Y60.378 ;extruding 
G1 X44.762 Y60.822 ;extruding 
G1 X44.339 Y60.922 ;extruding 
G1 X44.174 Y60.982 ;extruding 
G1 X43.703 Y61.076 ;extruding 
G1 X43.386 Y61.176 ;extruding 
G1 X42.310 Y61.369 ;extruding 
G1 X41.229 Y61.509 ;extruding 
G1 X40.585 Y61.567 ;extruding 
G1 X40.234 Y61.581 ;extruding 
G1 X38.873 Y61.561 ;extruding 
G1 X38.019 Y61.505 ;extruding 
G1 X36.919 Y61.377 ;extruding 
G1 X35.622 Y61.146 ;extruding 
G1 X34.865 Y60.962 ;extruding 
G1 X34.534 Y60.911 ;extruding 
G1 X33.350 Y60.606 ;extruding 
G1 X32.369 Y60.288 ;extruding 
G1 X31.304 Y59.875 ;extruding 
G1 X30.711 Y59.598 ;extruding 
G1 X30.381 Y59.480 ;extruding 
G1 X29.730 Y59.137 ;extruding 
G1 X29.406 Y59.000 ;extruding 
G1 X28.093 Y58.236 ;extruding 
G1 X27.573 Y57.876 ;extruding 
G1 X26.787 Y57.283 ;extruding 
G1 X25.974 Y56.597 ;extruding 
G1 X25.235 Y55.911 ;extruding 
G1 X24.293 Y54.926 ;extruding 
G1 X24.168 Y54.753 ;extruding 
G1 X23.561 Y54.093 ;extruding 
G1 X22.796 Y53.162 ;extruding 
G1 X22.189 Y52.331 ;extruding 
G1 X21.569 Y51.372 ;extruding 
G1 X21.253 Y50.802 ;extruding 
G1 X21.053 Y50.515 ;extruding 
G1 X20.728 Y49.855 ;extruding 
G1 X20.544 Y49.557 ;extruding 
G1 X19.931 Y48.173 ;extruding 
G1 X19.807 Y47.836 ;extruding 
G1 X19.405 Y46.532 ;extruding 
G1 X19.195 Y45.705 ;extruding 
G1 X19.078 Y45.134 ;extruding 
G1 X19.057 Y44.918 ;extruding 
G1 X18.857 Y43.788 ;extruding 
G1 X18.855 Y43.560 ;extruding 
G1 X18.685 Y42.164 ;extruding 
G1 X18.611 Y40.961 ;extruding 
G1 X18.607 Y39.925 ;extruding 
G1 X18.668 Y39.023 ;extruding 
G1 X18.663 Y38.834 ;extruding 
G1 X18.751 Y38.120 ;extruding 
G1 X18.804 Y37.366 ;extruding 
G1 X18.950 Y36.500 ;extruding 
G1 X19.216 Y35.248 ;extruding 
G1 X19.313 Y34.903 ;extruding 
G1 X19.754 Y33.613 ;extruding 
G1 X20.113 Y32.724 ;extruding 
G1 X20.534 Y31.811 ;extruding 
G1 X21.171 Y30.618 ;extruding 
G1 X21.298 Y30.440 ;extruding 
G1 X21.561 Y29.992 ;extruding 
G1 X21.718 Y29.682 ;extruding 
G1 X22.377 Y28.646 ;extruding 
G1 X23.254 Y27.469 ;extruding 
G1 X23.563 Y27.111 ;extruding 
G1 X23.661 Y26.967 ;extruding 
G1 X23.986 Y26.613 ;extruding 
G1 X24.184 Y26.348 ;extruding 
G1 X24.880 Y25.625 ;extruding 
FILEWRITE $hFile"\x05\x02\x30\x34\x44\x49\x20\x20\x43\x46\x03"
G1 X25.217 Y25.841 ;not extruding 
FILEWRITE $hFile"\x05\x02\x30\x34\x44\x49\x20\x20\x43\x46\x03"
DWELL 0.15
G1 X25.996 Y25.105 ;extruding 
G1 X26.476 Y24.686 ;extruding 
G1 X27.267 Y24.096 ;extruding 
G1 X27.743 Y23.768 ;extruding 
G1 X28.619 Y23.221 ;extruding 
G1 X29.478 Y22.740 ;extruding 
G1 X30.661 Y22.168 ;extruding 
G1 X30.858 Y22.103 ;extruding 
G1 X31.359 Y21.884 ;extruding 
G1 X31.660 Y21.731 ;extruding 
G1 X32.767 Y21.296 ;extruding 
G1 X33.725 Y20.983 ;extruding 
G1 X34.806 Y20.696 ;extruding 
G1 X35.462 Y20.568 ;extruding 
G1 X35.878 Y20.458 ;extruding 
G1 X36.613 Y20.329 ;extruding 
G1 X38.296 Y20.138 ;extruding 
G1 X38.633 Y20.125 ;extruding 
G1 X39.873 Y20.140 ;extruding 
G1 X40.559 Y20.182 ;extruding 
G1 X41.893 Y20.330 ;extruding 
G1 X43.206 Y20.567 ;extruding 
G1 X43.406 Y20.630 ;extruding 
G1 X43.941 Y20.749 ;extruding 
G1 X44.281 Y20.804 ;extruding 
G1 X45.438 Y21.103 ;extruding 
G1 X46.401 Y21.412 ;extruding 
G1 X47.245 Y21.751 ;extruding 
G1 X47.416 Y21.801 ;extruding 
G1 X48.044 Y22.095 ;extruding 
G1 X48.444 Y22.245 ;extruding 
G1 X49.111 Y22.568 ;extruding 
G1 X50.054 Y23.083 ;extruding 
G1 X50.870 Y23.590 ;extruding 
G1 X51.947 Y24.396 ;extruding 
G1 X52.666 Y25.000 ;extruding 
G1 X53.390 Y25.669 ;extruding 
G1 X54.289 Y26.603 ;extruding 
G1 X54.799 Y27.203 ;extruding 
G1 X55.036 Y27.439 ;extruding 
G1 X55.799 Y28.362 ;extruding 
G1 X56.638 Y29.547 ;extruding 
G1 X56.880 Y29.947 ;extruding 
G1 X56.984 Y30.081 ;extruding 
G1 X57.216 Y30.492 ;extruding 
G1 X57.406 Y30.759 ;extruding 
G1 X57.906 Y31.693 ;extruding 
G1 X58.368 Y32.667 ;extruding 
G1 X58.725 Y33.540 ;extruding 
G1 X59.124 Y34.834 ;extruding 
G1 X59.416 Y36.038 ;extruding 
G1 X59.543 Y36.709 ;extruding 
G1 X59.720 Y37.987 ;extruding 
G1 X59.780 Y38.768 ;extruding 
G1 X59.833 Y39.096 ;extruding 
G1 X59.907 Y40.285 ;extruding 
G1 X59.908 Y41.293 ;extruding 
G1 X59.847 Y42.410 ;extruding 
G1 X59.765 Y43.073 ;extruding 
G1 X59.742 Y43.503 ;extruding 
G1 X59.637 Y44.241 ;extruding 
G1 X59.298 Y45.901 ;extruding 
G1 X59.207 Y46.225 ;extruding 
G1 X58.809 Y47.401 ;extruding 
G1 X58.558 Y48.040 ;extruding 
G1 X58.005 Y49.263 ;extruding 
G1 X57.373 Y50.439 ;extruding 
G1 X57.252 Y50.609 ;extruding 
G1 X56.974 Y51.082 ;extruding 
G1 X56.816 Y51.388 ;extruding 
G1 X56.174 Y52.396 ;extruding 
G1 X55.582 Y53.216 ;extruding 
G1 X54.999 Y53.914 ;extruding 
G1 X54.898 Y54.061 ;extruding 
G1 X54.426 Y54.568 ;extruding 
G1 X54.159 Y54.901 ;extruding 
G1 X53.646 Y55.436 ;extruding 
G1 X52.861 Y56.178 ;extruding 
G1 X52.139 Y56.787 ;extruding 
G1 X51.031 Y57.568 ;extruding 
G1 X50.234 Y58.065 ;extruding 
G1 X49.374 Y58.547 ;extruding 
G1 X48.208 Y59.114 ;extruding 
G1 X47.480 Y59.413 ;extruding 
G1 X47.182 Y59.566 ;extruding 
G1 X46.066 Y60.007 ;extruding 
G1 X44.659 Y60.443 ;extruding 
G1 X44.227 Y60.545 ;extruding 
G1 X44.068 Y60.602 ;extruding 
G1 X43.605 Y60.696 ;extruding 
G1 X43.292 Y60.794 ;extruding 
G1 X42.250 Y60.980 ;extruding 
G1 X41.186 Y61.119 ;extruding 
G1 X40.559 Y61.175 ;extruding 
G1 X40.229 Y61.188 ;extruding 
G1 X38.889 Y61.169 ;extruding 
G1 X38.055 Y61.114 ;extruding 
G1 X36.976 Y60.988 ;extruding 
G1 X35.703 Y60.761 ;extruding 
G1 X34.941 Y60.577 ;extruding 
G1 X34.614 Y60.526 ;extruding 
G1 X33.460 Y60.228 ;extruding 
G1 X32.501 Y59.918 ;extruding 
G1 X31.459 Y59.514 ;extruding 
G1 X30.860 Y59.234 ;extruding 
G1 X30.539 Y59.120 ;extruding 
G1 X29.898 Y58.781 ;extruding 
G1 X29.581 Y58.648 ;extruding 
G1 X28.304 Y57.904 ;extruding 
G1 X27.803 Y57.557 ;extruding 
G1 X27.032 Y56.976 ;extruding 
G1 X26.234 Y56.302 ;extruding 
G1 X25.510 Y55.631 ;extruding 
G1 X24.595 Y54.674 ;extruding 
G1 X24.473 Y54.504 ;extruding 
G1 X23.858 Y53.836 ;extruding 
G1 X23.107 Y52.921 ;extruding 
G1 X22.513 Y52.108 ;extruding 
G1 X21.906 Y51.170 ;extruding 
G1 X21.587 Y50.594 ;extruding 
G1 X21.393 Y50.315 ;extruding 
G1 X21.072 Y49.665 ;extruding 
G1 X20.893 Y49.374 ;extruding 
G1 X20.295 Y48.025 ;extruding 
G1 X20.179 Y47.711 ;extruding 
G1 X19.783 Y46.426 ;extruding 
G1 X19.578 Y45.617 ;extruding 
G1 X19.467 Y45.076 ;extruding 
G1 X19.446 Y44.865 ;extruding 
G1 X19.249 Y43.752 ;extruding 
G1 X19.247 Y43.534 ;extruding 
G1 X19.076 Y42.129 ;extruding 
G1 X19.004 Y40.948 ;extruding 
G1 X19.000 Y39.938 ;extruding 
G1 X19.061 Y39.030 ;extruding 
G1 X19.056 Y38.853 ;extruding 
G1 X19.142 Y38.157 ;extruding 
G1 X19.194 Y37.413 ;extruding 
G1 X19.336 Y36.574 ;extruding 
G1 X19.598 Y35.343 ;extruding 
G1 X19.689 Y35.020 ;extruding 
G1 X20.122 Y33.750 ;extruding 
G1 X20.474 Y32.880 ;extruding 
G1 X20.886 Y31.985 ;extruding 
G1 X21.506 Y30.825 ;extruding 
G1 X21.628 Y30.654 ;extruding 
G1 X21.906 Y30.180 ;extruding 
G1 X22.060 Y29.877 ;extruding 
G1 X22.701 Y28.869 ;extruding 
G1 X23.569 Y27.705 ;extruding 
G1 X23.875 Y27.351 ;extruding 
G1 X23.970 Y27.212 ;extruding 
G1 X24.289 Y26.864 ;extruding 
G1 X24.484 Y26.602 ;extruding 
G1 X25.157 Y25.904 ;extruding 
FILEWRITE $hFile"\x05\x02\x30\x34\x44\x49\x20\x20\x43\x46\x03"
G1 X25.493 Y26.120 ;not extruding 
FILEWRITE $hFile"\x05\x02\x30\x34\x44\x49\x20\x20\x43\x46\x03"
DWELL 0.15
G1 X26.260 Y25.395 ;extruding 
G1 X26.723 Y24.992 ;extruding 
G1 X27.496 Y24.415 ;extruding 
G1 X27.959 Y24.097 ;extruding 
G1 X28.819 Y23.559 ;extruding 
G1 X29.660 Y23.089 ;extruding 
G1 X30.809 Y22.533 ;extruding 
G1 X30.999 Y22.470 ;extruding 
G1 X31.527 Y22.239 ;extruding 
G1 X31.821 Y22.090 ;extruding 
G1 X32.900 Y21.665 ;extruding 
G1 X33.836 Y21.359 ;extruding 
G1 X34.894 Y21.079 ;extruding 
G1 X35.550 Y20.951 ;extruding 
G1 X35.963 Y20.841 ;extruding 
G1 X36.669 Y20.718 ;extruding 
G1 X38.326 Y20.530 ;extruding 
G1 X38.638 Y20.518 ;extruding 
G1 X39.859 Y20.533 ;extruding 
G1 X40.526 Y20.573 ;extruding 
G1 X41.839 Y20.719 ;extruding 
G1 X43.108 Y20.948 ;extruding 
G1 X43.304 Y21.010 ;extruding 
G1 X43.868 Y21.135 ;extruding 
G1 X44.200 Y21.188 ;extruding 
G1 X45.329 Y21.480 ;extruding 
G1 X46.267 Y21.782 ;extruding 
G1 X47.116 Y22.122 ;extruding 
G1 X47.277 Y22.170 ;extruding 
G1 X47.891 Y22.457 ;extruding 
G1 X48.289 Y22.607 ;extruding 
G1 X48.931 Y22.917 ;extruding 
G1 X49.859 Y23.424 ;extruding 
G1 X50.643 Y23.911 ;extruding 
G1 X51.702 Y24.704 ;extruding 
G1 X52.406 Y25.295 ;extruding 
G1 X53.115 Y25.949 ;extruding 
G1 X53.998 Y26.867 ;extruding 
G1 X54.511 Y27.470 ;extruding 
G1 X54.746 Y27.704 ;extruding 
G1 X55.488 Y28.602 ;extruding 
G1 X56.317 Y29.775 ;extruding 
G1 X56.556 Y30.170 ;extruding 
G1 X56.656 Y30.299 ;extruding 
G1 X56.884 Y30.703 ;extruding 
G1 X57.072 Y30.966 ;extruding 
G1 X57.555 Y31.870 ;extruding 
G1 X58.009 Y32.825 ;extruding 
G1 X58.354 Y33.673 ;extruding 
G1 X58.745 Y34.938 ;extruding 
G1 X59.032 Y36.121 ;extruding 
G1 X59.156 Y36.773 ;extruding 
G1 X59.330 Y38.029 ;extruding 
G1 X59.390 Y38.815 ;extruding 
G1 X59.442 Y39.139 ;extruding 
G1 X59.514 Y40.297 ;extruding 
G1 X59.515 Y41.283 ;extruding 
G1 X59.456 Y42.375 ;extruding 
G1 X59.374 Y43.039 ;extruding 
G1 X59.351 Y43.465 ;extruding 
G1 X59.250 Y44.175 ;extruding 
G1 X58.917 Y45.808 ;extruding 
G1 X58.832 Y46.109 ;extruding 
G1 X58.440 Y47.266 ;extruding 
G1 X58.196 Y47.887 ;extruding 
G1 X57.651 Y49.091 ;extruding 
G1 X57.041 Y50.228 ;extruding 
G1 X56.922 Y50.395 ;extruding 
G1 X56.629 Y50.892 ;extruding 
G1 X56.475 Y51.192 ;extruding 
G1 X55.849 Y52.175 ;extruding 
G1 X55.272 Y52.975 ;extruding 
G1 X54.686 Y53.677 ;extruding 
G1 X54.591 Y53.815 ;extruding 
G1 X54.129 Y54.311 ;extruding 
G1 X53.863 Y54.642 ;extruding 
G1 X53.369 Y55.157 ;extruding 
G1 X52.599 Y55.885 ;extruding 
G1 X51.899 Y56.476 ;extruding 
G1 X50.813 Y57.241 ;extruding 
G1 X50.034 Y57.727 ;extruding 
G1 X49.193 Y58.199 ;extruding 
G1 X48.047 Y58.755 ;extruding 
G1 X47.315 Y59.057 ;extruding 
G1 X47.020 Y59.208 ;extruding 
G1 X45.936 Y59.636 ;extruding 
G1 X44.556 Y60.064 ;extruding 
G1 X44.115 Y60.168 ;extruding 
G1 X43.962 Y60.223 ;extruding 
G1 X43.507 Y60.315 ;extruding 
G1 X43.198 Y60.412 ;extruding 
G1 X42.190 Y60.592 ;extruding 
G1 X41.143 Y60.728 ;extruding 
G1 X40.534 Y60.783 ;extruding 
G1 X40.224 Y60.796 ;extruding 
G1 X38.905 Y60.776 ;extruding 
G1 X38.090 Y60.723 ;extruding 
G1 X37.033 Y60.600 ;extruding 
G1 X35.784 Y60.377 ;extruding 
G1 X35.018 Y60.191 ;extruding 
G1 X34.693 Y60.141 ;extruding 
G1 X33.569 Y59.851 ;extruding 
G1 X32.632 Y59.547 ;extruding 
G1 X31.613 Y59.152 ;extruding 
G1 X31.010 Y58.871 ;extruding 
G1 X30.698 Y58.759 ;extruding 
G1 X30.066 Y58.426 ;extruding 
G1 X29.757 Y58.296 ;extruding 
G1 X28.515 Y57.572 ;extruding 
G1 X28.033 Y57.239 ;extruding 
G1 X27.277 Y56.669 ;extruding 
G1 X26.495 Y56.008 ;extruding 
G1 X25.786 Y55.351 ;extruding 
G1 X24.898 Y54.422 ;extruding 
G1 X24.777 Y54.255 ;extruding 
G1 X24.154 Y53.578 ;extruding 
G1 X23.417 Y52.681 ;extruding 
G1 X22.837 Y51.886 ;extruding 
G1 X22.243 Y50.968 ;extruding 
G1 X21.921 Y50.386 ;extruding 
G1 X21.732 Y50.115 ;extruding 
G1 X21.416 Y49.474 ;extruding 
G1 X21.241 Y49.190 ;extruding 
G1 X20.659 Y47.877 ;extruding 
G1 X20.551 Y47.585 ;extruding 
G1 X20.161 Y46.320 ;extruding 
G1 X19.961 Y45.529 ;extruding 
G1 X19.856 Y45.017 ;extruding 
G1 X19.836 Y44.812 ;extruding 
G1 X19.642 Y43.715 ;extruding 
G1 X19.640 Y43.508 ;extruding 
G1 X19.467 Y42.093 ;extruding 
G1 X19.396 Y40.935 ;extruding 
G1 X19.393 Y39.950 ;extruding 
G1 X19.454 Y39.038 ;extruding 
G1 X19.449 Y38.871 ;extruding 
G1 X19.533 Y38.195 ;extruding 
G1 X19.584 Y37.459 ;extruding 
G1 X19.721 Y36.647 ;extruding 
G1 X19.979 Y35.437 ;extruding 
G1 X20.064 Y35.137 ;extruding 
G1 X20.490 Y33.887 ;extruding 
G1 X20.834 Y33.036 ;extruding 
G1 X21.238 Y32.160 ;extruding 
G1 X21.841 Y31.032 ;extruding 
G1 X21.958 Y30.867 ;extruding 
G1 X22.251 Y30.369 ;extruding 
G1 X22.401 Y30.072 ;extruding 
G1 X23.025 Y29.091 ;extruding 
G1 X23.885 Y27.940 ;extruding 
G1 X24.187 Y27.590 ;extruding 
G1 X24.278 Y27.456 ;extruding 
G1 X24.592 Y27.115 ;extruding 
G1 X24.784 Y26.857 ;extruding 
G1 X25.433 Y26.183 ;extruding 
FILEWRITE $hFile"\x05\x02\x30\x34\x44\x49\x20\x20\x43\x46\x03"
G1 X25.493 Y26.120 ;not extruding 
G1 X35.672 Y18.102 ;not extruding 
FILEWRITE $hFile"\x05\x02\x30\x34\x44\x49\x20\x20\x43\x46\x03"
DWELL 0.15
G1 X35.121 Y16.101 ;extruding 
G1 X34.838 Y14.560 ;extruding 
G1 X34.785 Y14.005 ;extruding 
G1 X34.759 Y13.001 ;extruding 
G1 X34.816 Y12.009 ;extruding 
G1 X34.919 Y11.227 ;extruding 
G1 X35.236 Y11.874 ;extruding 
G1 X35.686 Y13.131 ;extruding 
G1 X35.944 Y14.096 ;extruding 
G1 X36.096 Y14.888 ;extruding 
G1 X36.189 Y16.078 ;extruding 
G1 X36.557 Y17.964 ;extruding 
G1 X35.757 Y18.087 ;extruding 
FILEWRITE $hFile"\x05\x02\x30\x34\x44\x49\x20\x20\x43\x46\x03"
G1 X35.389 Y18.556 ;not extruding 
FILEWRITE $hFile"\x05\x02\x30\x34\x44\x49\x20\x20\x43\x46\x03"
DWELL 0.15
G1 X34.738 Y16.189 ;extruding 
G1 X34.448 Y14.614 ;extruding 
G1 X34.393 Y14.028 ;extruding 
G1 X34.366 Y12.995 ;extruding 
G1 X34.424 Y11.976 ;extruding 
G1 X34.478 Y11.487 ;extruding 
G1 X34.566 Y10.960 ;extruding 
G1 X34.755 Y10.110 ;extruding 
G1 X35.154 Y10.808 ;extruding 
G1 X35.534 Y11.572 ;extruding 
G1 X36.056 Y12.994 ;extruding 
G1 X36.323 Y13.988 ;extruding 
G1 X36.450 Y14.591 ;extruding 
G1 X36.486 Y14.844 ;extruding 
G1 X36.579 Y16.024 ;extruding 
G1 X37.024 Y18.306 ;extruding 
G1 X36.333 Y18.385 ;extruding 
G1 X35.474 Y18.535 ;extruding 
FILEWRITE $hFile"\x05\x02\x30\x34\x44\x49\x20\x20\x43\x46\x03"
G1 X23.721 Y24.013 ;not extruding 
FILEWRITE $hFile"\x05\x02\x30\x34\x44\x49\x20\x20\x43\x46\x03"
DWELL 0.15
G1 X23.229 Y24.509 ;extruding 
G1 X21.518 Y23.215 ;extruding 
G1 X20.746 Y22.512 ;extruding 
G1 X20.032 Y21.736 ;extruding 
G1 X19.433 Y20.964 ;extruding 
G1 X18.849 Y20.058 ;extruding 
G1 X18.550 Y19.509 ;extruding 
G1 X19.258 Y19.903 ;extruding 
G1 X20.117 Y20.485 ;extruding 
G1 X20.921 Y21.141 ;extruding 
G1 X21.664 Y21.864 ;extruding 
G1 X22.303 Y22.612 ;extruding 
G1 X23.659 Y23.952 ;extruding 
FILEWRITE $hFile"\x05\x02\x30\x34\x44\x49\x20\x20\x43\x46\x03"
G1 X24.286 Y24.019 ;not extruding 
FILEWRITE $hFile"\x05\x02\x30\x34\x44\x49\x20\x20\x43\x46\x03"
DWELL 0.15
G1 X23.835 Y24.446 ;extruding 
G1 X23.270 Y25.032 ;extruding 
G1 X21.266 Y23.517 ;extruding 
G1 X20.469 Y22.790 ;extruding 
G1 X19.732 Y21.990 ;extruding 
G1 X19.113 Y21.192 ;extruding 
G1 X18.512 Y20.261 ;extruding 
G1 X18.314 Y19.911 ;extruding 
G1 X18.031 Y19.354 ;extruding 
G1 X17.755 Y18.701 ;extruding 
G1 X18.514 Y19.038 ;extruding 
G1 X19.451 Y19.559 ;extruding 
G1 X20.339 Y20.160 ;extruding 
G1 X21.171 Y20.836 ;extruding 
G1 X21.941 Y21.583 ;extruding 
G1 X22.591 Y22.345 ;extruding 
G1 X24.224 Y23.958 ;extruding 
FILEWRITE $hFile"\x05\x02\x30\x34\x44\x49\x20\x20\x43\x46\x03"
G1 X16.949 Y36.557 ;not extruding 
FILEWRITE $hFile"\x05\x02\x30\x34\x44\x49\x20\x20\x43\x46\x03"
DWELL 0.15
G1 X16.852 Y37.128 ;extruding 
G1 X14.766 Y37.062 ;extruding 
G1 X13.676 Y36.939 ;extruding 
G1 X13.336 Y36.878 ;extruding 
G1 X12.531 Y36.690 ;extruding 
G1 X11.939 Y36.517 ;extruding 
G1 X10.757 Y36.033 ;extruding 
G1 X10.425 Y35.919 ;extruding 
G1 X10.125 Y35.775 ;extruding 
G1 X10.792 Y35.682 ;extruding 
G1 X12.106 Y35.645 ;extruding 
G1 X13.127 Y35.697 ;extruding 
G1 X13.654 Y35.755 ;extruding 
G1 X14.586 Y35.935 ;extruding 
G1 X16.865 Y36.535 ;extruding 
FILEWRITE $hFile"\x05\x02\x30\x34\x44\x49\x20\x20\x43\x46\x03"
G1 X17.396 Y36.269 ;not extruding 
FILEWRITE $hFile"\x05\x02\x30\x34\x44\x49\x20\x20\x43\x46\x03"
DWELL 0.15
G1 X17.242 Y37.180 ;extruding 
G1 X17.217 Y37.533 ;extruding 
G1 X14.737 Y37.454 ;extruding 
G1 X13.620 Y37.327 ;extruding 
G1 X13.257 Y37.263 ;extruding 
G1 X12.431 Y37.070 ;extruding 
G1 X11.809 Y36.889 ;extruding 
G1 X10.098 Y36.204 ;extruding 
G1 X9.638 Y35.965 ;extruding 
G1 X8.993 Y35.582 ;extruding 
G1 X9.756 Y35.428 ;extruding 
G1 X10.770 Y35.290 ;extruding 
G1 X12.093 Y35.250 ;extruding 
G1 X13.140 Y35.303 ;extruding 
G1 X13.712 Y35.366 ;extruding 
G1 X14.674 Y35.552 ;extruding 
G1 X17.312 Y36.247 ;extruding 
FILEWRITE $hFile"\x05\x02\x30\x34\x44\x49\x20\x20\x43\x46\x03"
G1 X19.008 Y50.807 ;not extruding 
FILEWRITE $hFile"\x05\x02\x30\x34\x44\x49\x20\x20\x43\x46\x03"
DWELL 0.15
G1 X19.212 Y51.221 ;extruding 
G1 X16.593 Y52.745 ;extruding 
G1 X16.114 Y52.986 ;extruding 
G1 X15.558 Y53.227 ;extruding 
G1 X14.616 Y53.562 ;extruding 
G1 X13.487 Y53.855 ;extruding 
G1 X12.885 Y53.959 ;extruding 
G1 X13.391 Y53.470 ;extruding 
G1 X14.442 Y52.659 ;extruding 
G1 X15.279 Y52.116 ;extruding 
G1 X15.802 Y51.816 ;extruding 
G1 X16.591 Y51.442 ;extruding 
G1 X18.857 Y50.561 ;extruding 
G1 X18.963 Y50.733 ;extruding 
FILEWRITE $hFile"\x05\x02\x30\x34\x44\x49\x20\x20\x43\x46\x03"
G1 X19.152 Y50.292 ;not extruding 
FILEWRITE $hFile"\x05\x02\x30\x34\x44\x49\x20\x20\x43\x46\x03"
DWELL 0.15
G1 X19.352 Y50.616 ;extruding 
G1 X19.735 Y51.371 ;extruding 
G1 X16.780 Y53.090 ;extruding 
G1 X16.280 Y53.341 ;extruding 
G1 X15.702 Y53.592 ;extruding 
G1 X14.732 Y53.938 ;extruding 
G1 X13.574 Y54.238 ;extruding 
G1 X13.273 Y54.297 ;extruding 
G1 X12.648 Y54.393 ;extruding 
G1 X11.872 Y54.458 ;extruding 
G1 X12.403 Y53.876 ;extruding 
G1 X13.142 Y53.166 ;extruding 
G1 X14.198 Y52.348 ;extruding 
G1 X15.060 Y51.788 ;extruding 
G1 X15.604 Y51.476 ;extruding 
G1 X16.439 Y51.080 ;extruding 
G1 X19.051 Y50.065 ;extruding 
G1 X19.117 Y50.212 ;extruding 
FILEWRITE $hFile"\x05\x02\x30\x34\x44\x49\x20\x20\x43\x46\x03"
G1 X28.527 Y60.761 ;not extruding 
FILEWRITE $hFile"\x05\x02\x30\x34\x44\x49\x20\x20\x43\x46\x03"
DWELL 0.15
G1 X28.889 Y60.913 ;extruding 
G1 X29.231 Y61.093 ;extruding 
G1 X28.501 Y63.050 ;extruding 
G1 X27.827 Y64.459 ;extruding 
G1 X27.544 Y64.938 ;extruding 
G1 X26.977 Y65.764 ;extruding 
G1 X26.347 Y66.533 ;extruding 
G1 X25.813 Y67.096 ;extruding 
G1 X25.938 Y66.385 ;extruding 
G1 X26.311 Y65.109 ;extruding 
G1 X26.671 Y64.173 ;extruding 
G1 X27.017 Y63.438 ;extruding 
G1 X27.638 Y62.423 ;extruding 
G1 X28.452 Y60.717 ;extruding 
FILEWRITE $hFile"\x05\x02\x30\x34\x44\x49\x20\x20\x43\x46\x03"
G1 X28.268 Y60.155 ;not extruding 
FILEWRITE $hFile"\x05\x02\x30\x34\x44\x49\x20\x20\x43\x46\x03"
DWELL 0.15
G1 X28.703 Y60.408 ;extruding 
G1 X29.057 Y60.558 ;extruding 
G1 X29.719 Y60.907 ;extruding 
G1 X28.863 Y63.203 ;extruding 
G1 X28.174 Y64.644 ;extruding 
G1 X27.875 Y65.149 ;extruding 
G1 X27.291 Y66.000 ;extruding 
G1 X26.645 Y66.789 ;extruding 
G1 X26.315 Y67.153 ;extruding 
G1 X25.934 Y67.527 ;extruding 
G1 X25.288 Y68.097 ;extruding 
G1 X25.376 Y67.297 ;extruding 
G1 X25.518 Y66.460 ;extruding 
G1 X25.932 Y65.001 ;extruding 
G1 X26.301 Y64.037 ;extruding 
G1 X26.554 Y63.473 ;extruding 
G1 X26.675 Y63.243 ;extruding 
G1 X27.292 Y62.237 ;extruding 
G1 X28.231 Y60.234 ;extruding 
FILEWRITE $hFile"\x05\x02\x30\x34\x44\x49\x20\x20\x43\x46\x03"
G1 X42.366 Y63.341 ;not extruding 
FILEWRITE $hFile"\x05\x02\x30\x34\x44\x49\x20\x20\x43\x46\x03"
DWELL 0.15
G1 X43.105 Y63.221 ;extruding 
G1 X43.709 Y65.259 ;extruding 
G1 X43.928 Y66.325 ;extruding 
G1 X44.041 Y67.316 ;extruding 
G1 X44.072 Y68.315 ;extruding 
G1 X44.005 Y69.477 ;extruding 
G1 X43.926 Y70.035 ;extruding 
G1 X43.574 Y69.278 ;extruding 
G1 X43.222 Y68.303 ;extruding 
G1 X42.956 Y67.301 ;extruding 
G1 X42.780 Y66.280 ;extruding 
G1 X42.703 Y65.299 ;extruding 
G1 X42.381 Y63.427 ;extruding 
FILEWRITE $hFile"\x05\x02\x30\x34\x44\x49\x20\x20\x43\x46\x03"
G1 X41.910 Y63.005 ;not extruding 
FILEWRITE $hFile"\x05\x02\x30\x34\x44\x49\x20\x20\x43\x46\x03"
DWELL 0.15
G1 X42.549 Y62.922 ;extruding 
G1 X43.382 Y62.773 ;extruding 
G1 X44.091 Y65.163 ;extruding 
G1 X44.315 Y66.258 ;extruding 
G1 X44.368 Y66.641 ;extruding 
G1 X44.434 Y67.291 ;extruding 
G1 X44.465 Y68.320 ;extruding 
G1 X44.397 Y69.512 ;extruding 
G1 X44.359 Y69.816 ;extruding 
G1 X44.244 Y70.534 ;extruding 
G1 X44.096 Y71.153 ;extruding 
G1 X43.669 Y70.416 ;extruding 
G1 X43.216 Y69.444 ;extruding 
G1 X42.851 Y68.437 ;extruding 
G1 X42.575 Y67.401 ;extruding 
G1 X42.391 Y66.346 ;extruding 
G1 X42.313 Y65.348 ;extruding 
G1 X41.925 Y63.090 ;extruding 
FILEWRITE $hFile"\x05\x02\x30\x34\x44\x49\x20\x20\x43\x46\x03"
G1 X55.088 Y57.315 ;not extruding 
FILEWRITE $hFile"\x05\x02\x30\x34\x44\x49\x20\x20\x43\x46\x03"
DWELL 0.15
G1 X55.684 Y56.715 ;extruding 
G1 X57.328 Y58.010 ;extruding 
G1 X58.144 Y58.758 ;extruding 
G1 X58.813 Y59.490 ;extruding 
G1 X59.425 Y60.285 ;extruding 
G1 X59.963 Y61.124 ;extruding 
G1 X60.330 Y61.793 ;extruding 
G1 X59.551 Y61.361 ;extruding 
G1 X58.690 Y60.779 ;extruding 
G1 X57.885 Y60.123 ;extruding 
G1 X57.140 Y59.400 ;extruding 
G1 X56.500 Y58.651 ;extruding 
G1 X55.151 Y57.374 ;extruding 
FILEWRITE $hFile"\x05\x02\x30\x34\x44\x49\x20\x20\x43\x46\x03"
G1 X54.517 Y57.314 ;not extruding 
FILEWRITE $hFile"\x05\x02\x30\x34\x44\x49\x20\x20\x43\x46\x03"
DWELL 0.15
G1 X55.030 Y56.830 ;extruding 
G1 X55.646 Y56.185 ;extruding 
G1 X57.583 Y57.711 ;extruding 
G1 X58.419 Y58.477 ;extruding 
G1 X58.685 Y58.754 ;extruding 
G1 X59.116 Y59.240 ;extruding 
G1 X59.746 Y60.058 ;extruding 
G1 X60.299 Y60.919 ;extruding 
G1 X60.547 Y61.350 ;extruding 
G1 X60.863 Y61.980 ;extruding 
G1 X61.115 Y62.588 ;extruding 
G1 X60.302 Y62.228 ;extruding 
G1 X59.362 Y61.707 ;extruding 
G1 X58.471 Y61.107 ;extruding 
G1 X57.637 Y60.430 ;extruding 
G1 X56.866 Y59.684 ;extruding 
G1 X56.215 Y58.922 ;extruding 
G1 X54.580 Y57.374 ;extruding 
FILEWRITE $hFile"\x05\x02\x30\x34\x44\x49\x20\x20\x43\x46\x03"
G1 X61.904 Y44.919 ;not extruding 
FILEWRITE $hFile"\x05\x02\x30\x34\x44\x49\x20\x20\x43\x46\x03"
DWELL 0.15
G1 X61.960 Y44.643 ;extruding 
G1 X62.069 Y43.874 ;extruding 
G1 X65.736 Y44.350 ;extruding 
G1 X66.217 Y44.458 ;extruding 
G1 X67.175 Y44.741 ;extruding 
G1 X68.224 Y45.154 ;extruding 
G1 X68.808 Y45.445 ;extruding 
G1 X68.104 Y45.545 ;extruding 
G1 X66.770 Y45.584 ;extruding 
G1 X65.772 Y45.532 ;extruding 
G1 X64.972 Y45.431 ;extruding 
G1 X63.811 Y45.153 ;extruding 
G1 X61.990 Y44.930 ;extruding 
FILEWRITE $hFile"\x05\x02\x30\x34\x44\x49\x20\x20\x43\x46\x03"
G1 X61.434 Y45.257 ;not extruding 
FILEWRITE $hFile"\x05\x02\x30\x34\x44\x49\x20\x20\x43\x46\x03"
DWELL 0.15
G1 X61.573 Y44.576 ;extruding 
G1 X61.698 Y43.694 ;extruding 
G1 X61.712 Y43.430 ;extruding 
G1 X65.796 Y43.961 ;extruding 
G1 X66.316 Y44.077 ;extruding 
G1 X67.303 Y44.370 ;extruding 
G1 X68.384 Y44.795 ;extruding 
G1 X69.200 Y45.202 ;extruding 
G1 X69.930 Y45.633 ;extruding 
G1 X69.143 Y45.796 ;extruding 
G1 X68.299 Y45.922 ;extruding 
G1 X66.786 Y45.978 ;extruding 
G1 X65.757 Y45.926 ;extruding 
G1 X65.145 Y45.860 ;extruding 
G1 X64.893 Y45.816 ;extruding 
G1 X63.742 Y45.540 ;extruding 
G1 X61.520 Y45.268 ;extruding 
FILEWRITE $hFile"\x05\x02\x30\x34\x44\x49\x20\x20\x43\x46\x03"
G1 X60.115 Y30.852 ;not extruding 
FILEWRITE $hFile"\x05\x02\x30\x34\x44\x49\x20\x20\x43\x46\x03"
DWELL 0.15
G1 X59.772 Y30.187 ;extruding 
G1 X61.523 Y28.983 ;extruding 
G1 X62.440 Y28.462 ;extruding 
G1 X63.399 Y28.023 ;extruding 
G1 X64.318 Y27.694 ;extruding 
G1 X65.407 Y27.408 ;extruding 
G1 X65.989 Y27.309 ;extruding 
G1 X65.388 Y27.869 ;extruding 
G1 X64.569 Y28.506 ;extruding 
G1 X63.698 Y29.068 ;extruding 
G1 X62.781 Y29.551 ;extruding 
G1 X61.873 Y29.927 ;extruding 
G1 X60.192 Y30.812 ;extruding 
FILEWRITE $hFile"\x05\x02\x30\x34\x44\x49\x20\x20\x43\x46\x03"
G1 X59.936 Y31.390 ;not extruding 
FILEWRITE $hFile"\x05\x02\x30\x34\x44\x49\x20\x20\x43\x46\x03"
DWELL 0.15
G1 X59.659 Y30.808 ;extruding 
G1 X59.260 Y30.062 ;extruding 
G1 X61.315 Y28.650 ;extruding 
G1 X62.261 Y28.112 ;extruding 
G1 X63.251 Y27.659 ;extruding 
G1 X64.201 Y27.318 ;extruding 
G1 X65.324 Y27.023 ;extruding 
G1 X66.392 Y26.843 ;extruding 
G1 X67.010 Y26.793 ;extruding 
G1 X66.440 Y27.428 ;extruding 
G1 X65.656 Y28.158 ;extruding 
G1 X64.811 Y28.817 ;extruding 
G1 X63.912 Y29.399 ;extruding 
G1 X62.965 Y29.900 ;extruding 
G1 X62.040 Y30.283 ;extruding 
G1 X60.013 Y31.350 ;extruding 
FILEWRITE $hFile"\x05\x02\x30\x34\x44\x49\x20\x20\x43\x46\x03"
G1 X50.452 Y20.616 ;not extruding 
FILEWRITE $hFile"\x05\x02\x30\x34\x44\x49\x20\x20\x43\x46\x03"
DWELL 0.15
G1 X49.590 Y20.182 ;extruding 
G1 X50.815 Y17.403 ;extruding 
G1 X51.062 Y16.924 ;extruding 
G1 X51.370 Y16.401 ;extruding 
G1 X51.935 Y15.576 ;extruding 
G1 X52.676 Y14.674 ;extruding 
G1 X53.091 Y14.247 ;extruding 
G1 X52.921 Y15.121 ;extruding 
G1 X52.633 Y16.119 ;extruding 
G1 X52.259 Y17.088 ;extruding 
G1 X51.801 Y18.020 ;extruding 
G1 X51.287 Y18.860 ;extruding 
G1 X50.489 Y20.537 ;extruding 
FILEWRITE $hFile"\x05\x02\x30\x34\x44\x49\x20\x20\x43\x46\x03"
G1 X50.628 Y21.159 ;not extruding 
FILEWRITE $hFile"\x05\x02\x30\x34\x44\x49\x20\x20\x43\x46\x03"
DWELL 0.15
G1 X50.009 Y20.821 ;extruding 
G1 X49.072 Y20.384 ;extruding 
G1 X50.461 Y17.233 ;extruding 
G1 X50.718 Y16.735 ;extruding 
G1 X51.038 Y16.190 ;extruding 
G1 X51.621 Y15.340 ;extruding 
G1 X52.380 Y14.415 ;extruding 
G1 X53.104 Y13.682 ;extruding 
G1 X53.604 Y13.254 ;extruding 
G1 X53.514 Y14.139 ;extruding 
G1 X53.309 Y15.194 ;extruding 
G1 X53.013 Y16.227 ;extruding 
G1 X52.627 Y17.229 ;extruding 
G1 X52.156 Y18.193 ;extruding 
G1 X51.632 Y19.047 ;extruding 
G1 X50.666 Y21.081 ;extruding 
FILEWRITE $hFile"\x05\x02\x30\x34\x44\x49\x20\x20\x43\x46\x03"
G1 X51.095 Y21.092 ;not extruding 
FILEWRITE $hFile"\x05\x02\x30\x34\x44\x49\x20\x20\x43\x46\x03"
DWELL 0.15
G1 X54.265 Y23.630 ;extruding 
G1 X55.502 Y24.807 ;extruding 
G1 X55.992 Y25.330 ;extruding 
G1 X56.783 Y26.245 ;extruding 
G1 X57.392 Y27.026 ;extruding 
G1 X59.231 Y29.605 ;extruding 
G1 X61.106 Y28.317 ;extruding 
G1 X62.082 Y27.763 ;extruding 
G1 X63.102 Y27.295 ;extruding 
G1 X64.085 Y26.943 ;extruding 
G1 X65.241 Y26.639 ;extruding 
G1 X66.344 Y26.453 ;extruding 
G1 X67.394 Y26.368 ;extruding 
G1 X67.850 Y26.359 ;extruding 
G1 X67.473 Y26.868 ;extruding 
G1 X66.734 Y27.691 ;extruding 
G1 X65.925 Y28.447 ;extruding 
G1 X65.053 Y29.128 ;extruding 
G1 X64.125 Y29.731 ;extruding 
G1 X63.148 Y30.249 ;extruding 
G1 X62.207 Y30.639 ;extruding 
G1 X60.379 Y31.601 ;extruding 
G1 X61.459 Y35.541 ;extruding 
G1 X61.767 Y37.217 ;extruding 
G1 X61.855 Y37.926 ;extruding 
G1 X61.957 Y39.131 ;extruding 
G1 X61.991 Y40.118 ;extruding 
G1 X61.965 Y43.067 ;extruding 
G1 X65.857 Y43.572 ;extruding 
G1 X66.414 Y43.697 ;extruding 
G1 X67.431 Y43.998 ;extruding 
G1 X68.544 Y44.436 ;extruding 
G1 X69.388 Y44.856 ;extruding 
G1 X70.224 Y45.350 ;extruding 
G1 X70.807 Y45.772 ;extruding 
G1 X69.968 Y46.033 ;extruding 
G1 X69.208 Y46.184 ;extruding 
G1 X68.149 Y46.329 ;extruding 
G1 X66.801 Y46.373 ;extruding 
G1 X65.743 Y46.320 ;extruding 
G1 X65.105 Y46.251 ;extruding 
G1 X64.813 Y46.201 ;extruding 
G1 X63.672 Y45.927 ;extruding 
G1 X61.634 Y45.677 ;extruding 
G1 X60.203 Y49.463 ;extruding 
G1 X59.464 Y51.002 ;extruding 
G1 X59.115 Y51.632 ;extruding 
G1 X58.489 Y52.667 ;extruding 
G1 X57.933 Y53.489 ;extruding 
G1 X56.064 Y56.014 ;extruding 
G1 X57.837 Y57.411 ;extruding 
G1 X58.693 Y58.196 ;extruding 
G1 X59.418 Y58.990 ;extruding 
G1 X60.067 Y59.832 ;extruding 
G1 X60.634 Y60.715 ;extruding 
G1 X60.893 Y61.164 ;extruding 
G1 X61.220 Y61.816 ;extruding 
G1 X61.630 Y62.803 ;extruding 
G1 X61.783 Y63.247 ;extruding 
G1 X61.159 Y63.038 ;extruding 
G1 X60.143 Y62.589 ;extruding 
G1 X59.172 Y62.053 ;extruding 
G1 X58.252 Y61.435 ;extruding 
G1 X57.390 Y60.738 ;extruding 
G1 X56.592 Y59.968 ;extruding 
G1 X55.930 Y59.193 ;extruding 
G1 X54.437 Y57.779 ;extruding 
G1 X51.043 Y60.010 ;extruding 
G1 X49.542 Y60.822 ;extruding 
G1 X48.893 Y61.127 ;extruding 
G1 X47.778 Y61.596 ;extruding 
G1 X46.847 Y61.934 ;extruding 
G1 X43.825 Y62.886 ;extruding 
G1 X44.472 Y65.068 ;extruding 
G1 X44.702 Y66.192 ;extruding 
G1 X44.826 Y67.265 ;extruding 
G1 X44.858 Y68.325 ;extruding 
G1 X44.788 Y69.547 ;extruding 
G1 X44.629 Y70.611 ;extruding 
G1 X44.382 Y71.650 ;extruding 
G1 X44.250 Y72.087 ;extruding 
G1 X43.882 Y71.571 ;extruding 
G1 X43.327 Y70.613 ;extruding 
G1 X42.859 Y69.611 ;extruding 
G1 X42.480 Y68.571 ;extruding 
G1 X42.194 Y67.502 ;extruding 
G1 X42.003 Y66.412 ;extruding 
G1 X41.923 Y65.397 ;extruding 
G1 X41.573 Y63.361 ;extruding 
G1 X37.492 Y63.171 ;extruding 
G1 X35.803 Y62.945 ;extruding 
G1 X35.101 Y62.811 ;extruding 
G1 X33.924 Y62.535 ;extruding 
G1 X32.974 Y62.262 ;extruding 
G1 X30.004 Y61.268 ;extruding 
G1 X29.224 Y63.357 ;extruding 
G1 X28.520 Y64.829 ;extruding 
G1 X28.206 Y65.360 ;extruding 
G1 X27.606 Y66.236 ;extruding 
G1 X26.942 Y67.046 ;extruding 
G1 X26.598 Y67.425 ;extruding 
G1 X26.202 Y67.815 ;extruding 
G1 X25.461 Y68.469 ;extruding 
G1 X24.884 Y68.889 ;extruding 
G1 X24.897 Y68.008 ;extruding 
G1 X24.988 Y67.238 ;extruding 
G1 X25.178 Y66.185 ;extruding 
G1 X25.552 Y64.893 ;extruding 
G1 X25.931 Y63.901 ;extruding 
G1 X26.194 Y63.314 ;extruding 
G1 X26.334 Y63.049 ;extruding 
G1 X26.946 Y62.050 ;extruding 
G1 X27.818 Y60.190 ;extruding 
G1 X24.659 Y57.655 ;extruding 
G1 X23.424 Y56.477 ;extruding 
G1 X22.933 Y55.949 ;extruding 
G1 X22.142 Y55.034 ;extruding 
G1 X21.533 Y54.250 ;extruding 
G1 X19.784 Y51.797 ;extruding 
G1 X16.967 Y53.436 ;extruding 
G1 X16.447 Y53.697 ;extruding 
G1 X15.846 Y53.958 ;extruding 
G1 X14.847 Y54.313 ;extruding 
G1 X13.662 Y54.622 ;extruding 
G1 X12.694 Y54.783 ;extruding 
G1 X11.535 Y54.880 ;extruding 
G1 X11.060 Y54.888 ;extruding 
G1 X11.597 Y54.170 ;extruding 
G1 X12.123 Y53.601 ;extruding 
G1 X12.894 Y52.862 ;extruding 
G1 X13.954 Y52.038 ;extruding 
G1 X14.841 Y51.460 ;extruding 
G1 X15.405 Y51.136 ;extruding 
G1 X15.789 Y50.943 ;extruding 
G1 X16.287 Y50.718 ;extruding 
G1 X18.613 Y49.813 ;extruding 
G1 X17.478 Y45.662 ;extruding 
G1 X17.170 Y43.983 ;extruding 
G1 X17.082 Y43.270 ;extruding 
G1 X16.980 Y42.065 ;extruding 
G1 X16.947 Y41.075 ;extruding 
G1 X16.975 Y37.918 ;extruding 
G1 X14.709 Y37.846 ;extruding 
G1 X13.563 Y37.716 ;extruding 
G1 X13.178 Y37.648 ;extruding 
G1 X12.331 Y37.450 ;extruding 
G1 X11.679 Y37.260 ;extruding 
G1 X9.929 Y36.558 ;extruding 
G1 X8.970 Y36.034 ;extruding 
G1 X8.439 Y35.694 ;extruding 
G1 X8.093 Y35.439 ;extruding 
G1 X8.918 Y35.195 ;extruding 
G1 X9.692 Y35.041 ;extruding 
G1 X10.524 Y34.918 ;extruding 
G1 X12.080 Y34.856 ;extruding 
G1 X13.154 Y34.910 ;extruding 
G1 X13.771 Y34.978 ;extruding 
G1 X14.761 Y35.169 ;extruding 
G1 X17.160 Y35.801 ;extruding 
G1 X18.680 Y31.775 ;extruding 
G1 X19.417 Y30.237 ;extruding 
G1 X19.763 Y29.610 ;extruding 
G1 X20.388 Y28.575 ;extruding 
G1 X20.942 Y27.756 ;extruding 
G1 X22.837 Y25.197 ;extruding 
G1 X21.015 Y23.820 ;extruding 
G1 X20.192 Y23.069 ;extruding 
G1 X19.432 Y22.244 ;extruding 
G1 X18.792 Y21.419 ;extruding 
G1 X18.176 Y20.465 ;extruding 
G1 X17.968 Y20.097 ;extruding 
G1 X17.675 Y19.520 ;extruding 
G1 X17.221 Y18.449 ;extruding 
G1 X17.076 Y18.031 ;extruding 
G1 X17.664 Y18.229 ;extruding 
G1 X18.676 Y18.678 ;extruding 
G1 X19.644 Y19.215 ;extruding 
G1 X20.562 Y19.834 ;extruding 
G1 X21.422 Y20.532 ;extruding 
G1 X22.217 Y21.302 ;extruding 
G1 X22.879 Y22.077 ;extruding 
G1 X24.352 Y23.532 ;extruding 
G1 X27.775 Y21.283 ;extruding 
G1 X29.274 Y20.473 ;extruding 
G1 X29.921 Y20.170 ;extruding 
G1 X31.035 Y19.701 ;extruding 
G1 X31.963 Y19.365 ;extruding 
G1 X34.946 Y18.425 ;extruding 
G1 X34.355 Y16.277 ;extruding 
G1 X34.059 Y14.668 ;extruding 
G1 X34.001 Y14.052 ;extruding 
G1 X33.973 Y12.989 ;extruding 
G1 X34.033 Y11.943 ;extruding 
G1 X34.089 Y11.433 ;extruding 
G1 X34.180 Y10.885 ;extruding 
G1 X34.396 Y9.918 ;extruding 
G1 X34.617 Y9.233 ;extruding 
G1 X35.124 Y9.951 ;extruding 
G1 X35.503 Y10.627 ;extruding 
G1 X35.968 Y11.589 ;extruding 
G1 X36.426 Y12.857 ;extruding 
G1 X36.703 Y13.880 ;extruding 
G1 X36.835 Y14.508 ;extruding 
G1 X36.877 Y14.801 ;extruding 
G1 X36.969 Y15.971 ;extruding 
G1 X37.361 Y17.986 ;extruding 
G1 X41.404 Y18.178 ;extruding 
G1 X43.096 Y18.405 ;extruding 
G1 X43.803 Y18.542 ;extruding 
G1 X44.981 Y18.817 ;extruding 
G1 X45.934 Y19.092 ;extruding 
G1 X48.791 Y20.048 ;extruding 
G1 X50.107 Y17.064 ;extruding 
G1 X50.374 Y16.545 ;extruding 
G1 X50.707 Y15.980 ;extruding 
G1 X51.306 Y15.104 ;extruding 
G1 X52.084 Y14.157 ;extruding 
G1 X52.306 Y13.918 ;extruding 
G1 X52.838 Y13.393 ;extruding 
G1 X53.650 Y12.698 ;extruding 
G1 X54.025 Y12.415 ;extruding 
G1 X54.020 Y13.074 ;extruding 
G1 X53.906 Y14.178 ;extruding 
G1 X53.697 Y15.267 ;extruding 
G1 X53.393 Y16.334 ;extruding 
G1 X52.996 Y17.369 ;extruding 
G1 X52.511 Y18.365 ;extruding 
G1 X51.978 Y19.234 ;extruding 
G1 X51.132 Y21.013 ;extruding 
FILEWRITE $hFile"\x05\x02\x30\x34\x44\x49\x20\x20\x43\x46\x03"
G1 X51.583 Y20.980 ;not extruding 
FILEWRITE $hFile"\x05\x02\x30\x34\x44\x49\x20\x20\x43\x46\x03"
DWELL 0.15
G1 X54.524 Y23.334 ;extruding 
G1 X55.781 Y24.530 ;extruding 
G1 X56.284 Y25.067 ;extruding 
G1 X57.086 Y25.996 ;extruding 
G1 X57.706 Y26.791 ;extruding 
G1 X59.327 Y29.063 ;extruding 
G1 X60.898 Y27.983 ;extruding 
G1 X61.902 Y27.413 ;extruding 
G1 X62.954 Y26.931 ;extruding 
G1 X63.969 Y26.567 ;extruding 
G1 X65.158 Y26.255 ;extruding 
G1 X66.295 Y26.063 ;extruding 
G1 X67.374 Y25.976 ;extruding 
G1 X67.936 Y25.964 ;extruding 
G1 X68.591 Y25.982 ;extruding 
G1 X68.473 Y26.190 ;extruding 
G1 X67.789 Y27.104 ;extruding 
G1 X67.027 Y27.955 ;extruding 
G1 X66.194 Y28.736 ;extruding 
G1 X65.295 Y29.440 ;extruding 
G1 X64.339 Y30.062 ;extruding 
G1 X63.331 Y30.598 ;extruding 
G1 X62.374 Y30.995 ;extruding 
G1 X60.841 Y31.802 ;extruding 
G1 X61.842 Y35.453 ;extruding 
G1 X62.155 Y37.157 ;extruding 
G1 X62.246 Y37.885 ;extruding 
G1 X62.349 Y39.108 ;extruding 
G1 X62.383 Y40.114 ;extruding 
G1 X62.361 Y42.724 ;extruding 
G1 X65.917 Y43.184 ;extruding 
G1 X66.513 Y43.317 ;extruding 
G1 X67.559 Y43.626 ;extruding 
G1 X68.703 Y44.076 ;extruding 
G1 X69.575 Y44.511 ;extruding 
G1 X70.439 Y45.021 ;extruding 
G1 X71.645 Y45.894 ;extruding 
G1 X71.649 Y45.922 ;extruding 
G1 X70.064 Y46.414 ;extruding 
G1 X69.272 Y46.571 ;extruding 
G1 X68.171 Y46.722 ;extruding 
G1 X66.817 Y46.767 ;extruding 
G1 X65.859 Y46.707 ;extruding 
G1 X65.728 Y46.714 ;extruding 
G1 X65.065 Y46.643 ;extruding 
G1 X64.734 Y46.585 ;extruding 
G1 X63.602 Y46.314 ;extruding 
G1 X61.893 Y46.105 ;extruding 
G1 X60.564 Y49.617 ;extruding 
G1 X59.813 Y51.183 ;extruding 
G1 X59.455 Y51.829 ;extruding 
G1 X58.820 Y52.879 ;extruding 
G1 X58.253 Y53.716 ;extruding 
G1 X56.606 Y55.941 ;extruding 
G1 X58.092 Y57.112 ;extruding 
G1 X58.967 Y57.915 ;extruding 
G1 X59.721 Y58.739 ;extruding 
G1 X60.389 Y59.606 ;extruding 
G1 X60.970 Y60.511 ;extruding 
G1 X61.239 Y60.978 ;extruding 
G1 X61.577 Y61.652 ;extruding 
G1 X61.997 Y62.664 ;extruding 
G1 X62.176 Y63.181 ;extruding 
G1 X62.358 Y63.829 ;extruding 
G1 X62.117 Y63.780 ;extruding 
G1 X61.032 Y63.412 ;extruding 
G1 X59.985 Y62.951 ;extruding 
G1 X58.982 Y62.399 ;extruding 
G1 X58.032 Y61.763 ;extruding 
G1 X57.142 Y61.045 ;extruding 
G1 X56.319 Y60.252 ;extruding 
G1 X55.645 Y59.464 ;extruding 
G1 X54.392 Y58.278 ;extruding 
G1 X51.245 Y60.348 ;extruding 
G1 X49.719 Y61.173 ;extruding 
G1 X49.052 Y61.486 ;extruding 
G1 X47.921 Y61.962 ;extruding 
G1 X46.973 Y62.306 ;extruding 
G1 X44.312 Y63.145 ;extruding 
G1 X44.853 Y64.972 ;extruding 
G1 X45.090 Y66.125 ;extruding 
G1 X45.218 Y67.239 ;extruding 
G1 X45.251 Y68.331 ;extruding 
G1 X45.179 Y69.582 ;extruding 
G1 X45.014 Y70.688 ;extruding 
G1 X44.761 Y71.752 ;extruding 
G1 X44.599 Y72.290 ;extruding 
G1 X44.379 Y72.908 ;extruding 
G1 X44.218 Y72.731 ;extruding 
G1 X43.560 Y71.798 ;extruding 
G1 X42.986 Y70.811 ;extruding 
G1 X42.501 Y69.777 ;extruding 
G1 X42.109 Y68.705 ;extruding 
G1 X41.813 Y67.603 ;extruding 
G1 X41.614 Y66.479 ;extruding 
G1 X41.533 Y65.445 ;extruding 
G1 X41.239 Y63.738 ;extruding 
G1 X37.457 Y63.562 ;extruding 
G1 X35.740 Y63.333 ;extruding 
G1 X35.019 Y63.195 ;extruding 
G1 X33.824 Y62.915 ;extruding 
G1 X32.858 Y62.637 ;extruding 
G1 X30.239 Y61.761 ;extruding 
G1 X29.586 Y63.511 ;extruding 
G1 X28.867 Y65.014 ;extruding 
G1 X28.538 Y65.572 ;extruding 
G1 X27.920 Y66.472 ;extruding 
G1 X27.240 Y67.303 ;extruding 
G1 X26.881 Y67.697 ;extruding 
G1 X26.469 Y68.102 ;extruding 
G1 X25.707 Y68.775 ;extruding 
G1 X24.507 Y69.649 ;extruding 
G1 X24.482 Y69.647 ;extruding 
G1 X24.505 Y67.982 ;extruding 
G1 X24.599 Y67.179 ;extruding 
G1 X24.798 Y66.085 ;extruding 
G1 X25.172 Y64.785 ;extruding 
G1 X25.526 Y63.892 ;extruding 
G1 X25.561 Y63.765 ;extruding 
G1 X25.834 Y63.154 ;extruding 
G1 X25.992 Y62.855 ;extruding 
G1 X26.600 Y61.864 ;extruding 
G1 X27.331 Y60.303 ;extruding 
G1 X24.400 Y57.951 ;extruding 
G1 X23.145 Y56.753 ;extruding 
G1 X22.641 Y56.211 ;extruding 
G1 X21.838 Y55.283 ;extruding 
G1 X21.218 Y54.484 ;extruding 
G1 X19.672 Y52.316 ;extruding 
G1 X17.154 Y53.781 ;extruding 
G1 X16.613 Y54.053 ;extruding 
G1 X15.991 Y54.324 ;extruding 
G1 X14.963 Y54.689 ;extruding 
G1 X13.749 Y55.005 ;extruding 
G1 X12.740 Y55.173 ;extruding 
G1 X11.555 Y55.272 ;extruding 
G1 X11.002 Y55.282 ;extruding 
G1 X10.351 Y55.262 ;extruding 
G1 X10.305 Y55.242 ;extruding 
G1 X11.295 Y53.918 ;extruding 
G1 X11.843 Y53.325 ;extruding 
G1 X12.645 Y52.557 ;extruding 
G1 X13.711 Y51.728 ;extruding 
G1 X14.521 Y51.214 ;extruding 
G1 X14.622 Y51.133 ;extruding 
G1 X15.207 Y50.796 ;extruding 
G1 X15.620 Y50.588 ;extruding 
G1 X16.135 Y50.356 ;extruding 
G1 X18.141 Y49.576 ;extruding 
G1 X17.095 Y45.750 ;extruding 
G1 X16.782 Y44.043 ;extruding 
G1 X16.691 Y43.311 ;extruding 
G1 X16.588 Y42.088 ;extruding 
G1 X16.554 Y41.079 ;extruding 
G1 X16.579 Y38.298 ;extruding 
G1 X14.681 Y38.238 ;extruding 
G1 X13.507 Y38.105 ;extruding 
G1 X13.099 Y38.033 ;extruding 
G1 X12.232 Y37.830 ;extruding 
G1 X11.549 Y37.631 ;extruding 
G1 X10.341 Y37.136 ;extruding 
G1 X9.995 Y37.016 ;extruding 
G1 X9.262 Y36.655 ;extruding 
G1 X8.766 Y36.370 ;extruding 
G1 X8.217 Y36.018 ;extruding 
G1 X7.259 Y35.303 ;extruding 
G1 X7.567 Y35.185 ;extruding 
G1 X8.824 Y34.813 ;extruding 
G1 X9.628 Y34.653 ;extruding 
G1 X10.726 Y34.506 ;extruding 
G1 X12.067 Y34.462 ;extruding 
G1 X13.023 Y34.522 ;extruding 
G1 X13.167 Y34.516 ;extruding 
G1 X13.830 Y34.589 ;extruding 
G1 X14.848 Y34.786 ;extruding 
G1 X16.918 Y35.331 ;extruding 
G1 X18.318 Y31.621 ;extruding 
G1 X19.067 Y30.057 ;extruding 
G1 X19.423 Y29.414 ;extruding 
G1 X20.057 Y28.364 ;extruding 
G1 X20.622 Y27.529 ;extruding 
G1 X22.290 Y25.275 ;extruding 
G1 X20.764 Y24.122 ;extruding 
G1 X19.914 Y23.348 ;extruding 
G1 X19.131 Y22.498 ;extruding 
G1 X18.471 Y21.646 ;extruding 
G1 X17.840 Y20.668 ;extruding 
G1 X17.319 Y19.685 ;extruding 
G1 X16.855 Y18.590 ;extruding 
G1 X16.672 Y18.065 ;extruding 
G1 X16.488 Y17.441 ;extruding 
G1 X16.712 Y17.487 ;extruding 
G1 X17.793 Y17.856 ;extruding 
G1 X18.837 Y18.319 ;extruding 
G1 X19.837 Y18.871 ;extruding 
G1 X20.784 Y19.509 ;extruding 
G1 X21.672 Y20.227 ;extruding 
G1 X22.493 Y21.021 ;extruding 
G1 X23.167 Y21.809 ;extruding 
G1 X24.402 Y23.030 ;extruding 
G1 X27.574 Y20.945 ;extruding 
G1 X29.097 Y20.122 ;extruding 
G1 X29.761 Y19.811 ;extruding 
G1 X30.892 Y19.335 ;extruding 
G1 X31.838 Y18.993 ;extruding 
G1 X34.467 Y18.164 ;extruding 
G1 X33.972 Y16.365 ;extruding 
G1 X33.670 Y14.722 ;extruding 
G1 X33.609 Y14.076 ;extruding 
G1 X33.580 Y12.983 ;extruding 
G1 X33.641 Y11.911 ;extruding 
G1 X33.700 Y11.379 ;extruding 
G1 X33.795 Y10.809 ;extruding 
G1 X34.017 Y9.815 ;extruding 
G1 X34.474 Y8.398 ;extruding 
G1 X34.499 Y8.386 ;extruding 
G1 X35.457 Y9.741 ;extruding 
G1 X35.851 Y10.446 ;extruding 
G1 X36.335 Y11.447 ;extruding 
G1 X36.797 Y12.721 ;extruding 
G1 X37.035 Y13.650 ;extruding 
G1 X37.082 Y13.772 ;extruding 
G1 X37.219 Y14.425 ;extruding 
G1 X37.267 Y14.758 ;extruding 
G1 X37.359 Y15.918 ;extruding 
G1 X37.688 Y17.608 ;extruding 
G1 X41.439 Y17.786 ;extruding 
G1 X43.160 Y18.017 ;extruding 
G1 X43.885 Y18.157 ;extruding 
G1 X45.080 Y18.437 ;extruding 
G1 X46.051 Y18.717 ;extruding 
G1 X48.576 Y19.562 ;extruding 
G1 X49.752 Y16.894 ;extruding 
G1 X50.030 Y16.355 ;extruding 
G1 X50.375 Y15.769 ;extruding 
G1 X50.992 Y14.868 ;extruding 
G1 X51.789 Y13.898 ;extruding 
G1 X52.572 Y13.104 ;extruding 
G1 X53.404 Y12.392 ;extruding 
G1 X53.852 Y12.054 ;extruding 
G1 X54.401 Y11.681 ;extruding 
G1 X54.429 Y11.933 ;extruding 
G1 X54.414 Y13.078 ;extruding 
G1 X54.299 Y14.217 ;extruding 
G1 X54.084 Y15.341 ;extruding 
G1 X53.772 Y16.441 ;extruding 
G1 X53.365 Y17.510 ;extruding 
G1 X52.866 Y18.538 ;extruding 
G1 X52.324 Y19.422 ;extruding 
G1 X51.621 Y20.901 ;extruding 
FILEWRITE $hFile"\x05\x02\x30\x34\x44\x49\x20\x20\x43\x46\x03"
G1 X52.071 Y20.867 ;not extruding 
FILEWRITE $hFile"\x05\x02\x30\x34\x44\x49\x20\x20\x43\x46\x03"
DWELL 0.15
G1 X54.783 Y23.038 ;extruding 
G1 X56.060 Y24.253 ;extruding 
G1 X56.576 Y24.805 ;extruding 
G1 X57.390 Y25.746 ;extruding 
G1 X58.021 Y26.556 ;extruding 
G1 X59.423 Y28.521 ;extruding 
G1 X60.689 Y27.650 ;extruding 
G1 X61.723 Y27.063 ;extruding 
G1 X62.806 Y26.567 ;extruding 
G1 X63.852 Y26.192 ;extruding 
G1 X65.076 Y25.870 ;extruding 
G1 X66.246 Y25.673 ;extruding 
G1 X67.354 Y25.583 ;extruding 
G1 X67.936 Y25.572 ;extruding 
G1 X68.868 Y25.605 ;extruding 
G1 X69.073 Y25.955 ;extruding 
G1 X68.808 Y26.398 ;extruding 
G1 X68.104 Y27.341 ;extruding 
G1 X67.320 Y28.219 ;extruding 
G1 X66.463 Y29.024 ;extruding 
G1 X65.538 Y29.751 ;extruding 
G1 X64.552 Y30.394 ;extruding 
G1 X63.515 Y30.947 ;extruding 
G1 X62.541 Y31.351 ;extruding 
G1 X61.303 Y32.002 ;extruding 
G1 X62.225 Y35.365 ;extruding 
G1 X62.543 Y37.097 ;extruding 
G1 X62.637 Y37.845 ;extruding 
G1 X62.742 Y39.085 ;extruding 
G1 X62.776 Y40.109 ;extruding 
G1 X62.756 Y42.380 ;extruding 
G1 X65.978 Y42.795 ;extruding 
G1 X66.611 Y42.936 ;extruding 
G1 X67.686 Y43.254 ;extruding 
G1 X68.863 Y43.717 ;extruding 
G1 X69.763 Y44.166 ;extruding 
G1 X70.655 Y44.693 ;extruding 
G1 X71.891 Y45.588 ;extruding 
G1 X72.077 Y45.753 ;extruding 
G1 X71.998 Y46.202 ;extruding 
G1 X71.773 Y46.295 ;extruding 
G1 X70.161 Y46.795 ;extruding 
G1 X69.337 Y46.959 ;extruding 
G1 X68.641 Y47.052 ;extruding 
G1 X68.486 Y47.088 ;extruding 
G1 X68.193 Y47.114 ;extruding 
G1 X66.958 Y47.144 ;extruding 
G1 X66.832 Y47.162 ;extruding 
G1 X65.857 Y47.100 ;extruding 
G1 X65.714 Y47.108 ;extruding 
G1 X65.024 Y47.034 ;extruding 
G1 X64.654 Y46.970 ;extruding 
G1 X63.532 Y46.701 ;extruding 
G1 X62.151 Y46.532 ;extruding 
G1 X60.926 Y49.772 ;extruding 
G1 X60.162 Y51.363 ;extruding 
G1 X59.795 Y52.026 ;extruding 
G1 X59.151 Y53.091 ;extruding 
G1 X58.574 Y53.943 ;extruding 
G1 X57.149 Y55.869 ;extruding 
G1 X58.347 Y56.813 ;extruding 
G1 X59.242 Y57.633 ;extruding 
G1 X60.024 Y58.489 ;extruding 
G1 X60.710 Y59.379 ;extruding 
G1 X61.305 Y60.307 ;extruding 
G1 X61.585 Y60.792 ;extruding 
G1 X61.935 Y61.489 ;extruding 
G1 X62.365 Y62.524 ;extruding 
G1 X62.551 Y63.064 ;extruding 
G1 X62.806 Y63.978 ;extruding 
G1 X62.536 Y64.280 ;extruding 
G1 X62.024 Y64.164 ;extruding 
G1 X61.029 Y63.814 ;extruding 
G1 X60.906 Y63.786 ;extruding 
G1 X59.945 Y63.351 ;extruding 
G1 X59.826 Y63.312 ;extruding 
G1 X58.793 Y62.746 ;extruding 
G1 X57.813 Y62.091 ;extruding 
G1 X56.895 Y61.352 ;extruding 
G1 X56.045 Y60.537 ;extruding 
G1 X55.360 Y59.735 ;extruding 
G1 X54.348 Y58.777 ;extruding 
G1 X51.447 Y60.685 ;extruding 
G1 X49.896 Y61.524 ;extruding 
G1 X49.212 Y61.844 ;extruding 
G1 X48.065 Y62.328 ;extruding 
G1 X47.099 Y62.678 ;extruding 
G1 X44.798 Y63.403 ;extruding 
G1 X45.234 Y64.877 ;extruding 
G1 X45.477 Y66.059 ;extruding 
G1 X45.610 Y67.214 ;extruding 
G1 X45.644 Y68.336 ;extruding 
G1 X45.571 Y69.617 ;extruding 
G1 X45.526 Y69.982 ;extruding 
G1 X45.400 Y70.764 ;extruding 
G1 X45.140 Y71.854 ;extruding 
G1 X44.972 Y72.412 ;extruding 
G1 X44.652 Y73.288 ;extruding 
G1 X44.256 Y73.374 ;extruding 
G1 X43.916 Y72.986 ;extruding 
G1 X43.237 Y72.025 ;extruding 
G1 X42.644 Y71.008 ;extruding 
G1 X42.144 Y69.943 ;extruding 
G1 X41.738 Y68.839 ;extruding 
G1 X41.431 Y67.703 ;extruding 
G1 X41.225 Y66.545 ;extruding 
G1 X41.143 Y65.494 ;extruding 
G1 X40.906 Y64.116 ;extruding 
G1 X37.422 Y63.954 ;extruding 
G1 X35.677 Y63.721 ;extruding 
G1 X34.937 Y63.579 ;extruding 
G1 X33.725 Y63.296 ;extruding 
G1 X32.741 Y63.012 ;extruding 
G1 X30.474 Y62.254 ;extruding 
G1 X29.948 Y63.664 ;extruding 
G1 X29.214 Y65.199 ;extruding 
G1 X28.869 Y65.783 ;extruding 
G1 X28.234 Y66.707 ;extruding 
G1 X27.537 Y67.559 ;extruding 
G1 X27.165 Y67.969 ;extruding 
G1 X26.737 Y68.390 ;extruding 
G1 X25.953 Y69.082 ;extruding 
G1 X24.723 Y69.978 ;extruding 
G1 X24.507 Y70.105 ;extruding 
G1 X24.108 Y69.893 ;extruding 
G1 X24.088 Y69.646 ;extruding 
G1 X24.112 Y67.956 ;extruding 
G1 X24.211 Y67.121 ;extruding 
G1 X24.351 Y66.275 ;extruding 
G1 X24.418 Y65.984 ;extruding 
G1 X24.770 Y64.803 ;extruding 
G1 X24.793 Y64.677 ;extruding 
G1 X25.153 Y63.768 ;extruding 
G1 X25.191 Y63.629 ;extruding 
G1 X25.475 Y62.994 ;extruding 
G1 X25.651 Y62.660 ;extruding 
G1 X26.253 Y61.677 ;extruding 
G1 X26.844 Y60.416 ;extruding 
G1 X24.141 Y58.247 ;extruding 
G1 X22.865 Y57.029 ;extruding 
G1 X22.349 Y56.474 ;extruding 
G1 X21.534 Y55.532 ;extruding 
G1 X20.903 Y54.719 ;extruding 
G1 X19.560 Y52.836 ;extruding 
G1 X17.341 Y54.127 ;extruding 
G1 X16.780 Y54.409 ;extruding 
G1 X16.135 Y54.689 ;extruding 
G1 X15.078 Y55.065 ;extruding 
G1 X13.836 Y55.388 ;extruding 
G1 X12.786 Y55.564 ;extruding 
G1 X11.575 Y55.665 ;extruding 
G1 X11.000 Y55.675 ;extruding 
G1 X10.326 Y55.654 ;extruding 
G1 X10.056 Y55.628 ;extruding 
G1 X9.857 Y55.221 ;extruding 
G1 X9.982 Y55.017 ;extruding 
G1 X10.992 Y53.667 ;extruding 
G1 X11.563 Y53.049 ;extruding 
G1 X12.173 Y52.448 ;extruding 
G1 X12.397 Y52.253 ;extruding 
G1 X13.376 Y51.504 ;extruding 
G1 X13.467 Y51.417 ;extruding 
G1 X14.292 Y50.894 ;extruding 
G1 X14.402 Y50.805 ;extruding 
G1 X15.009 Y50.457 ;extruding 
G1 X15.451 Y50.234 ;extruding 
G1 X15.983 Y49.993 ;extruding 
G1 X17.669 Y49.338 ;extruding 
G1 X16.711 Y45.837 ;extruding 
G1 X16.394 Y44.102 ;extruding 
G1 X16.301 Y43.352 ;extruding 
G1 X16.196 Y42.111 ;extruding 
G1 X16.162 Y41.084 ;extruding 
G1 X16.183 Y38.678 ;extruding 
G1 X14.652 Y38.630 ;extruding 
G1 X13.450 Y38.494 ;extruding 
G1 X13.020 Y38.417 ;extruding 
G1 X12.132 Y38.210 ;extruding 
G1 X11.419 Y38.002 ;extruding 
G1 X9.589 Y37.267 ;extruding 
G1 X9.074 Y37.000 ;extruding 
G1 X8.562 Y36.706 ;extruding 
G1 X7.994 Y36.341 ;extruding 
G1 X7.158 Y35.726 ;extruding 
G1 X6.832 Y35.463 ;extruding 
G1 X6.876 Y35.052 ;extruding 
G1 X7.061 Y34.958 ;extruding 
G1 X7.441 Y34.812 ;extruding 
G1 X8.729 Y34.432 ;extruding 
G1 X9.563 Y34.266 ;extruding 
G1 X10.403 Y34.140 ;extruding 
G1 X10.704 Y34.113 ;extruding 
G1 X12.053 Y34.067 ;extruding 
G1 X13.027 Y34.129 ;extruding 
G1 X13.181 Y34.123 ;extruding 
G1 X13.889 Y34.200 ;extruding 
G1 X14.936 Y34.403 ;extruding 
G1 X16.676 Y34.861 ;extruding 
G1 X17.957 Y31.466 ;extruding 
G1 X18.718 Y29.877 ;extruding 
G1 X19.082 Y29.217 ;extruding 
G1 X19.727 Y28.152 ;extruding 
G1 X20.301 Y27.302 ;extruding 
G1 X21.743 Y25.354 ;extruding 
G1 X20.513 Y24.424 ;extruding 
G1 X19.637 Y23.626 ;extruding 
G1 X18.831 Y22.751 ;extruding 
G1 X18.150 Y21.873 ;extruding 
G1 X17.504 Y20.872 ;extruding 
G1 X17.276 Y20.469 ;extruding 
G1 X16.963 Y19.851 ;extruding 
G1 X16.488 Y18.731 ;extruding 
G1 X16.298 Y18.186 ;extruding 
G1 X16.038 Y17.264 ;extruding 
G1 X16.307 Y16.989 ;extruding 
G1 X16.808 Y17.105 ;extruding 
G1 X17.922 Y17.484 ;extruding 
G1 X18.999 Y17.959 ;extruding 
G1 X20.030 Y18.527 ;extruding 
G1 X21.007 Y19.183 ;extruding 
G1 X21.922 Y19.923 ;extruding 
G1 X22.770 Y20.740 ;extruding 
G1 X23.455 Y21.542 ;extruding 
G1 X24.452 Y22.527 ;extruding 
G1 X27.372 Y20.608 ;extruding 
G1 X28.920 Y19.771 ;extruding 
G1 X29.602 Y19.452 ;extruding 
G1 X30.749 Y18.969 ;extruding 
G1 X31.712 Y18.621 ;extruding 
G1 X33.988 Y17.903 ;extruding 
G1 X33.589 Y16.452 ;extruding 
G1 X33.280 Y14.776 ;extruding 
G1 X33.216 Y14.100 ;extruding 
G1 X33.187 Y12.977 ;extruding 
G1 X33.250 Y11.878 ;extruding 
G1 X33.310 Y11.325 ;extruding 
G1 X33.409 Y10.734 ;extruding 
G1 X33.637 Y9.711 ;extruding 
G1 X34.107 Y8.259 ;extruding 
G1 X34.206 Y8.031 ;extruding 
G1 X34.657 Y7.967 ;extruding 
G1 X34.816 Y8.152 ;extruding 
G1 X35.789 Y9.531 ;extruding 
G1 X36.200 Y10.265 ;extruding 
G1 X36.503 Y10.897 ;extruding 
G1 X36.585 Y11.034 ;extruding 
G1 X36.701 Y11.304 ;extruding 
G1 X37.111 Y12.470 ;extruding 
G1 X37.167 Y12.584 ;extruding 
G1 X37.410 Y13.530 ;extruding 
G1 X37.461 Y13.664 ;extruding 
G1 X37.604 Y14.343 ;extruding 
G1 X37.658 Y14.714 ;extruding 
G1 X37.748 Y15.865 ;extruding 
G1 X38.014 Y17.231 ;extruding 
G1 X41.475 Y17.395 ;extruding 
G1 X43.223 Y17.629 ;extruding 
G1 X43.967 Y17.773 ;extruding 
G1 X45.180 Y18.057 ;extruding 
G1 X46.168 Y18.342 ;extruding 
G1 X48.361 Y19.076 ;extruding 
G1 X49.398 Y16.725 ;extruding 
G1 X49.686 Y16.165 ;extruding 
G1 X50.044 Y15.558 ;extruding 
G1 X50.678 Y14.632 ;extruding 
G1 X51.493 Y13.639 ;extruding 
G1 X52.306 Y12.814 ;extruding 
G1 X53.158 Y12.086 ;extruding 
G1 X53.622 Y11.735 ;extruding 
G1 X54.112 Y11.398 ;extruding 
G1 X54.403 Y11.216 ;extruding 
G1 X54.775 Y11.380 ;extruding 
G1 X54.823 Y11.902 ;extruding 
G1 X54.798 Y12.957 ;extruding 
G1 X54.809 Y13.082 ;extruding 
G1 X54.692 Y14.131 ;extruding 
G1 X54.692 Y14.256 ;extruding 
G1 X54.472 Y15.414 ;extruding 
G1 X54.152 Y16.549 ;extruding 
G1 X53.734 Y17.650 ;extruding 
G1 X53.221 Y18.710 ;extruding 
G1 X52.670 Y19.609 ;extruding 
G1 X52.109 Y20.789 ;extruding 
FILEWRITE $hFile"\x05\x02\x30\x34\x44\x49\x20\x20\x43\x46\x03"
G1 X52.560 Y20.755 ;not extruding 
FILEWRITE $hFile"\x05\x02\x30\x34\x44\x49\x20\x20\x43\x46\x03"
DWELL 0.15
G1 X55.041 Y22.741 ;extruding 
G1 X56.338 Y23.977 ;extruding 
G1 X56.868 Y24.542 ;extruding 
G1 X57.693 Y25.497 ;extruding 
G1 X58.336 Y26.321 ;extruding 
G1 X59.518 Y27.979 ;extruding 
G1 X60.480 Y27.317 ;extruding 
G1 X61.544 Y26.713 ;extruding 
G1 X62.658 Y26.203 ;extruding 
G1 X63.736 Y25.817 ;extruding 
G1 X64.993 Y25.486 ;extruding 
G1 X66.198 Y25.283 ;extruding 
G1 X67.334 Y25.191 ;extruding 
G1 X67.937 Y25.179 ;extruding 
G1 X68.966 Y25.217 ;extruding 
G1 X69.125 Y25.235 ;extruding 
G1 X69.274 Y25.541 ;extruding 
G1 X69.431 Y25.785 ;extruding 
G1 X69.524 Y25.977 ;extruding 
G1 X69.144 Y26.606 ;extruding 
G1 X68.493 Y27.458 ;extruding 
G1 X68.420 Y27.578 ;extruding 
G1 X67.697 Y28.370 ;extruding 
G1 X67.614 Y28.483 ;extruding 
G1 X66.731 Y29.313 ;extruding 
G1 X65.780 Y30.062 ;extruding 
G1 X64.766 Y30.725 ;extruding 
G1 X63.698 Y31.297 ;extruding 
G1 X62.708 Y31.707 ;extruding 
G1 X61.765 Y32.203 ;extruding 
G1 X62.608 Y35.278 ;extruding 
G1 X62.931 Y37.037 ;extruding 
G1 X63.027 Y37.804 ;extruding 
G1 X63.134 Y39.061 ;extruding 
G1 X63.169 Y40.104 ;extruding 
G1 X63.152 Y42.037 ;extruding 
G1 X65.704 Y42.376 ;extruding 
G1 X66.039 Y42.406 ;extruding 
G1 X66.710 Y42.556 ;extruding 
G1 X67.814 Y42.883 ;extruding 
G1 X69.023 Y43.358 ;extruding 
G1 X69.951 Y43.821 ;extruding 
G1 X70.870 Y44.364 ;extruding 
G1 X72.137 Y45.281 ;extruding 
G1 X72.502 Y45.605 ;extruding 
G1 X72.348 Y46.481 ;extruding 
G1 X71.907 Y46.665 ;extruding 
G1 X70.258 Y47.176 ;extruding 
G1 X69.401 Y47.347 ;extruding 
G1 X68.712 Y47.438 ;extruding 
G1 X68.549 Y47.477 ;extruding 
G1 X68.215 Y47.506 ;extruding 
G1 X66.990 Y47.536 ;extruding 
G1 X66.848 Y47.556 ;extruding 
G1 X65.855 Y47.493 ;extruding 
G1 X65.699 Y47.502 ;extruding 
G1 X64.984 Y47.426 ;extruding 
G1 X64.575 Y47.355 ;extruding 
G1 X63.462 Y47.088 ;extruding 
G1 X62.409 Y46.959 ;extruding 
G1 X61.287 Y49.927 ;extruding 
G1 X60.511 Y51.543 ;extruding 
G1 X60.135 Y52.222 ;extruding 
G1 X59.482 Y53.303 ;extruding 
G1 X58.895 Y54.170 ;extruding 
G1 X57.691 Y55.796 ;extruding 
G1 X58.601 Y56.513 ;extruding 
G1 X59.516 Y57.352 ;extruding 
G1 X60.327 Y58.239 ;extruding 
G1 X61.031 Y59.153 ;extruding 
G1 X61.641 Y60.103 ;extruding 
G1 X61.931 Y60.605 ;extruding 
G1 X62.292 Y61.325 ;extruding 
G1 X62.732 Y62.385 ;extruding 
G1 X62.926 Y62.947 ;extruding 
G1 X63.236 Y64.108 ;extruding 
G1 X62.654 Y64.715 ;extruding 
G1 X62.073 Y64.567 ;extruding 
G1 X61.932 Y64.548 ;extruding 
G1 X60.919 Y64.192 ;extruding 
G1 X60.780 Y64.160 ;extruding 
G1 X59.803 Y63.718 ;extruding 
G1 X59.668 Y63.674 ;extruding 
G1 X58.734 Y63.147 ;extruding 
G1 X58.603 Y63.092 ;extruding 
G1 X57.718 Y62.485 ;extruding 
G1 X57.593 Y62.419 ;extruding 
G1 X56.765 Y61.737 ;extruding 
G1 X56.647 Y61.660 ;extruding 
G1 X55.882 Y60.908 ;extruding 
G1 X55.771 Y60.821 ;extruding 
G1 X55.075 Y60.006 ;extruding 
G1 X54.304 Y59.276 ;extruding 
G1 X51.648 Y61.022 ;extruding 
G1 X50.073 Y61.874 ;extruding 
G1 X49.371 Y62.203 ;extruding 
G1 X48.208 Y62.693 ;extruding 
G1 X47.226 Y63.050 ;extruding 
G1 X45.284 Y63.662 ;extruding 
G1 X45.616 Y64.781 ;extruding 
G1 X45.864 Y65.992 ;extruding 
G1 X45.928 Y66.454 ;extruding 
G1 X46.002 Y67.188 ;extruding 
G1 X46.037 Y68.341 ;extruding 
G1 X45.962 Y69.652 ;extruding 
G1 X45.785 Y70.841 ;extruding 
G1 X45.520 Y71.957 ;extruding 
G1 X45.345 Y72.534 ;extruding 
G1 X44.991 Y73.501 ;extruding 
G1 X44.925 Y73.646 ;extruding 
G1 X44.587 Y73.694 ;extruding 
G1 X44.307 Y73.767 ;extruding 
G1 X44.096 Y73.797 ;extruding 
G1 X43.615 Y73.240 ;extruding 
G1 X43.006 Y72.358 ;extruding 
G1 X42.914 Y72.252 ;extruding 
G1 X42.384 Y71.320 ;extruding 
G1 X42.303 Y71.205 ;extruding 
G1 X41.786 Y70.110 ;extruding 
G1 X41.367 Y68.973 ;extruding 
G1 X41.050 Y67.804 ;extruding 
G1 X40.837 Y66.612 ;extruding 
G1 X40.753 Y65.543 ;extruding 
G1 X40.572 Y64.493 ;extruding 
G1 X37.387 Y64.345 ;extruding 
G1 X35.614 Y64.109 ;extruding 
G1 X34.855 Y63.963 ;extruding 
G1 X33.626 Y63.676 ;extruding 
G1 X32.624 Y63.387 ;extruding 
G1 X30.710 Y62.746 ;extruding 
G1 X30.310 Y63.818 ;extruding 
G1 X29.561 Y65.384 ;extruding 
G1 X29.200 Y65.994 ;extruding 
G1 X28.549 Y66.943 ;extruding 
G1 X27.835 Y67.816 ;extruding 
G1 X27.448 Y68.242 ;extruding 
G1 X27.005 Y68.677 ;extruding 
G1 X26.199 Y69.388 ;extruding 
G1 X24.938 Y70.307 ;extruding 
G1 X24.516 Y70.555 ;extruding 
G1 X23.733 Y70.139 ;extruding 
G1 X23.695 Y69.659 ;extruding 
G1 X23.720 Y67.930 ;extruding 
G1 X23.822 Y67.062 ;extruding 
G1 X23.947 Y66.381 ;extruding 
G1 X23.963 Y66.213 ;extruding 
G1 X24.038 Y65.884 ;extruding 
G1 X24.387 Y64.712 ;extruding 
G1 X24.413 Y64.569 ;extruding 
G1 X24.780 Y63.644 ;extruding 
G1 X24.821 Y63.492 ;extruding 
G1 X25.115 Y62.834 ;extruding 
G1 X25.310 Y62.466 ;extruding 
G1 X25.907 Y61.491 ;extruding 
G1 X26.358 Y60.529 ;extruding 
G1 X23.882 Y58.542 ;extruding 
G1 X22.586 Y57.305 ;extruding 
G1 X22.056 Y56.736 ;extruding 
G1 X21.230 Y55.781 ;extruding 
G1 X20.588 Y54.953 ;extruding 
G1 X19.448 Y53.355 ;extruding 
G1 X17.528 Y54.473 ;extruding 
G1 X16.946 Y54.765 ;extruding 
G1 X16.279 Y55.055 ;extruding 
G1 X15.193 Y55.441 ;extruding 
G1 X13.923 Y55.771 ;extruding 
G1 X13.542 Y55.845 ;extruding 
G1 X12.832 Y55.954 ;extruding 
G1 X11.594 Y56.057 ;extruding 
G1 X10.997 Y56.067 ;extruding 
G1 X10.302 Y56.046 ;extruding 
G1 X9.800 Y55.999 ;extruding 
G1 X9.409 Y55.202 ;extruding 
G1 X9.656 Y54.797 ;extruding 
G1 X10.690 Y53.415 ;extruding 
G1 X11.283 Y52.773 ;extruding 
G1 X11.785 Y52.295 ;extruding 
G1 X11.895 Y52.170 ;extruding 
G1 X12.148 Y51.949 ;extruding 
G1 X13.120 Y51.206 ;extruding 
G1 X13.223 Y51.107 ;extruding 
G1 X14.063 Y50.574 ;extruding 
G1 X14.183 Y50.477 ;extruding 
G1 X14.810 Y50.117 ;extruding 
G1 X15.831 Y49.631 ;extruding 
G1 X17.197 Y49.100 ;extruding 
G1 X16.328 Y45.924 ;extruding 
G1 X16.005 Y44.162 ;extruding 
G1 X15.910 Y43.393 ;extruding 
G1 X15.804 Y42.134 ;extruding 
G1 X15.769 Y41.089 ;extruding 
G1 X15.787 Y39.059 ;extruding 
G1 X14.624 Y39.022 ;extruding 
G1 X13.394 Y38.883 ;extruding 
G1 X12.941 Y38.802 ;extruding 
G1 X12.032 Y38.590 ;extruding 
G1 X11.289 Y38.373 ;extruding 
G1 X9.420 Y37.621 ;extruding 
G1 X8.886 Y37.344 ;extruding 
G1 X8.358 Y37.041 ;extruding 
G1 X7.772 Y36.665 ;extruding 
G1 X6.918 Y36.037 ;extruding 
G1 X6.411 Y35.613 ;extruding 
G1 X6.526 Y34.771 ;extruding 
G1 X6.898 Y34.600 ;extruding 
G1 X7.315 Y34.440 ;extruding 
G1 X8.635 Y34.050 ;extruding 
G1 X9.499 Y33.878 ;extruding 
G1 X10.343 Y33.751 ;extruding 
G1 X10.681 Y33.721 ;extruding 
G1 X11.900 Y33.691 ;extruding 
G1 X12.040 Y33.673 ;extruding 
G1 X13.032 Y33.736 ;extruding 
G1 X13.194 Y33.729 ;extruding 
G1 X13.947 Y33.812 ;extruding 
G1 X15.023 Y34.019 ;extruding 
G1 X16.433 Y34.391 ;extruding 
G1 X17.595 Y31.312 ;extruding 
G1 X18.369 Y29.698 ;extruding 
G1 X18.742 Y29.020 ;extruding 
G1 X19.396 Y27.940 ;extruding 
G1 X19.981 Y27.075 ;extruding 
G1 X21.196 Y25.433 ;extruding 
G1 X20.262 Y24.727 ;extruding 
G1 X19.360 Y23.905 ;extruding 
G1 X18.531 Y23.005 ;extruding 
G1 X17.830 Y22.100 ;extruding 
G1 X17.168 Y21.075 ;extruding 
G1 X16.930 Y20.654 ;extruding 
G1 X16.606 Y20.017 ;extruding 
G1 X16.121 Y18.873 ;extruding 
G1 X15.924 Y18.307 ;extruding 
G1 X15.749 Y17.722 ;extruding 
G1 X15.603 Y17.146 ;extruding 
G1 X16.192 Y16.555 ;extruding 
G1 X16.903 Y16.722 ;extruding 
G1 X18.051 Y17.111 ;extruding 
G1 X19.160 Y17.599 ;extruding 
G1 X20.222 Y18.183 ;extruding 
G1 X21.229 Y18.858 ;extruding 
G1 X22.173 Y19.618 ;extruding 
G1 X23.046 Y20.459 ;extruding 
G1 X23.742 Y21.274 ;extruding 
G1 X24.502 Y22.024 ;extruding 
G1 X27.171 Y20.270 ;extruding 
G1 X28.743 Y19.420 ;extruding 
G1 X29.442 Y19.093 ;extruding 
G1 X30.606 Y18.604 ;extruding 
G1 X31.586 Y18.249 ;extruding 
G1 X33.509 Y17.643 ;extruding 
G1 X33.206 Y16.540 ;extruding 
G1 X32.891 Y14.830 ;extruding 
G1 X32.824 Y14.123 ;extruding 
G1 X32.794 Y12.971 ;extruding 
G1 X32.859 Y11.845 ;extruding 
G1 X32.921 Y11.272 ;extruding 
G1 X33.024 Y10.659 ;extruding 
G1 X33.258 Y9.608 ;extruding 
G1 X33.739 Y8.120 ;extruding 
G1 X33.934 Y7.673 ;extruding 
G1 X34.815 Y7.548 ;extruding 
G1 X35.126 Y7.911 ;extruding 
G1 X36.122 Y9.321 ;extruding 
G1 X36.549 Y10.084 ;extruding 
G1 X36.849 Y10.711 ;extruding 
G1 X36.936 Y10.854 ;extruding 
G1 X37.067 Y11.162 ;extruding 
G1 X37.474 Y12.318 ;extruding 
G1 X37.537 Y12.447 ;extruding 
G1 X37.784 Y13.410 ;extruding 
G1 X37.840 Y13.556 ;extruding 
G1 X37.989 Y14.260 ;extruding 
G1 X38.048 Y14.671 ;extruding 
G1 X38.138 Y15.812 ;extruding 
G1 X38.341 Y16.853 ;extruding 
G1 X41.510 Y17.003 ;extruding 
G1 X43.287 Y17.242 ;extruding 
G1 X44.049 Y17.389 ;extruding 
G1 X45.279 Y17.677 ;extruding 
G1 X46.285 Y17.967 ;extruding 
G1 X48.146 Y18.590 ;extruding 
G1 X49.043 Y16.556 ;extruding 
G1 X49.342 Y15.976 ;extruding 
G1 X49.712 Y15.347 ;extruding 
G1 X50.363 Y14.396 ;extruding 
G1 X51.197 Y13.380 ;extruding 
G1 X51.461 Y13.097 ;extruding 
G1 X52.040 Y12.525 ;extruding 
G1 X52.912 Y11.779 ;extruding 
G1 X53.392 Y11.416 ;extruding 
G1 X53.896 Y11.070 ;extruding 
G1 X54.387 Y10.763 ;extruding 
G1 X54.688 Y10.923 ;extruding 
G1 X54.961 Y11.032 ;extruding 
G1 X55.153 Y11.133 ;extruding 
G1 X55.191 Y11.731 ;extruding 
G1 X55.216 Y11.872 ;extruding 
G1 X55.191 Y12.945 ;extruding 
G1 X55.204 Y13.087 ;extruding 
G1 X55.084 Y14.153 ;extruding 
G1 X55.084 Y14.295 ;extruding 
G1 X54.872 Y15.346 ;extruding 
G1 X54.860 Y15.488 ;extruding 
G1 X54.557 Y16.516 ;extruding 
G1 X54.532 Y16.656 ;extruding 
G1 X54.140 Y17.654 ;extruding 
G1 X54.103 Y17.790 ;extruding 
G1 X53.625 Y18.750 ;extruding 
G1 X53.576 Y18.882 ;extruding 
G1 X53.015 Y19.797 ;extruding 
G1 X52.597 Y20.677 ;extruding 
FILEWRITE $hFile"\x05\x02\x30\x34\x44\x49\x20\x20\x43\x46\x03"
G1 X53.048 Y20.643 ;not extruding 
FILEWRITE $hFile"\x05\x02\x30\x34\x44\x49\x20\x20\x43\x46\x03"
DWELL 0.15
G1 X55.300 Y22.445 ;extruding 
G1 X56.617 Y23.700 ;extruding 
G1 X57.160 Y24.279 ;extruding 
G1 X57.997 Y25.248 ;extruding 
G1 X58.651 Y26.086 ;extruding 
G1 X59.614 Y27.436 ;extruding 
G1 X60.272 Y26.984 ;extruding 
G1 X61.365 Y26.363 ;extruding 
G1 X62.509 Y25.839 ;extruding 
G1 X63.619 Y25.441 ;extruding 
G1 X64.910 Y25.102 ;extruding 
G1 X66.149 Y24.893 ;extruding 
G1 X67.314 Y24.799 ;extruding 
G1 X67.937 Y24.786 ;extruding 
G1 X68.569 Y24.801 ;extruding 
G1 X69.383 Y24.868 ;extruding 
G1 X69.617 Y25.348 ;extruding 
G1 X69.773 Y25.593 ;extruding 
G1 X69.973 Y26.002 ;extruding 
G1 X69.549 Y26.672 ;extruding 
G1 X69.479 Y26.814 ;extruding 
G1 X68.818 Y27.680 ;extruding 
G1 X68.735 Y27.815 ;extruding 
G1 X68.001 Y28.620 ;extruding 
G1 X67.907 Y28.746 ;extruding 
G1 X67.105 Y29.484 ;extruding 
G1 X67.000 Y29.602 ;extruding 
G1 X66.136 Y30.266 ;extruding 
G1 X66.022 Y30.374 ;extruding 
G1 X65.103 Y30.960 ;extruding 
G1 X64.979 Y31.057 ;extruding 
G1 X64.013 Y31.560 ;extruding 
G1 X63.881 Y31.646 ;extruding 
G1 X62.874 Y32.063 ;extruding 
G1 X62.227 Y32.403 ;extruding 
G1 X62.991 Y35.190 ;extruding 
G1 X63.320 Y36.978 ;extruding 
G1 X63.418 Y37.763 ;extruding 
G1 X63.526 Y39.038 ;extruding 
G1 X63.562 Y40.099 ;extruding 
G1 X63.548 Y41.693 ;extruding 
G1 X65.748 Y41.986 ;extruding 
G1 X66.099 Y42.017 ;extruding 
G1 X66.809 Y42.176 ;extruding 
G1 X67.942 Y42.511 ;extruding 
G1 X69.183 Y42.999 ;extruding 
G1 X70.138 Y43.476 ;extruding 
G1 X71.086 Y44.035 ;extruding 
G1 X72.383 Y44.974 ;extruding 
G1 X72.927 Y45.456 ;extruding 
G1 X72.698 Y46.761 ;extruding 
G1 X72.041 Y47.035 ;extruding 
G1 X70.355 Y47.557 ;extruding 
G1 X69.465 Y47.734 ;extruding 
G1 X68.783 Y47.825 ;extruding 
G1 X68.611 Y47.865 ;extruding 
G1 X68.237 Y47.898 ;extruding 
G1 X67.023 Y47.928 ;extruding 
G1 X66.863 Y47.951 ;extruding 
G1 X65.853 Y47.887 ;extruding 
G1 X65.685 Y47.896 ;extruding 
G1 X65.119 Y47.823 ;extruding 
G1 X64.944 Y47.817 ;extruding 
G1 X64.496 Y47.740 ;extruding 
G1 X63.392 Y47.475 ;extruding 
G1 X62.668 Y47.386 ;extruding 
G1 X61.648 Y50.082 ;extruding 
G1 X60.860 Y51.723 ;extruding 
G1 X60.475 Y52.419 ;extruding 
G1 X59.813 Y53.515 ;extruding 
G1 X59.215 Y54.397 ;extruding 
G1 X58.233 Y55.723 ;extruding 
G1 X58.856 Y56.214 ;extruding 
G1 X59.791 Y57.071 ;extruding 
G1 X60.128 Y57.421 ;extruding 
G1 X60.630 Y57.989 ;extruding 
G1 X61.353 Y58.927 ;extruding 
G1 X61.977 Y59.898 ;extruding 
G1 X62.277 Y60.419 ;extruding 
G1 X62.649 Y61.162 ;extruding 
G1 X63.099 Y62.245 ;extruding 
G1 X63.301 Y62.829 ;extruding 
G1 X63.566 Y63.773 ;extruding 
G1 X63.666 Y64.239 ;extruding 
G1 X63.286 Y64.607 ;extruding 
G1 X63.098 Y64.832 ;extruding 
G1 X62.769 Y65.150 ;extruding 
G1 X61.998 Y64.953 ;extruding 
G1 X61.839 Y64.931 ;extruding 
G1 X60.810 Y64.570 ;extruding 
G1 X60.654 Y64.534 ;extruding 
G1 X59.661 Y64.084 ;extruding 
G1 X59.510 Y64.035 ;extruding 
G1 X58.560 Y63.500 ;extruding 
G1 X58.413 Y63.438 ;extruding 
G1 X57.514 Y62.821 ;extruding 
G1 X57.374 Y62.747 ;extruding 
G1 X56.532 Y62.054 ;extruding 
G1 X56.400 Y61.967 ;extruding 
G1 X55.622 Y61.203 ;extruding 
G1 X55.498 Y61.105 ;extruding 
G1 X54.790 Y60.277 ;extruding 
G1 X54.260 Y59.775 ;extruding 
G1 X51.850 Y61.360 ;extruding 
G1 X50.250 Y62.225 ;extruding 
G1 X49.531 Y62.562 ;extruding 
G1 X48.351 Y63.059 ;extruding 
G1 X47.352 Y63.422 ;extruding 
G1 X45.770 Y63.920 ;extruding 
G1 X45.997 Y64.686 ;extruding 
G1 X46.251 Y65.925 ;extruding 
G1 X46.394 Y67.163 ;extruding 
G1 X46.430 Y68.346 ;extruding 
G1 X46.353 Y69.687 ;extruding 
G1 X46.304 Y70.092 ;extruding 
G1 X46.170 Y70.918 ;extruding 
G1 X45.899 Y72.059 ;extruding 
G1 X45.719 Y72.655 ;extruding 
G1 X45.510 Y73.251 ;extruding 
G1 X45.194 Y74.005 ;extruding 
G1 X44.664 Y74.080 ;extruding 
G1 X44.384 Y74.153 ;extruding 
G1 X43.933 Y74.216 ;extruding 
G1 X43.427 Y73.605 ;extruding 
G1 X43.314 Y73.495 ;extruding 
G1 X42.694 Y72.598 ;extruding 
G1 X42.591 Y72.479 ;extruding 
G1 X42.053 Y71.531 ;extruding 
G1 X41.961 Y71.403 ;extruding 
G1 X41.508 Y70.412 ;extruding 
G1 X41.428 Y70.276 ;extruding 
G1 X41.063 Y69.249 ;extruding 
G1 X40.996 Y69.107 ;extruding 
G1 X40.723 Y68.052 ;extruding 
G1 X40.669 Y67.905 ;extruding 
G1 X40.488 Y66.830 ;extruding 
G1 X40.448 Y66.678 ;extruding 
G1 X40.363 Y65.592 ;extruding 
G1 X40.239 Y64.871 ;extruding 
G1 X37.352 Y64.737 ;extruding 
G1 X35.551 Y64.497 ;extruding 
G1 X34.774 Y64.347 ;extruding 
G1 X33.527 Y64.056 ;extruding 
G1 X32.507 Y63.762 ;extruding 
G1 X30.945 Y63.239 ;extruding 
G1 X30.672 Y63.972 ;extruding 
G1 X29.908 Y65.569 ;extruding 
G1 X29.532 Y66.205 ;extruding 
G1 X28.863 Y67.179 ;extruding 
G1 X28.132 Y68.072 ;extruding 
G1 X27.731 Y68.514 ;extruding 
G1 X27.273 Y68.964 ;extruding 
G1 X26.445 Y69.695 ;extruding 
G1 X25.154 Y70.636 ;extruding 
G1 X24.526 Y71.004 ;extruding 
G1 X23.359 Y70.385 ;extruding 
G1 X23.302 Y69.672 ;extruding 
G1 X23.327 Y67.904 ;extruding 
G1 X23.434 Y67.004 ;extruding 
G1 X23.558 Y66.328 ;extruding 
G1 X23.574 Y66.151 ;extruding 
G1 X23.658 Y65.784 ;extruding 
G1 X24.005 Y64.622 ;extruding 
G1 X24.033 Y64.461 ;extruding 
G1 X24.406 Y63.520 ;extruding 
G1 X24.451 Y63.356 ;extruding 
G1 X24.755 Y62.674 ;extruding 
G1 X24.968 Y62.271 ;extruding 
G1 X25.561 Y61.304 ;extruding 
G1 X25.871 Y60.642 ;extruding 
G1 X23.623 Y58.838 ;extruding 
G1 X22.306 Y57.581 ;extruding 
G1 X21.764 Y56.998 ;extruding 
G1 X20.927 Y56.030 ;extruding 
G1 X20.273 Y55.188 ;extruding 
G1 X19.337 Y53.875 ;extruding 
G1 X17.715 Y54.818 ;extruding 
G1 X17.113 Y55.120 ;extruding 
G1 X16.423 Y55.420 ;extruding 
G1 X15.309 Y55.816 ;extruding 
G1 X14.010 Y56.154 ;extruding 
G1 X12.878 Y56.344 ;extruding 
G1 X11.614 Y56.449 ;extruding 
G1 X10.995 Y56.460 ;extruding 
G1 X10.277 Y56.438 ;extruding 
G1 X9.544 Y56.369 ;extruding 
G1 X8.955 Y55.192 ;extruding 
G1 X9.331 Y54.577 ;extruding 
G1 X10.388 Y53.164 ;extruding 
G1 X11.003 Y52.498 ;extruding 
G1 X11.501 Y52.024 ;extruding 
G1 X11.616 Y51.892 ;extruding 
G1 X11.900 Y51.644 ;extruding 
G1 X12.864 Y50.908 ;extruding 
G1 X12.979 Y50.796 ;extruding 
G1 X13.833 Y50.255 ;extruding 
G1 X13.964 Y50.150 ;extruding 
G1 X14.612 Y49.777 ;extruding 
G1 X15.112 Y49.525 ;extruding 
G1 X15.679 Y49.269 ;extruding 
G1 X16.725 Y48.862 ;extruding 
G1 X15.945 Y46.012 ;extruding 
G1 X15.617 Y44.222 ;extruding 
G1 X15.519 Y43.433 ;extruding 
G1 X15.411 Y42.158 ;extruding 
G1 X15.376 Y41.094 ;extruding 
G1 X15.391 Y39.439 ;extruding 
G1 X14.595 Y39.414 ;extruding 
G1 X13.337 Y39.271 ;extruding 
G1 X12.862 Y39.187 ;extruding 
G1 X11.933 Y38.970 ;extruding 
G1 X11.159 Y38.745 ;extruding 
G1 X9.925 Y38.239 ;extruding 
G1 X9.564 Y38.114 ;extruding 
G1 X9.250 Y37.975 ;extruding 
G1 X8.697 Y37.689 ;extruding 
G1 X8.154 Y37.377 ;extruding 
G1 X7.549 Y36.989 ;extruding 
G1 X6.678 Y36.348 ;extruding 
G1 X5.986 Y35.760 ;extruding 
G1 X6.177 Y34.491 ;extruding 
G1 X6.735 Y34.241 ;extruding 
G1 X7.189 Y34.068 ;extruding 
G1 X8.541 Y33.668 ;extruding 
G1 X9.435 Y33.490 ;extruding 
G1 X10.283 Y33.362 ;extruding 
G1 X10.659 Y33.329 ;extruding 
G1 X11.870 Y33.299 ;extruding 
G1 X12.027 Y33.279 ;extruding 
G1 X13.036 Y33.343 ;extruding 
G1 X13.207 Y33.336 ;extruding 
G1 X14.006 Y33.423 ;extruding 
G1 X15.110 Y33.636 ;extruding 
G1 X16.191 Y33.921 ;extruding 
G1 X17.234 Y31.157 ;extruding 
G1 X18.020 Y29.518 ;extruding 
G1 X18.402 Y28.824 ;extruding 
G1 X19.065 Y27.728 ;extruding 
G1 X19.660 Y26.849 ;extruding 
G1 X20.649 Y25.512 ;extruding 
G1 X20.010 Y25.029 ;extruding 
G1 X19.083 Y24.184 ;extruding 
G1 X18.231 Y23.259 ;extruding 
G1 X17.509 Y22.328 ;extruding 
G1 X16.832 Y21.279 ;extruding 
G1 X16.583 Y20.840 ;extruding 
G1 X16.250 Y20.182 ;extruding 
G1 X15.755 Y19.014 ;extruding 
G1 X15.551 Y18.428 ;extruding 
G1 X15.370 Y17.827 ;extruding 
G1 X15.177 Y17.020 ;extruding 
G1 X16.076 Y16.120 ;extruding 
G1 X16.843 Y16.316 ;extruding 
G1 X16.999 Y16.340 ;extruding 
G1 X18.027 Y16.701 ;extruding 
G1 X18.180 Y16.738 ;extruding 
G1 X19.173 Y17.188 ;extruding 
G1 X19.322 Y17.240 ;extruding 
G1 X20.271 Y17.775 ;extruding 
G1 X20.415 Y17.839 ;extruding 
G1 X21.452 Y18.532 ;extruding 
G1 X22.423 Y19.314 ;extruding 
G1 X23.322 Y20.177 ;extruding 
G1 X24.030 Y21.006 ;extruding 
G1 X24.552 Y21.522 ;extruding 
G1 X26.969 Y19.933 ;extruding 
G1 X28.567 Y19.070 ;extruding 
G1 X29.283 Y18.735 ;extruding 
G1 X30.463 Y18.238 ;extruding 
G1 X31.460 Y17.877 ;extruding 
G1 X33.030 Y17.382 ;extruding 
G1 X32.822 Y16.628 ;extruding 
G1 X32.502 Y14.884 ;extruding 
G1 X32.432 Y14.147 ;extruding 
G1 X32.401 Y12.964 ;extruding 
G1 X32.467 Y11.812 ;extruding 
G1 X32.532 Y11.218 ;extruding 
G1 X32.638 Y10.584 ;extruding 
G1 X32.879 Y9.505 ;extruding 
G1 X33.371 Y7.980 ;extruding 
G1 X33.662 Y7.315 ;extruding 
G1 X34.973 Y7.129 ;extruding 
G1 X35.436 Y7.669 ;extruding 
G1 X36.454 Y9.112 ;extruding 
G1 X36.898 Y9.903 ;extruding 
G1 X37.195 Y10.524 ;extruding 
G1 X37.286 Y10.675 ;extruding 
G1 X37.433 Y11.020 ;extruding 
G1 X37.837 Y12.165 ;extruding 
G1 X37.908 Y12.311 ;extruding 
G1 X38.159 Y13.291 ;extruding 
G1 X38.220 Y13.448 ;extruding 
G1 X38.326 Y14.009 ;extruding 
G1 X38.374 Y14.177 ;extruding 
G1 X38.439 Y14.628 ;extruding 
G1 X38.528 Y15.759 ;extruding 
G1 X38.667 Y16.475 ;extruding 
G1 X41.546 Y16.612 ;extruding 
G1 X43.350 Y16.854 ;extruding 
G1 X44.131 Y17.005 ;extruding 
G1 X45.378 Y17.297 ;extruding 
G1 X46.402 Y17.592 ;extruding 
G1 X47.931 Y18.104 ;extruding 
G1 X48.689 Y16.386 ;extruding 
G1 X48.998 Y15.786 ;extruding 
G1 X49.380 Y15.137 ;extruding 
G1 X50.049 Y14.160 ;extruding 
G1 X50.902 Y13.122 ;extruding 
G1 X51.774 Y12.236 ;extruding 
G1 X52.666 Y11.473 ;extruding 
G1 X53.163 Y11.098 ;extruding 
G1 X53.681 Y10.741 ;extruding 
G1 X54.381 Y10.315 ;extruding 
G1 X54.854 Y10.566 ;extruding 
G1 X55.127 Y10.675 ;extruding 
G1 X55.530 Y10.889 ;extruding 
G1 X55.581 Y11.684 ;extruding 
G1 X55.610 Y11.842 ;extruding 
G1 X55.584 Y12.932 ;extruding 
G1 X55.598 Y13.091 ;extruding 
G1 X55.477 Y14.174 ;extruding 
G1 X55.477 Y14.334 ;extruding 
G1 X55.262 Y15.403 ;extruding 
G1 X55.248 Y15.561 ;extruding 
G1 X54.939 Y16.607 ;extruding 
G1 X54.912 Y16.763 ;extruding 
G1 X54.513 Y17.778 ;extruding 
G1 X54.471 Y17.931 ;extruding 
G1 X53.985 Y18.906 ;extruding 
G1 X53.930 Y19.055 ;extruding 
G1 X53.361 Y19.984 ;extruding 
G1 X53.085 Y20.564 ;extruding 
FILEWRITE $hFile"\x05\x02\x30\x34\x44\x49\x20\x20\x43\x46\x03"
G1 X53.536 Y20.531 ;not extruding 
FILEWRITE $hFile"\x05\x02\x30\x34\x44\x49\x20\x20\x43\x46\x03"
DWELL 0.15
G1 X55.558 Y22.149 ;extruding 
G1 X56.896 Y23.423 ;extruding 
G1 X57.452 Y24.016 ;extruding 
G1 X58.301 Y24.998 ;extruding 
G1 X58.966 Y25.851 ;extruding 
G1 X59.709 Y26.894 ;extruding 
G1 X60.063 Y26.651 ;extruding 
G1 X61.186 Y26.013 ;extruding 
G1 X62.361 Y25.475 ;extruding 
G1 X63.503 Y25.066 ;extruding 
G1 X64.828 Y24.717 ;extruding 
G1 X66.101 Y24.503 ;extruding 
G1 X67.294 Y24.406 ;extruding 
G1 X67.938 Y24.393 ;extruding 
G1 X69.032 Y24.434 ;extruding 
G1 X69.641 Y24.502 ;extruding 
G1 X69.960 Y25.156 ;extruding 
G1 X70.116 Y25.400 ;extruding 
G1 X70.422 Y26.026 ;extruding 
G1 X69.892 Y26.865 ;extruding 
G1 X69.814 Y27.022 ;extruding 
G1 X69.142 Y27.902 ;extruding 
G1 X69.051 Y28.052 ;extruding 
G1 X68.304 Y28.870 ;extruding 
G1 X68.200 Y29.010 ;extruding 
G1 X67.385 Y29.760 ;extruding 
G1 X67.269 Y29.890 ;extruding 
G1 X66.391 Y30.566 ;extruding 
G1 X66.264 Y30.685 ;extruding 
G1 X65.330 Y31.281 ;extruding 
G1 X65.193 Y31.388 ;extruding 
G1 X64.211 Y31.900 ;extruding 
G1 X64.065 Y31.995 ;extruding 
G1 X63.041 Y32.419 ;extruding 
G1 X62.689 Y32.604 ;extruding 
G1 X63.374 Y35.103 ;extruding 
G1 X63.708 Y36.918 ;extruding 
G1 X63.809 Y37.722 ;extruding 
G1 X63.918 Y39.015 ;extruding 
G1 X63.955 Y40.094 ;extruding 
G1 X63.943 Y41.350 ;extruding 
G1 X65.791 Y41.595 ;extruding 
G1 X66.160 Y41.628 ;extruding 
G1 X66.907 Y41.795 ;extruding 
G1 X68.070 Y42.139 ;extruding 
G1 X69.343 Y42.640 ;extruding 
G1 X70.326 Y43.130 ;extruding 
G1 X71.301 Y43.706 ;extruding 
G1 X72.629 Y44.668 ;extruding 
G1 X73.351 Y45.308 ;extruding 
G1 X73.080 Y46.856 ;extruding 
G1 X73.066 Y47.029 ;extruding 
G1 X72.175 Y47.404 ;extruding 
G1 X70.451 Y47.938 ;extruding 
G1 X69.530 Y48.122 ;extruding 
G1 X68.853 Y48.212 ;extruding 
G1 X68.673 Y48.254 ;extruding 
G1 X68.260 Y48.291 ;extruding 
G1 X67.056 Y48.320 ;extruding 
G1 X66.879 Y48.345 ;extruding 
G1 X65.852 Y48.280 ;extruding 
G1 X65.670 Y48.290 ;extruding 
G1 X65.087 Y48.215 ;extruding 
G1 X64.903 Y48.209 ;extruding 
G1 X64.416 Y48.125 ;extruding 
G1 X63.322 Y47.862 ;extruding 
G1 X62.926 Y47.814 ;extruding 
G1 X62.010 Y50.236 ;extruding 
G1 X61.209 Y51.903 ;extruding 
G1 X60.815 Y52.616 ;extruding 
G1 X60.143 Y53.727 ;extruding 
G1 X59.536 Y54.624 ;extruding 
G1 X58.776 Y55.651 ;extruding 
G1 X59.110 Y55.915 ;extruding 
G1 X60.065 Y56.790 ;extruding 
G1 X60.416 Y57.155 ;extruding 
G1 X60.933 Y57.738 ;extruding 
G1 X61.674 Y58.701 ;extruding 
G1 X62.312 Y59.694 ;extruding 
G1 X62.622 Y60.233 ;extruding 
G1 X63.006 Y60.998 ;extruding 
G1 X63.466 Y62.106 ;extruding 
G1 X63.676 Y62.712 ;extruding 
G1 X63.947 Y63.679 ;extruding 
G1 X64.096 Y64.370 ;extruding 
G1 X63.574 Y64.874 ;extruding 
G1 X63.386 Y65.100 ;extruding 
G1 X62.885 Y65.585 ;extruding 
G1 X61.922 Y65.339 ;extruding 
G1 X61.746 Y65.315 ;extruding 
G1 X60.701 Y64.948 ;extruding 
G1 X60.528 Y64.908 ;extruding 
G1 X59.519 Y64.451 ;extruding 
G1 X59.351 Y64.397 ;extruding 
G1 X58.386 Y63.853 ;extruding 
G1 X58.224 Y63.784 ;extruding 
G1 X57.310 Y63.158 ;extruding 
G1 X57.155 Y63.075 ;extruding 
G1 X56.299 Y62.371 ;extruding 
G1 X56.152 Y62.274 ;extruding 
G1 X55.362 Y61.498 ;extruding 
G1 X55.224 Y61.390 ;extruding 
G1 X54.505 Y60.547 ;extruding 
G1 X54.216 Y60.274 ;extruding 
G1 X52.052 Y61.697 ;extruding 
G1 X50.426 Y62.576 ;extruding 
G1 X49.691 Y62.921 ;extruding 
G1 X48.495 Y63.425 ;extruding 
G1 X47.478 Y63.794 ;extruding 
G1 X46.256 Y64.179 ;extruding 
G1 X46.378 Y64.591 ;extruding 
G1 X46.639 Y65.859 ;extruding 
G1 X46.786 Y67.137 ;extruding 
G1 X46.823 Y68.352 ;extruding 
G1 X46.745 Y69.722 ;extruding 
G1 X46.556 Y70.995 ;extruding 
G1 X46.278 Y72.161 ;extruding 
G1 X46.092 Y72.777 ;extruding 
G1 X45.715 Y73.806 ;extruding 
G1 X45.462 Y74.363 ;extruding 
G1 X44.742 Y74.465 ;extruding 
G1 X44.461 Y74.538 ;extruding 
G1 X43.771 Y74.636 ;extruding 
G1 X43.138 Y73.872 ;extruding 
G1 X43.012 Y73.750 ;extruding 
G1 X42.383 Y72.838 ;extruding 
G1 X42.269 Y72.706 ;extruding 
G1 X41.721 Y71.743 ;extruding 
G1 X41.620 Y71.600 ;extruding 
G1 X41.159 Y70.593 ;extruding 
G1 X41.071 Y70.443 ;extruding 
G1 X40.700 Y69.399 ;extruding 
G1 X40.625 Y69.241 ;extruding 
G1 X40.347 Y68.169 ;extruding 
G1 X40.287 Y68.005 ;extruding 
G1 X40.104 Y66.913 ;extruding 
G1 X40.059 Y66.745 ;extruding 
G1 X39.972 Y65.641 ;extruding 
G1 X39.905 Y65.249 ;extruding 
G1 X37.317 Y65.128 ;extruding 
G1 X35.488 Y64.884 ;extruding 
G1 X34.692 Y64.732 ;extruding 
G1 X33.428 Y64.436 ;extruding 
G1 X32.391 Y64.137 ;extruding 
G1 X31.180 Y63.732 ;extruding 
G1 X31.034 Y64.125 ;extruding 
G1 X30.255 Y65.754 ;extruding 
G1 X29.863 Y66.417 ;extruding 
G1 X29.177 Y67.415 ;extruding 
G1 X28.430 Y68.329 ;extruding 
G1 X28.014 Y68.786 ;extruding 
G1 X27.541 Y69.252 ;extruding 
G1 X26.691 Y70.002 ;extruding 
G1 X25.369 Y70.964 ;extruding 
G1 X24.536 Y71.454 ;extruding 
G1 X23.146 Y70.717 ;extruding 
G1 X22.990 Y70.651 ;extruding 
G1 X22.909 Y69.684 ;extruding 
G1 X22.935 Y67.879 ;extruding 
G1 X23.045 Y66.945 ;extruding 
G1 X23.168 Y66.275 ;extruding 
G1 X23.185 Y66.090 ;extruding 
G1 X23.278 Y65.684 ;extruding 
G1 X23.622 Y64.531 ;extruding 
G1 X23.654 Y64.353 ;extruding 
G1 X24.033 Y63.397 ;extruding 
G1 X24.081 Y63.220 ;extruding 
G1 X24.332 Y62.688 ;extruding 
G1 X24.396 Y62.514 ;extruding 
G1 X24.627 Y62.077 ;extruding 
G1 X25.214 Y61.118 ;extruding 
G1 X25.384 Y60.755 ;extruding 
G1 X23.364 Y59.134 ;extruding 
G1 X22.027 Y57.857 ;extruding 
G1 X21.471 Y57.261 ;extruding 
G1 X20.623 Y56.278 ;extruding 
G1 X19.958 Y55.422 ;extruding 
G1 X19.225 Y54.394 ;extruding 
G1 X17.902 Y55.164 ;extruding 
G1 X17.279 Y55.476 ;extruding 
G1 X16.567 Y55.786 ;extruding 
G1 X15.424 Y56.192 ;extruding 
G1 X14.097 Y56.537 ;extruding 
G1 X13.676 Y56.619 ;extruding 
G1 X12.924 Y56.734 ;extruding 
G1 X11.634 Y56.842 ;extruding 
G1 X10.992 Y56.853 ;extruding 
G1 X10.253 Y56.830 ;extruding 
G1 X9.288 Y56.739 ;extruding 
G1 X8.731 Y55.600 ;extruding 
G1 X8.503 Y55.187 ;extruding 
G1 X9.005 Y54.356 ;extruding 
G1 X10.086 Y52.912 ;extruding 
G1 X10.723 Y52.222 ;extruding 
G1 X11.217 Y51.752 ;extruding 
G1 X11.338 Y51.613 ;extruding 
G1 X11.651 Y51.340 ;extruding 
G1 X12.607 Y50.609 ;extruding 
G1 X12.735 Y50.486 ;extruding 
G1 X13.604 Y49.935 ;extruding 
G1 X13.745 Y49.822 ;extruding 
G1 X14.414 Y49.437 ;extruding 
G1 X14.943 Y49.170 ;extruding 
G1 X15.527 Y48.907 ;extruding 
G1 X16.253 Y48.625 ;extruding 
G1 X15.562 Y46.099 ;extruding 
G1 X15.229 Y44.281 ;extruding 
G1 X15.129 Y43.474 ;extruding 
G1 X15.019 Y42.181 ;extruding 
G1 X14.983 Y41.099 ;extruding 
G1 X14.995 Y39.819 ;extruding 
G1 X14.567 Y39.806 ;extruding 
G1 X13.281 Y39.660 ;extruding 
G1 X12.784 Y39.572 ;extruding 
G1 X11.833 Y39.350 ;extruding 
G1 X11.029 Y39.116 ;extruding 
G1 X9.080 Y38.330 ;extruding 
G1 X8.509 Y38.034 ;extruding 
G1 X7.950 Y37.713 ;extruding 
G1 X7.327 Y37.313 ;extruding 
G1 X6.438 Y36.659 ;extruding 
G1 X6.063 Y36.356 ;extruding 
G1 X5.562 Y35.907 ;extruding 
G1 X5.660 Y35.344 ;extruding 
G1 X5.705 Y34.905 ;extruding 
G1 X5.827 Y34.211 ;extruding 
G1 X6.410 Y33.969 ;extruding 
G1 X6.573 Y33.883 ;extruding 
G1 X7.063 Y33.696 ;extruding 
G1 X8.447 Y33.287 ;extruding 
G1 X9.370 Y33.103 ;extruding 
G1 X10.045 Y33.013 ;extruding 
G1 X10.222 Y32.973 ;extruding 
G1 X10.637 Y32.936 ;extruding 
G1 X11.839 Y32.907 ;extruding 
G1 X12.014 Y32.884 ;extruding 
G1 X13.040 Y32.949 ;extruding 
G1 X13.221 Y32.942 ;extruding 
G1 X14.065 Y33.035 ;extruding 
G1 X15.198 Y33.253 ;extruding 
G1 X15.949 Y33.451 ;extruding 
G1 X16.873 Y31.003 ;extruding 
G1 X17.670 Y29.338 ;extruding 
G1 X18.062 Y28.627 ;extruding 
G1 X18.734 Y27.517 ;extruding 
G1 X19.339 Y26.622 ;extruding 
G1 X20.102 Y25.591 ;extruding 
G1 X19.759 Y25.331 ;extruding 
G1 X18.806 Y24.462 ;extruding 
G1 X17.931 Y23.513 ;extruding 
G1 X17.188 Y22.555 ;extruding 
G1 X16.496 Y21.482 ;extruding 
G1 X16.237 Y21.026 ;extruding 
G1 X15.894 Y20.348 ;extruding 
G1 X15.388 Y19.155 ;extruding 
G1 X15.177 Y18.549 ;extruding 
G1 X14.992 Y17.931 ;extruding 
G1 X14.834 Y17.307 ;extruding 
G1 X14.752 Y16.894 ;extruding 
G1 X15.961 Y15.685 ;extruding 
G1 X16.922 Y15.930 ;extruding 
G1 X17.095 Y15.957 ;extruding 
