; Postprocessed by [ArcWelder](https://github.com/FormerLurker/ArcWelderLib)
; Copyright(C) 2021 - Brad Hochgesang
; Version: 1.2.0, Branch: master, BuildDate: 2021-11-22T09:56:32Z
; resolution=0.05mm
; path_tolerance=5.0%
; max_radius=9999.00mm
; default_xyz_precision=3
; default_e_precision=5
; extrusion_rate_variance_percent=5.0%

; generated by Slic3r 1.3.0 on 2023-04-20 at 09:21:22

; external perimeters extrusion width = 0.50mm (2.95mm^3/s)
; perimeters extrusion width = 0.50mm (2.95mm^3/s)
; infill extrusion width = 0.50mm (2.95mm^3/s)
; solid infill extrusion width = 0.50mm (2.95mm^3/s)
; top infill extrusion width = 0.50mm (2.95mm^3/s)


; Filament gcode

G21 ; set units to millimeters
G90 ; use absolute coordinates
M82 ; use absolute distances for extrusion
G92 E0
G1 Z-149.500 F900.000
G1 X24.460 Y23.116 F900.000
G1 F900
G3 X27.120 Y20.600 I15.405 J13.623 E0.10181
G3 X28.057 Y20.133 I3.339 J5.525 E0.13092
G3 X37.185 Y16.588 I12.731 J19.257 E0.40503
G3 X40.145 Y16.245 I3.574 J17.901 E0.48787
G3 X41.163 Y16.416 I-0.541 J6.334 E0.51656
G3 X50.631 Y18.913 I-1.024 J23.080 E0.79067
G3 X53.227 Y20.375 I-7.621 J16.568 E0.87351
G3 X53.950 Y21.112 I-4.071 J4.717 E0.90219
G3 X59.811 Y28.087 I-14.103 J17.800 E1.15702
G3 X61.381 Y31.392 I-17.853 J10.506 E1.25874
G3 X61.535 Y32.427 I-6.370 J1.477 E1.28785
G3 X62.177 Y41.512 I-21.807 J6.106 E1.54258
G3 X61.505 Y45.112 I-20.538 J-1.971 E1.64439
G3 X61.021 Y46.040 I-5.967 J-2.522 E1.67349
G3 X56.200 Y53.767 I-21.239 J-7.884 E1.92823
G3 X53.540 Y56.284 I-15.363 J-13.572 E2.03004
G3 X52.603 Y56.751 I-3.339 J-5.525 E2.05914
G3 X44.158 Y60.169 I-12.560 J-18.891 E2.31397
G3 X40.530 Y60.641 I-4.449 J-20.017 E2.41569
G3 X39.497 Y60.468 I0.543 J-6.413 E2.44479
G3 X30.029 Y57.971 I1.024 J-23.080 E2.71890
G3 X27.432 Y56.509 I7.664 J-16.651 E2.80175
G3 X26.710 Y55.772 I4.124 J-4.763 E2.83043
G3 X20.849 Y48.796 I14.081 J-17.781 E3.08526
G3 X19.279 Y45.492 I17.806 J-10.486 E3.18698
G3 X19.125 Y44.456 I6.353 J-1.474 E3.21608
G3 X18.483 Y35.371 I21.810 J-6.106 E3.47081
G3 X19.155 Y31.772 I20.548 J1.974 E3.57262
G3 X19.639 Y30.844 I5.814 J2.442 E3.60173
G3 X24.403 Y23.182 I20.697 J7.557 E3.85405
G1 X24.750 Y23.381 F900.000
G1 F900
G3 X27.341 Y20.927 I15.037 J13.282 E3.95326
G3 X28.242 Y20.481 I3.151 J5.232 E3.98124
G3 X37.251 Y16.975 I12.557 J18.939 E4.25183
G3 X40.129 Y16.639 I3.493 J17.427 E4.33239
G3 X41.108 Y16.806 I-0.519 J5.995 E4.36002
G3 X50.456 Y19.265 I-0.979 J22.720 E4.63061
G3 X52.982 Y20.685 I-7.328 J15.992 E4.71117
G3 X53.677 Y21.396 I-3.991 J4.596 E4.73880
G3 X59.469 Y28.281 I-13.825 J17.509 E4.99047
G3 X61.001 Y31.501 I-17.193 J10.154 E5.08961
G3 X61.147 Y32.496 I-5.901 J1.374 E5.11759
G3 X61.787 Y41.469 I-21.446 J6.039 E5.36918
G3 X61.133 Y44.977 I-19.985 J-1.911 E5.46840
G3 X60.666 Y45.868 I-5.676 J-2.407 E5.49638
G3 X55.910 Y53.503 I-20.928 J-7.738 E5.74797
G3 X53.319 Y55.957 I-15.037 J-13.282 E5.84719
G3 X52.417 Y56.403 I-3.250 J-5.437 E5.87516
G3 X44.079 Y59.784 I-12.179 J-18.062 E6.12684
G3 X40.544 Y60.247 I-4.380 J-19.714 E6.22598
G3 X39.552 Y60.078 I0.585 J-6.430 E6.25395
G3 X30.203 Y57.619 I0.982 J-22.735 E6.52455
G3 X27.677 Y56.199 I7.532 J-16.355 E6.60511
G3 X26.983 Y55.488 I4.048 J-4.645 E6.63273
G3 X21.191 Y48.603 I13.856 J-17.535 E6.88441
G3 X19.659 Y45.383 I17.193 J-10.154 E6.98355
G3 X19.513 Y44.387 I5.887 J-1.372 E7.01152
G3 X18.873 Y35.415 I21.441 J-6.038 E7.26312
G3 X19.526 Y31.907 I20.158 J1.937 E7.36234
G3 X19.994 Y31.016 I5.768 J2.461 E7.39031
G3 X24.693 Y23.447 I20.382 J7.410 E7.63949
G1 X25.040 Y23.646 F900.000
G1 F900
G3 X27.561 Y21.255 I14.649 J12.921 E7.73611
G3 X28.428 Y20.828 I3.079 J5.159 E7.76296
G3 X37.316 Y17.362 I12.385 J18.632 E8.03004
G3 X40.112 Y17.033 I3.416 J16.988 E8.10831
G3 X41.054 Y17.196 I-0.569 J6.090 E8.13488
G3 X50.282 Y19.617 I-0.923 J22.316 E8.40196
G3 X52.737 Y20.994 I-7.184 J15.684 E8.48023
G3 X53.403 Y21.679 I-3.788 J4.349 E8.50680
G3 X59.651 Y29.448 I-14.225 J17.837 E8.78601
G3 X60.622 Y31.609 I-14.418 J7.777 E8.85188
G3 X60.759 Y32.565 I-5.905 J1.334 E8.87873
G3 X61.397 Y41.425 I-21.148 J5.976 E9.12719
G3 X60.762 Y44.842 I-19.652 J-1.884 E9.22381
G3 X60.312 Y45.696 I-5.641 J-2.427 E9.25065
G3 X55.620 Y53.238 I-20.597 J-7.583 E9.49912
G3 X53.098 Y55.629 I-14.569 J-12.842 E9.59574
G3 X52.232 Y56.055 I-2.966 J-4.936 E9.62258
G3 X44.001 Y59.400 I-12.013 J-17.762 E9.87111
G3 X40.557 Y59.852 I-4.291 J-19.350 E9.96767
G3 X39.606 Y59.687 I0.524 J-5.844 E9.99451
G3 X30.378 Y57.267 I0.917 J-22.300 E10.26160
G3 X27.922 Y55.890 I7.228 J-15.771 E10.33986
G3 X27.256 Y55.204 I4.031 J-4.579 E10.36643
G3 X21.532 Y48.409 I13.570 J-17.239 E10.61496
G3 X20.038 Y45.274 I16.862 J-9.959 E10.71152
G3 X19.901 Y44.318 I5.865 J-1.328 E10.73836
G3 X19.263 Y35.459 I21.074 J-5.970 E10.98682
G3 X19.898 Y32.042 I19.593 J1.874 E11.08345
G3 X20.348 Y31.188 I5.641 J2.427 E11.11029
G3 X24.983 Y23.711 I20.067 J7.264 E11.35634
G1 X25.330 Y23.911 F900.000
G1 F900
G3 X27.782 Y21.582 I14.283 J12.583 E11.45036
G3 X28.613 Y21.176 I3.027 J5.143 E11.47607
G3 X37.382 Y17.750 I12.180 J18.241 E11.73964
G3 X40.096 Y17.428 I3.340 J16.553 E11.81562
G3 X41.000 Y17.587 I-0.500 J5.490 E11.84113
G3 X50.107 Y19.969 I-0.862 J21.897 E12.10471
G3 X52.492 Y21.303 I-6.958 J15.239 E12.18068
G3 X53.130 Y21.963 I-3.761 J4.274 E12.20620
G3 X59.301 Y29.628 I-13.929 J17.530 E12.48183
G3 X60.242 Y31.718 I-14.054 J7.585 E12.54556
G3 X60.371 Y32.634 I-5.412 J1.229 E12.57126
G3 X61.006 Y41.381 I-20.727 J5.901 E12.81659
G3 X60.391 Y44.707 I-18.895 J-1.774 E12.91062
G3 X59.957 Y45.523 I-5.097 J-2.188 E12.93633
G3 X55.330 Y52.973 I-20.249 J-7.414 E13.18166
G3 X52.877 Y55.302 I-14.202 J-12.501 E13.27569
G3 X52.046 Y55.708 I-2.964 J-5.014 E13.30140
G3 X43.922 Y59.015 I-11.830 J-17.428 E13.54677
G3 X40.571 Y59.457 I-4.153 J-18.563 E13.64076
G3 X39.660 Y59.297 I0.556 J-5.840 E13.66647
G3 X30.552 Y56.915 I0.877 J-21.957 E13.93004
G3 X28.167 Y55.580 I7.098 J-15.478 E14.00602
G3 X27.530 Y54.920 I3.826 J-4.330 E14.03153
G3 X21.874 Y48.216 I12.939 J-16.654 E14.27690
G3 X20.418 Y45.165 I16.477 J-9.736 E14.37089
G3 X20.289 Y44.249 I5.412 J-1.229 E14.39660
G3 X19.654 Y35.502 I20.730 J-5.901 E14.64193
G3 X20.269 Y32.177 I18.846 J1.766 E14.73595
G3 X20.703 Y31.360 I5.187 J2.231 E14.76166
G3 X25.273 Y23.976 I19.732 J7.106 E15.00458
G1 X25.620 Y24.175 F900.000
G1 F900
G3 X28.003 Y21.909 I13.960 J12.295 E15.09601
G3 X28.799 Y21.524 I2.754 J4.679 E15.12059
G3 X37.447 Y18.137 I12.006 J17.921 E15.38065
G3 X40.079 Y17.822 I3.264 J16.122 E15.45434
G3 X40.945 Y17.977 I-0.528 J5.449 E15.47879
G3 X49.933 Y20.320 I-0.827 J21.583 E15.73885
G3 X52.247 Y21.613 I-6.891 J15.049 E15.81254
G3 X52.857 Y22.247 I-3.656 J4.128 E15.83699
G3 X58.444 Y28.862 I-12.679 J16.375 E16.07922
G3 X59.862 Y31.827 I-15.871 J9.412 E16.17062
G3 X59.983 Y32.703 I-5.259 J1.173 E16.19520
G3 X60.616 Y41.338 I-20.367 J5.834 E16.43740
G3 X60.020 Y44.572 I-18.515 J-1.740 E16.52883
G3 X59.603 Y45.351 I-5.181 J-2.272 E16.55341
G3 X55.039 Y52.708 I-19.949 J-7.281 E16.79560
G3 X52.657 Y54.974 I-13.897 J-12.224 E16.88704
G3 X51.861 Y55.360 I-2.766 J-4.690 E16.91161
G3 X43.844 Y58.630 I-11.670 J-17.148 E17.15384
G3 X40.585 Y59.062 I-4.058 J-18.106 E17.24524
G3 X39.715 Y58.907 I0.513 J-5.399 E17.26982
G3 X30.727 Y56.563 I0.821 J-21.554 E17.52988
G3 X28.413 Y55.271 I6.827 J-14.946 E17.60357
G3 X27.803 Y54.636 I3.579 J-4.048 E17.62802
G3 X21.708 Y47.076 I13.678 J-17.265 E17.90008
G3 X20.797 Y45.056 I13.488 J-7.299 E17.96165
G3 X20.677 Y44.181 I5.362 J-1.181 E17.98623
G3 X20.044 Y35.546 I20.364 J-5.834 E18.22843
G3 X20.640 Y32.312 I18.515 J1.740 E18.31986
G3 X21.057 Y31.533 I5.044 J2.199 E18.34444
G3 X25.563 Y24.241 I19.397 J6.948 E18.58422
G1 X25.911 Y24.440 F900.000
G1 F900
G3 X28.224 Y22.237 I13.442 J11.797 E18.67306
G3 X28.984 Y21.872 I2.654 J4.552 E18.69650
G3 X37.513 Y18.524 I11.833 J17.606 E18.95305
G3 X40.063 Y18.216 I3.190 J15.697 E19.02445
G3 X40.891 Y18.367 I-0.515 J5.167 E19.04784
G3 X49.759 Y20.672 I-0.776 J21.196 E19.30439
G3 X52.002 Y21.922 I-6.700 J14.660 E19.37579
G3 X52.583 Y22.531 I-3.535 J3.954 E19.39919
G3 X58.102 Y29.055 I-12.423 J16.106 E19.63826
G3 X59.483 Y31.936 I-15.650 J9.273 E19.72709
G3 X59.595 Y32.772 I-5.243 J1.128 E19.75053
G3 X60.225 Y41.294 I-20.011 J5.764 E19.98960
G3 X59.649 Y44.437 I-18.037 J-1.681 E20.07844
G3 X59.248 Y45.179 I-4.752 J-2.089 E20.10188
G3 X54.749 Y52.443 I-19.589 J-7.107 E20.34094
G3 X52.436 Y54.647 I-13.534 J-11.888 E20.42978
G3 X51.675 Y55.012 I-2.627 J-4.501 E20.45322
G3 X42.724 Y58.433 I-12.012 J-18.007 E20.72170
G3 X40.598 Y58.668 I-2.672 J-14.443 E20.78113
G3 X39.769 Y58.516 I0.543 J-5.298 E20.80457
G3 X30.901 Y56.211 I0.776 J-21.196 E21.06112
G3 X28.658 Y54.961 I6.621 J-14.518 E21.13252
G3 X28.077 Y54.353 I3.298 J-3.733 E21.15592
G3 X22.558 Y47.828 I12.415 J-16.098 E21.39499
G3 X21.177 Y44.947 I15.306 J-9.108 E21.48382
G3 X21.065 Y44.112 I5.210 J-1.124 E21.50726
G3 X20.435 Y35.590 I20.011 J-5.764 E21.74633
G3 X21.011 Y32.447 I18.037 J1.681 E21.83517
G3 X21.411 Y31.705 I4.743 J2.078 E21.85861
G3 X25.853 Y24.506 I19.082 J6.804 E22.09525
G1 X25.911 Y24.440 F900.000
G92 E0
G1 X24.359 Y22.892 F900.000
G1 X25.347 Y21.854 F900.000
G1 X26.349 Y19.563 F900.000
G1 X28.783 Y19.276 F900.000
G1 X33.220 Y17.331 F900.000
G1 X37.962 Y16.231 F900.000
G1 X40.150 Y15.064 F900.000
G1 F900
G1 X40.023 Y15.072 E0.00355
G1 X39.893 Y11.956 E0.09016
G3 X40.083 Y10.316 I6.897 J-0.032 E0.13609
G3 X40.286 Y12.435 I-10.350 J2.061 E0.19532
G1 X40.155 Y14.977 E0.26602
G1 X40.521 Y15.505 F900.000
G1 F900
G2 X39.647 Y15.487 I-0.481 J2.144 E0.29041
G1 X39.500 Y11.955 E0.38861
G3 X40.072 Y8.664 I11.906 J0.374 E0.48167
G3 X40.679 Y12.445 I-11.347 J3.761 E0.58849
G1 X40.525 Y15.418 E0.67117
G1 X40.891 Y15.954 F900.000
G1 F900
G1 X40.161 Y15.850 E0.69164
G1 X39.271 Y15.908 E0.71641
G1 X39.107 Y11.955 E0.82633
G3 X39.232 Y10.540 I11.661 J0.317 E0.86580
G3 X40.067 Y7.536 I12.432 J1.838 E0.95260
G3 X41.071 Y12.455 I-11.418 J4.893 E1.09303
G1 X40.895 Y15.868 E1.18795
G92 E0
G1 X26.441 Y19.631 F900.000
G1 F900
G1 X26.343 Y19.714 E0.00356
G1 X24.408 Y17.271 E0.09010
G3 X23.598 Y15.833 I5.452 J-4.018 E0.13603
G3 X25.008 Y17.428 I-7.087 J7.686 E0.19526
G1 X26.394 Y19.558 E0.26584
G1 X27.002 Y19.773 F900.000
G1 F900
G2 X26.287 Y20.275 I0.803 J1.904 E0.29024
G1 X24.090 Y17.502 E0.38852
G3 X22.618 Y14.503 I9.915 J-6.727 E0.48158
G3 X25.332 Y17.205 I-6.975 J9.720 E0.58840
G1 X26.955 Y19.700 E0.67109
G1 X27.566 Y19.920 F900.000
G1 F900
G1 X26.899 Y20.272 E0.69205
G1 X26.230 Y20.836 E0.71633
G1 X23.771 Y17.732 E0.82633
G3 X23.041 Y16.514 I9.505 J-6.524 E0.86580
G3 X21.951 Y13.593 I11.187 J-5.838 E0.95260
G3 X25.655 Y16.982 I-6.354 J10.664 E1.09303
G1 X27.518 Y19.847 E1.18795
G92 E0
G1 X18.037 Y31.387 F900.000
G1 F900
G1 X18.007 Y31.506 E0.00340
G1 X15.160 Y30.724 E0.08541
G3 X13.505 Y29.986 I2.025 J-6.767 E0.13586
G3 X15.583 Y30.447 I-1.210 J10.370 E0.19510
G1 X17.955 Y31.356 E0.26568
G1 X18.575 Y31.173 F900.000
G1 F900
G2 X18.292 Y31.991 I1.732 J1.057 E0.28987
G1 X15.041 Y31.099 E0.38353
G3 X13.633 Y30.514 I3.464 J-10.324 E0.42590
G1 X12.296 Y29.742 E0.46878
G1 X11.930 Y29.485 E0.48120
G3 X15.713 Y30.077 I0.064 J11.972 E0.58802
G1 X18.493 Y31.142 E0.67071
G1 X19.116 Y30.960 F900.000
G1 F900
G2 X18.577 Y32.477 I3.215 J1.997 E0.71569
G1 X14.921 Y31.473 E0.82100
G3 X13.454 Y30.864 I3.575 J-10.684 E0.86515
G3 X10.855 Y29.142 I5.610 J-11.289 E0.95195
G3 X15.844 Y29.706 I1.130 J12.350 E1.09238
G1 X19.035 Y30.929 E1.18730
G92 E0
G1 X18.148 Y45.838 F900.000
G1 F900
G1 X18.196 Y45.957 E0.00356
G1 X15.276 Y47.042 E0.09010
G3 X13.658 Y47.368 I-2.159 J-6.537 E0.13603
G3 X15.610 Y46.520 I5.132 J9.144 E0.19526
G1 X18.064 Y45.861 E0.26584
G1 X18.457 Y45.348 F900.000
G1 F900
G2 X18.713 Y46.184 I2.048 J-0.170 E0.29024
G1 X15.396 Y47.416 E0.38852
G3 X12.089 Y47.889 I-3.324 J-11.440 E0.48158
G3 X15.498 Y46.144 I7.066 J9.602 E0.58840
G1 X18.373 Y45.371 E0.67108
G1 X18.770 Y44.858 F900.000
G1 F900
G1 X18.899 Y45.601 E0.69205
G1 X19.229 Y46.411 E0.71633
G1 X15.517 Y47.790 E0.82633
G3 X14.133 Y48.108 I-3.203 J-10.767 E0.86580
G3 X11.018 Y48.243 I-2.099 J-12.427 E0.95260
G3 X15.386 Y45.767 I8.163 J9.310 E1.09303
G1 X18.686 Y44.880 E1.18795
G92 E0
G1 X26.734 Y57.461 F900.000
G1 F900
G1 X26.842 Y57.529 E0.00355
G1 X25.116 Y60.126 E0.09016
G3 X23.998 Y61.341 I-5.538 J-3.974 E0.13609
G3 X25.079 Y59.507 I9.529 J4.381 E0.19532
G1 X26.680 Y57.528 E0.26602
G1 X26.694 Y56.886 F900.000
G1 F900
G2 X27.390 Y57.414 I1.642 J-1.441 E0.29041
G1 X25.433 Y60.358 E0.38861
G3 X23.036 Y62.684 I-9.446 J-7.336 E0.48167
G3 X24.767 Y59.269 I11.413 J3.639 E0.58849
G1 X26.639 Y56.954 E0.67117
G1 X26.659 Y56.305 F900.000
G1 F900
G1 X27.187 Y56.818 E0.69164
G1 X27.941 Y57.294 E0.71641
G1 X25.751 Y60.590 E0.82633
G3 X24.818 Y61.660 I-9.518 J-7.358 E0.86580
G3 X22.377 Y63.600 I-8.968 J-8.778 E0.95260
G3 X24.455 Y59.030 I12.099 J2.744 E1.09303
G1 X26.604 Y56.373 E1.18795
G92 E0
G1 X40.637 Y61.815 F900.000
G1 F900
G1 X40.767 Y64.928 E0.08654
G3 X40.577 Y66.567 I-6.859 J0.035 E0.13247
G3 X40.374 Y64.448 I10.350 J-2.061 E0.19170
G1 X40.510 Y61.824 E0.26470
G1 X40.551 Y61.821 E0.26584
G1 X41.013 Y61.394 F900.000
G1 F900
G1 X41.160 Y64.928 E0.36411
G3 X40.588 Y68.220 I-12.007 J-0.391 E0.45718
G3 X39.981 Y64.438 I11.347 J-3.761 E0.56399
G1 X40.139 Y61.379 E0.64910
G2 X40.926 Y61.400 I0.442 J-1.791 E0.67108
G1 X41.388 Y60.973 F900.000
G1 F900
G1 X41.553 Y64.929 E0.78108
G3 X41.428 Y66.344 I-11.702 J-0.321 E0.82055
G3 X40.593 Y69.348 I-12.432 J-1.838 E0.90735
G3 X39.589 Y64.429 I11.378 J-4.884 E1.04778
G1 X39.769 Y60.929 E1.14512
G2 X41.302 Y60.979 I0.881 J-3.491 E1.18795
G92 E0
G1 X54.317 Y57.170 F900.000
G1 F900
G1 X56.252 Y59.612 E0.08655
G3 X57.062 Y61.050 I-5.693 J4.154 E0.13247
G3 X55.652 Y59.456 I7.039 J-7.647 E0.19170
G1 X54.219 Y57.253 E0.26470
G1 X54.250 Y57.226 E0.26584
G1 X54.373 Y56.609 F900.000
G1 F900
G1 X56.570 Y59.382 E0.36411
G3 X58.042 Y62.381 I-9.915 J6.727 E0.45718
G3 X55.328 Y59.678 I6.961 J-9.703 E0.56399
G1 X53.658 Y57.110 E0.64910
G2 X54.307 Y56.665 I-0.695 J-1.710 E0.67109
G1 X54.429 Y56.047 F900.000
G1 F900
G1 X56.889 Y59.151 E0.78109
G3 X58.709 Y63.291 I-10.386 J7.036 E0.90736
G3 X55.005 Y59.901 I6.343 J-10.650 E1.04778
G1 X53.094 Y56.964 E1.14512
G2 X54.363 Y56.104 I-1.352 J-3.361 E1.18795
G92 E0
G1 X62.652 Y45.378 F900.000
G1 F900
G1 X65.500 Y46.159 E0.08201
G3 X67.155 Y46.898 I-1.975 J6.647 E0.13246
G3 X65.077 Y46.436 I1.233 J-10.452 E0.19170
G1 X62.623 Y45.496 E0.26469
G1 X62.632 Y45.462 E0.26568
G1 X62.368 Y44.892 F900.000
G1 F900
G1 X65.619 Y45.785 E0.35934
G3 X67.027 Y46.370 I-3.464 J10.324 E0.40171
G1 X68.364 Y47.142 E0.44459
G1 X68.730 Y47.398 E0.45701
G3 X64.946 Y46.807 I-0.073 J-11.944 E0.56383
G1 X62.085 Y45.711 E0.64893
G2 X62.347 Y44.977 I-1.546 J-0.966 E0.67071
G1 X62.083 Y44.407 F900.000
G1 F900
G1 X65.739 Y45.410 E0.77601
G3 X67.206 Y46.020 I-3.526 J10.549 E0.82017
G3 X69.805 Y47.742 I-5.610 J11.289 E0.90697
G3 X64.816 Y47.177 I-1.131 J-12.322 E1.04739
G1 X61.543 Y45.924 E1.14473
G2 X62.062 Y44.491 I-3.008 J-1.900 E1.18730
G92 E0
G1 X62.512 Y31.046 F900.000
G1 F900
G1 X62.464 Y30.927 E0.00356
G1 X65.384 Y29.841 E0.09010
G3 X67.002 Y29.515 I2.159 J6.537 E0.13603
G3 X65.050 Y30.363 I-5.061 J-8.980 E0.19526
G1 X62.596 Y31.023 E0.26584
G1 X62.203 Y31.535 F900.000
G1 F900
G2 X61.947 Y30.700 I-2.050 J0.172 E0.29024
G1 X65.264 Y29.467 E0.38852
G3 X68.570 Y28.995 I3.329 J11.501 E0.48158
G3 X65.162 Y30.740 I-7.088 J-9.642 E0.58840
G1 X62.287 Y31.513 E0.67108
G1 X61.890 Y32.026 F900.000
G1 F900
G1 X61.761 Y31.283 E0.69205
G1 X61.431 Y30.473 E0.71633
G1 X65.143 Y29.093 E0.82633
G3 X69.642 Y28.641 I3.479 J12.007 E0.95260
G3 X65.274 Y31.117 I-8.185 J-9.349 E1.09303
G1 X61.974 Y32.003 E1.18795
G92 E0
G1 X53.926 Y19.423 F900.000
G1 F900
G1 X53.818 Y19.354 E0.00355
G1 X55.544 Y16.757 E0.09016
G3 X56.662 Y15.542 I5.648 J4.075 E0.13609
G3 X55.580 Y17.376 I-9.450 J-4.339 E0.19532
G1 X53.980 Y19.356 E0.26602
G1 X53.966 Y19.997 F900.000
G1 F900
G2 X53.270 Y19.470 I-1.629 J1.428 E0.29041
G1 X55.227 Y16.526 E0.38861
G3 X57.624 Y14.199 I9.472 J7.359 E0.48167
G3 X55.892 Y17.615 I-11.374 J-3.620 E0.58849
G1 X54.021 Y19.930 E0.67117
G1 X54.001 Y20.579 F900.000
G1 F900
G1 X53.472 Y20.066 E0.69164
G1 X52.718 Y19.590 E0.71641
G1 X54.909 Y16.294 E0.82633
G3 X55.842 Y15.223 I9.303 J7.163 E0.86580
G3 X58.283 Y13.283 I9.031 J8.858 E0.95260
G3 X56.204 Y17.854 I-12.073 J-2.733 E1.09303
G1 X54.056 Y20.511 E1.18795
G1 X54.517 Y20.566 F900.000
G1 F900
G1 X57.413 Y23.642 E1.30532
G3 X60.014 Y27.414 I-17.179 J14.628 E1.43278
G1 X61.395 Y30.067 E1.51588
G1 X65.022 Y28.719 E1.62336
G3 X66.466 Y28.387 I3.460 J11.742 E1.66453
G3 X68.803 Y28.205 I2.214 J13.338 E1.72971
G3 X70.486 Y28.357 I-0.015 J9.557 E1.77668
G3 X65.386 Y31.493 I-8.889 J-8.741 E1.94468
G1 X62.314 Y32.319 E2.03303
G1 X62.850 Y36.510 E2.15041
G3 X62.737 Y41.090 I-22.525 J1.736 E2.27787
G1 X62.293 Y44.057 E2.36122
G1 X65.858 Y45.036 E2.46390
G3 X67.384 Y45.670 I-3.639 J10.912 E2.50984
G3 X69.383 Y46.896 I-6.082 J12.159 E2.57502
G3 X70.655 Y48.008 I-5.660 J7.758 E2.62199
G3 X64.685 Y47.548 I-2.054 J-12.310 E2.78999
G1 X61.715 Y46.410 E2.87834
G1 X59.684 Y50.116 E2.99572
G3 X56.901 Y53.754 I-19.166 J-11.778 E3.12317
G1 X54.804 Y55.888 E3.20628
G1 X57.207 Y58.921 E3.31376
G3 X57.969 Y60.192 I-10.062 J6.897 E3.35493
G3 X59.110 Y63.268 I-11.637 J6.066 E3.44629
G1 X59.240 Y64.005 E3.46708
G3 X54.681 Y60.124 I5.556 J-11.145 E3.63508
G1 X52.947 Y57.458 E3.72343
G1 X49.126 Y59.262 E3.84081
G3 X44.736 Y60.570 I-8.547 J-20.664 E3.96826
G1 X41.785 Y61.064 E4.05137
G1 X41.946 Y64.930 E4.15884
G3 X41.816 Y66.406 I-11.956 J-0.309 E4.20001
G3 X40.931 Y69.566 I-12.963 J-1.926 E4.29137
G1 X40.603 Y70.238 E4.31217
G3 X39.196 Y64.419 I11.059 J-5.754 E4.48016
G1 X39.360 Y61.242 E4.56852
G1 X35.208 Y60.456 E4.68589
G3 X30.888 Y58.934 I5.296 J-21.923 E4.81335
G1 X28.210 Y57.599 E4.89645
G1 X26.068 Y60.821 E5.00393
G3 X25.096 Y61.939 I-9.686 J-7.439 E5.04510
G3 X22.522 Y63.975 I-9.417 J-9.261 E5.13646
G1 X21.861 Y64.326 E5.15725
G3 X24.144 Y58.791 I12.331 J1.848 E5.32525
G1 X26.143 Y56.318 E5.41360
G1 X23.247 Y53.241 E5.53098
G3 X20.646 Y49.470 I17.128 J-14.596 E5.65843
G1 X19.265 Y46.816 E5.74154
G1 X15.638 Y48.164 E5.84902
G3 X14.194 Y48.497 I-3.374 J-11.333 E5.89019
G3 X11.856 Y48.679 I-2.215 J-13.340 E5.95537
G3 X10.174 Y48.527 I0.016 J-9.557 E6.00234
G3 X15.274 Y45.391 I8.889 J8.741 E6.17034
G1 X18.346 Y44.565 E6.25869
G1 X17.810 Y40.374 E6.37607
G3 X17.923 Y35.794 I22.525 J-1.736 E6.50352
G1 X18.367 Y32.826 E6.58688
G1 X14.802 Y31.848 E6.68956
G3 X13.276 Y31.214 I3.790 J-11.276 E6.73550
G3 X11.277 Y29.987 I5.996 J-12.010 E6.80068
G3 X10.005 Y28.876 I5.725 J-7.838 E6.84765
G3 X15.975 Y29.336 I2.057 J12.273 E7.01565
G1 X18.945 Y30.474 E7.10400
G1 X20.976 Y26.768 E7.22138
G3 X23.759 Y23.129 I19.223 J11.818 E7.34883
G1 X25.856 Y20.995 E7.43194
G1 X23.453 Y17.963 E7.53941
G3 X22.691 Y16.692 I10.062 J-6.897 E7.58058
G3 X21.550 Y13.615 I11.624 J-6.060 E7.67194
G1 X21.420 Y12.878 E7.69274
G3 X25.978 Y16.759 I-5.562 J11.149 E7.86073
G1 X27.713 Y19.426 E7.94909
G1 X31.534 Y17.621 E8.06646
G3 X35.924 Y16.313 I8.599 J20.841 E8.19392
G1 X38.875 Y15.820 E8.27702
G1 X38.713 Y11.954 E8.38450
G3 X38.844 Y10.478 I12.401 J0.357 E8.42567
G3 X39.393 Y8.199 I13.215 J1.978 E8.49085
G3 X40.057 Y6.645 I9.026 J2.938 E8.53782
G3 X41.464 Y12.465 I-11.065 J5.755 E8.70582
G1 X41.300 Y15.641 E8.79417
G1 X45.452 Y16.427 E8.91155
G3 X49.772 Y17.950 I-5.270 J21.836 E9.03901
G1 X52.450 Y19.285 E9.12211
G1 X54.591 Y16.062 E9.22959
G3 X55.564 Y14.945 I10.179 J7.885 E9.27076
G3 X57.348 Y13.424 I9.614 J9.469 E9.33594
G3 X58.799 Y12.558 I5.547 J7.646 E9.38291
G3 X56.516 Y18.093 I-12.331 J-1.848 E9.55091
G1 X54.571 Y20.498 E9.63685
G1 X55.037 Y20.546 F900.000
G1 F900
G1 X57.711 Y23.386 E9.74517
G3 X60.358 Y27.225 I-17.470 J14.878 E9.87494
G1 X61.583 Y29.578 E9.94863
G1 X64.901 Y28.345 E10.04696
G3 X66.405 Y27.999 I3.545 J11.969 E10.08983
G3 X68.810 Y27.812 I2.284 J13.810 E10.15689
G3 X71.311 Y28.087 I-0.172 J13.072 E10.22686
G1 X70.129 Y29.264 E10.27318
G3 X65.498 Y31.870 I-8.684 J-10.014 E10.42177
G1 X62.747 Y32.609 E10.50090
G1 X63.241 Y36.477 E10.60922
G3 X63.126 Y41.140 I-22.732 J1.772 E10.73899
G1 X62.733 Y43.771 E10.81289
G1 X65.977 Y44.661 E10.90634
G3 X67.563 Y45.320 I-3.816 J11.422 E10.95406
G3 X69.619 Y46.582 I-6.192 J12.393 E11.02113
G3 X71.480 Y48.275 I-7.953 J10.612 E11.09109
G1 X69.833 Y48.532 E11.13741
G3 X64.555 Y47.918 I-1.142 J-13.174 E11.28601
G1 X61.894 Y46.899 E11.36513
G1 X60.020 Y50.319 E11.47346
G3 X57.187 Y54.024 I-19.577 J-12.034 E11.60322
G1 X55.327 Y55.916 E11.67692
G1 X57.525 Y58.691 E11.77524
G3 X58.320 Y60.013 I-10.623 J7.288 E11.81811
G3 X59.240 Y62.243 I-12.357 J6.403 E11.88518
G3 X59.752 Y64.707 I-12.510 J3.885 E11.95514
G1 X58.267 Y63.946 E12.00146
G3 X54.358 Y60.347 I6.840 J-11.351 E12.15006
G1 X52.805 Y57.960 E12.22918
G1 X49.278 Y59.625 E12.33751
G3 X44.809 Y60.956 I-8.767 J-21.267 E12.46727
G1 X42.192 Y61.394 E12.54097
G1 X42.340 Y64.931 E12.63929
G3 X42.204 Y66.468 I-12.641 J-0.344 E12.68216
G3 X41.639 Y68.813 I-13.862 J-2.099 E12.74923
G3 X40.604 Y71.106 I-12.533 J-4.277 E12.81919
G1 X39.850 Y69.619 E12.86551
G3 X38.803 Y64.409 I12.217 J-5.165 E13.01411
G1 X38.950 Y61.565 E13.09323
G1 X35.118 Y60.839 E13.20156
G3 X30.720 Y59.289 I5.399 J-22.334 E13.33132
G1 X28.345 Y58.105 E13.40502
G1 X26.386 Y61.053 E13.50334
G3 X25.373 Y62.217 I-10.053 J-7.726 E13.54621
G3 X23.537 Y63.782 I-10.034 J-9.912 E13.61328
G3 X21.352 Y65.029 I-7.576 J-10.738 E13.68324
G1 X21.617 Y63.383 E13.72957
G3 X23.832 Y58.552 I12.880 J2.982 E13.87816
G1 X25.622 Y56.337 E13.95728
G1 X22.949 Y53.498 E14.06561
G3 X20.301 Y49.659 I17.541 J-14.932 E14.19538
G1 X19.076 Y47.305 E14.26907
G1 X15.759 Y48.539 E14.36739
G3 X14.255 Y48.885 I-3.685 J-12.575 E14.41027
G3 X11.850 Y49.072 I-2.284 J-13.810 E14.47733
G3 X9.349 Y48.797 I0.197 J-13.301 E14.54729
G1 X10.531 Y47.620 E14.59362
G3 X15.162 Y45.014 I8.684 J10.014 E14.74221
G1 X17.913 Y44.275 E14.82134
G1 X17.419 Y40.406 E14.92966
G3 X17.533 Y35.744 I22.825 J-1.774 E15.05943
G1 X17.927 Y33.113 E15.13333
G1 X14.682 Y32.222 E15.22678
G3 X13.097 Y31.564 I3.752 J-11.276 E15.27450
G3 X11.041 Y30.302 I6.328 J-12.615 E15.34157
G3 X9.180 Y28.609 I7.953 J-10.612 E15.41153
G1 X10.827 Y28.351 E15.45785
G3 X16.105 Y28.965 I1.136 J13.224 E15.60645
G1 X18.765 Y29.984 E15.68557
G1 X20.640 Y26.564 E15.79390
G3 X23.473 Y22.860 I19.492 J11.973 E15.92366
G1 X25.333 Y20.968 E15.99736
G1 X23.134 Y18.193 E16.09568
G3 X22.340 Y16.870 I10.400 J-7.141 E16.13855
G3 X21.420 Y14.641 I12.315 J-6.387 E16.20562
G3 X20.908 Y12.177 I12.510 J-3.885 E16.27558
G1 X22.393 Y12.937 E16.32190
G3 X26.302 Y16.536 I-6.840 J11.351 E16.47050
G1 X27.855 Y18.924 E16.54962
G1 X31.382 Y17.259 E16.65795
G3 X35.851 Y15.927 I8.731 J21.131 E16.78771
G1 X38.468 Y15.490 E16.86141
G1 X38.320 Y11.953 E16.95973
G3 X38.455 Y10.416 I12.836 J0.353 E17.00260
G3 X39.021 Y8.071 I13.956 J2.128 E17.06967
G3 X40.056 Y5.776 I12.617 J4.309 E17.13967
G1 X40.810 Y7.265 E17.18602
G3 X41.857 Y12.475 I-12.217 J5.165 E17.33461
G1 X41.710 Y15.319 E17.41374
G1 X45.542 Y16.045 E17.52206
G3 X49.940 Y17.595 I-5.339 J22.163 E17.65183
G1 X52.315 Y18.779 E17.72552
G1 X54.274 Y15.831 E17.82385
G3 X55.287 Y14.667 I9.758 J7.470 E17.86672
G3 X57.123 Y13.102 I9.876 J9.727 E17.93378
G3 X59.308 Y11.855 I7.576 J10.738 E18.00375
G1 X59.043 Y13.501 E18.05007
G3 X56.828 Y18.331 I-12.863 J-2.976 E18.19866
G1 X55.092 Y20.479 E18.27537
G1 X55.558 Y20.527 F900.000
G1 F900
G1 X58.008 Y23.129 E18.37465
G3 X61.772 Y29.089 I-22.135 J18.148 E18.57101
G1 X64.781 Y27.971 E18.66018
G3 X66.344 Y27.610 I3.792 J12.855 E18.70475
G1 X68.027 Y27.433 E18.75177
G3 X71.639 Y27.755 I0.618 J13.489 E18.85279
G1 X71.773 Y28.142 E18.86417
G1 X71.582 Y28.375 E18.87254
G1 X70.392 Y29.556 E18.91911
G3 X65.610 Y32.246 I-8.930 J-10.279 E19.07254
G1 X63.180 Y32.899 E19.14244
G1 X63.633 Y36.444 E19.24171
G3 X63.173 Y43.484 I-28.524 J1.671 E19.43824
G1 X66.097 Y44.287 E19.52246
G3 X67.742 Y44.969 I-3.978 J11.919 E19.57196
G3 X69.855 Y46.268 I-6.487 J12.921 E19.64091
G3 X71.941 Y48.199 I-8.131 J10.876 E19.72000
G1 X71.822 Y48.591 E19.73138
G1 X71.531 Y48.668 E19.73975
G1 X69.874 Y48.923 E19.78632
G3 X64.424 Y48.289 I-1.185 J-13.555 E19.93975
G1 X62.074 Y47.389 E20.00965
G1 X60.357 Y50.523 E20.10892
G3 X55.851 Y55.944 I-24.086 J-15.437 E20.30528
G1 X57.844 Y58.460 E20.39445
G3 X58.670 Y59.835 I-10.741 J7.388 E20.43903
G3 X59.616 Y62.128 I-12.802 J6.623 E20.50797
G3 X60.169 Y64.916 I-13.098 J4.047 E20.58706
G1 X59.842 Y65.163 E20.59844
G1 X59.561 Y65.054 E20.60681
G1 X58.070 Y64.287 E20.65339
G3 X54.035 Y60.570 I7.032 J-11.682 E20.80682
G1 X52.662 Y58.461 E20.87671
G1 X49.431 Y59.987 E20.97599
G3 X42.599 Y61.724 I-10.408 J-26.633 E21.17235
G1 X42.733 Y64.931 E21.26152
G3 X42.593 Y66.529 I-13.683 J-0.394 E21.30609
G1 X42.241 Y68.185 E21.35311
G3 X40.819 Y71.521 I-13.044 J-3.589 E21.45413
G1 X40.409 Y71.529 E21.46551
G1 X40.246 Y71.275 E21.47388
G1 X39.491 Y69.778 E21.52045
G3 X38.410 Y64.399 I12.556 J-5.321 E21.67388
G1 X38.540 Y61.887 E21.74377
G1 X35.029 Y61.222 E21.84305
G3 X28.480 Y58.611 I7.233 J-27.660 E22.03941
G1 X26.703 Y61.285 E22.12858
G3 X25.651 Y62.495 I-10.333 J-7.922 E22.17316
G1 X24.393 Y63.628 E22.22017
G3 X21.282 Y65.491 I-8.430 J-10.548 E22.32119
G1 X20.946 Y65.256 E22.33257
G1 X20.963 Y64.956 E22.34094
G1 X21.232 Y63.300 E22.38752
G3 X23.520 Y58.314 I13.277 J3.074 E22.54095
G1 X25.102 Y56.357 E22.61084
G1 X22.651 Y53.755 E22.71012
G3 X18.888 Y47.794 I22.134 J-18.141 E22.90648
G1 X15.879 Y48.913 E22.99565
G3 X14.316 Y49.273 I-3.775 J-12.816 E23.04022
G3 X11.844 Y49.465 I-2.352 J-14.278 E23.10917
G3 X9.020 Y49.129 I0.225 J-13.923 E23.18826
G1 X8.887 Y48.742 E23.19963
G1 X9.078 Y48.508 E23.20800
G1 X10.268 Y47.327 E23.25458
G3 X15.050 Y44.638 I8.936 J10.295 E23.40801
G1 X17.480 Y43.985 E23.47790
G1 X17.027 Y40.439 E23.57718
G3 X17.487 Y33.399 I28.540 J-1.670 E23.77370
G1 X14.563 Y32.597 E23.85793
G3 X12.918 Y31.914 I3.929 J-11.784 E23.90743
G3 X10.805 Y30.616 I6.437 J-12.847 E23.97638
G3 X8.718 Y28.685 I8.454 J-11.230 E24.05547
G1 X8.838 Y28.293 E24.06684
G1 X9.129 Y28.216 E24.07521
G1 X10.786 Y27.960 E24.12179
G3 X16.236 Y28.595 I1.180 J13.576 E24.27522
G1 X18.586 Y29.495 E24.34511
G1 X20.303 Y26.361 E24.44439
G3 X24.809 Y20.940 I24.009 J15.374 E24.64075
G1 X22.816 Y18.423 E24.72992
G3 X21.990 Y17.049 I10.816 J-7.438 E24.77449
G3 X21.044 Y14.756 I12.904 J-6.665 E24.84344
G3 X20.491 Y11.967 I13.070 J-4.041 E24.92253
G1 X20.818 Y11.720 E24.93391
G1 X21.099 Y11.830 E24.94228
G1 X22.590 Y12.597 E24.98886
G3 X26.625 Y16.313 I-7.019 J11.670 E25.14228
G1 X27.997 Y18.423 E25.21218
G1 X31.229 Y16.897 E25.31146
G3 X38.061 Y15.159 I10.401 J26.587 E25.50782
G1 X37.927 Y11.952 E25.59698
G3 X38.067 Y10.354 I13.085 J0.341 E25.64156
G3 X38.649 Y7.943 I14.312 J2.179 E25.71051
G3 X39.841 Y5.362 I13.061 J4.466 E25.78960
G1 X40.255 Y5.355 E25.80111
G1 X40.410 Y5.601 E25.80919
G1 X41.169 Y7.105 E25.85598
G3 X42.249 Y12.484 I-12.527 J5.313 E26.00941
G1 X42.120 Y14.997 E26.07931
G1 X45.631 Y15.662 E26.17859
G3 X52.179 Y18.272 I-7.246 J27.697 E26.37495
G1 X53.956 Y15.599 E26.46411
G3 X55.009 Y14.388 I10.698 J8.239 E26.50869
G3 X56.897 Y12.780 I10.305 J10.187 E26.57763
G3 X59.378 Y11.393 I7.957 J11.321 E26.65673
G1 X59.714 Y11.627 E26.66810
G1 X59.697 Y11.928 E26.67647
G1 X59.428 Y13.583 E26.72305
G3 X57.140 Y18.570 I-13.293 J-3.081 E26.87648
G1 X55.613 Y20.459 E26.94396
G1 X56.079 Y20.507 F900.000
G1 F900
G1 X58.306 Y22.872 E27.03418
G3 X61.960 Y28.600 I-19.890 J16.718 E27.22344
G1 X64.660 Y27.597 E27.30346
G3 X66.282 Y27.222 I3.920 J13.260 E27.34974
G1 X68.003 Y27.041 E27.39779
G3 X71.942 Y27.427 I0.647 J13.691 E27.50808
G1 X72.216 Y28.221 E27.53142
G1 X71.873 Y28.640 E27.54644
G1 X70.655 Y29.849 E27.59412
G3 X65.722 Y32.623 I-9.198 J-10.584 E27.75239
G1 X63.613 Y33.189 E27.81305
G1 X64.025 Y36.411 E27.90328
G3 X63.613 Y43.198 I-25.871 J1.836 E28.09266
G1 X66.216 Y43.913 E28.16765
G3 X67.921 Y44.619 I-4.115 J12.350 E28.21894
G1 X69.419 Y45.484 E28.26699
G3 X72.379 Y48.111 I-7.496 J11.428 E28.37728
G1 X72.134 Y48.915 E28.40062
G1 X71.611 Y49.053 E28.41564
G1 X69.914 Y49.314 E28.46332
G3 X64.293 Y48.659 I-1.222 J-13.964 E28.62159
G1 X62.254 Y47.878 E28.68225
G1 X60.693 Y50.727 E28.77248
G3 X56.374 Y55.972 I-22.015 J-13.727 E28.96174
G1 X58.162 Y58.230 E29.04175
G3 X59.021 Y59.657 I-11.229 J7.731 E29.08803
G1 X59.724 Y61.237 E29.13608
G3 X60.574 Y65.102 I-12.797 J4.840 E29.24638
G1 X59.904 Y65.609 E29.26971
G1 X59.400 Y65.412 E29.28474
G1 X57.873 Y64.627 E29.33242
G3 X53.711 Y60.793 I7.227 J-12.021 E29.49068
G1 X52.520 Y58.962 E29.55135
G1 X49.583 Y60.349 E29.64157
G3 X43.006 Y62.054 I-10.144 J-25.592 E29.83083
G1 X43.126 Y64.932 E29.91085
G3 X42.981 Y66.591 I-13.917 J-0.381 E29.95712
G1 X42.621 Y68.283 E30.00518
G3 X41.037 Y71.910 I-13.133 J-3.576 E30.11547
G1 X40.197 Y71.925 E30.13881
G1 X39.905 Y71.471 E30.15383
G1 X39.132 Y69.938 E30.20151
G3 X38.018 Y64.390 I12.867 J-5.469 E30.35978
G1 X38.130 Y62.209 E30.42044
G1 X34.939 Y61.604 E30.51067
G3 X28.616 Y59.117 I6.818 J-26.616 E30.69993
G1 X27.021 Y61.516 E30.77994
G3 X25.929 Y62.774 I-11.085 J-8.519 E30.82622
G1 X24.643 Y63.931 E30.87427
G3 X21.230 Y65.934 I-8.570 J-10.694 E30.98456
G1 X20.542 Y65.453 E31.00790
G1 X20.572 Y64.913 E31.02292
G1 X20.847 Y63.218 E31.07061
G3 X23.208 Y58.075 I13.645 J3.151 E31.22887
G1 X24.581 Y56.377 E31.28953
G1 X22.354 Y54.012 E31.37976
G3 X18.700 Y48.283 I19.867 J-16.701 E31.56902
G1 X16.000 Y49.287 E31.64904
G3 X14.377 Y49.662 I-3.911 J-13.227 E31.69531
G1 X12.657 Y49.843 E31.74336
G3 X8.718 Y49.457 I-0.647 J-13.691 E31.85366
G1 X8.444 Y48.663 E31.87700
G1 X8.786 Y48.244 E31.89202
G1 X10.005 Y47.035 E31.93970
G3 X14.938 Y44.261 I9.198 J10.584 E32.09796
G1 X17.047 Y43.694 E32.15863
G1 X16.635 Y40.472 E32.24886
G3 X17.047 Y33.686 I25.858 J-1.836 E32.43823
G1 X14.444 Y32.971 E32.51323
G3 X12.739 Y32.265 I4.115 J-12.350 E32.56451
G1 X11.241 Y31.400 E32.61256
G3 X8.281 Y28.772 I7.527 J-11.458 E32.72286
G1 X8.526 Y27.969 E32.74620
G1 X9.049 Y27.831 E32.76122
G1 X10.746 Y27.569 E32.80890
G3 X16.367 Y28.224 I1.216 J14.013 E32.96716
G1 X18.406 Y29.006 E33.02783
G1 X19.967 Y26.157 E33.11806
G3 X24.286 Y20.912 I23.314 J14.797 E33.30732
G1 X22.497 Y18.654 E33.38733
G3 X21.639 Y17.227 I11.838 J-8.089 E33.43361
G1 X20.936 Y15.646 E33.48166
G3 X20.085 Y11.781 I12.819 J-4.849 E33.59195
G1 X20.756 Y11.275 E33.61529
G1 X21.260 Y11.471 E33.63031
G1 X22.786 Y12.257 E33.67800
G3 X26.949 Y16.091 I-7.193 J11.988 E33.83626
G1 X28.140 Y17.921 E33.89692
G1 X31.077 Y16.534 E33.98715
G3 X37.654 Y14.829 I9.744 J24.051 E34.17641
G1 X37.534 Y11.951 E34.25643
G3 X37.679 Y10.292 I13.959 J0.384 E34.30270
G1 X38.039 Y8.600 E34.35075
G3 X39.622 Y4.974 I13.180 J3.595 E34.46105
G1 X40.470 Y4.958 E34.48460
G1 X40.752 Y5.408 E34.49935
G1 X41.528 Y6.946 E34.54719
G3 X42.642 Y12.494 I-12.867 J5.469 E34.70546
G1 X42.530 Y14.675 E34.76612
G1 X45.721 Y15.279 E34.85635
G3 X52.044 Y17.766 I-6.242 J25.152 E35.04561
G1 X53.639 Y15.367 E35.12562
G3 X54.731 Y14.110 I10.911 J8.376 E35.17190
G1 X56.017 Y12.953 E35.21995
G3 X59.430 Y10.950 I8.570 J10.694 E35.33024
G1 X60.118 Y11.431 E35.35358
G1 X60.088 Y11.971 E35.36861
G1 X59.812 Y13.665 E35.41629
G3 X57.452 Y18.809 I-13.644 J-3.146 E35.57455
G1 X56.134 Y20.439 E35.63280
G1 X56.600 Y20.487 F900.000
G1 F900
G1 X58.603 Y22.615 E35.71398
G3 X62.148 Y28.112 I-19.256 J16.310 E35.89614
G1 X64.539 Y27.223 E35.96700
G3 X66.221 Y26.833 I4.057 J13.677 E36.01498
G1 X67.979 Y26.649 E36.06406
G3 X72.244 Y27.099 I0.671 J14.074 E36.18363
G1 X72.658 Y28.300 E36.21893
G1 X72.165 Y28.904 E36.24061
G1 X70.918 Y30.141 E36.28940
G3 X65.834 Y32.999 I-9.445 J-10.850 E36.45249
G1 X64.046 Y33.480 E36.50392
G1 X64.416 Y36.379 E36.58510
G3 X64.053 Y42.911 I-25.290 J1.871 E36.76734
G1 X66.336 Y43.538 E36.83310
G3 X68.100 Y44.269 I-4.327 J12.935 E36.88617
G1 X69.630 Y45.153 E36.93525
G3 X72.816 Y48.023 I-7.713 J11.765 E37.05482
G1 X72.446 Y49.239 E37.09012
G1 X71.691 Y49.438 E37.11180
G1 X69.955 Y49.705 E37.16059
G3 X64.163 Y49.030 I-1.265 J-14.336 E37.32368
G1 X62.433 Y48.367 E37.37512
G1 X61.029 Y50.930 E37.45629
G3 X56.897 Y56.000 I-21.524 J-13.323 E37.63846
G1 X58.481 Y57.999 E37.70932
G3 X59.371 Y59.479 I-11.628 J8.000 E37.75730
G1 X60.090 Y61.093 E37.80638
G3 X60.980 Y65.288 I-13.165 J4.985 E37.92595
G1 X59.966 Y66.054 E37.96125
G1 X59.238 Y65.771 E37.98292
G1 X57.677 Y64.967 E38.03171
G3 X53.388 Y61.016 I7.397 J-12.334 E38.19481
G1 X52.378 Y59.464 E38.24624
G1 X49.735 Y60.712 E38.32742
G3 X43.412 Y62.384 I-9.565 J-23.380 E38.50958
G1 X43.519 Y64.933 E38.58044
G3 X43.369 Y66.653 I-14.164 J-0.369 E38.62842
G1 X43.002 Y68.382 E38.67751
G3 X41.256 Y72.299 I-13.604 J-3.716 E38.79707
G1 X39.986 Y72.322 E38.83237
G1 X39.564 Y71.666 E38.85405
G1 X38.772 Y70.098 E38.90284
G3 X37.625 Y64.380 I13.283 J-5.639 E39.06593
G1 X37.721 Y62.531 E39.11737
G1 X34.849 Y61.987 E39.19855
G3 X28.751 Y59.624 I6.034 J-24.622 E39.38071
G1 X27.339 Y61.748 E39.45157
G3 X26.207 Y63.052 I-11.250 J-8.623 E39.49955
G1 X24.893 Y64.234 E39.54863
G3 X21.179 Y66.377 I-8.787 J-10.939 E39.66820
G1 X20.137 Y65.649 E39.70350
G1 X20.181 Y64.870 E39.72518
G1 X20.463 Y63.136 E39.77397
G3 X22.896 Y57.836 I14.036 J3.235 E39.93706
G1 X24.060 Y56.396 E39.98850
G1 X22.056 Y54.269 E40.06967
G3 X18.512 Y48.772 I19.345 J-16.363 E40.25183
G1 X16.121 Y49.661 E40.32269
G3 X14.439 Y50.050 I-4.005 J-13.487 E40.37067
G1 X12.681 Y50.235 E40.41976
G3 X8.416 Y49.785 I-0.671 J-14.074 E40.53933
G1 X8.001 Y48.584 E40.57463
G1 X8.495 Y47.980 E40.59630
G1 X9.742 Y46.743 E40.64509
G3 X14.826 Y43.885 I9.445 J10.850 E40.80819
G1 X16.614 Y43.404 E40.85962
G1 X16.244 Y40.505 E40.94080
G3 X16.607 Y33.972 I25.171 J-1.878 E41.12303
G1 X14.324 Y33.346 E41.18880
G3 X12.560 Y32.615 I4.327 J-12.935 E41.24187
G1 X11.030 Y31.731 E41.29095
G3 X7.844 Y28.860 I7.698 J-11.746 E41.41052
G1 X8.214 Y27.645 E41.44582
G1 X8.969 Y27.446 E41.46749
G1 X10.705 Y27.178 E41.51628
G3 X16.497 Y27.854 I1.260 J14.357 E41.67938
G1 X18.226 Y28.516 E41.73081
G1 X19.631 Y25.953 E41.81199
G3 X23.763 Y20.884 I21.543 J13.342 E41.99415
G1 X22.179 Y18.884 E42.06501
G3 X21.289 Y17.405 I11.705 J-8.051 E42.11299
G1 X20.570 Y15.791 E42.16208
G3 X19.680 Y11.595 I13.163 J-4.984 E42.28165
G1 X20.694 Y10.830 E42.31695
G1 X21.422 Y11.113 E42.33862
G1 X22.983 Y11.916 E42.38741
G3 X27.272 Y15.868 I-7.387 J12.320 E42.55051
G1 X28.282 Y17.420 E42.60194
G1 X30.925 Y16.172 E42.68312
G3 X37.247 Y14.499 I9.590 J23.459 E42.86528
G1 X37.141 Y11.951 E42.93614
G3 X37.291 Y10.231 I14.164 J0.369 E42.98412
G1 X37.658 Y8.502 E43.03320
G3 X39.404 Y4.585 I13.573 J3.702 E43.15277
G1 X40.685 Y4.561 E43.18836
G1 X41.095 Y5.215 E43.20979
G1 X41.888 Y6.786 E43.25868
G3 X43.035 Y12.504 I-13.283 J5.639 E43.42177
G1 X42.939 Y14.353 E43.47321
G1 X45.811 Y14.897 E43.55438
G3 X51.909 Y17.260 I-5.993 J24.515 E43.73655
G1 X53.321 Y15.136 E43.80740
G3 X54.453 Y13.832 I11.250 J8.623 E43.85538
G1 X55.766 Y12.650 E43.90447
G3 X59.481 Y10.506 I8.822 J10.996 E44.02404
G1 X60.523 Y11.235 E44.05934
G1 X60.479 Y12.014 E44.08101
G1 X60.197 Y13.747 E44.12980
G3 X57.764 Y19.047 I-14.036 J-3.235 E44.29290
G1 X56.655 Y20.420 E44.34192
G1 X57.121 Y20.468 F900.000
G1 F900
G1 X58.901 Y22.358 E44.41404
G3 X62.336 Y27.623 I-18.889 J16.077 E44.58911
G1 X64.419 Y26.849 E44.65081
G3 X66.160 Y26.445 I4.152 J13.941 E44.70049
G1 X67.955 Y26.256 E44.75061
G3 X72.546 Y26.770 I0.695 J14.552 E44.87946
G1 X73.101 Y28.379 E44.92673
G1 X72.456 Y29.168 E44.95505
G1 X71.181 Y30.434 E45.00495
G3 X64.479 Y33.770 I-9.791 J-11.270 E45.21508
G1 X64.808 Y36.346 E45.28721
G3 X64.493 Y42.625 I-24.744 J1.906 E45.46230
G1 X66.455 Y43.164 E45.51884
G3 X68.279 Y43.919 I-4.405 J13.223 E45.57369
G1 X69.841 Y44.821 E45.62380
G3 X73.253 Y47.936 I-7.911 J12.091 E45.75266
G1 X72.757 Y49.563 E45.79992
G1 X71.771 Y49.822 E45.82825
G1 X69.996 Y50.096 E45.87814
G3 X62.613 Y48.857 I-1.298 J-14.883 E46.08828
G1 X61.365 Y51.134 E46.16040
G3 X57.420 Y56.028 I-21.120 J-12.988 E46.33547
G1 X58.799 Y57.769 E46.39717
G3 X59.722 Y59.301 I-12.118 J8.345 E46.44685
G1 X60.455 Y60.949 E46.49697
G3 X61.385 Y65.474 I-13.533 J5.140 E46.62582
G1 X60.027 Y66.499 E46.67309
G1 X59.077 Y66.130 E46.70141
G1 X57.480 Y65.308 E46.75131
G3 X52.236 Y59.965 I7.686 J-12.789 E46.96144
G1 X49.888 Y61.074 E47.03357
G3 X43.819 Y62.714 I-9.447 J-22.910 E47.20863
G1 X43.912 Y64.934 E47.27034
G3 X43.758 Y66.715 I-14.618 J-0.367 E47.32002
G1 X43.382 Y68.480 E47.37014
G3 X41.475 Y72.688 I-14.049 J-3.831 E47.49899
G1 X39.774 Y72.719 E47.54625
G1 X39.222 Y71.861 E47.57458
G1 X38.413 Y70.257 E47.62448
G3 X37.311 Y62.853 I13.743 J-5.829 E47.83461
G1 X34.759 Y62.370 E47.90674
G3 X28.886 Y60.130 I5.815 J-24.064 E48.08180
G1 X27.656 Y61.980 E48.14350
G3 X26.484 Y63.330 I-11.715 J-8.987 E48.19319
G1 X25.144 Y64.537 E48.24330
G3 X21.127 Y66.820 I-9.092 J-11.322 E48.37216
G1 X19.732 Y65.845 E48.41942
G1 X19.790 Y64.827 E48.44775
G1 X20.078 Y63.054 E48.49764
G3 X23.539 Y56.416 I14.542 J3.361 E48.70778
G1 X21.759 Y54.526 E48.77990
G3 X18.324 Y49.261 I18.794 J-16.015 E48.95497
G1 X16.241 Y50.035 E49.01667
G3 X14.500 Y50.439 I-4.152 J-13.941 E49.06635
G1 X12.705 Y50.627 E49.11647
G3 X8.114 Y50.113 I-0.706 J-14.450 E49.24532
G1 X7.559 Y48.505 E49.29259
G1 X8.204 Y47.715 E49.32091
G1 X9.479 Y46.450 E49.37081
G3 X16.181 Y43.114 I9.791 J11.270 E49.58094
G1 X15.852 Y40.538 E49.65307
G3 X16.167 Y34.259 I24.733 J-1.907 E49.82816
G1 X14.205 Y33.720 E49.88470
G3 X12.381 Y32.965 I4.405 J-13.223 E49.93955
G1 X10.819 Y32.063 E49.98966
G3 X7.406 Y28.948 I7.998 J-12.191 E50.11852
G1 X7.903 Y27.321 E50.16578
G1 X8.889 Y27.061 E50.19411
G1 X10.664 Y26.787 E50.24400
G3 X18.047 Y28.027 I1.298 J14.869 E50.45414
G1 X19.295 Y25.750 E50.52626
G3 X23.240 Y20.856 I21.120 J12.988 E50.70133
G1 X21.861 Y19.115 E50.76303
G3 X20.938 Y17.583 I12.403 J-8.517 E50.81271
G1 X20.205 Y15.935 E50.86283
G3 X19.275 Y11.409 I13.530 J-5.139 E50.99168
G1 X20.633 Y10.384 E51.03895
G1 X21.583 Y10.754 E51.06727
G1 X23.180 Y11.576 E51.11717
G3 X28.424 Y16.918 I-7.691 J12.795 E51.32730
G1 X30.772 Y15.810 E51.39943
G3 X36.841 Y14.169 I9.439 J22.865 E51.57449
G1 X36.748 Y11.950 E51.63620
G3 X36.902 Y10.169 I14.618 J0.367 E51.68588
G1 X37.277 Y8.404 E51.73600
G3 X39.185 Y4.196 I14.072 J3.844 E51.86485
G1 X40.896 Y4.165 E51.91238
G1 X41.437 Y5.022 E51.94053
G1 X42.247 Y6.626 E51.99047
G3 X43.349 Y14.031 I-13.749 J5.831 E52.20060
G1 X45.901 Y14.514 E52.27273
G3 X51.774 Y16.754 I-5.833 J24.112 E52.44779
G1 X53.004 Y14.904 E52.50949
G3 X54.175 Y13.554 I11.830 J9.079 E52.55918
G1 X55.516 Y12.346 E52.60929
G3 X59.533 Y10.063 I9.139 J11.404 E52.73815
G1 X60.927 Y11.038 E52.78541
G1 X60.869 Y12.056 E52.81374
G1 X60.581 Y13.829 E52.86363
G3 X57.176 Y20.400 I-14.473 J-3.332 E53.07135
G1 X56.719 Y20.886 F900.000
G1 Z-149.000 F900.000
G92 E0
G1 X59.481 Y20.285 F900.000
G1 X55.060 Y22.488 F900.000
G1 F900
G2 X55.831 Y23.235 I6.342 J-5.775 E0.02983
G2 X56.989 Y24.503 I15.713 J-13.187 E0.07754
G3 X59.223 Y27.739 I-16.539 J13.807 E0.18691
G3 X61.219 Y30.952 I-17.898 J13.345 E0.29211
G3 X61.205 Y32.487 I-7.854 J0.696 E0.33478
G3 X61.503 Y33.738 I-7.977 J2.561 E0.37053
G3 X61.711 Y34.788 I-4.452 J1.428 E0.40031
G3 X61.883 Y36.069 I-5.275 J1.360 E0.43629
G1 X62.000 Y36.957 E0.46115
G3 X61.906 Y40.889 I-21.300 J1.458 E0.57052
G3 X61.634 Y44.696 I-23.496 J0.235 E0.67667
G1 X60.878 Y45.722 E0.71208
G1 X60.727 Y45.872 E0.71799
G3 X60.224 Y47.081 I-8.115 J-2.667 E0.75441
G3 X59.775 Y48.053 I-4.458 J-1.469 E0.78419
G3 X59.161 Y49.191 I-5.005 J-1.966 E0.82017
G1 X58.734 Y49.978 E0.84503
G3 X56.347 Y53.103 I-18.180 J-11.413 E0.95440
G3 X53.904 Y56.019 I-19.519 J-13.871 E1.06019
G1 X52.675 Y56.409 E1.09601
G1 X52.464 Y56.442 E1.10192
G3 X51.346 Y57.125 I-4.943 J-6.834 E1.13834
G3 X50.412 Y57.647 I-2.760 J-3.842 E1.16811
G3 X49.246 Y58.207 I-2.926 J-4.599 E1.20410
G1 X48.439 Y58.593 E1.22896
G3 X44.670 Y59.718 I-7.972 J-19.832 E1.33833
G3 X40.965 Y60.636 I-7.459 J-22.168 E1.44448
G1 X39.756 Y60.234 E1.47989
G1 X39.567 Y60.136 E1.48580
G3 X38.261 Y60.032 I0.015 J-8.446 E1.52222
G3 X37.198 Y59.906 I0.030 J-4.797 E1.55199
G3 X35.926 Y59.673 I0.344 J-5.465 E1.58797
G1 X35.046 Y59.510 E1.61283
G3 X31.336 Y58.206 I5.177 J-20.660 E1.72220
G3 X27.799 Y56.771 I7.022 J-22.383 E1.82836
G1 X27.056 Y55.735 E1.86376
G1 X26.961 Y55.544 E1.86967
G3 X25.966 Y54.692 I4.902 J-6.732 E1.90609
G3 X25.180 Y53.966 I2.769 J-3.786 E1.93587
G3 X24.288 Y53.030 I3.502 J-4.230 E1.97185
G1 X23.671 Y52.381 E1.99671
G3 X21.437 Y49.144 I16.311 J-13.646 E2.10608
G3 X19.441 Y45.931 I17.724 J-13.237 E2.21128
G3 X19.455 Y44.397 I7.638 J-0.697 E2.25395
G3 X19.157 Y43.146 I8.056 J-2.580 E2.28970
G3 X18.949 Y42.096 I4.452 J-1.428 E2.31948
G3 X18.777 Y40.814 I5.274 J-1.360 E2.35546
G1 X18.660 Y39.927 E2.38032
G3 X18.754 Y35.995 I21.300 J-1.458 E2.48969
G3 X19.026 Y32.188 I23.496 J-0.235 E2.59584
G1 X19.782 Y31.162 E2.63125
G1 X19.933 Y31.012 E2.63716
G3 X20.436 Y29.802 I8.185 J2.693 E2.67358
G3 X20.885 Y28.831 I4.355 J1.425 E2.70336
G3 X21.499 Y27.693 I5.005 J1.966 E2.73934
G1 X21.925 Y26.906 E2.76420
G3 X24.313 Y23.780 I18.051 J11.315 E2.87357
G3 X26.758 Y20.863 I19.575 J13.924 E2.97942
G1 X27.986 Y20.474 E3.01522
G1 X28.196 Y20.442 E3.02110
G3 X29.314 Y19.759 I4.943 J6.834 E3.05752
G3 X30.248 Y19.237 I2.695 J3.726 E3.08729
G3 X31.413 Y18.677 I2.935 J4.614 E3.12328
G1 X32.221 Y18.291 E3.14814
G3 X35.990 Y17.166 I7.972 J19.832 E3.25750
G3 X39.662 Y16.261 I7.165 J21.168 E3.36272
G3 X41.117 Y16.748 I-1.703 J7.504 E3.40538
G3 X42.399 Y16.852 I-0.043 J8.487 E3.44113
G3 X43.462 Y16.978 I-0.011 J4.642 E3.47090
G3 X44.734 Y17.211 I-0.344 J5.465 E3.50689
G1 X45.614 Y17.373 E3.53175
G3 X49.324 Y18.678 I-5.214 J20.748 E3.64112
G3 X52.861 Y20.113 I-7.022 J22.383 E3.74727
G1 X53.603 Y21.149 E3.78268
G1 X53.699 Y21.339 E3.78859
G3 X54.992 Y22.433 I-9.097 J12.063 E3.83567
G1 X54.794 Y22.779 F900.000
G1 F900
G2 X55.550 Y23.511 I6.344 J-5.796 E3.86491
G2 X56.689 Y24.758 I15.809 J-13.296 E3.91184
G3 X58.896 Y27.956 I-16.316 J13.621 E4.01988
G3 X60.829 Y31.057 I-17.048 J12.780 E4.12151
G3 X60.802 Y32.505 I-6.531 J0.602 E4.16182
G3 X61.120 Y33.827 I-8.346 J2.707 E4.19962
G3 X61.324 Y34.857 I-4.426 J1.412 E4.22883
G3 X61.493 Y36.113 I-5.180 J1.336 E4.26409
G1 X61.608 Y36.987 E4.28858
G3 X61.513 Y40.871 I-21.080 J1.428 E4.39662
G3 X61.257 Y44.545 I-22.217 J0.298 E4.49904
G1 X60.580 Y45.464 E4.53076
G1 X60.388 Y45.654 E4.53825
G3 X59.862 Y46.929 I-8.406 J-2.722 E4.57659
G3 X59.422 Y47.882 I-4.434 J-1.469 E4.60580
G3 X58.820 Y48.997 I-5.008 J-1.984 E4.64106
G1 X58.399 Y49.772 E4.66555
G3 X56.040 Y52.858 I-17.777 J-11.144 E4.77359
G3 X53.685 Y55.676 I-18.632 J-13.178 E4.87571
G1 X52.585 Y56.026 E4.90777
G1 X52.319 Y56.066 E4.91526
G3 X51.143 Y56.788 I-5.183 J-7.124 E4.95360
G3 X50.227 Y57.301 I-2.632 J-3.625 E4.98281
G3 X49.085 Y57.849 I-2.903 J-4.586 E5.01807
G1 X48.289 Y58.229 E5.04256
G3 X44.566 Y59.339 I-7.853 J-19.539 E5.15060
G3 X40.993 Y60.231 I-7.198 J-21.232 E5.25302
G1 X39.909 Y59.871 E5.28474
G1 X39.670 Y59.747 E5.29223
G3 X38.294 Y59.640 I-0.000 J-8.895 E5.33057
G3 X37.252 Y59.516 I0.004 J-4.471 E5.35978
G3 X36.005 Y59.288 I0.319 J-5.269 E5.39504
G1 X35.138 Y59.128 E5.41953
G3 X31.474 Y57.838 I5.134 J-20.431 E5.52757
G3 X28.059 Y56.459 I6.696 J-21.501 E5.62999
G1 X27.394 Y55.531 E5.66171
G1 X27.273 Y55.290 E5.66920
G3 X26.223 Y54.395 I5.172 J-7.131 E5.70754
G3 X25.453 Y53.682 I2.697 J-3.685 E5.73675
G3 X24.578 Y52.765 I3.408 J-4.128 E5.77201
G1 X23.971 Y52.126 E5.79650
G3 X21.764 Y48.928 I16.316 J-13.621 E5.90454
G3 X19.831 Y45.827 I17.048 J-12.780 E6.00618
G3 X19.858 Y44.378 I6.542 J-0.603 E6.04649
G3 X19.540 Y43.057 I8.372 J-2.714 E6.08428
G3 X19.336 Y42.027 I4.279 J-1.383 E6.11349
G3 X19.167 Y40.771 I5.180 J-1.336 E6.14875
G1 X19.052 Y39.897 E6.17325
G3 X19.147 Y36.013 I21.080 J-1.428 E6.28129
G3 X19.402 Y32.339 I22.459 J-0.287 E6.38371
G1 X20.080 Y31.419 E6.41543
G1 X20.271 Y31.230 E6.42291
G3 X20.798 Y29.955 I8.551 J2.788 E6.46126
G3 X21.238 Y29.002 I4.434 J1.469 E6.49046
G3 X21.840 Y27.887 I4.948 J1.951 E6.52572
G1 X22.261 Y27.112 E6.55022
G3 X24.620 Y24.025 I17.858 J11.202 E6.65826
G3 X26.976 Y21.206 I18.790 J13.310 E6.76044
G1 X28.076 Y20.858 E6.79247
G1 X28.341 Y20.817 E6.79993
G3 X29.517 Y20.095 I5.240 J7.216 E6.83828
G3 X30.433 Y19.583 I2.662 J3.687 E6.86748
G3 X31.575 Y19.035 I2.844 J4.463 E6.90274
G1 X32.371 Y18.655 E6.92724
G3 X36.094 Y17.545 I7.853 J19.539 E7.03528
G3 X39.641 Y16.664 I6.869 J20.074 E7.13692
G3 X41.010 Y17.137 I-1.455 J6.430 E7.17722
G3 X42.366 Y17.243 I-0.000 J8.729 E7.21502
G3 X43.408 Y17.367 I-0.021 J4.621 E7.24422
G3 X44.655 Y17.595 I-0.346 J5.418 E7.27949
G1 X45.522 Y17.756 E7.30398
G3 X49.186 Y19.046 I-5.163 J20.512 E7.41202
G3 X52.601 Y20.425 I-6.576 J21.204 E7.51444
G1 X53.266 Y21.353 E7.54616
G1 X53.387 Y21.594 E7.55364
G3 X54.727 Y22.724 I-9.447 J12.563 E7.60236
G1 X54.529 Y23.069 F900.000
G1 F900
G2 X55.270 Y23.787 I5.979 J-5.429 E7.63103
G2 X56.390 Y25.013 I15.861 J-13.365 E7.67716
G3 X58.568 Y28.173 I-16.055 J13.396 E7.78387
G3 X60.440 Y31.161 I-16.192 J12.225 E7.88195
G3 X60.399 Y32.524 I-3.958 J0.563 E7.91992
G3 X60.737 Y33.916 I-8.665 J2.841 E7.95976
G3 X60.937 Y34.926 I-4.251 J1.367 E7.98840
G3 X61.102 Y36.156 I-5.007 J1.298 E8.02293
G1 X61.216 Y37.018 E8.04706
G3 X61.121 Y40.854 I-20.771 J1.405 E8.15377
G3 X60.881 Y44.394 I-21.679 J0.308 E8.25246
G1 X60.282 Y45.207 E8.28049
G1 X60.050 Y45.436 E8.28955
G3 X59.500 Y46.776 I-8.778 J-2.820 E8.32982
G3 X59.068 Y47.710 I-4.240 J-1.394 E8.35846
G3 X58.478 Y48.803 I-4.921 J-1.951 E8.39300
G1 X58.064 Y49.566 E8.41713
G3 X55.732 Y52.614 I-17.639 J-11.080 E8.52384
G3 X53.466 Y55.334 I-17.987 J-12.681 E8.62229
G1 X52.495 Y55.642 E8.65059
G1 X52.173 Y55.691 E8.65965
G3 X50.940 Y56.452 I-5.434 J-7.425 E8.69992
G3 X50.042 Y56.954 I-2.602 J-3.601 E8.72856
G3 X48.923 Y57.491 I-2.838 J-4.480 E8.76310
G1 X48.139 Y57.866 E8.78723
G3 X44.461 Y58.960 I-7.745 J-19.309 E8.89394
G3 X41.020 Y59.826 I-6.988 J-20.497 E8.99262
G1 X40.062 Y59.508 E9.02066
G1 X39.772 Y59.358 E9.02972
G3 X38.328 Y59.249 I-0.012 J-9.458 E9.06998
G3 X37.306 Y59.127 I0.011 J-4.431 E9.09862
G3 X36.085 Y58.904 I0.315 J-5.181 E9.13316
G1 X35.230 Y58.746 E9.15729
G3 X31.611 Y57.470 I5.138 J-20.343 E9.26400
G3 X28.319 Y56.148 I6.343 J-20.555 E9.36269
G1 X27.731 Y55.327 E9.39072
G1 X27.584 Y55.036 E9.39978
G3 X26.480 Y54.098 I5.504 J-7.597 E9.44005
G3 X25.725 Y53.399 I2.694 J-3.667 E9.46869
G3 X24.868 Y52.500 I3.341 J-4.043 E9.50323
G1 X24.270 Y51.871 E9.52735
G3 X22.092 Y48.711 I16.055 J-13.396 E9.63406
G3 X20.220 Y45.723 I16.392 J-12.350 E9.73214
G3 X20.261 Y44.360 I3.958 J-0.563 E9.77011
G3 X19.444 Y39.866 I25.129 J-6.890 E9.89725
G3 X19.539 Y36.030 I20.771 J-1.405 E10.00396
G3 X19.779 Y32.490 I21.679 J-0.308 E10.10265
G1 X20.378 Y31.677 E10.13069
G1 X20.610 Y31.448 E10.13974
G3 X21.160 Y30.108 I8.778 J2.820 E10.18001
G3 X21.592 Y29.173 I4.272 J1.407 E10.20865
G3 X22.181 Y28.081 I4.872 J1.923 E10.24319
G1 X22.596 Y27.318 E10.26732
G3 X24.927 Y24.270 I17.606 J11.049 E10.37403
G3 X27.195 Y21.548 I18.008 J12.699 E10.47253
G1 X28.165 Y21.241 E10.50081
G1 X28.487 Y21.192 E10.50985
G3 X29.720 Y20.432 I5.495 J7.535 E10.55012
G3 X30.618 Y19.929 I2.636 J3.653 E10.57876
G3 X31.737 Y19.392 I2.838 J4.480 E10.61329
G1 X32.521 Y19.018 E10.63742
G3 X36.199 Y17.923 I7.791 J19.444 E10.74413
G3 X39.620 Y17.066 I6.670 J19.369 E10.84221
G3 X40.903 Y17.526 I-0.663 J3.869 E10.88018
G3 X42.332 Y17.635 I0.021 J9.148 E10.92002
G3 X43.354 Y17.757 I-0.011 J4.431 E10.94866
G3 X44.575 Y17.980 I-0.315 J5.181 E10.98319
G1 X45.430 Y18.138 E11.00732
G3 X49.048 Y19.414 I-5.044 J20.069 E11.11403
G3 X52.341 Y20.736 I-6.329 J20.528 E11.21272
G1 X52.929 Y21.556 E11.24075
G1 X53.076 Y21.848 E11.24981
G3 X54.462 Y23.014 I-9.952 J13.237 E11.30017
G1 X54.264 Y23.360 F900.000
G1 F900
G2 X54.990 Y24.063 I5.975 J-5.444 E11.32825
G2 X56.091 Y25.268 I14.676 J-12.304 E11.37360
G3 X58.240 Y28.389 I-15.852 J13.216 E11.47898
G3 X60.051 Y31.265 I-15.762 J11.933 E11.57349
G3 X59.996 Y32.542 I-3.694 J0.481 E11.60911
G3 X60.728 Y40.836 I-19.955 J5.940 E11.84202
G3 X60.504 Y44.243 I-20.429 J0.368 E11.93698
G3 X59.712 Y45.218 I-3.493 J-2.029 E11.97196
G3 X55.425 Y52.369 I-19.650 J-6.920 E12.20518
G3 X53.248 Y54.991 I-17.213 J-12.077 E12.29997
G3 X52.028 Y55.316 I-1.627 J-3.654 E12.33514
G3 X47.989 Y57.502 I-14.126 J-21.275 E12.46298
G3 X44.356 Y58.582 I-7.661 J-19.122 E12.56836
G3 X41.047 Y59.421 I-6.708 J-19.513 E12.66332
G3 X39.875 Y58.969 I0.838 J-3.919 E12.69830
G3 X31.749 Y57.102 I0.515 J-20.859 E12.93152
G3 X28.578 Y55.836 I6.062 J-19.789 E13.02648
G3 X27.896 Y54.781 I2.996 J-2.685 E13.06146
G3 X24.569 Y51.616 I15.843 J-19.986 E13.18930
G3 X22.420 Y48.494 I15.796 J-13.174 E13.29468
G3 X20.609 Y45.619 I15.949 J-12.055 E13.38919
G3 X20.664 Y44.342 I3.694 J-0.481 E13.42481
G3 X19.932 Y36.047 I19.960 J-5.941 E13.65772
G3 X20.156 Y32.640 I20.429 J-0.368 E13.75268
G3 X20.948 Y31.666 I3.504 J2.040 E13.78766
G3 X25.235 Y24.515 I19.650 J6.920 E14.02088
G3 X27.413 Y21.891 I17.320 J12.161 E14.11571
G3 X28.632 Y21.567 I1.658 J3.782 E14.15085
G3 X36.304 Y18.302 I11.837 J17.167 E14.38407
G3 X39.598 Y17.469 I6.470 J18.656 E14.47858
G3 X40.796 Y17.915 I-0.710 J3.738 E14.51420
G3 X45.337 Y18.520 I-1.092 J25.543 E14.64173
G3 X48.911 Y19.782 I-5.037 J19.955 E14.74711
G3 X52.082 Y21.048 I-6.062 J19.789 E14.84207
G3 X52.764 Y22.102 I-3.019 J2.701 E14.87705
G3 X54.197 Y23.305 I-10.157 J13.554 E14.92904
G1 X53.999 Y23.650 F900.000
G1 F900
G2 X54.710 Y24.339 I5.871 J-5.347 E14.95654
G2 X55.791 Y25.523 I15.001 J-12.611 E15.00110
G3 X57.912 Y28.606 I-15.527 J12.953 E15.10516
G3 X59.661 Y31.369 I-14.950 J11.399 E15.19610
G3 X59.593 Y32.561 I-3.590 J0.393 E15.22937
G3 X60.336 Y40.819 I-19.650 J5.930 E15.46134
G3 X60.128 Y44.092 I-19.897 J0.379 E15.55256
G3 X59.374 Y45.000 I-3.292 J-1.966 E15.58543
G3 X55.118 Y52.124 I-19.398 J-6.755 E15.81759
G3 X53.029 Y54.649 I-16.442 J-11.477 E15.90871
G3 X51.882 Y54.941 I-1.502 J-3.500 E15.94169
G3 X47.839 Y57.139 I-14.025 J-20.979 E16.06981
G3 X44.251 Y58.203 I-7.554 J-18.892 E16.17386
G3 X41.074 Y59.017 I-6.487 J-18.712 E16.26508
G3 X39.978 Y58.580 I0.836 J-3.690 E16.29795
G3 X31.887 Y56.734 I0.427 J-20.524 E16.53011
G3 X28.838 Y55.524 I5.801 J-19.063 E16.62133
G3 X28.208 Y54.527 I2.828 J-2.484 E16.65420
G3 X22.748 Y48.278 I12.407 J-16.350 E16.88636
G3 X20.999 Y45.515 I14.733 J-11.261 E16.97731
G3 X21.066 Y44.323 I3.651 J-0.393 E17.01058
G3 X20.324 Y36.065 I19.666 J-5.929 E17.24255
G3 X20.532 Y32.791 I19.942 J-0.377 E17.33377
G3 X21.286 Y31.884 I3.208 J1.900 E17.36664
G3 X25.542 Y24.760 I19.366 J6.736 E17.59880
G3 X27.631 Y22.234 I16.556 J11.565 E17.68996
G3 X28.778 Y21.942 I1.502 J3.500 E17.72291
G3 X36.409 Y18.681 I11.705 J16.831 E17.95507
G3 X39.577 Y17.871 I6.271 J17.926 E18.04602
G3 X40.689 Y18.304 I-0.717 J3.486 E18.07929
G3 X45.245 Y18.902 I-0.977 J25.099 E18.20720
G3 X48.773 Y20.150 I-4.994 J19.727 E18.31126
G3 X51.822 Y21.359 I-5.761 J18.979 E18.40248
G3 X52.452 Y22.357 I-2.847 J2.495 E18.43535
G3 X53.931 Y23.596 I-10.052 J13.501 E18.48898
G1 X53.734 Y23.941 F900.000
G1 F900
G2 X54.429 Y24.615 I5.504 J-4.980 E18.51590
G2 X55.492 Y25.778 I14.802 J-12.462 E18.55967
G3 X57.584 Y28.822 I-15.490 J12.886 E18.66239
G3 X59.272 Y31.473 I-13.465 J10.437 E18.74977
G3 X59.191 Y32.579 I-3.455 J0.303 E18.78069
G3 X60.040 Y37.109 I-23.842 J6.813 E18.90899
G3 X59.943 Y40.801 I-20.031 J1.321 E19.01171
G3 X59.751 Y43.942 I-19.096 J0.409 E19.09920
G3 X59.036 Y44.782 I-3.032 J-1.856 E19.12996
G3 X54.810 Y51.879 I-19.088 J-6.559 E19.36106
G3 X52.811 Y54.306 I-15.774 J-10.956 E19.44851
G3 X51.736 Y54.566 I-1.350 J-3.227 E19.47931
G3 X44.147 Y57.824 I-11.583 J-16.512 E19.71041
G3 X41.101 Y58.612 I-6.193 J-17.658 E19.79790
G3 X40.080 Y58.191 I0.829 J-3.458 E19.82866
G3 X32.025 Y56.366 I0.337 J-20.176 E20.05976
G3 X29.098 Y55.213 I5.442 J-18.107 E20.14725
G3 X28.520 Y54.273 I2.679 J-2.295 E20.17800
G3 X23.076 Y48.061 I12.129 J-16.121 E20.40911
G3 X21.388 Y45.411 I13.504 J-10.464 E20.49648
G3 X21.469 Y44.305 I3.455 J-0.303 E20.52740
G3 X20.620 Y39.775 I23.842 J-6.813 E20.65570
G3 X20.717 Y36.082 I20.038 J-1.321 E20.75843
G3 X20.909 Y32.942 I18.667 J-0.434 E20.84591
G3 X21.624 Y32.101 I3.018 J1.841 E20.87667
G3 X25.850 Y25.005 I19.061 J6.545 E21.10777
G3 X27.850 Y22.577 I15.606 J10.818 E21.19525
G3 X28.924 Y22.317 I1.365 J3.291 E21.22602
G3 X36.513 Y19.060 I11.579 J16.509 E21.45713
G3 X39.555 Y18.273 I5.784 J16.085 E21.54450
G3 X40.582 Y18.693 I-0.784 J3.383 E21.57542
G3 X48.635 Y20.518 I-0.339 J20.176 E21.80645
G3 X51.562 Y21.671 I-5.442 J18.107 E21.89394
G3 X52.140 Y22.611 I-2.679 J2.295 E21.92469
G3 X53.666 Y23.886 I-10.382 J13.977 E21.97996
G1 X53.734 Y23.941 F900.000
G92 E0
G1 X55.209 Y22.242 F900.000
G1 X54.026 Y20.983 F900.000
G1 X53.588 Y19.026 F900.000
G1 X52.830 Y19.189 F900.000
G1 X50.817 Y19.084 F900.000
G1 X46.429 Y17.360 F900.000
G1 X41.195 Y16.284 F900.000
G1 X39.647 Y15.040 F900.000
G1 X39.790 Y15.072 F900.000
G1 F900
G2 X39.538 Y15.087 I-0.111 J0.268 E0.00715
G3 X39.396 Y12.137 I17.175 J-2.305 E0.08927
G3 X39.564 Y10.752 I9.158 J0.408 E0.12803
G3 X39.680 Y11.483 I-2.125 J0.712 E0.14866
G3 X39.771 Y13.466 I-5.492 J1.246 E0.20405
G1 X39.789 Y14.985 E0.24626
G1 X40.189 Y15.595 F900.000
G1 F900
G1 X39.705 Y15.457 E0.26024
G1 X39.183 Y15.548 E0.27497
G3 X39.005 Y12.108 I24.959 J-3.016 E0.37073
G3 X39.552 Y9.156 I12.433 J0.777 E0.45432
G3 X39.897 Y10.485 I-4.429 J1.859 E0.49256
G3 X40.069 Y11.425 I-2.738 J0.987 E0.51920
G3 X40.164 Y13.475 I-5.763 J1.294 E0.57648
G1 X40.188 Y15.508 E0.63295
G1 X40.588 Y16.118 F900.000
G1 F900
G1 X39.684 Y15.859 E0.65907
G1 X38.828 Y16.009 E0.68322
G3 X38.613 Y12.079 I28.277 J-3.518 E0.79263
G3 X39.537 Y8.034 I12.746 J0.784 E0.90839
G1 X39.627 Y8.215 E0.91400
G1 X40.115 Y9.576 E0.95418
G2 X40.396 Y10.806 I8.013 J-1.184 E0.98924
G2 X40.550 Y11.859 I6.769 J-0.452 E1.01883
G3 X40.557 Y13.485 I-6.355 J0.840 E1.06409
G1 X40.587 Y16.031 E1.13482
G92 E0
G1 X53.421 Y19.075 F900.000
G1 F900
G3 X54.886 Y16.800 I16.938 J9.298 E0.07519
G3 X55.986 Y15.590 I7.761 J5.951 E0.12064
G3 X55.650 Y16.250 I-2.170 J-0.689 E0.14127
G3 X54.559 Y17.907 I-5.165 J-2.213 E0.19666
G1 X53.649 Y19.190 E0.24034
G1 X53.500 Y19.112 E0.24502
G1 X52.860 Y19.244 F900.000
G1 F900
G3 X54.736 Y16.358 I22.117 J12.324 E0.34071
G3 X56.914 Y14.292 I9.696 J8.040 E0.42431
G3 X56.412 Y15.569 I-4.661 J-1.095 E0.46254
G3 X55.999 Y16.431 I-2.767 J-0.796 E0.48919
G3 X54.871 Y18.146 I-5.442 J-2.351 E0.54646
G1 X53.651 Y19.867 E0.60505
G1 X53.381 Y19.490 E0.61793
G1 X52.939 Y19.281 E0.63152
G1 X52.299 Y19.413 F900.000
G1 F900
G3 X54.436 Y16.105 I25.309 J14.006 E0.74102
G3 X57.565 Y13.373 I9.865 J8.141 E0.85690
G1 X57.532 Y13.562 E0.86225
G1 X57.123 Y14.963 E0.90279
G2 X56.627 Y16.123 I7.084 J3.715 E0.93785
G2 X56.133 Y17.065 I5.861 J3.674 E0.96743
G3 X55.183 Y18.385 I-5.690 J-3.093 E1.01269
G1 X53.653 Y20.543 E1.08618
G1 X53.121 Y19.801 E1.11154
G1 X52.377 Y19.450 E1.13438
G92 E0
G1 X62.297 Y30.472 F900.000
G1 F900
G3 X64.827 Y29.489 I8.252 J17.490 E0.07543
G3 X66.428 Y29.157 I2.743 J9.199 E0.12088
G3 X65.768 Y29.493 I-1.345 J-1.826 E0.14150
G3 X63.911 Y30.193 I-2.899 J-4.877 E0.19689
G1 X62.389 Y30.707 E0.24152
G2 X62.338 Y30.549 I-0.183 J-0.028 E0.24625
G1 X61.749 Y30.276 F900.000
G1 F900
G3 X64.965 Y29.044 I10.692 J23.097 E0.34201
G3 X67.942 Y28.652 I3.116 J12.167 E0.42561
G3 X66.785 Y29.390 I-3.108 J-3.596 E0.46385
G3 X65.944 Y29.845 I-1.776 J-2.277 E0.49049
G3 X64.023 Y30.569 I-3.022 J-5.107 E0.54777
G1 X62.015 Y31.248 E0.60666
G1 X61.997 Y30.744 E0.62065
G1 X61.790 Y30.353 E0.63295
G1 X61.201 Y30.081 F900.000
G1 F900
G3 X64.872 Y28.662 I12.195 J26.091 E0.74235
G3 X69.009 Y28.291 I3.195 J12.371 E0.85824
G1 X68.871 Y28.425 E0.86358
G1 X67.716 Y29.318 E0.90412
G2 X66.633 Y29.964 I3.539 J7.164 E0.93918
G2 X65.680 Y30.437 I2.547 J6.328 E0.96877
G3 X64.135 Y30.946 I-2.792 J-5.875 E1.01403
G1 X61.640 Y31.789 E1.08717
G1 X61.608 Y30.848 E1.11330
G1 X61.241 Y30.158 E1.13502
G92 E0
G1 X62.755 Y45.160 F900.000
G1 F900
G1 X62.795 Y44.908 E0.00709
G3 X66.575 Y46.096 I-3.320 J17.171 E0.11746
G1 X66.901 Y46.270 E0.12774
G3 X66.170 Y46.154 I-0.024 J-2.213 E0.14836
G3 X64.256 Y45.629 I0.510 J-5.610 E0.20375
G1 X62.838 Y45.186 E0.24502
G1 X62.112 Y45.371 F900.000
G1 F900
G1 X62.387 Y44.997 E0.25790
G1 X62.460 Y44.426 E0.27390
G3 X65.819 Y45.334 I-4.784 J24.365 E0.37063
G3 X68.423 Y46.752 I-4.572 J11.495 E0.45318
G3 X67.052 Y46.669 I-0.396 J-4.829 E0.49142
G3 X66.105 Y46.542 I-0.094 J-2.894 E0.51806
G3 X64.126 Y45.999 I0.550 J-5.882 E0.57534
G1 X62.195 Y45.397 E0.63151
G1 X61.469 Y45.581 F900.000
G1 F900
G1 X62.011 Y44.847 E0.65686
G1 X62.126 Y43.944 E0.68213
G3 X65.963 Y44.968 I-5.346 J27.731 E0.79253
G3 X69.495 Y47.084 I-4.700 J11.852 E0.90738
G1 X69.295 Y47.114 E0.91300
G1 X67.849 Y47.158 E0.95317
G2 X66.593 Y47.044 I-1.365 J8.067 E0.98824
G2 X65.544 Y46.866 I-1.653 J6.562 E1.01782
G3 X63.995 Y46.370 I1.199 J-6.413 E1.06308
G1 X61.552 Y45.607 E1.13416
G92 E0
G1 X54.523 Y57.058 F900.000
G1 F900
G1 X54.559 Y57.047 E0.00104
G1 X54.709 Y56.884 E0.00720
G3 X56.547 Y59.175 I-12.501 J11.912 E0.08885
G3 X57.225 Y60.393 I-7.587 J5.021 E0.12762
G3 X56.702 Y59.870 I1.325 J-1.848 E0.14824
G3 X55.462 Y58.320 I3.732 J-4.257 E0.20363
G1 X54.575 Y57.128 E0.24490
G1 X53.879 Y56.851 F900.000
G1 F900
G1 X54.341 Y56.704 E0.25834
G1 X54.718 Y56.293 E0.27384
G3 X56.881 Y58.967 I-18.813 J17.430 E0.36946
G3 X58.173 Y61.677 I-10.641 J6.736 E0.45305
G3 X57.113 Y60.805 I2.489 J-4.106 E0.49129
G3 X56.421 Y60.145 I1.618 J-2.390 E0.51793
G3 X55.139 Y58.543 I3.914 J-4.446 E0.57521
G1 X53.931 Y56.921 E0.63138
G1 X53.235 Y56.643 F900.000
G1 F900
G1 X54.122 Y56.362 E0.65722
G1 X54.727 Y55.703 E0.68207
G3 X57.215 Y58.760 I-21.233 J19.822 E0.79164
G3 X58.846 Y62.581 I-10.829 J6.881 E0.90753
G1 X58.676 Y62.490 E0.91288
G1 X57.470 Y61.668 E0.95341
G2 X56.521 Y60.838 I-5.895 J5.783 E0.98848
G2 X55.777 Y60.077 I-5.461 J4.595 E1.01806
G3 X54.815 Y58.766 I4.699 J-4.456 E1.06332
G1 X53.287 Y56.713 E1.13440
G92 E0
G1 X40.870 Y61.846 F900.000
G1 F900
G1 X41.122 Y61.805 E0.00709
G3 X41.263 Y64.747 I-16.779 J2.279 E0.08898
G3 X41.096 Y66.132 I-9.043 J-0.388 E0.12774
G3 X40.980 Y65.400 I2.125 J-0.712 E0.14837
G3 X40.888 Y63.418 I5.523 J-1.250 E0.20376
G1 X40.871 Y61.933 E0.24502
G1 X40.471 Y61.299 F900.000
G1 F900
G1 X40.911 Y61.445 E0.25791
G1 X41.477 Y61.338 E0.27390
G3 X41.655 Y64.776 I-25.342 J3.036 E0.36960
G3 X41.108 Y67.728 I-12.457 J-0.782 E0.45319
G3 X40.763 Y66.399 I4.429 J-1.859 E0.49143
G3 X40.591 Y65.458 I2.738 J-0.987 E0.51807
G3 X40.496 Y63.408 I5.763 J-1.294 E0.57535
G1 X40.472 Y61.386 E0.63152
G1 X40.072 Y60.753 F900.000
G1 F900
G1 X40.938 Y61.041 E0.65687
G1 X41.832 Y60.871 E0.68214
G3 X42.047 Y64.804 I-28.799 J3.547 E0.79164
G3 X41.122 Y68.854 I-12.771 J-0.786 E0.90752
G1 X41.037 Y68.681 E0.91287
G1 X40.544 Y67.307 E0.95341
G2 X40.264 Y66.077 I-7.982 J1.170 E0.98847
G2 X40.110 Y65.025 I-6.731 J0.448 E1.01805
G3 X40.103 Y63.398 I6.361 J-0.841 E1.06331
G1 X40.073 Y60.840 E1.13439
G92 E0
G1 X27.239 Y57.809 F900.000
G1 F900
G3 X25.774 Y60.084 I-17.330 J-9.551 E0.07519
G3 X24.674 Y61.294 I-7.761 J-5.951 E0.12064
G3 X25.010 Y60.634 I2.170 J0.689 E0.14127
G3 X26.101 Y58.976 I5.187 J2.225 E0.19666
G1 X27.011 Y57.693 E0.24034
G1 X27.160 Y57.772 E0.24502
G1 X27.800 Y57.640 F900.000
G1 F900
G3 X25.923 Y60.525 I-22.351 J-12.488 E0.34071
G3 X23.746 Y62.592 I-9.629 J-7.961 E0.42431
G3 X24.248 Y61.314 I4.648 J1.088 E0.46254
G3 X24.661 Y60.452 I2.767 J0.796 E0.48919
G3 X25.789 Y58.737 I5.474 J2.372 E0.54646
G1 X27.009 Y57.017 E0.60505
G1 X27.279 Y57.394 E0.61794
G1 X27.721 Y57.603 E0.63152
G1 X28.361 Y57.471 F900.000
G1 F900
G3 X26.224 Y60.779 I-25.309 J-14.006 E0.74102
G3 X23.094 Y63.511 I-9.848 J-8.124 E0.85690
G1 X23.128 Y63.322 E0.86225
G1 X23.537 Y61.921 E0.90279
G2 X24.033 Y60.761 I-7.084 J-3.715 E0.93785
G2 X24.527 Y59.818 I-5.800 J-3.639 E0.96743
G3 X25.477 Y58.499 I5.658 J3.073 E1.01269
G1 X27.007 Y56.340 E1.08618
G1 X27.539 Y57.082 E1.11154
G1 X28.283 Y57.433 E1.13438
G92 E0
G1 X18.363 Y46.412 F900.000
G1 F900
G3 X15.833 Y47.394 I-8.285 J-17.595 E0.07542
G3 X14.232 Y47.727 I-2.731 J-9.115 E0.12088
G3 X14.892 Y47.391 I1.311 J1.758 E0.14150
G3 X16.749 Y46.691 I2.870 J4.799 E0.19689
G1 X18.271 Y46.177 E0.24152
G2 X18.322 Y46.335 I0.185 J0.027 E0.24626
G1 X18.911 Y46.607 F900.000
G1 F900
G3 X15.694 Y47.840 I-10.606 J-22.858 E0.34201
G3 X12.718 Y48.232 I-3.114 J-12.149 E0.42561
G3 X13.875 Y47.493 I3.130 J3.625 E0.46385
G3 X14.716 Y47.039 I1.790 J2.309 E0.49049
G3 X16.637 Y46.314 I3.015 J5.081 E0.54777
G1 X18.645 Y45.636 E0.60666
G1 X18.663 Y46.139 E0.62065
G1 X18.870 Y46.531 E0.63295
G1 X19.459 Y46.803 F900.000
G1 F900
G3 X15.788 Y48.221 I-12.158 J-26.016 E0.74235
G3 X11.651 Y48.593 I-3.202 J-12.416 E0.85824
G1 X11.789 Y48.459 E0.86358
G1 X12.943 Y47.566 E0.90412
G2 X14.027 Y46.919 I-3.569 J-7.211 E0.93919
G2 X14.980 Y46.447 I-2.610 J-6.467 E0.96877
G3 X16.525 Y45.938 I2.792 J5.875 E1.01403
G1 X19.019 Y45.095 E1.08717
G1 X19.052 Y46.035 E1.11330
G1 X19.418 Y46.726 E1.13502
G92 E0
G1 X17.865 Y31.976 F900.000
G1 F900
G3 X14.085 Y30.788 I3.370 J-17.331 E0.11037
G1 X13.758 Y30.614 E0.12064
G3 X14.490 Y30.729 I0.024 J2.238 E0.14127
G3 X16.404 Y31.255 I-0.520 J5.638 E0.19666
G1 X17.905 Y31.724 E0.24034
G1 X17.876 Y31.890 E0.24502
G1 X18.200 Y32.458 F900.000
G1 F900
G3 X14.841 Y31.550 I4.784 J-24.365 E0.34175
G3 X12.237 Y30.132 I4.631 J-11.604 E0.42430
G3 X13.607 Y30.215 I0.402 J4.720 E0.46254
G3 X14.555 Y30.342 I0.094 J2.903 E0.48918
G3 X16.534 Y30.884 I-0.556 J5.916 E0.54646
G1 X18.548 Y31.513 E0.60505
G1 X18.273 Y31.886 E0.61793
G1 X18.211 Y32.371 E0.63151
G1 X18.534 Y32.939 F900.000
G1 F900
G3 X14.697 Y31.915 I5.346 J-27.731 E0.74191
G3 X11.165 Y29.800 I4.683 J-11.826 E0.85676
G1 X11.365 Y29.769 E0.86238
G1 X12.811 Y29.726 E0.90256
G2 X14.067 Y29.840 I1.365 J-8.067 E0.93762
G2 X15.116 Y30.018 I1.709 J-6.893 E0.96720
G3 X16.665 Y30.514 I-1.162 J6.296 E1.01247
G1 X19.191 Y31.302 E1.08596
G1 X18.649 Y32.037 E1.11131
G1 X18.545 Y32.853 E1.13416
G92 E0
G1 X25.928 Y20.025 F900.000
G1 F900
G2 X24.245 Y17.910 I-179.204 J140.874 E0.07508
G3 X23.434 Y16.490 I7.881 J-5.443 E0.12053
G3 X23.958 Y17.014 I-1.287 J1.811 E0.14116
G3 X25.197 Y18.564 I-3.708 J4.234 E0.19655
G1 X26.136 Y19.824 E0.24019
G2 X25.987 Y19.961 I0.049 J0.203 E0.24590
G1 X25.906 Y20.629 F900.000
G1 F900
G2 X24.139 Y18.433 I-27.015 J19.929 E0.32421
G3 X22.486 Y15.206 I9.840 J-7.077 E0.42530
G3 X23.547 Y16.079 I-2.452 J4.061 E0.46354
G3 X24.239 Y16.739 I-1.618 J2.390 E0.49018
G3 X25.521 Y18.341 I-3.914 J4.446 E0.54746
G1 X26.780 Y20.032 E0.60602
G1 X26.321 Y20.177 E0.61939
G1 X25.965 Y20.565 E0.63401
G1 X25.884 Y21.234 F900.000
G1 F900
G1 X24.164 Y19.063 E0.71094
G3 X22.336 Y15.944 I8.329 J-6.977 E0.81187
G3 X21.814 Y14.303 I10.459 J-4.231 E0.85974
G1 X21.984 Y14.393 E0.86509
G1 X23.190 Y15.215 E0.90563
G2 X24.139 Y16.046 I5.839 J-5.711 E0.94069
G2 X24.883 Y16.807 I5.461 J-4.595 E0.97027
G3 X25.845 Y18.118 I-4.699 J4.456 E1.01553
G1 X27.424 Y20.240 E1.08902
G1 X26.539 Y20.520 E1.11480
G1 X25.943 Y21.170 E1.13929
G1 X25.773 Y21.725 F900.000
G1 F900
G1 X23.861 Y19.314 E1.22477
G3 X21.971 Y16.090 I8.631 J-7.226 E1.32909
G3 X21.274 Y13.582 I9.601 J-4.019 E1.40156
G3 X24.057 Y15.481 I-4.088 J8.979 E1.49561
G3 X24.799 Y16.188 I-1.717 J2.545 E1.52419
G3 X26.168 Y17.895 I-4.258 J4.817 E1.58524
G1 X27.625 Y19.852 E1.65299
G2 X31.220 Y18.147 I-27.734 J-63.121 E1.76353
G3 X35.788 Y16.795 I8.435 J20.107 E1.89612
G1 X38.462 Y16.348 E1.97143
G3 X38.206 Y12.816 I41.363 J-4.773 E2.06981
G3 X39.524 Y7.131 I12.704 J-0.050 E2.23338
G3 X40.661 Y10.301 I-8.486 J4.833 E2.32737
G3 X40.846 Y11.309 I-2.953 J1.063 E2.35595
G3 X40.950 Y13.495 I-6.363 J1.398 E2.41701
G1 X40.978 Y15.934 E2.48476
G2 X44.889 Y16.668 I14.263 J-65.209 E2.59529
G3 X49.379 Y18.260 I-5.004 J21.240 E2.72789
G1 X51.805 Y19.469 E2.80319
G3 X53.674 Y16.462 I36.527 J20.619 E2.90158
G3 X58.085 Y12.636 I10.290 J7.408 E3.06523
G3 X57.138 Y15.870 I-9.845 J-1.127 E3.15927
G3 X56.696 Y16.794 I-2.977 J-0.856 E3.18785
G3 X55.495 Y18.624 I-5.930 J-2.583 E3.24891
G1 X54.084 Y20.614 E3.31666
G2 X56.816 Y23.506 I51.099 J-45.535 E3.42719
G3 X59.514 Y27.433 I-16.553 J14.263 E3.55979
G1 X60.766 Y29.838 E3.63509
G3 X64.045 Y28.503 I17.749 J38.901 E3.73348
G3 X69.862 Y28.000 I3.973 J12.060 E3.89713
G3 X67.196 Y30.060 I-7.249 J-6.626 E3.99117
G3 X66.294 Y30.548 I-1.888 J-2.412 E4.01975
G3 X64.247 Y31.323 I-3.285 J-5.586 E4.08081
G1 X61.936 Y32.103 E4.14856
G2 X62.447 Y36.049 I65.107 J-6.425 E4.25909
G3 X62.321 Y40.812 I-21.885 J1.804 E4.39169
G1 X61.920 Y43.493 E4.46699
G3 X65.339 Y44.336 I-8.196 J40.595 E4.56482
G3 X70.357 Y47.351 I-3.849 J12.089 E4.72894
G3 X66.991 Y47.452 I-1.972 J-9.580 E4.82293
G3 X65.975 Y47.317 I-0.105 J-3.099 E4.85151
G3 X63.864 Y46.740 I0.634 J-6.471 E4.91257
G1 X61.536 Y46.014 E4.98032
G2 X59.629 Y49.506 I59.333 J34.669 E5.09085
G3 X56.728 Y53.285 I-18.689 J-11.344 E5.22345
G1 X54.828 Y55.219 E5.29875
G3 X57.111 Y57.925 I-30.847 J28.341 E5.39714
G3 X59.386 Y63.302 I-10.253 J7.508 E5.56079
G3 X56.603 Y61.403 I4.127 J-9.037 E5.65483
G3 X55.861 Y60.696 I1.755 J-2.585 E5.68341
G3 X54.492 Y58.988 I4.277 J-4.831 E5.74447
G1 X53.035 Y57.032 E5.81222
G2 X49.440 Y58.737 I26.004 J59.472 E5.92275
G3 X44.872 Y60.089 I-8.496 J-20.311 E6.05535
G1 X42.198 Y60.536 E6.13065
G3 X42.454 Y64.068 I-42.702 J4.870 E6.22903
G3 X41.134 Y69.755 I-12.685 J0.052 E6.39269
G3 X39.999 Y66.583 I8.608 J-4.869 E6.48673
G3 X39.814 Y65.574 I2.952 J-1.063 E6.51531
G3 X39.710 Y63.388 I6.362 J-1.398 E6.57637
G1 X39.682 Y60.950 E6.64412
G2 X35.771 Y60.215 I-15.021 J69.156 E6.75465
G3 X31.281 Y58.624 I4.976 J-21.174 E6.88725
G1 X28.854 Y57.414 E6.96255
G3 X26.986 Y60.422 I-36.731 J-20.726 E7.06093
G3 X22.575 Y64.248 I-10.309 J-7.430 E7.22458
G3 X23.521 Y61.014 I9.867 J1.131 E7.31863
G3 X23.964 Y60.089 I3.032 J0.883 E7.34721
G3 X25.165 Y58.260 I5.940 J2.592 E7.40826
G1 X26.576 Y56.270 E7.47602
G2 X23.844 Y53.377 I-50.774 J45.212 E7.58655
G3 X21.146 Y49.450 I16.553 J-14.263 E7.71914
G1 X19.894 Y47.046 E7.79445
G3 X16.614 Y48.381 I-17.613 J-38.577 E7.89283
G3 X10.798 Y48.883 I-3.972 J-12.072 E8.05648
G3 X13.464 Y46.823 I7.286 J6.674 E8.15053
G3 X14.366 Y46.335 I1.919 J2.469 E8.17911
G3 X16.413 Y45.561 I3.292 J5.612 E8.24016
G1 X18.724 Y44.781 E8.30791
G2 X18.213 Y40.834 I-65.046 J6.415 E8.41845
G3 X18.339 Y36.072 I21.879 J-1.804 E8.55104
G1 X18.740 Y33.391 E8.62635
G3 X15.321 Y32.548 I8.196 J-40.595 E8.72418
G3 X10.303 Y29.533 I3.849 J-12.089 E8.88830
G3 X13.668 Y29.431 I1.975 J9.600 E8.98229
G3 X14.685 Y29.567 I0.107 J3.070 E9.01087
G3 X16.796 Y30.143 I-0.623 J6.441 E9.07193
G1 X19.124 Y30.870 E9.13968
G2 X21.031 Y27.378 I-59.333 J-34.669 E9.25021
G3 X23.932 Y23.599 I18.604 J11.279 E9.38281
G1 X25.712 Y21.788 E9.45334
G1 X25.250 Y21.698 F900.000
G1 F900
G2 X23.214 Y19.164 I-31.449 J23.183 E9.54363
G3 X20.766 Y12.916 I10.790 J-7.831 E9.73206
G3 X24.312 Y15.182 I-4.089 J10.306 E9.84967
G3 X25.080 Y15.912 I-1.825 J2.689 E9.87922
G3 X26.492 Y17.672 I-4.535 J5.084 E9.94216
G1 X27.748 Y19.360 E10.00061
G2 X31.062 Y17.787 I-25.511 J-58.025 E10.10250
G3 X35.716 Y16.409 I8.604 J20.510 E10.23760
G1 X38.040 Y16.020 E10.30306
G3 X37.829 Y12.022 I28.543 J-3.511 E10.41437
G3 X39.506 Y6.291 I13.285 J0.777 E10.58158
G1 X39.702 Y6.608 E10.59192
G3 X41.043 Y10.209 I-9.719 J5.670 E10.69919
G3 X41.235 Y11.251 I-3.032 J1.097 E10.72874
G3 X41.343 Y13.505 I-6.649 J1.448 E10.79168
G1 X41.367 Y15.609 E10.85013
G2 X44.972 Y16.284 I13.534 J-62.316 E10.95202
G3 X49.548 Y17.905 I-5.125 J21.736 E11.08712
G1 X51.657 Y18.956 E11.15258
G3 X53.836 Y15.598 I25.091 J13.896 E11.26389
G3 X58.561 Y11.947 I10.283 J8.426 E11.43110
G1 X58.533 Y12.323 E11.44156
G3 X57.502 Y16.020 I-11.201 J-1.131 E11.54871
G3 X57.044 Y16.976 I-3.124 J-0.909 E11.57826
G3 X55.807 Y18.863 I-6.238 J-2.740 E11.64120
G1 X54.590 Y20.579 E11.69965
G2 X57.110 Y23.244 I44.819 J-39.857 E11.80154
G3 X59.859 Y27.245 I-16.885 J14.546 E11.93664
G1 X60.947 Y29.336 E12.00210
G3 X64.684 Y27.899 I12.110 J25.914 E12.11341
G3 X70.652 Y27.723 I3.367 J12.895 E12.28062
G1 X70.409 Y28.010 E12.29108
G3 X67.402 Y30.395 I-8.368 J-7.462 E12.39823
G3 X66.469 Y30.900 I-1.982 J-2.548 E12.42778
G3 X64.359 Y31.699 I-3.413 J-5.827 E12.49072
G1 X62.366 Y32.373 E12.54917
G2 X62.838 Y36.010 I60.796 J-6.041 E12.65106
G3 X62.710 Y40.862 I-22.138 J1.844 E12.78616
G1 X62.362 Y43.193 E12.85162
G3 X66.250 Y44.237 I-5.363 J27.734 E12.96356
G3 X71.162 Y47.593 I-4.857 J12.382 E13.13013
G1 X70.800 Y47.681 E13.14047
G3 X66.961 Y47.844 I-2.387 J-10.921 E13.24774
G3 X65.910 Y47.705 I-0.107 J-3.235 E13.27729
G3 X63.733 Y47.111 I0.687 J-6.805 E13.34024
G1 X61.725 Y46.484 E13.39868
G2 X59.969 Y49.704 I51.112 J29.962 E13.50057
G3 X57.013 Y53.555 I-19.110 J-11.608 E13.63568
G1 X55.361 Y55.236 E13.70114
G3 X57.882 Y58.346 I-21.071 J19.657 E13.81244
G3 X59.894 Y63.968 I-11.207 J7.182 E13.97965
G1 X59.546 Y63.825 E13.99012
G3 X56.348 Y61.702 I4.520 J-10.279 E14.09727
G3 X55.580 Y60.971 I1.813 J-2.674 E14.12681
G3 X54.168 Y59.211 I4.535 J-5.084 E14.18976
G1 X52.912 Y57.524 E14.24821
G2 X49.598 Y59.097 I25.511 J58.025 E14.35009
G3 X44.944 Y60.475 I-8.651 J-20.669 E14.48520
G1 X42.619 Y60.864 E14.55066
G3 X42.831 Y64.862 I-28.773 J3.530 E14.66196
G3 X41.154 Y70.592 I-13.273 J-0.774 E14.82917
G1 X40.956 Y70.272 E14.83964
G3 X39.617 Y66.675 I9.685 J-5.653 E14.94679
G3 X39.425 Y65.632 I3.046 J-1.100 E14.97633
G3 X39.317 Y63.379 I6.642 J-1.447 E15.03928
G1 X39.293 Y61.275 E15.09773
G2 X35.688 Y60.600 I-12.782 J58.300 E15.19961
G3 X31.112 Y58.979 I5.125 J-21.736 E15.33472
G1 X29.003 Y57.927 E15.40018
G3 X26.824 Y61.286 I-25.018 J-13.843 E15.51148
G3 X22.099 Y64.937 I-10.304 J-8.451 E15.67869
G1 X22.127 Y64.561 E15.68916
G3 X23.158 Y60.864 I11.201 J1.131 E15.79631
G3 X23.616 Y59.908 I3.096 J0.896 E15.82585
G3 X24.853 Y58.021 I6.203 J2.717 E15.88880
G1 X26.070 Y56.304 E15.94725
G2 X23.550 Y53.639 I-46.911 J41.835 E16.04914
G3 X20.801 Y49.638 I16.885 J-14.546 E16.18424
G1 X19.713 Y47.548 E16.24970
G3 X15.976 Y48.984 I-12.164 J-26.075 E16.36100
G3 X10.008 Y49.161 I-3.369 J-12.877 E16.52821
G1 X10.251 Y48.873 E16.53868
G3 X13.258 Y46.488 I8.368 J7.462 E16.64583
G3 X14.191 Y45.984 I1.965 J2.523 E16.67538
G3 X16.301 Y45.184 I3.421 J5.842 E16.73832
G1 X18.294 Y44.511 E16.79677
G2 X17.822 Y40.874 I-60.796 J6.041 E16.89866
G3 X17.950 Y36.021 I22.144 J-1.844 E17.03376
G1 X18.298 Y33.691 E17.09922
G3 X14.409 Y32.647 I5.452 J-28.075 E17.21115
G3 X9.498 Y29.291 I4.862 J-12.386 E17.37773
G1 X9.860 Y29.202 E17.38807
G3 X13.699 Y29.039 I2.390 J10.992 E17.49534
G3 X14.750 Y29.179 I0.108 J3.204 E17.52489
G3 X16.927 Y29.773 I-0.669 J6.736 E17.58784
G1 X18.935 Y30.400 E17.64628
G2 X20.691 Y27.180 I-52.705 J-30.831 E17.74817
G3 X23.647 Y23.329 I19.024 J11.543 E17.88328
G1 X25.189 Y21.760 E17.94438
G1 X24.727 Y21.670 F900.000
G1 F900
G2 X22.905 Y19.408 I-28.347 J20.968 E18.02505
G3 X20.346 Y12.693 I10.996 J-8.036 E18.22703
G1 X20.674 Y12.454 E18.23831
G3 X24.567 Y14.883 I-4.082 J10.877 E18.36660
G3 X25.360 Y15.637 I-1.832 J2.721 E18.39712
G3 X26.816 Y17.449 I-4.732 J5.293 E18.46195
G1 X27.872 Y18.868 E18.51109
G2 X30.903 Y17.427 I-22.777 J-51.818 E18.60434
G3 X35.644 Y16.023 I8.767 J20.896 E18.74195
G1 X37.619 Y15.692 E18.79756
G3 X37.437 Y11.993 I26.104 J-3.138 E18.90053
G3 X39.295 Y5.868 I13.684 J0.807 E19.07992
G1 X39.697 Y5.853 E19.09109
G3 X41.425 Y10.117 I-9.730 J6.425 E19.21973
G3 X41.623 Y11.193 I-3.095 J1.126 E19.25024
G3 X41.736 Y13.515 I-6.904 J1.500 E19.31508
G1 X41.756 Y15.284 E19.36422
G2 X45.056 Y15.900 I12.041 J-55.358 E19.45746
G3 X49.717 Y17.550 I-5.199 J22.096 E19.59508
G1 X51.508 Y18.444 E19.65069
G3 X53.536 Y15.344 I23.283 J13.018 E19.75366
G3 X58.639 Y11.481 I10.595 J8.693 E19.93305
G1 X58.973 Y11.705 E19.94423
G3 X57.865 Y16.170 I-11.611 J-0.511 E20.07286
G3 X57.393 Y17.158 I-3.170 J-0.908 E20.10337
G3 X56.119 Y19.102 I-6.486 J-2.861 E20.16821
G1 X55.096 Y20.545 E20.21735
G2 X57.403 Y22.983 I42.380 J-37.793 E20.31059
G3 X60.204 Y27.058 I-17.208 J14.828 E20.44821
G1 X61.128 Y28.833 E20.50382
G3 X64.590 Y27.518 I11.106 J24.023 E20.60679
G3 X70.989 Y27.392 I3.462 J13.265 E20.78618
G1 X71.128 Y27.769 E20.79736
G3 X67.607 Y30.730 I-9.090 J-7.236 E20.92599
G3 X66.645 Y31.252 I-2.040 J-2.613 E20.95650
G3 X64.471 Y32.076 I-3.581 J-6.167 E21.02134
G1 X62.795 Y32.642 E21.07048
G2 X63.229 Y35.970 I56.370 J-5.659 E21.16372
G3 X63.100 Y40.913 I-22.674 J1.881 E21.30134
G1 X62.804 Y42.893 E21.35695
G3 X66.394 Y43.871 I-5.092 J25.771 E21.46041
G3 X71.629 Y47.523 I-4.997 J12.740 E21.63930
G1 X71.519 Y47.910 E21.65048
G3 X66.930 Y48.236 I-3.104 J-11.235 E21.77911
G3 X65.845 Y48.092 I-0.119 J-3.266 E21.80962
G3 X63.602 Y47.482 I0.711 J-7.042 E21.87446
G1 X61.914 Y46.954 E21.92360
G2 X60.308 Y49.902 I50.384 J29.359 E22.01684
G3 X57.298 Y53.825 I-19.291 J-11.685 E22.15446
G1 X55.895 Y55.253 E22.21007
G3 X58.216 Y58.139 I-19.252 J17.860 E22.31304
G3 X60.314 Y64.186 I-11.535 J7.390 E22.49242
G1 X59.997 Y64.434 E22.50360
G3 X56.093 Y62.001 I4.093 J-10.916 E22.63223
G3 X55.300 Y61.247 I1.870 J-2.761 E22.66275
G3 X53.844 Y59.434 I4.752 J-5.307 E22.72758
G1 X52.788 Y58.015 E22.77672
G2 X49.757 Y59.457 I23.068 J52.395 E22.86997
G3 X45.016 Y60.861 I-8.814 J-21.056 E23.00758
G1 X43.041 Y61.191 E23.06319
G3 X43.222 Y64.891 I-26.331 J3.143 E23.16617
G3 X41.365 Y71.015 I-13.669 J-0.801 E23.34556
G1 X40.963 Y71.030 E23.35673
G3 X39.235 Y66.767 I9.692 J-6.411 E23.48536
G3 X39.037 Y65.690 I3.095 J-1.126 E23.51588
G3 X38.924 Y63.369 I6.897 J-1.499 E23.58071
G1 X38.904 Y61.600 E23.62985
G2 X35.604 Y60.984 I-12.041 J55.358 E23.72310
G3 X30.943 Y59.333 I5.227 J-22.162 E23.86071
G1 X29.152 Y58.440 E23.91632
G3 X27.124 Y61.539 I-23.177 J-12.954 E24.01930
G3 X22.021 Y65.403 I-10.607 J-8.707 E24.19869
G1 X21.687 Y65.179 E24.20986
G3 X22.795 Y60.714 I11.600 J0.509 E24.33849
G3 X23.267 Y59.726 I3.170 J0.908 E24.36901
G3 X24.541 Y57.782 I6.486 J2.861 E24.43384
G1 X25.564 Y56.339 E24.48298
G2 X23.257 Y53.901 I-42.380 J37.793 E24.57623
G3 X20.456 Y49.826 I17.208 J-14.828 E24.71384
G1 X19.532 Y48.050 E24.76945
G3 X16.070 Y49.366 I-11.182 J-24.204 E24.87243
G3 X9.670 Y49.492 I-3.462 J-13.269 E25.05182
G1 X9.532 Y49.114 E25.06299
G3 X13.053 Y46.154 I9.075 J7.221 E25.19162
G3 X14.015 Y45.632 I2.040 J2.613 E25.22214
G3 X16.189 Y44.808 I3.555 J6.100 E25.28697
G1 X17.865 Y44.242 E25.33611
G2 X17.431 Y40.913 I-56.865 J5.721 E25.42936
G3 X17.560 Y35.970 I22.682 J-1.881 E25.56697
G1 X17.856 Y33.990 E25.62258
G3 X14.266 Y33.012 I4.993 J-25.405 E25.72605
G3 X9.031 Y29.360 I4.997 J-12.740 E25.90493
G1 X9.141 Y28.974 E25.91611
G3 X13.729 Y28.648 I3.100 J11.177 E26.04474
G3 X14.815 Y28.791 I0.117 J3.306 E26.07526
G3 X17.058 Y29.402 I-0.722 J7.073 E26.14010
G1 X18.746 Y29.929 E26.18923
G2 X20.351 Y26.981 I-46.492 J-27.223 E26.28248
G3 X23.362 Y23.059 I19.367 J11.751 E26.42009
G1 X24.666 Y21.732 E26.47177
G1 X24.203 Y21.642 F900.000
G1 F900
G2 X22.597 Y19.652 I-24.956 J18.498 E26.54282
G3 X19.930 Y12.511 I11.480 J-8.356 E26.75720
G1 X20.621 Y12.008 E26.78093
G3 X24.065 Y13.903 I-4.610 J12.456 E26.89049
G2 X25.213 Y14.892 I8.126 J-8.272 E26.93260
G2 X26.024 Y15.724 I5.771 J-4.814 E26.96489
G3 X27.139 Y17.226 I-5.670 J5.374 E27.01697
G1 X27.995 Y18.377 E27.05681
G2 X30.745 Y17.067 I-20.873 J-47.360 E27.14141
G3 X37.197 Y15.365 I9.497 J22.922 E27.32730
G3 X37.046 Y11.964 I19.337 J-2.562 E27.42193
G3 X39.062 Y5.484 I14.139 J0.845 E27.61225
G1 X39.911 Y5.453 E27.63585
G3 X41.595 Y9.029 I-11.166 J7.443 E27.74602
G2 X41.943 Y10.504 I11.178 J-1.859 E27.78814
G2 X42.110 Y11.654 I7.468 J-0.497 E27.82042
G3 X42.128 Y13.525 I-7.712 J1.010 E27.87251
G1 X42.145 Y14.959 E27.91234
G2 X45.139 Y15.515 I10.703 J-49.297 E27.99694
G3 X51.360 Y17.931 I-5.812 J24.184 E28.18283
G3 X53.236 Y15.091 I17.253 J9.357 E28.27747
G3 X58.676 Y11.033 I10.939 J8.989 E28.46778
G1 X59.381 Y11.507 E28.49138
G3 X58.571 Y15.574 I-13.075 J-0.490 E28.60701
G2 X58.056 Y16.788 I7.433 J3.870 E28.64368
G2 X57.516 Y17.816 I6.257 J3.942 E28.67596
G3 X56.431 Y19.341 I-6.909 J-3.767 E28.72805
G1 X55.601 Y20.511 E28.76788
G2 X57.697 Y22.721 I38.977 J-34.867 E28.85248
G3 X61.309 Y28.331 I-18.841 J16.099 E29.03837
G3 X64.497 Y27.136 I8.478 J17.769 E29.13301
G3 X71.283 Y27.051 I3.566 J13.736 E29.32332
G1 X71.575 Y27.849 E29.34692
G3 X68.529 Y30.663 I-10.303 J-8.097 E29.46255
G2 X67.398 Y31.342 I3.837 J7.672 E29.49922
G2 X66.357 Y31.857 I2.790 J6.950 E29.53151
G3 X64.583 Y32.453 I-3.403 J-7.192 E29.58359
G1 X63.225 Y32.911 E29.62342
G2 X63.620 Y35.931 I52.099 J-5.278 E29.70802
G3 X63.246 Y42.593 I-24.730 J1.953 E29.89391
G3 X66.538 Y43.505 I-3.611 J19.433 E29.98890
G3 X72.067 Y47.420 I-5.192 J13.194 E30.17886
G1 X71.834 Y48.237 E30.20245
G3 X67.716 Y48.724 I-3.583 J-12.643 E30.31809
G2 X66.402 Y48.609 I-1.384 J8.244 E30.35475
G2 X65.257 Y48.413 I-1.841 J7.314 E30.38704
G3 X63.472 Y47.852 I1.459 J-7.761 E30.43912
G1 X62.103 Y47.425 E30.47895
G2 X60.648 Y50.100 I46.579 J27.069 E30.56356
G3 X56.429 Y55.270 I-21.133 J-12.939 E30.74944
G3 X58.550 Y57.932 I-14.244 J13.525 E30.84408
G3 X60.728 Y64.360 I-11.945 J7.630 E31.03440
G1 X60.060 Y64.884 E31.05800
G3 X56.595 Y62.981 I4.594 J-12.471 E31.16817
G2 X55.446 Y61.992 I-7.985 J8.115 E31.21028
G2 X54.636 Y61.160 I-5.862 J4.897 E31.24257
G3 X53.521 Y59.657 I5.637 J-5.347 E31.29465
G1 X52.664 Y58.507 E31.33449
G2 X49.915 Y59.817 I21.008 J47.623 E31.41909
G3 X43.463 Y61.519 I-9.497 J-22.922 E31.60498
G3 X43.614 Y64.919 I-19.326 J2.562 E31.69962
G3 X41.598 Y71.400 I-14.138 J-0.844 E31.88993
G1 X40.749 Y71.431 E31.91353
G3 X39.014 Y67.664 I10.882 J-7.295 E32.02916
G2 X38.717 Y66.379 I-8.295 J1.240 E32.06583
G2 X38.550 Y65.230 I-7.428 J0.493 E32.09811
G3 X38.531 Y63.359 I7.799 J-1.015 E32.15020
G1 X38.515 Y61.925 E32.19003
G2 X35.521 Y61.368 I-11.226 J52.016 E32.27463
G3 X29.300 Y58.953 I5.792 J-24.139 E32.46052
G3 X27.424 Y61.793 I-17.253 J-9.357 E32.55516
G3 X21.984 Y65.851 I-10.951 J-9.005 E32.74547
G1 X21.278 Y65.377 E32.76907
G3 X22.089 Y61.310 I13.108 J0.500 E32.88470
G2 X22.604 Y60.096 I-7.433 J-3.870 E32.92137
G2 X23.144 Y59.068 I-6.257 J-3.942 E32.95366
G3 X24.229 Y57.543 I6.909 J3.767 E33.00574
G1 X25.058 Y56.373 E33.04557
G2 X22.963 Y54.163 I-36.878 J32.861 E33.13017
G3 X19.351 Y48.553 I18.841 J-16.099 E33.31606
G3 X16.163 Y49.747 I-8.424 J-17.639 E33.41070
G3 X9.377 Y49.832 I-3.565 J-13.701 E33.60101
G1 X9.085 Y49.035 E33.62461
G3 X12.131 Y46.221 I10.303 J8.097 E33.74025
G2 X13.262 Y45.541 I-3.750 J-7.517 E33.77691
G2 X14.303 Y45.027 I-2.857 J-7.097 E33.80920
G3 X16.077 Y44.431 I3.359 J7.059 E33.86128
G1 X17.435 Y43.972 E33.90111
G2 X17.039 Y40.953 I-49.033 J4.896 E33.98571
G3 X17.414 Y34.290 I24.791 J-1.947 E34.17160
G3 X14.122 Y33.378 I3.525 J-19.121 E34.26659
G3 X8.593 Y29.463 I5.176 J-13.172 E34.45655
G1 X8.826 Y28.646 E34.48015
G3 X12.748 Y28.150 I3.621 J12.878 E34.59032
G2 X14.258 Y28.275 I1.697 J-11.321 E34.63243
G2 X15.403 Y28.471 I1.841 J-7.314 E34.66472
G3 X17.188 Y29.032 I-1.417 J7.630 E34.71680
G1 X18.557 Y29.459 E34.75664
G2 X20.012 Y26.783 I-45.409 J-26.423 E34.84124
G3 X24.142 Y21.704 I20.844 J12.731 E35.02361
G1 X23.680 Y21.614 F900.000
G1 F900
G2 X21.983 Y19.472 I-6699.029 J5305.564 E35.09956
G3 X19.525 Y12.335 I12.166 J-8.182 E35.31162
G1 X20.459 Y11.639 E35.34396
G1 X20.441 Y11.609 E35.34496
G1 X20.508 Y11.550 E35.34744
G3 X24.299 Y13.587 I-4.503 J12.926 E35.46743
G2 X25.482 Y14.604 I8.516 J-8.709 E35.51077
G2 X26.310 Y15.453 I6.007 J-5.031 E35.54373
G3 X27.463 Y17.004 I-5.902 J5.591 E35.59752
G1 X28.119 Y17.885 E35.62804
G2 X30.587 Y16.707 I-18.784 J-42.528 E35.70400
G3 X36.775 Y15.037 I9.349 J22.344 E35.88255
G3 X38.371 Y5.904 I15.110 J-2.065 E36.14438
G1 X38.840 Y5.099 E36.17026
G1 X39.995 Y5.056 E36.20236
G1 X39.996 Y5.043 E36.20275
G1 X40.100 Y5.035 E36.20565
G3 X41.970 Y8.911 I-11.214 J7.799 E36.32563
G2 X42.329 Y10.429 I12.158 J-2.074 E36.36898
G2 X42.500 Y11.602 I7.816 J-0.540 E36.40194
G3 X42.521 Y13.535 I-7.995 J1.053 E36.45572
G1 X42.534 Y14.634 E36.48625
G2 X45.223 Y15.131 I9.797 J-45.483 E36.56221
G3 X51.211 Y17.418 I-5.575 J23.581 E36.74076
G3 X57.870 Y10.967 I13.430 J7.201 E37.00258
G1 X58.723 Y10.591 E37.02846
G1 X59.682 Y11.235 E37.06057
G1 X59.691 Y11.225 E37.06095
G1 X59.780 Y11.280 E37.06385
G3 X58.933 Y15.726 I-13.427 J-0.254 E37.19012
G2 X58.413 Y16.954 I7.550 J3.921 E37.22719
G2 X57.861 Y18.004 I6.703 J4.194 E37.26015
G3 X56.743 Y19.580 I-7.173 J-3.904 E37.31394
G1 X56.107 Y20.476 E37.34446
G2 X57.990 Y22.459 I34.518 J-30.892 E37.42042
G3 X61.491 Y27.829 I-18.371 J15.804 E37.59897
G3 X70.670 Y26.524 I6.635 J13.737 E37.86079
G1 X71.580 Y26.721 E37.88667
G1 X71.978 Y27.806 E37.91877
G1 X71.991 Y27.803 E37.91916
G1 X72.031 Y27.900 E37.92206
G3 X68.732 Y30.999 I-10.698 J-8.083 E38.04833
G2 X67.590 Y31.687 I3.776 J7.560 E38.08540
G2 X66.526 Y32.212 I2.823 J7.062 E38.11836
G3 X64.695 Y32.829 I-3.478 J-7.296 E38.17215
G1 X63.654 Y33.181 E38.20267
G2 X64.012 Y35.892 I45.430 J-4.620 E38.27863
G3 X63.687 Y42.294 I-24.101 J1.986 E38.45718
G3 X71.881 Y46.633 I-2.705 J15.014 E38.71900
G1 X72.501 Y47.328 E38.74488
G1 X72.185 Y48.440 E38.77699
G1 X72.198 Y48.445 E38.77737
G1 X72.173 Y48.547 E38.78027
G3 X67.682 Y49.115 I-3.908 J-12.860 E38.90654
G2 X66.354 Y49.000 I-1.404 J8.492 E38.94361
G2 X65.185 Y48.799 I-1.877 J7.416 E38.97657
G3 X63.341 Y48.223 I1.497 J-8.031 E39.03036
G1 X62.292 Y47.895 E39.06088
G2 X60.988 Y50.299 I38.167 J22.259 E39.13684
G3 X56.963 Y55.287 I-20.745 J-12.622 E39.31539
G3 X61.040 Y63.614 I-11.008 J10.551 E39.57722
G1 X61.134 Y64.541 E39.60310
G1 X60.225 Y65.254 E39.63520
G1 X60.232 Y65.266 E39.63558
G1 X60.152 Y65.334 E39.63849
G3 X56.361 Y63.297 I4.503 J-12.926 E39.75847
G2 X55.178 Y62.280 I-8.516 J8.709 E39.80181
G2 X54.350 Y61.431 I-5.835 J4.863 E39.83478
G3 X53.197 Y59.880 I5.902 J-5.591 E39.88856
G1 X52.541 Y58.999 E39.91909
G2 X50.073 Y60.176 I19.755 J44.600 E39.99505
G3 X43.885 Y61.846 I-9.349 J-22.344 E40.17360
G3 X42.289 Y70.980 I-15.113 J2.066 E40.43542
G1 X41.820 Y71.785 E40.46130
G1 X40.665 Y71.827 E40.49340
G1 X40.664 Y71.841 E40.49379
G1 X40.560 Y71.849 E40.49669
G3 X38.631 Y67.754 I11.045 J-7.704 E40.62296
G2 X38.331 Y66.455 I-8.415 J1.259 E40.66003
G2 X38.160 Y65.281 I-7.805 J0.537 E40.69299
G3 X38.139 Y63.349 I7.988 J-1.053 E40.74677
G1 X38.126 Y62.250 E40.77730
G2 X35.437 Y61.753 I-9.895 J46.016 E40.85326
G3 X29.449 Y59.466 I5.615 J-23.683 E41.03181
G3 X22.790 Y65.917 I-13.446 J-7.218 E41.29363
G1 X21.937 Y66.293 E41.31951
G1 X20.978 Y65.648 E41.35161
G1 X20.969 Y65.659 E41.35200
G1 X20.880 Y65.603 E41.35490
G3 X21.727 Y61.157 I13.427 J0.254 E41.48117
G2 X22.247 Y59.930 I-7.493 J-3.899 E41.51824
G2 X22.799 Y58.880 I-6.703 J-4.194 E41.55120
G3 X23.917 Y57.304 I7.100 J3.852 E41.60499
G1 X24.553 Y56.408 E41.63551
G2 X22.670 Y54.425 I-34.518 J30.892 E41.71147
G3 X19.169 Y49.055 I18.423 J-15.837 E41.89002
G3 X9.990 Y50.360 I-6.635 J-13.737 E42.15184
G1 X9.080 Y50.163 E42.17772
G1 X8.682 Y49.077 E42.20983
G1 X8.669 Y49.080 E42.21021
G1 X8.629 Y48.983 E42.21311
G3 X11.928 Y45.884 I10.736 J8.123 E42.33938
G2 X13.070 Y45.197 I-3.804 J-7.616 E42.37645
G2 X14.134 Y44.672 I-2.959 J-7.338 E42.40941
G3 X15.965 Y44.054 I3.510 J7.379 E42.46320
G1 X17.006 Y43.703 E42.49372
G2 X16.648 Y40.992 I-45.430 J4.620 E42.56968
G3 X16.972 Y34.590 I24.171 J-1.986 E42.74823
G3 X8.779 Y30.251 I2.708 J-15.018 E43.01005
G1 X8.159 Y29.556 E43.03593
G1 X8.475 Y28.444 E43.06803
G1 X8.462 Y28.438 E43.06842
G1 X8.487 Y28.337 E43.07132
G3 X12.752 Y27.757 I3.950 J13.078 E43.19130
G2 X14.306 Y27.884 I1.768 J-12.064 E43.23465
G2 X15.475 Y28.084 I1.896 J-7.566 E43.26761
G3 X17.319 Y28.661 I-1.518 J8.086 E43.32140
G1 X18.368 Y28.989 E43.35192
G2 X19.672 Y26.585 I-39.382 J-22.918 E43.42788
G3 X23.619 Y21.676 I20.545 J12.477 E43.60333
G1 X23.157 Y21.586 F900.000
G1 F900
G2 X21.980 Y20.139 I-18.321 J13.700 E43.65515
G3 X19.121 Y12.158 I12.034 J-8.814 E43.89391
G3 X19.934 Y11.535 I5.707 J6.605 E43.92240
G1 X19.916 Y11.505 E43.92340
G2 X20.416 Y11.108 I-1.933 J-2.948 E43.94115
G3 X24.533 Y13.271 I-4.304 J13.191 E44.07090
G2 X25.751 Y14.315 I8.713 J-8.933 E44.11547
G2 X26.595 Y15.182 I5.923 J-4.921 E44.14911
G3 X27.786 Y16.781 I-6.097 J5.784 E44.20460
G1 X28.243 Y17.393 E44.22582
G2 X30.428 Y16.347 I-16.267 J-36.786 E44.29313
G3 X36.354 Y14.710 I9.244 J21.920 E44.46435
G3 X38.618 Y4.714 I14.953 J-1.868 E44.75481
G1 X39.639 Y4.677 E44.78318
G1 X39.642 Y4.650 E44.78393
G2 X40.286 Y4.623 I0.180 J-3.412 E44.80184
G3 X42.345 Y8.793 I-11.261 J8.154 E44.93159
G2 X42.716 Y10.353 I12.575 J-2.167 E44.97616
G2 X42.890 Y11.551 I7.707 J-0.508 E45.00980
G3 X42.914 Y13.545 I-8.423 J1.099 E45.06529
G1 X42.923 Y14.309 E45.08651
G2 X45.306 Y14.747 I9.017 J-42.356 E45.15382
G3 X51.062 Y16.905 I-5.404 J23.171 E45.32504
G3 X58.770 Y10.150 I13.197 J7.283 E45.61551
G1 X59.618 Y10.719 E45.64388
G1 X59.636 Y10.699 E45.64462
G2 X60.172 Y11.056 I2.174 J-2.683 E45.66254
G3 X58.955 Y16.620 I-12.940 J0.085 E45.82205
G3 X58.438 Y17.702 I-3.527 J-1.021 E45.85547
G3 X57.055 Y19.819 I-7.316 J-3.269 E45.92599
G1 X56.613 Y20.442 E45.94721
G2 X58.283 Y22.197 I30.394 J-27.250 E46.01452
G3 X61.672 Y27.327 I-17.992 J15.570 E46.18573
G3 X71.878 Y26.392 I6.394 J13.629 E46.47620
G1 X72.229 Y27.351 E46.50457
G1 X72.255 Y27.345 E46.50532
G2 X72.479 Y27.949 I3.337 J-0.894 E46.52323
G3 X68.224 Y31.735 I-10.492 J-7.507 E46.68274
G3 X67.170 Y32.307 I-2.247 J-2.884 E46.71616
G3 X64.807 Y33.206 I-3.983 J-6.913 E46.78668
G1 X64.083 Y33.450 E46.80790
G2 X64.403 Y35.852 I41.291 J-4.279 E46.87522
G3 X64.129 Y41.994 I-23.716 J2.019 E47.04643
G3 X72.936 Y47.236 I-2.845 J14.799 E47.33689
G1 X72.656 Y48.219 E47.36527
G1 X72.681 Y48.230 E47.36601
G2 X72.507 Y48.850 I3.251 J1.247 E47.38392
G3 X67.905 Y49.520 I-4.273 J-13.212 E47.51368
G2 X66.306 Y49.391 I-1.845 J12.900 E47.55825
G2 X65.113 Y49.186 I-1.931 J7.666 E47.59189
G3 X63.210 Y48.593 I1.548 J-8.319 E47.64737
G1 X62.481 Y48.366 E47.66859
G2 X61.328 Y50.497 I34.442 J20.012 E47.73591
G3 X57.496 Y55.304 I-20.375 J-12.311 E47.90712
G3 X61.539 Y64.722 I-10.992 J10.296 E48.19758
G1 X60.736 Y65.352 E48.22596
G1 X60.749 Y65.376 E48.22670
G2 X60.244 Y65.775 I1.876 J2.894 E48.24461
G3 X56.127 Y63.613 I4.311 J-13.210 E48.37437
G2 X54.909 Y62.568 I-8.912 J9.155 E48.41894
G2 X54.065 Y61.701 I-6.093 J5.087 E48.45258
G3 X52.873 Y60.103 I6.199 J-5.867 E48.50806
G1 X52.417 Y59.490 E48.52928
G2 X50.232 Y60.536 I17.415 J39.183 E48.59660
G3 X44.306 Y62.174 I-9.236 J-21.876 E48.76781
G3 X42.041 Y72.169 I-14.943 J1.868 E49.05828
G1 X41.021 Y72.207 E49.08665
G1 X41.018 Y72.234 E49.08740
G2 X40.374 Y72.260 I-0.179 J3.543 E49.10531
G3 X38.089 Y67.043 I10.404 J-7.666 E49.26482
G3 X37.870 Y65.864 I3.435 J-1.248 E49.29824
G3 X37.746 Y63.339 I7.805 J-1.649 E49.36876
G1 X37.737 Y62.575 E49.38998
G2 X35.354 Y62.137 I-8.481 J39.443 E49.45730
G3 X29.597 Y59.979 I5.399 J-23.161 E49.62851
G3 X21.890 Y66.734 I-13.191 J-7.276 E49.91898
G1 X21.042 Y66.165 E49.94735
G1 X21.024 Y66.184 E49.94809
G2 X20.488 Y65.828 I-2.109 J2.594 E49.96601
G3 X21.705 Y60.264 I12.940 J-0.085 E50.12552
G3 X22.222 Y59.181 I3.517 J1.014 E50.15894
G3 X23.605 Y57.065 I7.271 J3.242 E50.22946
G1 X24.047 Y56.442 E50.25068
G2 X22.377 Y54.687 I-31.957 J28.737 E50.31799
G3 X18.988 Y49.557 I17.992 J-15.570 E50.48921
G3 X8.782 Y50.492 I-6.394 J-13.629 E50.77968
G1 X8.431 Y49.533 E50.80805
G1 X8.405 Y49.539 E50.80879
G2 X8.180 Y48.935 I-3.230 J0.859 E50.82671
G3 X12.436 Y45.149 I10.502 J7.520 E50.98622
G3 X13.490 Y44.577 I2.217 J2.827 E51.01964
G3 X15.853 Y43.678 I3.983 J6.913 E51.09016
G1 X16.577 Y43.433 E51.11138
G2 X16.257 Y41.031 I-41.291 J4.279 E51.17869
G3 X16.531 Y34.890 I23.701 J-2.019 E51.34990
G3 X7.724 Y29.647 I2.843 J-14.794 E51.64037
G1 X8.004 Y28.665 E51.66874
G1 X7.979 Y28.654 E51.66948
G2 X8.153 Y28.034 I-3.251 J-1.247 E51.68740
G3 X12.755 Y27.363 I4.280 J13.237 E51.81715
G2 X14.354 Y27.493 I1.838 J-12.707 E51.86172
G2 X15.546 Y27.698 I1.935 J-7.684 E51.89536
G3 X17.450 Y28.291 I-1.544 J8.309 E51.95085
G1 X18.179 Y28.518 E51.97207
G2 X19.332 Y26.387 I-34.442 J-20.012 E52.03938
G3 X23.096 Y21.648 I20.206 J12.185 E52.20791
G1 X23.593 Y21.204 F900.000
G1 Z-148.500 F900.000
G92 E0
G1 X25.444 Y23.097 F900.000
G1 F900
G3 X26.559 Y21.545 I16.901 J10.966 E0.05307
G3 X28.375 Y21.190 I2.253 J6.702 E0.10462
G3 X35.606 Y17.991 I11.890 J17.104 E0.32563
G3 X39.177 Y16.682 I8.764 J18.382 E0.43141
G3 X40.809 Y17.458 I-2.261 J6.860 E0.48172
G3 X48.529 Y19.120 I-0.440 J20.805 E0.70243
G3 X52.144 Y20.123 I-4.468 J23.119 E0.80674
G3 X53.043 Y21.741 I-5.633 J4.188 E0.85830
G3 X58.321 Y27.629 I-12.606 J16.610 E1.07931
G3 X60.655 Y30.566 I-17.111 J15.994 E1.18362
G3 X60.431 Y32.403 I-7.073 J0.070 E1.23518
G3 X61.240 Y40.269 I-19.925 J6.024 E1.45619
G3 X61.403 Y44.017 I-23.508 J2.900 E1.56050
G3 X60.142 Y45.372 I-5.798 J-4.131 E1.61206
G3 X56.173 Y52.211 I-19.663 J-6.840 E1.83307
G3 X54.101 Y55.339 I-20.766 J-11.505 E1.93738
G3 X52.285 Y55.693 I-2.237 J-6.642 E1.98893
G3 X45.054 Y58.893 I-11.878 J-17.071 E2.20995
G3 X41.540 Y60.206 I-9.903 J-21.144 E2.31426
G3 X39.861 Y59.426 I2.130 J-6.783 E2.36581
G3 X32.131 Y57.764 I0.441 J-20.856 E2.58682
G3 X28.516 Y56.761 I4.468 J-23.119 E2.69114
G3 X27.617 Y55.143 I5.681 J-4.215 E2.74269
G3 X22.339 Y49.254 I12.599 J-16.602 E2.96370
G3 X20.005 Y46.318 I17.037 J-15.939 E3.06802
G3 X20.228 Y44.481 I7.019 J-0.080 E3.11957
G3 X19.420 Y36.615 I19.975 J-6.026 E3.34058
G3 X19.257 Y32.867 I23.186 J-2.886 E3.44490
G3 X20.518 Y31.512 I5.739 J4.076 E3.49645
G3 X24.487 Y24.673 I19.663 J6.840 E3.71746
G3 X25.396 Y23.169 I14.273 J7.600 E3.76628
G1 X25.772 Y23.313 F900.000
G1 F900
G3 X26.793 Y21.890 I14.861 J9.585 E3.81495
G3 X28.508 Y21.576 I1.798 J4.979 E3.86351
G3 X35.729 Y18.365 I11.788 J16.784 E4.08446
G3 X39.151 Y17.098 I8.602 J17.977 E4.18596
G3 X40.672 Y17.848 I-1.779 J5.525 E4.23322
G3 X48.409 Y19.495 I-0.315 J20.475 E4.45434
G3 X51.889 Y20.453 I-4.226 J22.153 E4.55470
G3 X52.717 Y21.986 I-4.215 J3.267 E4.60327
G3 X58.002 Y27.863 I-12.277 J16.355 E4.82422
G3 X60.255 Y30.682 I-16.346 J15.374 E4.92457
G3 X60.024 Y32.410 I-5.387 J0.159 E4.97314
G3 X60.845 Y40.271 I-19.602 J6.021 E5.19409
G3 X61.011 Y43.876 I-22.205 J2.829 E5.29445
G3 X59.808 Y45.138 I-4.440 J-3.028 E5.34302
G3 X55.852 Y51.980 I-19.375 J-6.638 E5.56397
G3 X53.867 Y54.994 I-19.644 J-10.777 E5.66432
G3 X52.152 Y55.308 I-1.816 J-5.079 E5.71289
G3 X44.930 Y58.518 I-11.775 J-16.763 E5.93384
G3 X41.553 Y59.789 I-9.470 J-20.040 E6.03419
G3 X39.981 Y59.036 I1.481 J-5.109 E6.08277
G3 X32.251 Y57.388 I0.321 J-20.460 E6.30372
G3 X28.771 Y56.431 I4.187 J-22.032 E6.40407
G3 X27.943 Y54.897 I4.194 J-3.254 E6.45264
G3 X22.658 Y49.021 I12.284 J-16.363 E6.67359
G3 X20.405 Y46.201 I16.263 J-15.303 E6.77394
G3 X20.636 Y44.474 I5.364 J-0.162 E6.82252
G3 X19.814 Y36.613 I19.622 J-6.025 E7.04346
G3 X19.649 Y33.008 I22.333 J-2.828 E7.14382
G3 X20.852 Y31.746 I4.440 J3.028 E7.19239
G3 X24.807 Y24.904 I19.389 J6.644 E7.41334
G3 X25.724 Y23.386 I13.930 J7.379 E7.46261
G1 X26.099 Y23.530 F900.000
G1 F900
G1 X27.028 Y22.235 E7.50686
G3 X28.634 Y21.966 I1.586 J4.542 E7.55226
G3 X35.853 Y18.740 I11.666 J16.415 E7.77336
G3 X39.126 Y17.513 I8.476 J17.630 E7.87058
G3 X40.535 Y18.238 I-1.505 J4.656 E7.91478
G3 X48.288 Y19.871 I-0.196 J20.152 E8.13633
G3 X51.633 Y20.782 I-3.945 J21.081 E8.23272
G3 X52.385 Y22.227 I-3.891 J2.943 E8.27812
G3 X57.684 Y28.096 I-11.997 J16.159 E8.49923
G3 X59.855 Y30.799 I-15.511 J14.682 E8.59562
G3 X59.613 Y32.409 I-4.808 J0.101 E8.64103
G3 X60.451 Y40.272 I-19.201 J6.023 E8.86213
G3 X60.618 Y43.735 I-21.185 J2.757 E8.95852
G3 X59.476 Y44.896 I-3.934 J-2.727 E9.00393
G3 X55.532 Y51.749 I-19.075 J-6.416 E9.22503
G3 X53.633 Y54.649 I-18.863 J-10.280 E9.32143
G3 X52.026 Y54.917 I-1.589 J-4.576 E9.36683
G3 X44.807 Y58.144 I-11.676 J-16.432 E9.58794
G3 X41.566 Y59.373 I-9.166 J-19.283 E9.68433
G3 X40.109 Y58.646 I1.401 J-4.631 E9.72973
G3 X32.372 Y57.013 I0.212 J-20.149 E9.95084
G3 X29.027 Y56.102 I3.945 J-21.081 E10.04723
G3 X28.275 Y54.657 I3.824 J-2.908 E10.09264
G3 X22.976 Y48.788 I12.027 J-16.185 E10.31374
G3 X20.805 Y46.085 I15.511 J-14.682 E10.41013
G3 X21.047 Y44.475 I4.808 J-0.101 E10.45554
G3 X20.209 Y36.612 I19.201 J-6.023 E10.67664
G3 X20.042 Y33.149 I21.194 J-2.758 E10.77304
G3 X21.183 Y31.988 I3.959 J2.749 E10.81844
G3 X25.127 Y25.134 I19.131 J6.447 E11.03955
G3 X26.051 Y23.602 I14.623 J7.775 E11.08926
G1 X26.427 Y23.746 F900.000
G1 F900
G1 X27.262 Y22.580 E11.12911
G3 X28.747 Y22.366 I1.305 J3.799 E11.17098
G3 X35.976 Y19.115 I11.581 J16.088 E11.39267
G3 X39.101 Y17.929 I8.257 J17.046 E11.48561
G3 X40.399 Y18.627 I-1.010 J3.435 E11.52675
G3 X48.168 Y20.247 I-0.093 J19.886 E11.74872
G3 X51.378 Y21.111 I-3.721 J20.220 E11.84115
G3 X52.040 Y22.458 I-3.269 J2.443 E11.88303
G3 X57.366 Y28.329 I-11.758 J16.018 E12.10472
G3 X59.454 Y30.915 I-14.797 J14.083 E12.19715
G3 X59.199 Y32.394 I-4.063 J0.061 E12.23903
G3 X60.056 Y40.274 I-18.899 J6.042 E12.46072
G3 X60.226 Y43.593 I-20.251 J2.701 E12.55315
G3 X59.150 Y44.639 I-3.298 J-2.316 E12.59503
G3 X55.212 Y51.519 I-18.820 J-6.205 E12.81672
G3 X53.398 Y54.304 I-17.767 J-9.589 E12.90915
G3 X51.913 Y54.518 I-1.314 J-3.860 E12.95103
G3 X44.684 Y57.769 I-11.581 J-16.088 E13.17272
G3 X41.579 Y58.956 I-8.797 J-18.356 E13.26515
G3 X40.251 Y58.256 I1.214 J-3.913 E13.30703
G3 X32.492 Y56.637 I0.094 J-19.853 E13.52871
G3 X29.282 Y55.772 I3.672 J-20.016 E13.62115
G3 X28.620 Y54.426 I3.255 J-2.437 E13.66303
G3 X23.294 Y48.555 I11.758 J-16.018 E13.88471
G3 X21.206 Y45.969 I14.797 J-14.083 E13.97715
G3 X21.461 Y44.490 I4.063 J-0.061 E14.01902
G3 X20.603 Y36.610 I18.927 J-6.047 E14.24071
G3 X20.434 Y33.290 I20.373 J-2.701 E14.33315
G3 X21.510 Y32.244 I3.330 J2.349 E14.37502
G3 X25.448 Y25.365 I18.829 J6.212 E14.59671
G3 X26.379 Y23.819 I14.311 J7.565 E14.64688
G1 X26.755 Y23.962 F900.000
G1 F900
G1 X27.496 Y22.924 E14.68232
G3 X28.860 Y22.765 I1.082 J3.355 E14.72069
G3 X36.099 Y19.490 I11.523 J15.832 E14.94296
G3 X39.076 Y18.345 I8.154 J16.759 E15.03164
G3 X40.262 Y19.017 I-1.037 J3.212 E15.06971
G3 X48.047 Y20.623 I0.026 J19.546 E15.29210
G3 X51.122 Y21.441 I-3.430 J19.082 E15.38057
G3 X51.695 Y22.689 I-2.841 J2.060 E15.41895
G3 X57.047 Y28.562 I-11.470 J15.828 E15.64122
G3 X59.054 Y31.031 I-14.013 J13.441 E15.72969
G3 X58.784 Y32.378 I-3.526 J-0.006 E15.76808
G3 X59.662 Y40.275 I-18.620 J6.068 E15.99035
G3 X59.834 Y43.452 I-19.129 J2.629 E16.07882
G3 X58.824 Y44.383 I-2.862 J-2.091 E16.11720
G3 X54.892 Y51.288 I-18.602 J-6.021 E16.33948
G3 X53.164 Y53.959 I-17.175 J-9.217 E16.42795
G3 X51.800 Y54.119 I-1.082 J-3.331 E16.46633
G3 X44.560 Y57.394 I-11.521 J-15.828 E16.68861
G3 X41.592 Y58.539 I-8.375 J-17.291 E16.77708
G3 X40.394 Y57.866 I1.080 J-3.326 E16.81546
G3 X32.613 Y56.261 I-0.021 J-19.563 E17.03773
G3 X29.538 Y55.443 I3.430 J-19.082 E17.12620
G3 X28.965 Y54.195 I2.841 J-2.060 E17.16459
G3 X23.613 Y48.322 I11.470 J-15.828 E17.38686
G3 X21.606 Y45.852 I13.910 J-13.353 E17.47533
G3 X21.876 Y44.506 I3.526 J0.007 E17.51371
G3 X20.998 Y36.609 I18.628 J-6.068 E17.73599
G3 X20.826 Y33.431 I19.136 J-2.629 E17.82446
G3 X21.836 Y32.501 I2.870 J2.104 E17.86284
G3 X25.768 Y25.596 I18.602 J6.021 E18.08512
G3 X26.707 Y24.035 I14.254 J7.511 E18.13573
G1 X26.618 Y23.698 F900.000
G92 E0
G1 X27.067 Y22.195 F900.000
G1 X26.890 Y20.371 F900.000
G1 X28.025 Y20.436 F900.000
G1 X32.285 Y18.393 F900.000
G1 X36.915 Y17.031 F900.000
G1 X38.402 Y15.873 F900.000
G1 X39.168 Y14.954 F900.000
G1 X38.997 Y15.099 F900.000
G1 F900
G3 X39.070 Y11.142 I11.981 J-1.758 E0.11037
G3 X39.328 Y13.408 I-7.903 J2.047 E0.17393
G1 X39.347 Y15.048 E0.21949
G1 X39.277 Y15.019 E0.22159
G1 X39.081 Y15.075 E0.22728
G1 X38.646 Y15.608 F900.000
G1 F900
G3 X38.596 Y11.564 I16.207 J-2.223 E0.33993
G3 X39.037 Y9.621 I12.040 J1.711 E0.39532
G3 X39.282 Y10.450 I-2.817 J1.283 E0.41939
G3 X39.721 Y13.414 I-8.366 J2.754 E0.50307
G1 X39.747 Y15.644 E0.56501
G1 X39.252 Y15.434 E0.57992
G1 X38.729 Y15.584 E0.59503
G1 X38.295 Y16.118 F900.000
G1 F900
G3 X38.094 Y13.530 I29.795 J-3.616 E0.66714
G3 X39.008 Y8.530 I12.560 J-0.288 E0.80929
G3 X39.663 Y10.355 I-6.021 J3.191 E0.86331
G3 X40.132 Y12.990 I-12.936 J3.662 E0.93787
G1 X40.114 Y13.420 E0.94982
G1 X40.146 Y16.239 E1.02815
G1 X39.227 Y15.850 E1.05588
G1 X38.378 Y16.094 E1.08041
G92 E0
G1 X40.539 Y16.210 F900.000
G1 F900
G2 X44.297 Y16.901 I13.358 J-62.084 E0.10617
G3 X47.612 Y17.945 I-4.455 J19.930 E0.20280
G1 X49.979 Y19.040 E0.27525
G1 X48.650 Y18.744 E0.31309
G2 X40.928 Y17.068 I-8.288 J19.558 E0.53388
G1 X40.444 Y16.792 E0.54936
G1 X39.202 Y16.266 E0.58684
G1 X37.945 Y16.642 E0.62329
G3 X37.701 Y13.538 I36.390 J-4.422 E0.70979
G3 X38.993 Y7.614 I12.785 J-0.315 E0.87981
G3 X40.044 Y10.260 I-8.662 J4.972 E0.95919
G1 X40.260 Y11.022 E0.98118
G3 X40.525 Y12.981 I-11.651 J2.573 E1.03617
G1 X40.506 Y13.426 E1.04854
G1 X40.538 Y16.123 E1.12346
G92 E0
G1 X25.803 Y20.119 F900.000
G1 F900
G2 X25.505 Y20.326 I-0.022 J0.287 E0.01070
G2 X24.463 Y19.070 I-15.272 J11.610 E0.05603
G3 X23.264 Y17.097 I7.714 J-6.039 E0.12029
G3 X24.805 Y18.778 I-5.118 J6.239 E0.18386
G1 X25.751 Y20.049 E0.22788
G1 X26.466 Y20.352 F900.000
G1 F900
G1 X25.856 Y20.511 E0.24541
G1 X25.517 Y20.974 E0.26133
G2 X24.155 Y19.314 I-20.777 J15.658 E0.32100
G3 X22.343 Y15.885 I9.372 J-7.146 E0.42918
G3 X23.029 Y16.412 I-1.521 J2.690 E0.45326
G3 X24.896 Y18.206 I-7.980 J10.173 E0.52539
G2 X26.414 Y20.282 I20.212 J-13.186 E0.59685
G1 X27.129 Y20.585 F900.000
G1 F900
G1 X26.090 Y20.856 E0.62668
G1 X25.530 Y21.622 E0.65304
G2 X23.846 Y19.558 I-25.556 J19.132 E0.72704
G3 X21.679 Y15.020 I9.992 J-7.558 E0.86768
G3 X23.281 Y16.111 I-2.994 J6.118 E0.92170
G3 X25.209 Y17.968 I-8.220 J10.463 E0.99626
G1 X25.447 Y18.326 E1.00821
G1 X27.077 Y20.515 E1.08403
G1 X27.431 Y20.333 F900.000
G1 F900
G2 X30.878 Y18.683 I-25.661 J-58.034 E1.19020
G3 X34.174 Y17.579 I8.108 J18.733 E1.28683
G1 X36.732 Y17.074 E1.35928
G1 X35.483 Y17.616 E1.39712
G2 X28.243 Y20.804 I4.772 J20.653 E1.61819
G2 X26.325 Y21.201 I0.664 J8.041 E1.67272
G1 X25.542 Y22.270 E1.70952
G2 X23.538 Y19.801 I-30.207 J22.470 E1.79787
G3 X21.128 Y14.288 I10.169 J-7.729 E1.96661
G3 X23.534 Y15.810 I-4.110 J9.161 E2.04598
G1 X24.156 Y16.300 E2.06798
G3 X25.522 Y17.729 I-7.952 J8.969 E2.12297
G1 X25.769 Y18.100 E2.13534
G1 X27.379 Y20.263 E2.21025
G92 E0
G1 X17.807 Y32.157 F900.000
G1 F900
G2 X17.687 Y32.489 I0.144 J0.240 E0.01042
G3 X13.977 Y31.204 I2.021 J-11.832 E0.11992
G3 X16.212 Y31.659 I-0.486 J8.102 E0.18349
G1 X17.724 Y32.131 E0.22749
G1 X18.481 Y31.956 F900.000
G1 F900
G1 X18.080 Y32.443 E0.24502
G1 X18.079 Y32.984 E0.26005
G3 X13.573 Y31.434 I2.667 J-15.078 E0.39299
G3 X12.517 Y30.763 I5.248 J-9.426 E0.42778
G3 X13.384 Y30.789 I0.341 J3.092 E0.45194
G3 X16.339 Y31.287 I0.035 J8.809 E0.53562
G1 X18.398 Y31.930 E0.59553
G1 X19.154 Y31.755 F900.000
G1 F900
G1 X18.472 Y32.584 E0.62536
G1 X18.470 Y33.479 E0.65022
G3 X15.956 Y32.873 I6.199 J-31.235 E0.72206
G3 X11.474 Y30.456 I3.594 J-12.029 E0.86448
G3 X13.411 Y30.397 I1.172 J6.647 E0.91851
G1 X14.182 Y30.426 E0.93993
G3 X16.063 Y30.765 I-1.115 J11.573 E0.99307
G1 X16.466 Y30.915 E1.00502
G1 X19.071 Y31.729 E1.08084
G1 X19.250 Y31.373 F900.000
G1 F900
G2 X21.070 Y28.012 I-56.213 J-32.613 E1.18701
G3 X23.086 Y25.182 I17.577 J10.388 E1.28363
G1 X24.860 Y23.269 E1.35609
G1 X24.167 Y24.442 E1.39393
G2 X20.184 Y31.278 I16.021 J13.913 E1.61500
G2 X18.865 Y32.725 I5.225 J6.088 E1.66954
G1 X18.861 Y33.974 E1.70422
G1 X16.247 Y33.362 E1.77879
G3 X10.598 Y30.187 I3.239 J-12.376 E1.96079
G3 X13.439 Y30.005 I2.067 J9.999 E2.04017
G1 X14.230 Y30.035 E2.06216
G3 X16.176 Y30.389 I-1.169 J11.951 E2.11715
G1 X16.593 Y30.544 E2.12952
G1 X19.167 Y31.347 E2.20444
G92 E0
G1 X18.414 Y46.596 F900.000
G1 F900
G2 X18.513 Y46.935 I0.257 J0.109 E0.01042
G3 X14.756 Y48.077 I-5.352 J-10.856 E0.11991
G3 X16.831 Y47.131 I4.344 J6.779 E0.18348
G1 X18.332 Y46.624 E0.22748
G1 X18.841 Y46.037 F900.000
G1 F900
G1 X18.803 Y46.667 E0.24501
G1 X19.120 Y47.105 E0.26003
G3 X15.303 Y48.397 I-7.103 J-14.701 E0.37226
G3 X13.319 Y48.578 I-2.111 J-12.173 E0.42765
G3 X14.032 Y48.089 I2.050 J2.225 E0.45172
G3 X16.715 Y46.755 I5.189 J7.072 E0.53540
G1 X18.759 Y46.065 E0.59531
G1 X19.268 Y45.478 F900.000
G1 F900
G1 X19.204 Y46.550 E0.62514
G1 X19.728 Y47.276 E0.64999
G3 X16.595 Y48.503 I-10.266 J-21.599 E0.74352
G3 X12.291 Y48.942 I-3.418 J-12.188 E0.86426
G3 X13.824 Y47.756 I4.842 J4.675 E0.91828
G1 X14.465 Y47.326 E0.93971
G3 X16.185 Y46.495 I5.934 J10.087 E0.99284
