; Postprocessed by [ArcWelder](https://github.com/FormerLurker/ArcWelderLib)
; Copyright(C) 2021 - Brad Hochgesang
; Version: 1.2.0, Branch: master, BuildDate: 2021-11-22T09:56:32Z
; resolution=0.05mm
; path_tolerance=5.0%
; max_radius=9999.00mm
; default_xyz_precision=3
; default_e_precision=5
; extrusion_rate_variance_percent=5.0%

; generated by Slic3r 1.3.0 on 2023-07-27 at 14:03:13

; external perimeters extrusion width = 0.49mm (2.83mm^3/s)
; perimeters extrusion width = 0.49mm (2.83mm^3/s)
; infill extrusion width = 0.49mm (2.83mm^3/s)
; solid infill extrusion width = 0.49mm (2.83mm^3/s)
; top infill extrusion width = 0.49mm (2.83mm^3/s)


; Filament gcode

G21 ; set units to millimeters
G90 ; use absolute coordinates
G1 Z-149.510 F900.000
G1 X103.625 Y75.520 F900.000
G1 F900
G1 X104.236 Y75.932 0.00000
G1 X103.764 Y78.282 0.00000
G1 X106.524 Y77.070 0.00000
G1 X105.621 Y79.551 0.00000
G1 X108.217 Y78.045 0.00000
G1 X107.988 Y80.079 0.00000
G1 X110.567 Y78.099 0.00000
G1 X111.308 Y77.586 0.00000
G1 X111.177 Y78.568 0.00000
G1 X110.562 Y80.298 0.00000
G1 X113.410 Y77.978 0.00000
G1 X113.771 Y78.217 0.00000
G1 X113.080 Y80.635 0.00000
G1 X115.090 Y78.471 0.00000
G1 X115.844 Y78.914 0.00000
G3 X113.067 Y85.512 I-158.252 J-62.722
G1 X111.018 Y89.280 0.00000
G1 X108.579 Y92.741 0.00000
G1 X105.661 Y96.065 0.00000
G1 X102.202 Y99.311 0.00000
G1 X92.226 Y107.242 0.00000
G1 X86.457 Y112.493 0.00000
G1 X81.096 Y118.082 0.00000
G1 X76.121 Y124.023 0.00000
G1 X71.516 Y130.336 0.00000
G3 X65.123 Y140.057 I-237.965 J-149.535
G1 X60.844 Y145.456 0.00000
G1 X58.228 Y148.497 0.00000
G1 X55.172 Y151.695 0.00000
G1 X52.357 Y154.072 0.00000
G1 X49.579 Y155.878 0.00000
G1 X47.708 Y156.835 0.00000
G1 X47.386 Y156.322 0.00000
G1 X47.891 Y155.787 0.00000
G1 X50.480 Y152.738 0.00000
G1 X52.478 Y149.563 0.00000
G1 X53.842 Y146.380 0.00000
G1 X54.641 Y143.154 0.00000
G1 X54.914 Y139.842 0.00000
G1 X54.666 Y136.388 0.00000
G2 X53.779 Y132.986 I-12.366 J1.408
G2 X52.222 Y130.132 I-63.179 J32.616
G1 X51.103 Y131.454 0.00000
G1 X50.873 Y127.142 0.00000
G1 X50.083 Y128.050 0.00000
G1 X49.330 Y127.754 0.00000
G1 X50.499 Y123.338 0.00000
G1 X49.058 Y124.494 0.00000
G1 X48.420 Y124.197 0.00000
G1 X50.009 Y120.676 0.00000
G1 X49.167 Y121.072 0.00000
G1 X48.498 Y121.645 0.00000
G1 X48.505 Y120.553 0.00000
G2 X49.761 Y117.756 I-32.521 J-16.284
G1 X49.764 Y117.646 0.00000
G1 X49.472 Y116.392 0.00000
G1 X51.681 Y112.923 0.00000
G1 X53.955 Y110.217 0.00000
G1 X56.477 Y107.917 0.00000
G1 X59.561 Y105.833 0.00000
G1 X60.594 Y105.278 0.00000
G1 X65.128 Y103.260 0.00000
G1 X69.873 Y101.615 0.00000
G1 X77.224 Y99.594 0.00000
G1 X78.984 Y99.152 0.00000
G1 X82.746 Y97.948 0.00000
G1 X85.767 Y96.504 0.00000
G1 X88.647 Y94.555 0.00000
G1 X91.075 Y92.258 0.00000
G1 X93.101 Y89.601 0.00000
G1 X96.060 Y84.199 0.00000
G1 X97.768 Y81.726 0.00000
G3 X103.562 Y75.580 I57.061 J47.989
G1 X96.013 Y77.840 F900.000
G1 F900
G1 X92.210 Y82.188 0.00000
G1 X91.342 Y81.719 0.00000
G3 X90.347 Y78.173 I1.375 J-2.298
G3 X91.998 Y76.346 I3.706 J1.690
G3 X94.726 Y76.610 I1.145 J2.395
G3 X95.954 Y77.776 I-3.364 J4.773
G1 X91.130 Y83.755 F900.000
G1 F900
G1 X91.121 Y84.185 0.00000
G3 X88.086 Y84.317 I-1.719 J-4.568
G1 X87.162 Y84.004 0.00000
G1 X86.066 Y83.430 0.00000
G1 X85.007 Y82.645 0.00000
G1 X83.959 Y81.582 0.00000
G1 X83.027 Y80.271 0.00000
G1 X82.728 Y79.729 0.00000
G1 X82.085 Y78.168 0.00000
G1 X81.710 Y76.545 0.00000
G1 X81.601 Y74.867 0.00000
G1 X81.766 Y73.169 0.00000
G1 X82.210 Y71.510 0.00000
G1 X82.922 Y69.952 0.00000
G1 X83.873 Y68.559 0.00000
G1 X85.020 Y67.376 0.00000
G3 X88.336 Y65.573 I5.602 J6.353
G1 X89.662 Y65.319 0.00000
G1 X90.773 Y65.297 0.00000
G3 X92.821 Y66.003 I-0.177 J3.837
G1 X93.555 Y66.700 0.00000
G1 X90.401 Y66.860 0.00000
G1 X88.745 Y67.222 0.00000
G1 X87.457 Y67.722 0.00000
G1 X86.352 Y68.372 0.00000
G2 X84.167 Y70.930 I3.991 J5.621
G2 X83.562 Y72.561 I7.455 J3.693
G1 X83.182 Y74.737 0.00000
G1 X83.171 Y76.191 0.00000
G1 X83.349 Y77.383 0.00000
G2 X85.685 Y81.137 I6.856 J-1.663
G1 X86.793 Y81.947 0.00000
G1 X88.652 Y82.907 0.00000
G1 X91.047 Y83.727 0.00000
G1 X90.349 Y85.932 F900.000
G1 F900
G1 X89.295 Y87.855 0.00000
G1 X87.740 Y89.845 0.00000
G1 X85.336 Y92.077 0.00000
G1 X82.398 Y94.075 0.00000
G1 X79.251 Y95.585 0.00000
G1 X76.699 Y96.359 0.00000
G1 X74.798 Y96.633 0.00000
G1 X72.554 Y96.597 0.00000
G1 X73.880 Y95.514 0.00000
G1 X68.204 Y95.828 0.00000
G1 X68.169 Y95.056 0.00000
G1 X70.844 Y93.931 0.00000
G1 X66.524 Y93.494 0.00000
G1 X66.468 Y92.806 0.00000
G1 X68.166 Y92.011 0.00000
G1 X67.076 Y91.876 0.00000
G3 X64.839 Y90.665 I0.788 J-4.128
G3 X64.282 Y87.364 I2.651 J-2.145
G1 X64.356 Y87.145 0.00000
G1 X64.919 Y85.898 0.00000
G3 X66.201 Y84.287 I4.985 J2.652
G3 X72.355 Y80.043 I40.377 J51.965
G1 X72.773 Y79.819 0.00000
G1 X68.813 Y80.802 0.00000
G1 X65.852 Y81.269 0.00000
G1 X63.611 Y81.309 0.00000
G1 X61.715 Y81.052 0.00000
G1 X59.966 Y80.527 0.00000
G1 X59.240 Y80.230 0.00000
G1 X59.702 Y79.747 0.00000
G1 X56.805 Y79.067 0.00000
G1 X56.863 Y78.439 0.00000
G1 X58.482 Y78.036 0.00000
G1 X54.866 Y76.896 0.00000
G1 X55.100 Y76.307 0.00000
G1 X57.109 Y76.167 0.00000
G3 X55.993 Y70.180 I2.932 J-3.644
G3 X56.984 Y68.896 I4.644 J2.560
G3 X59.956 Y66.432 I14.319 J14.246
G1 X63.967 Y64.183 0.00000
G1 X68.126 Y62.468 0.00000
G1 X72.343 Y61.316 0.00000
G1 X76.350 Y60.728 0.00000
G1 X77.226 Y60.662 0.00000
G3 X84.424 Y60.638 I3.983 J115.023
G1 X84.771 Y61.392 0.00000
G1 X82.482 Y62.591 0.00000
G1 X81.222 Y63.524 0.00000
G1 X80.231 Y64.529 0.00000
G1 X79.322 Y65.826 0.00000
G1 X79.254 Y65.957 0.00000
G1 X82.590 Y64.139 0.00000
G1 X84.159 Y63.520 0.00000
G3 X86.250 Y63.208 I2.008 J6.297
G1 X87.612 Y63.346 0.00000
G1 X89.344 Y63.706 0.00000
G1 X85.750 Y65.684 0.00000
G1 X83.851 Y67.156 0.00000
G1 X82.547 Y68.539 0.00000
G1 X81.565 Y69.995 0.00000
G1 X80.940 Y71.360 0.00000
G1 X80.521 Y72.890 0.00000
G1 X80.352 Y74.507 0.00000
G1 X80.455 Y76.387 0.00000
G1 X80.873 Y78.334 0.00000
G1 X81.510 Y79.954 0.00000
G1 X82.457 Y81.545 0.00000
G1 X83.349 Y82.646 0.00000
G1 X84.651 Y83.856 0.00000
G1 X85.901 Y84.686 0.00000
G1 X87.339 Y85.332 0.00000
G1 X88.881 Y85.740 0.00000
G1 X90.263 Y85.921 0.00000
G1 X90.043 Y86.091 F900.000
G1 X91.488 Y85.425 F900.000
G1 X91.557 Y85.094 F900.000
G1 X92.836 Y85.663 F900.000
G1 X93.991 Y84.609 F900.000
G1 X94.528 Y83.316 F900.000
G1 X94.493 Y82.770 F900.000
G1 X98.358 Y77.967 F900.000
G1 X98.727 Y75.809 F900.000
G1 X98.617 Y73.521 F900.000
G1 X95.114 Y71.437 F900.000
G1 X95.351 Y68.759 F900.000
G1 X94.927 Y66.178 F900.000
G1 X94.576 Y65.417 F900.000
G1 X91.789 Y62.394 F900.000
G1 X90.863 Y60.219 F900.000
G1 X92.137 Y56.048 F900.000
G1 X92.920 Y54.284 F900.000
G1 X93.815 Y52.759 F900.000
G1 X96.805 Y50.660 F900.000
G3 X97.658 Y50.414 I0.957 J1.716
G1 X99.866 Y51.774 F900.000
G1 X100.556 Y52.743 F900.000
G1 X102.022 Y54.295 F900.000
G1 X101.608 Y55.742 F900.000
G1 X101.357 Y57.667 F900.000
G1 X101.400 Y58.455 F900.000
G1 X101.821 Y59.175 F900.000
G1 X102.891 Y60.125 F900.000
G1 X104.525 Y60.663 F900.000
G1 X108.431 Y61.131 F900.000
G1 X107.900 Y63.612 F900.000
G1 X107.274 Y64.246 F900.000
G1 F900
G2 X107.750 Y66.517 I10.072 J-0.926
G1 X108.882 Y68.473 0.00000
G1 X109.833 Y69.626 0.00000
G1 X110.785 Y70.471 0.00000
G1 X111.362 Y70.866 0.00000
G1 X112.467 Y71.419 0.00000
G1 X113.634 Y71.772 0.00000
G2 X115.806 Y71.945 I1.764 J-8.426
G1 X118.428 Y71.621 0.00000
G2 X124.042 Y70.426 I-15.856 J-88.276
G1 X124.265 Y70.796 0.00000
G1 X122.916 Y72.317 0.00000
G1 X121.431 Y73.514 0.00000
G1 X119.838 Y74.409 0.00000
G1 X118.157 Y75.017 0.00000
G1 X116.415 Y75.338 0.00000
G1 X114.658 Y75.368 0.00000
G1 X112.927 Y75.108 0.00000
G1 X111.280 Y74.567 0.00000
G1 X109.764 Y73.764 0.00000
G1 X108.411 Y72.721 0.00000
G3 X106.484 Y70.448 I10.411 J-10.780
G2 X105.093 Y69.858 I-1.336 J1.216
G1 X103.093 Y69.734 0.00000
G1 X101.405 Y69.327 0.00000
G1 X99.868 Y68.669 0.00000
G1 X98.503 Y67.792 0.00000
G1 X97.303 Y66.703 0.00000
G1 X96.298 Y65.427 0.00000
G1 X95.508 Y63.985 0.00000
G1 X95.153 Y63.072 0.00000
G1 X94.747 Y61.431 0.00000
G1 X94.628 Y59.800 0.00000
G1 X94.782 Y58.277 0.00000
G1 X95.150 Y56.952 0.00000
G1 X95.728 Y55.729 0.00000
G1 X96.478 Y54.667 0.00000
G3 X97.781 Y53.424 I7.824 J6.898
G3 X97.891 Y55.051 I-10.035 J1.496
G1 X97.442 Y57.128 0.00000
G2 X97.449 Y59.073 I6.401 J0.949
G2 X99.229 Y61.832 I4.098 J-0.690
G1 X100.229 Y62.427 0.00000
G1 X101.993 Y63.119 0.00000
G2 X107.188 Y64.229 I13.825 J-51.990
G1 X107.900 Y63.612 F900.000
G1 X108.431 Y61.131 F900.000
G1 X104.525 Y60.663 F900.000
G1 X102.891 Y60.125 F900.000
G1 X101.821 Y59.175 F900.000
G1 X101.400 Y58.455 F900.000
G1 X101.357 Y57.667 F900.000
G1 X101.608 Y55.742 F900.000
G1 X102.022 Y54.295 F900.000
G1 X100.556 Y52.743 F900.000
G1 X99.866 Y51.774 F900.000
G1 X97.658 Y50.414 F900.000
G1 X96.805 Y50.660 F900.000
G1 X93.815 Y52.759 F900.000
G1 X92.289 Y55.671 F900.000
G1 X91.123 Y59.341 F900.000
G1 X88.577 Y58.230 F900.000
G1 X88.111 Y57.409 F900.000
G1 F900
G1 X81.624 Y56.580 0.00000
G1 X76.743 Y55.582 0.00000
G1 X72.479 Y54.296 0.00000
G1 X68.683 Y52.701 0.00000
G1 X66.066 Y51.282 0.00000
G1 X64.730 Y50.315 0.00000
G3 X60.231 Y45.821 I103.825 J-108.440
G1 X61.867 Y45.663 0.00000
G1 X59.092 Y42.713 0.00000
G1 X59.297 Y42.337 0.00000
G1 X61.037 Y42.663 0.00000
G1 X59.000 Y40.127 0.00000
G1 X58.373 Y39.123 0.00000
G1 X60.653 Y39.828 0.00000
G1 X58.256 Y35.858 0.00000
G1 X58.838 Y35.463 0.00000
G1 X60.173 Y36.178 0.00000
G1 X58.525 Y31.641 0.00000
G1 X59.233 Y31.394 0.00000
G1 X60.405 Y32.434 0.00000
G3 X60.077 Y28.454 I68.380 J-7.639
G1 X60.207 Y26.442 0.00000
G1 X60.555 Y24.834 0.00000
G1 X61.086 Y23.457 0.00000
G1 X61.807 Y22.216 0.00000
G1 X61.920 Y22.056 0.00000
G1 X64.054 Y19.524 0.00000
G1 X66.520 Y17.327 0.00000
G1 X69.497 Y15.255 0.00000
G1 X73.717 Y12.884 0.00000
G1 X73.689 Y19.367 0.00000
G1 X74.116 Y24.334 0.00000
G1 X74.940 Y28.812 0.00000
G1 X76.139 Y32.875 0.00000
G1 X77.602 Y36.380 0.00000
G1 X79.700 Y40.098 0.00000
G1 X82.222 Y43.468 0.00000
G1 X85.188 Y46.533 0.00000
G1 X88.636 Y49.329 0.00000
G1 X90.956 Y50.892 0.00000
G1 X88.146 Y57.329 0.00000
G1 X81.563 Y58.278 F900.000
G1 F900
G1 X81.541 Y58.798 0.00000
G1 X74.732 Y59.424 0.00000
G1 X70.229 Y60.008 0.00000
G1 X69.419 Y60.161 0.00000
G1 X64.851 Y61.349 0.00000
G1 X61.052 Y62.810 0.00000
G1 X57.295 Y64.813 0.00000
G1 X53.979 Y67.198 0.00000
G1 X51.053 Y69.969 0.00000
G1 X49.023 Y72.402 0.00000
G1 X47.070 Y75.426 0.00000
G1 X45.571 Y78.672 0.00000
G1 X44.534 Y82.118 0.00000
G1 X44.011 Y85.641 0.00000
G1 X44.022 Y89.036 0.00000
G1 X44.559 Y92.305 0.00000
G1 X45.461 Y94.985 0.00000
G1 X46.679 Y97.316 0.00000
G1 X48.376 Y99.562 0.00000
G1 X50.234 Y101.318 0.00000
G1 X50.811 Y101.769 0.00000
G2 X49.185 Y104.666 I16.749 J11.306
G3 X47.259 Y105.746 I-1.962 J-1.241
G1 X46.982 Y105.762 0.00000
G1 X42.442 Y105.663 0.00000
G1 X38.101 Y105.055 0.00000
G1 X33.920 Y103.956 0.00000
G1 X29.861 Y102.367 0.00000
G1 X25.888 Y100.271 0.00000
G1 X21.969 Y97.642 0.00000
G1 X18.338 Y94.672 0.00000
G3 X17.718 Y92.747 I1.794 J-1.640
G1 X19.138 Y85.259 0.00000
G1 X21.047 Y77.981 0.00000
G1 X23.466 Y70.780 0.00000
G1 X26.404 Y63.647 0.00000
G1 X28.539 Y59.155 0.00000
G1 X32.309 Y52.155 0.00000
G1 X37.384 Y43.263 0.00000
G1 X39.194 Y45.847 0.00000
G1 X40.983 Y47.667 0.00000
G1 X43.005 Y49.167 0.00000
G1 X45.509 Y50.534 0.00000
G1 X49.452 Y52.114 0.00000
G1 X51.534 Y52.822 0.00000
G1 X49.238 Y49.307 0.00000
G1 X47.529 Y46.162 0.00000
G1 X46.305 Y43.100 0.00000
G1 X45.913 Y41.768 0.00000
G1 X46.294 Y41.531 0.00000
G2 X50.646 Y45.404 I59.064 J-61.987
G2 X54.446 Y47.962 I36.451 J-50.047
G1 X53.287 Y43.769 0.00000
G1 X52.616 Y39.931 0.00000
G1 X52.429 Y36.468 0.00000
G1 X52.694 Y33.237 0.00000
G1 X53.155 Y31.022 0.00000
G1 X53.645 Y31.032 0.00000
G1 X54.578 Y36.644 0.00000
G1 X55.698 Y40.750 0.00000
G1 X57.067 Y44.161 0.00000
G1 X58.693 Y47.039 0.00000
G1 X60.801 Y49.726 0.00000
G1 X62.107 Y51.014 0.00000
G1 X64.759 Y53.052 0.00000
G1 X67.859 Y54.771 0.00000
G1 X71.520 Y56.207 0.00000
G1 X75.884 Y57.367 0.00000
G1 X81.477 Y58.264 0.00000
G1 X81.305 Y58.574 F900.000
G1 X82.268 Y59.490 F900.000
G1 X82.641 Y59.505 F900.000
G1 X83.449 Y58.732 F900.000
G1 X84.908 Y58.826 F900.000
G1 X86.157 Y59.307 F900.000
G1 X87.607 Y60.372 F900.000
G1 X89.877 Y60.413 F900.000
G1 X90.863 Y60.219 F900.000
G1 X92.137 Y56.048 F900.000
G1 X92.920 Y54.284 F900.000
G1 X93.815 Y52.759 F900.000
G1 X96.805 Y50.660 F900.000
G1 X97.658 Y50.414 F900.000
G1 X99.866 Y51.774 F900.000
G1 X100.556 Y52.743 F900.000
G1 X102.022 Y54.295 F900.000
G1 X101.426 Y56.808 F900.000
G1 X101.400 Y58.455 F900.000
G1 X101.821 Y59.175 F900.000
G1 X102.891 Y60.125 F900.000
G1 X104.525 Y60.663 F900.000
G1 X108.431 Y61.131 F900.000
G1 X111.065 Y62.037 F900.000
G1 X113.006 Y61.195 F900.000
G1 X115.035 Y60.670 F900.000
G1 X122.627 Y60.458 F900.000
G1 X128.668 Y58.918 F900.000
G1 X135.156 Y56.598 F900.000
G1 X138.496 Y55.128 F900.000
G1 X142.871 Y52.915 F900.000
G1 X148.802 Y49.314 F900.000
G1 X155.025 Y45.086 F900.000
G1 X155.493 Y44.879 F900.000
G1 X156.061 Y45.835 F900.000
G1 F900
G3 X155.401 Y47.158 I-7.179 J-2.755
G3 X151.268 Y52.430 I-48.566 J-33.818
G1 X147.648 Y55.862 0.00000
G1 X143.750 Y58.874 0.00000
G1 X139.449 Y61.586 0.00000
G1 X134.695 Y64.021 0.00000
G1 X129.419 Y66.199 0.00000
G1 X127.029 Y67.041 0.00000
G1 X123.596 Y67.930 0.00000
G1 X119.260 Y68.559 0.00000
G3 X116.716 Y68.332 I-0.883 J-4.470
G3 X114.861 Y67.286 I3.488 J-8.354
G3 X114.280 Y64.905 I1.999 J-1.749
G3 X116.084 Y63.638 I2.146 J1.137
G1 X117.442 Y63.717 0.00000
G2 X121.800 Y64.318 I11.358 J-66.261
G2 X123.449 Y64.252 I0.654 J-4.290
G1 X129.290 Y62.521 0.00000
G1 X134.849 Y60.313 0.00000
G1 X139.965 Y57.695 0.00000
G1 X144.309 Y54.934 0.00000
G1 X145.570 Y54.025 0.00000
G1 X150.125 Y50.356 0.00000
G1 X155.685 Y45.555 0.00000
G1 X155.991 Y45.783 0.00000
G1 X155.493 Y44.879 F900.000
G1 X155.025 Y45.086 F900.000
G1 X148.802 Y49.314 F900.000
G1 X142.871 Y52.915 F900.000
G1 X138.496 Y55.128 F900.000
G1 X135.156 Y56.598 F900.000
G1 X128.668 Y58.918 F900.000
G1 X122.627 Y60.458 F900.000
G1 X115.035 Y60.670 F900.000
G1 X113.006 Y61.195 F900.000
G1 X111.065 Y62.037 F900.000
G1 X108.431 Y61.131 F900.000
G1 X104.525 Y60.663 F900.000
G1 X104.590 Y58.487 F900.000
G1 X105.541 Y57.515 F900.000
G1 X105.282 Y57.206 F900.000
G1 F900
G1 X105.306 Y57.753 0.00000
G1 X108.273 Y57.843 0.00000
G1 X114.695 Y57.615 0.00000
G1 X121.219 Y56.820 0.00000
G1 X127.906 Y55.421 0.00000
G1 X134.077 Y53.621 0.00000
G1 X140.983 Y51.052 0.00000
G1 X148.061 Y47.854 0.00000
G1 X155.097 Y44.163 0.00000
G1 X159.615 Y41.549 0.00000
G1 X159.527 Y42.348 0.00000
G1 X158.667 Y45.393 0.00000
G1 X157.387 Y48.189 0.00000
G1 X155.647 Y50.896 0.00000
G1 X153.394 Y53.591 0.00000
G1 X150.734 Y56.195 0.00000
G1 X146.774 Y59.428 0.00000
G1 X142.540 Y62.278 0.00000
G1 X137.755 Y64.962 0.00000
G1 X132.274 Y67.552 0.00000
G2 X127.242 Y69.680 I37.858 J96.535
G2 X126.817 Y70.003 I1.007 J1.767
G1 X125.502 Y71.617 0.00000
G1 X123.723 Y73.192 0.00000
G1 X120.560 Y75.292 0.00000
G2 X119.282 Y76.957 I1.566 J2.525
G1 X118.216 Y81.247 0.00000
G1 X116.712 Y85.241 0.00000
G1 X114.708 Y89.188 0.00000
G1 X112.904 Y92.076 0.00000
G1 X110.388 Y95.352 0.00000
G1 X107.529 Y98.345 0.00000
G1 X103.354 Y101.986 0.00000
G1 X99.604 Y104.901 0.00000
G1 X93.650 Y109.738 0.00000
G1 X88.094 Y114.927 0.00000
G1 X82.945 Y120.457 0.00000
G1 X78.182 Y126.341 0.00000
G1 X73.790 Y132.599 0.00000
G1 X72.054 Y135.344 0.00000
G1 X68.759 Y140.236 0.00000
G1 X64.259 Y145.997 0.00000
G1 X63.377 Y147.062 0.00000
G1 X60.002 Y150.703 0.00000
G1 X56.754 Y153.531 0.00000
G1 X52.982 Y156.120 0.00000
G1 X49.551 Y157.923 0.00000
G1 X46.236 Y159.157 0.00000
G1 X43.333 Y159.757 0.00000
G1 X40.500 Y159.895 0.00000
G1 X38.259 Y159.647 0.00000
G2 X43.971 Y155.840 I-43.059 J-70.794
G1 X46.815 Y153.281 0.00000
G1 X49.078 Y150.526 0.00000
G1 X50.721 Y147.668 0.00000
G1 X51.765 Y144.844 0.00000
G1 X52.350 Y141.803 0.00000
G1 X52.448 Y138.539 0.00000
G1 X52.045 Y135.120 0.00000
G1 X51.845 Y134.142 0.00000
G1 X51.729 Y134.019 0.00000
G1 X51.221 Y133.767 0.00000
G1 X50.941 Y134.372 0.00000
G1 X49.193 Y129.948 0.00000
G1 X47.903 Y132.312 0.00000
G1 X47.699 Y128.399 0.00000
G1 X46.364 Y129.579 0.00000
G1 X46.741 Y124.192 0.00000
G1 X45.531 Y125.155 0.00000
G1 X46.171 Y120.141 0.00000
G1 X44.649 Y121.351 0.00000
G1 X48.229 Y112.861 0.00000
G3 X47.056 Y111.323 I6.536 J-6.202
G3 X46.824 Y109.397 I1.944 J-1.211
G1 X47.160 Y108.594 0.00000
G1 X46.119 Y108.394 0.00000
G1 X41.894 Y108.130 0.00000
G1 X38.349 Y107.753 0.00000
G1 X37.757 Y107.646 0.00000
G1 X33.438 Y106.537 0.00000
G1 X29.343 Y104.980 0.00000
G1 X25.313 Y102.936 0.00000
G1 X21.297 Y100.374 0.00000
G1 X17.235 Y97.238 0.00000
G1 X14.807 Y95.090 0.00000
G3 X14.563 Y93.860 I1.501 J-0.937
G1 X16.476 Y85.152 0.00000
G1 X18.882 Y76.705 0.00000
G1 X21.718 Y68.726 0.00000
G1 X24.978 Y61.169 0.00000
G1 X28.660 Y53.991 0.00000
G1 X32.468 Y47.625 0.00000
G1 X33.357 Y46.261 0.00000
G3 X38.835 Y38.512 I243.819 J166.552
G1 X39.184 Y40.684 0.00000
G1 X39.903 Y42.847 0.00000
G1 X40.828 Y44.624 0.00000
G1 X41.766 Y45.886 0.00000
G1 X42.699 Y46.802 0.00000
G2 X45.501 Y48.230 I4.593 J-5.550
G1 X44.342 Y43.476 0.00000
G1 X43.582 Y39.654 0.00000
G3 X43.958 Y35.170 I9.147 J-1.491
G1 X44.784 Y33.316 0.00000
G1 X46.148 Y31.216 0.00000
G1 X46.134 Y33.741 0.00000
G1 X46.506 Y36.127 0.00000
G1 X47.145 Y38.115 0.00000
G1 X48.038 Y39.880 0.00000
G1 X49.300 Y41.608 0.00000
G1 X51.282 Y43.619 0.00000
G1 X51.302 Y42.481 0.00000
G3 X50.265 Y37.504 I65.023 J-16.145
G1 X50.131 Y35.043 0.00000
G1 X50.392 Y32.750 0.00000
G1 X51.001 Y30.594 0.00000
G1 X52.000 Y28.375 0.00000
G1 X53.562 Y25.868 0.00000
G1 X55.985 Y22.859 0.00000
G1 X55.985 Y29.152 0.00000
G1 X56.384 Y29.289 0.00000
G2 X57.128 Y27.619 I-2.240 J-1.999
G1 X58.107 Y23.997 0.00000
G1 X59.262 Y21.364 0.00000
G1 X60.570 Y19.318 0.00000
G1 X62.082 Y17.615 0.00000
G1 X63.895 Y16.129 0.00000
G2 X70.752 Y11.609 I-183.450 J-285.762
G1 X71.891 Y10.920 0.00000
G3 X74.676 Y10.452 I2.110 J4.038
G3 X77.054 Y11.715 I-1.095 J4.931
G1 X76.977 Y12.663 0.00000
G1 X76.718 Y18.065 0.00000
G1 X76.957 Y22.770 0.00000
G1 X77.738 Y27.692 0.00000
G1 X78.894 Y31.906 0.00000
G1 X79.324 Y33.133 0.00000
G1 X81.070 Y37.124 0.00000
G1 X82.979 Y40.334 0.00000
G1 X85.407 Y43.380 0.00000
G1 X88.146 Y45.928 0.00000
G1 X91.208 Y48.026 0.00000
G1 X93.651 Y49.293 0.00000
G1 X95.655 Y48.165 0.00000
G3 X97.740 Y47.828 I1.577 J3.136
G3 X98.767 Y48.237 I-0.747 J3.370
G3 X100.814 Y49.810 I-6.912 J11.113
G2 X102.141 Y50.110 I1.026 J-1.452
G1 X108.841 Y48.244 0.00000
G1 X115.552 Y46.852 0.00000
G1 X122.959 Y45.755 0.00000
G1 X132.973 Y44.785 0.00000
G1 X138.559 Y44.401 0.00000
G1 X143.653 Y43.836 0.00000
G1 X151.454 Y42.553 0.00000
G2 X154.026 Y41.956 I-5.249 J-28.451
G3 X150.922 Y44.380 I-24.231 J-27.829
G1 X146.112 Y47.164 0.00000
G1 X141.078 Y49.519 0.00000
G3 X138.811 Y50.422 I-25.679 J-61.171
G1 X133.162 Y52.319 0.00000
G1 X126.837 Y53.952 0.00000
G1 X118.657 Y55.492 0.00000
G3 X105.368 Y57.196 I-64.016 J-446.570
G1 X105.541 Y57.515 F900.000
G1 X104.494 Y56.648 F900.000
G1 X104.078 Y53.574 F900.000
G1 X102.022 Y54.295 F900.000
G1 X100.556 Y52.743 F900.000
G1 X99.866 Y51.774 F900.000
G1 X97.658 Y50.414 F900.000
G1 X96.805 Y50.660 F900.000
G1 X93.815 Y52.759 F900.000
G1 X92.920 Y54.284 F900.000
G1 X91.632 Y57.469 F900.000
G1 X90.863 Y60.219 F900.000
G1 X91.789 Y62.394 F900.000
G1 X94.576 Y65.417 F900.000
G1 X94.927 Y66.178 F900.000
G1 X95.351 Y68.759 F900.000
G1 X95.114 Y71.437 F900.000
G1 X98.617 Y73.521 F900.000
G1 X98.727 Y75.809 F900.000
G1 X98.358 Y77.967 F900.000
G1 X94.493 Y82.770 F900.000
G1 X94.528 Y83.316 F900.000
G1 X93.991 Y84.609 F900.000
G1 X92.836 Y85.663 F900.000
G1 X91.345 Y88.459 F900.000
G1 X89.541 Y90.879 F900.000
G1 X87.370 Y92.963 F900.000
G1 X84.794 Y94.806 F900.000
G1 X82.072 Y96.251 F900.000
G1 X78.510 Y97.553 F900.000
G1 X74.830 Y98.422 F900.000
G1 X70.449 Y98.969 F900.000
G1 X68.784 Y98.809 F900.000
G1 X67.617 Y99.038 F900.000
G1 X63.396 Y98.360 F900.000
G1 X58.149 Y96.700 F900.000
G1 X57.151 Y99.823 F900.000
G1 X55.013 Y103.495 F900.000
G1 X51.063 Y107.984 F900.000
G1 X50.000 Y110.006 F900.000
G1 X50.000 Y111.994 F900.000
G1 X49.809 Y113.031 F900.000
G1 X48.264 Y115.976 F900.000
G1 X47.845 Y118.483 F900.000
G1 X47.327 Y120.390 F900.000
G1 X47.208 Y122.177 F900.000
G1 X47.675 Y122.538 F900.000
G1 X47.839 Y123.018 F900.000
G1 X47.480 Y124.444 F900.000
G1 X47.603 Y124.500 F900.000
G1 X47.470 Y124.587 F900.000
G1 X48.584 Y126.785 F900.000
G1 X48.445 Y128.217 F900.000
G1 X48.741 Y128.628 F900.000
G1 X48.518 Y129.609 F900.000
G1 X49.191 Y129.976 F900.000
G1 X48.670 Y131.363 F900.000
G1 X47.751 Y132.848 F900.000
G1 X50.171 Y131.892 F900.000
G1 X51.075 Y132.657 F900.000
G1 X51.944 Y132.583 F900.000
G1 X52.692 Y133.378 F900.000
G1 X53.051 Y134.342 F900.000
G1 X53.628 Y138.439 F900.000
G1 X53.537 Y141.969 F900.000
G1 X52.906 Y145.200 F900.000
G1 X51.383 Y148.989 F900.000
G1 X49.478 Y151.997 F900.000
G1 X45.992 Y155.860 F900.000
G1 X45.574 Y156.812 F900.000
G1 X45.629 Y156.422 F900.000
G1 F900
G1 X46.298 Y157.489 0.00000
G1 X45.809 Y157.671 0.00000
G1 X44.054 Y158.034 0.00000
G1 X43.930 Y157.745 0.00000
G2 X45.564 Y156.481 I-4.188 J-7.102
G1 X45.931 Y156.179 F900.000
G1 F900
G1 X46.876 Y157.685 0.00000
G1 X45.916 Y158.042 0.00000
G1 X43.187 Y158.607 0.00000
G1 X42.450 Y158.643 0.00000
G1 X42.357 Y158.368 0.00000
G1 X44.690 Y156.748 0.00000
G1 X45.988 Y155.580 0.00000
G1 X46.246 Y155.845 0.00000
G1 X45.991 Y156.115 0.00000
G1 X45.992 Y155.860 F900.000
G1 X47.715 Y154.094 F900.000
G1 X50.071 Y151.170 F900.000
G1 X51.776 Y148.202 F900.000
G1 X52.906 Y145.200 F900.000
G1 X53.537 Y141.969 F900.000
G1 X53.628 Y138.439 F900.000
G1 X53.051 Y134.342 F900.000
G1 X52.692 Y133.378 F900.000
G1 X51.944 Y132.583 F900.000
G1 X52.140 Y132.932 F900.000
G1 F900
G1 X51.596 Y132.662 0.00000
G1 X52.028 Y132.151 0.00000
G1 X52.335 Y132.731 0.00000
G1 X52.201 Y132.870 0.00000
G1 X52.195 Y133.390 F900.000
G1 F900
G1 X51.183 Y132.888 0.00000
G1 X51.093 Y132.660 0.00000
G1 X52.089 Y131.482 0.00000
G3 X53.078 Y133.309 I-27.690 J16.170
G3 X53.901 Y136.482 I-10.810 J4.497
G1 X54.141 Y139.838 0.00000
G1 X53.879 Y143.029 0.00000
G1 X53.110 Y146.134 0.00000
G1 X51.794 Y149.204 0.00000
G1 X49.858 Y152.281 0.00000
G1 X47.317 Y155.273 0.00000
G1 X46.416 Y156.226 0.00000
G1 X47.455 Y157.881 0.00000
G1 X46.023 Y158.414 0.00000
G1 X43.236 Y158.991 0.00000
G1 X41.103 Y159.094 0.00000
G1 X41.014 Y158.812 0.00000
G1 X41.342 Y158.603 0.00000
G1 X44.450 Y156.445 0.00000
G1 X47.374 Y153.815 0.00000
G1 X49.714 Y150.966 0.00000
G1 X51.421 Y147.996 0.00000
G1 X52.510 Y145.052 0.00000
G1 X53.118 Y141.888 0.00000
G1 X53.220 Y138.505 0.00000
G1 X52.806 Y134.997 0.00000
G1 X52.556 Y133.774 0.00000
G1 X52.255 Y133.453 0.00000
G1 X50.233 Y129.606 F900.000
G1 F900
G1 X49.913 Y129.676 0.00000
G1 X49.509 Y128.652 0.00000
G1 X50.197 Y128.923 0.00000
G1 X50.228 Y129.519 0.00000
G1 X48.787 Y129.084 F900.000
G1 F900
G1 X48.503 Y129.019 0.00000
G1 X48.462 Y128.240 0.00000
G1 X49.108 Y128.494 0.00000
G1 X48.828 Y129.008 0.00000
G1 X47.714 Y126.842 F900.000
G1 F900
G1 X47.829 Y125.197 0.00000
G1 X48.703 Y125.604 0.00000
G1 X48.577 Y126.079 0.00000
G1 X47.780 Y126.784 0.00000
G1 X48.385 Y126.764 F900.000
G1 F900
G1 X47.264 Y127.755 0.00000
G1 X47.484 Y124.611 0.00000
G1 X49.158 Y125.391 0.00000
G1 X48.725 Y127.030 0.00000
G1 X48.397 Y126.996 0.00000
G1 X48.389 Y126.851 0.00000
G1 X47.964 Y126.336 F900.000
G1 X48.206 Y125.837 F900.000
G1 X47.470 Y124.587 F900.000
G1 X47.603 Y124.500 F900.000
G1 X47.480 Y124.444 F900.000
G1 X47.839 Y123.018 F900.000
G1 X47.675 Y122.538 F900.000
G1 X47.208 Y122.177 F900.000
G1 X47.327 Y120.390 F900.000
G1 X47.845 Y118.483 F900.000
G1 X48.264 Y115.976 F900.000
G1 X49.809 Y113.031 F900.000
G1 X50.000 Y111.994 F900.000
G1 X50.000 Y110.006 F900.000
G1 X51.063 Y107.984 F900.000
G1 X55.013 Y103.495 F900.000
G1 X57.151 Y99.823 F900.000
G1 X58.149 Y96.700 F900.000
G1 X63.396 Y98.360 F900.000
G1 X67.617 Y99.038 F900.000
G1 X68.784 Y98.809 F900.000
G1 X70.449 Y98.969 F900.000
G1 X74.992 Y98.395 F900.000
G1 X78.510 Y97.553 F900.000
G1 X82.072 Y96.251 F900.000
G1 X84.794 Y94.806 F900.000
G1 X86.482 Y93.661 F900.000
G1 X89.160 Y91.285 F900.000
G1 X91.063 Y88.894 F900.000
G1 X92.836 Y85.663 F900.000
G1 X93.991 Y84.609 F900.000
G1 X93.648 Y83.818 F900.000
G1 X93.977 Y82.857 F900.000
G1 X92.269 Y83.277 F900.000
G1 X89.690 Y81.942 F900.000
G1 X89.979 Y81.542 F900.000
G1 X90.640 Y81.660 F900.000
G1 F900
G3 X89.996 Y78.012 I2.056 J-2.244
G3 X91.838 Y75.995 I4.040 J1.840
G3 X94.944 Y76.292 I1.305 J2.743
G1 X95.568 Y76.794 0.00000
G1 X96.531 Y77.832 0.00000
G1 X92.298 Y82.673 0.00000
G1 X91.131 Y82.042 0.00000
G1 X90.708 Y81.713 0.00000
G1 X95.732 Y83.997 F900.000
G1 F900
G1 X97.464 Y81.489 0.00000
G3 X103.584 Y75.028 I58.223 J49.021
G1 X104.664 Y75.756 0.00000
G1 X104.287 Y77.632 0.00000
G1 X107.194 Y76.356 0.00000
G1 X106.345 Y78.686 0.00000
G1 X108.685 Y77.329 0.00000
G1 X108.472 Y79.222 0.00000
G3 X111.804 Y76.773 I26.897 J33.104
G1 X111.553 Y78.659 0.00000
G1 X111.386 Y79.130 0.00000
G1 X113.386 Y77.501 0.00000
G1 X114.218 Y78.051 0.00000
G1 X113.891 Y79.196 0.00000
G1 X115.018 Y77.982 0.00000
G1 X116.327 Y78.751 0.00000
G3 X113.414 Y85.681 I-168.379 J-66.700
G1 X111.345 Y89.484 0.00000
G1 X108.882 Y92.979 0.00000
G1 X105.938 Y96.333 0.00000
G1 X102.454 Y99.602 0.00000
G1 X92.475 Y107.536 0.00000
G1 X86.726 Y112.769 0.00000
G1 X81.383 Y118.339 0.00000
G1 X76.424 Y124.261 0.00000
G1 X71.833 Y130.554 0.00000
G3 X65.434 Y140.284 I-237.036 J-148.919
G1 X61.141 Y145.701 0.00000
G1 X58.514 Y148.756 0.00000
G1 X55.436 Y151.976 0.00000
G1 X52.587 Y154.381 0.00000
G1 X49.772 Y156.211 0.00000
G1 X47.569 Y157.338 0.00000
G1 X46.902 Y156.274 0.00000
G1 X47.604 Y155.530 0.00000
G1 X50.169 Y152.510 0.00000
G1 X52.136 Y149.384 0.00000
G1 X53.476 Y146.257 0.00000
G1 X54.260 Y143.092 0.00000
G1 X54.528 Y139.840 0.00000
G1 X54.284 Y136.435 0.00000
G2 X53.429 Y133.147 I-12.045 J1.377
G2 X52.151 Y130.812 I-37.589 J19.056
G1 X50.771 Y132.443 0.00000
G1 X50.539 Y128.111 0.00000
G1 X50.194 Y128.507 0.00000
G1 X48.870 Y127.986 0.00000
G1 X49.828 Y124.370 0.00000
G1 X49.112 Y124.944 0.00000
G1 X47.913 Y124.385 0.00000
G1 X49.188 Y121.561 0.00000
G1 X48.107 Y122.485 0.00000
G1 X48.120 Y120.465 0.00000
G2 X49.376 Y117.677 I-31.810 J-16.007
G1 X49.061 Y116.322 0.00000
G1 X51.370 Y112.695 0.00000
G1 X53.676 Y109.950 0.00000
G1 X56.239 Y107.614 0.00000
G1 X59.362 Y105.504 0.00000
G1 X60.424 Y104.932 0.00000
G1 X64.987 Y102.901 0.00000
G1 X69.759 Y101.247 0.00000
G1 X77.126 Y99.222 0.00000
G1 X78.879 Y98.782 0.00000
G1 X82.604 Y97.589 0.00000
G1 X85.575 Y96.169 0.00000
G1 X88.405 Y94.253 0.00000
G1 X90.788 Y92.000 0.00000
G1 X92.778 Y89.391 0.00000
G1 X95.690 Y84.073 0.00000
G1 X91.520 Y83.482 F900.000
G1 F900
G1 X91.500 Y84.475 0.00000
G3 X89.714 Y84.874 I-2.118 J-5.284
G3 X87.010 Y84.359 I-0.205 J-6.278
G1 X85.861 Y83.757 0.00000
G1 X84.754 Y82.936 0.00000
G1 X83.663 Y81.830 0.00000
G1 X82.701 Y80.476 0.00000
G1 X82.381 Y79.896 0.00000
G1 X81.717 Y78.285 0.00000
G1 X81.328 Y76.601 0.00000
G1 X81.215 Y74.860 0.00000
G1 X81.386 Y73.100 0.00000
G1 X81.847 Y71.380 0.00000
G1 X82.586 Y69.762 0.00000
G1 X83.574 Y68.314 0.00000
G1 X84.765 Y67.087 0.00000
G1 X85.839 Y66.276 0.00000
G1 X86.957 Y65.665 0.00000
G1 X88.234 Y65.201 0.00000
G1 X89.622 Y64.935 0.00000
G1 X90.797 Y64.912 0.00000
G3 X93.065 Y65.704 I-0.196 J4.205
G1 X94.470 Y67.039 0.00000
G1 X90.452 Y67.243 0.00000
G1 X88.856 Y67.591 0.00000
G1 X87.625 Y68.069 0.00000
G1 X86.575 Y68.688 0.00000
G2 X84.512 Y71.103 I3.779 J5.316
G2 X83.937 Y72.647 I7.131 J3.535
G1 X83.567 Y74.772 0.00000
G1 X83.556 Y76.163 0.00000
G2 X85.935 Y80.843 I6.642 J-0.432
G1 X86.996 Y81.619 0.00000
G1 X88.803 Y82.552 0.00000
G1 X91.438 Y83.453 0.00000
G1 X90.957 Y85.623 F900.000
G1 F900
G1 X89.617 Y88.067 0.00000
G1 X88.024 Y90.106 0.00000
G1 X85.576 Y92.379 0.00000
G1 X82.591 Y94.409 0.00000
G1 X79.391 Y95.945 0.00000
G1 X76.782 Y96.735 0.00000
G1 X74.823 Y97.018 0.00000
G1 X71.494 Y96.966 0.00000
G1 X72.721 Y95.964 0.00000
G1 X67.837 Y96.233 0.00000
G1 X67.773 Y94.805 0.00000
G1 X69.302 Y94.162 0.00000
G1 X66.166 Y93.845 0.00000
G1 X66.063 Y92.571 0.00000
G1 X66.839 Y92.207 0.00000
G3 X64.082 Y90.236 I0.758 J-3.974
G3 X63.997 Y87.004 I3.753 J-1.716
G1 X64.580 Y85.712 0.00000
G3 X65.958 Y83.988 I5.319 J2.839
G3 X70.473 Y80.786 I36.579 J46.794
G1 X68.889 Y81.179 0.00000
G1 X65.886 Y81.653 0.00000
G1 X63.588 Y81.695 0.00000
G1 X61.633 Y81.429 0.00000
G1 X59.838 Y80.890 0.00000
G1 X58.571 Y80.372 0.00000
G1 X58.958 Y79.968 0.00000
G1 X56.391 Y79.365 0.00000
G1 X56.504 Y78.132 0.00000
G1 X57.064 Y77.993 0.00000
G1 X54.356 Y77.139 0.00000
G1 X54.831 Y75.940 0.00000
G1 X56.229 Y75.842 0.00000
G3 X55.287 Y70.800 I3.617 J-3.285
G3 X56.711 Y68.624 I5.347 J1.946
G3 X59.745 Y66.109 I14.581 J14.503
G1 X63.799 Y63.836 0.00000
G1 X68.001 Y62.103 0.00000
G1 X72.264 Y60.939 0.00000
G1 X76.308 Y60.346 0.00000
G1 X77.208 Y60.277 0.00000
G3 X84.672 Y60.256 I4.069 J119.610
G1 X85.273 Y61.563 0.00000
G1 X82.688 Y62.918 0.00000
G1 X81.475 Y63.816 0.00000
G1 X80.528 Y64.777 0.00000
G1 X80.473 Y64.854 0.00000
G1 X82.427 Y63.789 0.00000
G1 X84.045 Y63.151 0.00000
G3 X86.257 Y62.822 I2.122 J6.669
G1 X87.671 Y62.965 0.00000
G1 X90.442 Y63.541 0.00000
G1 X85.962 Y66.007 0.00000
G1 X84.110 Y67.442 0.00000
G1 X82.849 Y68.780 0.00000
G1 X81.902 Y70.184 0.00000
G1 X81.303 Y71.491 0.00000
G1 X80.901 Y72.961 0.00000
G1 X80.738 Y74.517 0.00000
G1 X80.838 Y76.336 0.00000
G1 X81.243 Y78.222 0.00000
G1 X81.856 Y79.784 0.00000
G1 X82.774 Y81.325 0.00000
G1 X83.631 Y82.383 0.00000
G1 X84.890 Y83.553 0.00000
G1 X86.088 Y84.348 0.00000
G1 X87.468 Y84.968 0.00000
G1 X88.956 Y85.362 0.00000
G1 X90.871 Y85.612 0.00000
G1 X90.602 Y85.192 F900.000
G1 X91.557 Y85.094 F900.000
G1 X92.836 Y85.663 F900.000
G1 X93.991 Y84.609 F900.000
G1 X94.528 Y83.316 F900.000
G1 X94.493 Y82.770 F900.000
G1 X98.358 Y77.967 F900.000
G1 X98.727 Y75.809 F900.000
G1 X98.617 Y73.521 F900.000
G1 X97.910 Y73.085 F900.000
G1 X99.687 Y69.011 F900.000
G1 F900
G1 X98.268 Y68.099 0.00000
G1 X97.020 Y66.966 0.00000
G1 X95.976 Y65.640 0.00000
G1 X95.158 Y64.148 0.00000
G1 X94.785 Y63.188 0.00000
G1 X94.366 Y61.491 0.00000
G1 X94.242 Y59.795 0.00000
G1 X94.402 Y58.206 0.00000
G1 X94.788 Y56.818 0.00000
G1 X95.395 Y55.534 0.00000
G1 X96.182 Y54.419 0.00000
G3 X98.099 Y52.649 I11.172 J10.176
G1 X98.272 Y54.587 0.00000
G1 X98.276 Y55.090 0.00000
G1 X97.824 Y57.180 0.00000
G2 X97.981 Y59.614 I5.535 J0.865
G2 X99.451 Y61.517 I3.599 J-1.261
G1 X100.399 Y62.080 0.00000
G1 X102.108 Y62.751 0.00000
G2 X107.612 Y63.918 I14.712 J-55.826
G2 X107.968 Y65.999 I19.715 J-2.302
G1 X108.099 Y66.353 0.00000
G1 X109.199 Y68.252 0.00000
G1 X110.111 Y69.358 0.00000
G1 X111.022 Y70.167 0.00000
G1 X111.558 Y70.533 0.00000
G1 X112.610 Y71.061 0.00000
G1 X113.715 Y71.395 0.00000
G2 X115.784 Y71.560 I1.686 J-8.081
G1 X118.367 Y71.241 0.00000
G2 X124.227 Y69.988 I-16.736 J-92.601
G1 X124.741 Y70.840 0.00000
G1 X123.183 Y72.596 0.00000
G1 X121.648 Y73.833 0.00000
G1 X119.999 Y74.760 0.00000
G1 X118.258 Y75.389 0.00000
G1 X116.453 Y75.722 0.00000
G1 X114.633 Y75.754 0.00000
G1 X112.837 Y75.484 0.00000
G1 X111.129 Y74.922 0.00000
G1 X109.555 Y74.088 0.00000
G1 X108.150 Y73.006 0.00000
G1 X106.950 Y71.706 0.00000
G1 X106.197 Y70.706 0.00000
G2 X105.060 Y70.242 I-1.060 J0.971
G1 X103.035 Y70.116 0.00000
G1 X101.283 Y69.694 0.00000
G1 X99.767 Y69.045 0.00000
G1 X97.349 Y72.707 F900.000
G1 X95.114 Y71.437 F900.000
G1 X95.351 Y68.759 F900.000
G1 X94.927 Y66.178 F900.000
G1 X94.576 Y65.417 F900.000
G1 X91.789 Y62.394 F900.000
G1 X90.863 Y60.219 F900.000
G1 X89.877 Y60.413 F900.000
G1 X87.607 Y60.372 F900.000
G1 X86.157 Y59.307 F900.000
G1 X84.908 Y58.826 F900.000
G1 X83.449 Y58.732 F900.000
G1 X82.368 Y57.590 F900.000
G1 X76.518 Y56.510 F900.000
G1 X76.472 Y56.681 F900.000
G1 F900
G1 X76.045 Y56.612 0.00000
G1 X71.760 Y55.474 0.00000
G1 X68.188 Y54.072 0.00000
G1 X65.183 Y52.406 0.00000
G1 X62.614 Y50.432 0.00000
G1 X61.377 Y49.212 0.00000
G1 X59.335 Y46.610 0.00000
G1 X59.169 Y46.315 0.00000
G1 X59.438 Y46.113 0.00000
G2 X64.232 Y50.905 I116.477 J-111.732
G1 X65.655 Y51.935 0.00000
G1 X68.349 Y53.397 0.00000
G1 X72.217 Y55.022 0.00000
G1 X76.553 Y56.330 0.00000
G1 X76.492 Y56.596 0.00000
G1 X71.853 Y55.191 F900.000
G1 X68.189 Y53.690 F900.000
G1 X65.364 Y52.130 F900.000
G1 X64.011 Y51.118 F900.000
G1 X61.682 Y48.940 F900.000
G1 X58.549 Y45.230 F900.000
G1 X58.891 Y44.543 F900.000
G1 X57.886 Y43.111 F900.000
G1 X57.764 Y42.622 F900.000
G1 X57.828 Y41.374 F900.000
G1 X57.086 Y40.059 F900.000
G1 X56.953 Y39.080 F900.000
G1 X57.129 Y38.043 F900.000
G1 X56.336 Y36.181 F900.000
G1 X56.433 Y34.448 F900.000
G1 X56.670 Y33.896 F900.000
G1 X56.060 Y31.555 F900.000
G1 X54.885 Y30.224 F900.000
G1 X54.292 Y30.323 F900.000
G1 X53.436 Y31.273 F900.000
G1 X52.702 Y30.227 F900.000
G1 X52.391 Y30.135 F900.000
G1 X51.593 Y32.986 F900.000
G1 X51.318 Y36.461 F900.000
G1 X52.442 Y45.176 F900.000
G1 X53.165 Y46.220 F900.000
G1 F900
G1 X52.019 Y45.422 0.00000
G1 X52.059 Y43.242 0.00000
G1 X52.408 Y43.215 0.00000
G1 X52.534 Y43.939 0.00000
G1 X53.142 Y46.136 0.00000
G1 X52.442 Y45.176 F900.000
G1 X51.956 Y45.403 F900.000
G1 X51.165 Y44.721 F900.000
G1 X48.525 Y42.243 F900.000
G1 X46.662 Y40.160 F900.000
G1 X46.269 Y40.613 F900.000
G1 X46.201 Y41.877 F900.000
G1 X44.889 Y41.536 F900.000
G1 X46.395 Y46.637 F900.000
G1 X47.458 Y49.498 F900.000
G1 X48.073 Y50.032 F900.000
G1 X48.244 Y49.900 F900.000
G1 F900
G1 X48.416 Y50.164 0.00000
G1 X48.238 Y50.382 0.00000
G1 X47.105 Y49.928 0.00000
G1 X46.475 Y47.346 0.00000
G1 X46.791 Y47.225 0.00000
G1 X48.203 Y49.824 0.00000
G1 X48.576 Y49.702 F900.000
G1 F900
G1 X49.408 Y50.976 0.00000
G1 X49.229 Y51.195 0.00000
G1 X45.838 Y49.836 0.00000
G1 X44.356 Y49.026 0.00000
G1 X44.498 Y48.703 0.00000
G1 X46.581 Y49.410 0.00000
G1 X45.094 Y43.309 0.00000
G1 X44.914 Y42.404 0.00000
G1 X45.272 Y42.316 0.00000
G1 X45.576 Y43.352 0.00000
G1 X46.830 Y46.490 0.00000
G1 X48.534 Y49.626 0.00000
G1 X45.290 Y40.340 F900.000
G1 F900
G3 X45.030 Y37.569 I8.189 J-2.166
G1 X45.340 Y37.538 0.00000
G2 X46.243 Y39.747 I7.368 J-1.723
G1 X45.364 Y40.294 0.00000
G1 X45.021 Y40.962 F900.000
G1 F900
G3 X44.609 Y37.867 I12.048 J-3.179
G3 X44.980 Y35.822 I6.843 J0.185
G1 X45.291 Y35.839 0.00000
G1 X45.378 Y36.395 0.00000
G1 X46.072 Y38.556 0.00000
G1 X46.803 Y39.999 0.00000
G1 X46.546 Y40.193 0.00000
G1 X46.429 Y40.085 0.00000
G1 X45.095 Y40.916 0.00000
G1 X44.751 Y41.584 F900.000
G1 F900
G1 X44.343 Y39.529 0.00000
G3 X45.169 Y34.345 I7.885 J-1.401
G1 X45.454 Y34.383 0.00000
G1 X45.754 Y36.306 0.00000
G1 X46.430 Y38.409 0.00000
G1 X47.379 Y40.284 0.00000
G1 X48.711 Y42.108 0.00000
G1 X49.565 Y42.975 0.00000
G1 X49.313 Y43.245 0.00000
G1 X46.384 Y40.567 0.00000
G1 X44.825 Y41.538 0.00000
G1 X45.462 Y41.595 F900.000
G1 F900
G1 X46.339 Y41.049 0.00000
G2 X50.882 Y45.099 I61.785 J-64.733
G2 X53.807 Y47.093 I28.010 J-37.945
G1 X52.911 Y43.854 0.00000
G1 X52.233 Y39.974 0.00000
G1 X52.043 Y36.463 0.00000
G1 X52.313 Y33.182 0.00000
G1 X52.844 Y30.631 0.00000
G1 X53.972 Y30.654 0.00000
G1 X54.954 Y36.561 0.00000
G1 X56.063 Y40.627 0.00000
G1 X57.415 Y43.994 0.00000
G1 X59.013 Y46.825 0.00000
G1 X61.089 Y49.469 0.00000
G1 X62.360 Y50.723 0.00000
G1 X64.971 Y52.729 0.00000
G1 X68.024 Y54.422 0.00000
G1 X71.640 Y55.841 0.00000
G1 X75.965 Y56.990 0.00000
G1 X81.961 Y57.952 0.00000
G1 X81.912 Y59.151 0.00000
G1 X74.775 Y59.807 0.00000
G1 X70.289 Y60.388 0.00000
G1 X69.503 Y60.537 0.00000
G1 X64.969 Y61.716 0.00000
G1 X61.212 Y63.161 0.00000
G1 X57.499 Y65.140 0.00000
G1 X54.225 Y67.495 0.00000
G1 X51.334 Y70.233 0.00000
G1 X49.334 Y72.631 0.00000
G1 X47.408 Y75.612 0.00000
G1 X45.931 Y78.809 0.00000
G1 X44.910 Y82.202 0.00000
G1 X44.395 Y85.669 0.00000
G1 X44.407 Y89.004 0.00000
G1 X44.934 Y92.212 0.00000
G1 X45.816 Y94.834 0.00000
G1 X47.005 Y97.110 0.00000
G1 X48.664 Y99.304 0.00000
G1 X50.486 Y101.026 0.00000
G1 X51.320 Y101.679 0.00000
G2 X49.514 Y104.868 I18.456 J12.558
G3 X47.301 Y106.129 I-2.283 J-1.434
G1 X46.989 Y106.147 0.00000
G1 X42.411 Y106.047 0.00000
G1 X38.025 Y105.433 0.00000
G1 X33.800 Y104.323 0.00000
G1 X29.700 Y102.717 0.00000
G1 X25.690 Y100.602 0.00000
G1 X21.739 Y97.951 0.00000
G1 X18.076 Y94.955 0.00000
G3 X17.334 Y92.704 I2.045 J-1.922
G1 X18.762 Y85.174 0.00000
G1 X20.678 Y77.870 0.00000
G1 X23.106 Y70.645 0.00000
G1 X26.052 Y63.491 0.00000
G1 X28.196 Y58.981 0.00000
G1 X31.972 Y51.969 0.00000
G1 X37.351 Y42.545 0.00000
G1 X39.491 Y45.601 0.00000
G1 X41.237 Y47.376 0.00000
G1 X43.213 Y48.842 0.00000
G1 X45.673 Y50.185 0.00000
G1 X49.585 Y51.753 0.00000
G1 X50.602 Y52.098 0.00000
G1 X48.907 Y49.504 0.00000
G1 X47.180 Y46.326 0.00000
G1 X45.941 Y43.226 0.00000
G1 X45.486 Y41.679 0.00000
G1 X44.889 Y41.536 F900.000
G1 X46.395 Y46.637 F900.000
G1 X47.413 Y49.362 F900.000
G1 X46.559 Y49.552 F900.000
G1 X46.453 Y49.797 F900.000
G1 X43.186 Y48.216 F900.000
G1 X41.582 Y46.979 F900.000
G1 X39.974 Y45.184 F900.000
G1 X38.141 Y41.932 F900.000
G1 X38.485 Y42.246 F900.000
G1 F900
G1 X38.188 Y42.396 0.00000
G1 X37.831 Y41.886 0.00000
G1 X38.197 Y41.378 0.00000
G1 X38.458 Y42.164 0.00000
G1 X39.191 Y43.148 F900.000
G1 F900
G1 X40.173 Y45.034 0.00000
G1 X40.781 Y45.851 0.00000
G1 X40.508 Y46.085 0.00000
G1 X39.788 Y45.353 0.00000
G1 X37.358 Y41.883 0.00000
G1 X38.325 Y40.540 0.00000
G1 X39.164 Y43.065 0.00000
G1 X38.846 Y43.329 F900.000
G1 X39.950 Y45.148 F900.000
G1 X41.582 Y46.979 F900.000
G1 X43.186 Y48.216 F900.000
G1 X46.453 Y49.797 F900.000
G1 X46.559 Y49.552 F900.000
G1 X47.413 Y49.362 F900.000
G1 X46.395 Y46.637 F900.000
G1 X44.889 Y41.536 F900.000
G1 X46.201 Y41.877 F900.000
G1 X46.269 Y40.613 F900.000
G1 X46.662 Y40.160 F900.000
G1 X48.525 Y42.243 F900.000
G1 X51.165 Y44.721 F900.000
G1 X51.956 Y45.403 F900.000
G1 X52.442 Y45.176 F900.000
G1 X51.318 Y36.403 F900.000
G1 X51.593 Y32.986 F900.000
G1 X52.391 Y30.135 F900.000
G1 X52.702 Y30.227 F900.000
G1 X53.436 Y31.273 F900.000
G1 X54.292 Y30.323 F900.000
G1 X54.885 Y30.224 F900.000
G1 X56.060 Y31.555 F900.000
G1 X56.670 Y33.896 F900.000
G1 X56.433 Y34.448 F900.000
G1 X56.336 Y36.181 F900.000
G1 X57.129 Y38.043 F900.000
G1 X57.498 Y38.449 F900.000
G1 F900
G1 X59.801 Y39.162 0.00000
G1 X57.737 Y35.745 0.00000
G1 X58.815 Y35.014 0.00000
G1 X59.468 Y35.364 0.00000
G1 X58.031 Y31.406 0.00000
G1 X59.320 Y30.956 0.00000
G1 X59.922 Y31.491 0.00000
G1 X59.692 Y28.457 0.00000
G1 X59.825 Y26.388 0.00000
G1 X60.185 Y24.723 0.00000
G1 X60.738 Y23.290 0.00000
G1 X61.482 Y22.009 0.00000
G1 X61.615 Y21.821 0.00000
G1 X63.777 Y19.255 0.00000
G1 X66.281 Y17.024 0.00000
G1 X69.292 Y14.929 0.00000
G1 X74.105 Y12.225 0.00000
G1 X74.074 Y19.351 0.00000
G1 X74.498 Y24.283 0.00000
G1 X75.315 Y28.722 0.00000
G1 X76.502 Y32.746 0.00000
G1 X77.948 Y36.211 0.00000
G1 X80.023 Y39.887 0.00000
G1 X82.516 Y43.218 0.00000
G1 X85.448 Y46.248 0.00000
G1 X88.866 Y49.019 0.00000
G1 X91.437 Y50.752 0.00000
G1 X88.348 Y57.827 0.00000
G1 X81.561 Y56.959 0.00000
G1 X76.649 Y55.956 0.00000
G1 X72.348 Y54.659 0.00000
G1 X68.516 Y53.049 0.00000
G1 X65.861 Y51.608 0.00000
G1 X64.481 Y50.610 0.00000
G3 X59.392 Y45.515 I120.862 J-125.809
G1 X61.049 Y45.355 0.00000
G1 X58.620 Y42.773 0.00000
G1 X59.094 Y41.907 0.00000
G1 X60.086 Y42.093 0.00000
G1 X58.686 Y40.350 0.00000
G1 X57.544 Y38.523 0.00000
G1 X57.129 Y38.043 F900.000
G1 X56.953 Y39.080 F900.000
G1 X57.086 Y40.059 F900.000
G1 X57.828 Y41.374 F900.000
G1 X57.764 Y42.622 F900.000
G1 X57.886 Y43.111 F900.000
G1 X58.891 Y44.543 F900.000
G1 X58.549 Y45.230 F900.000
G1 X61.682 Y48.940 F900.000
G1 X64.011 Y51.118 F900.000
G1 X65.364 Y52.130 F900.000
G1 X68.335 Y53.762 F900.000
G1 X72.109 Y55.278 F900.000
G1 X76.500 Y56.506 F900.000
G1 X82.368 Y57.590 F900.000
G1 X83.449 Y58.732 F900.000
G1 X84.908 Y58.826 F900.000
G1 X86.157 Y59.307 F900.000
G1 X87.607 Y60.372 F900.000
G1 X89.877 Y60.413 F900.000
G1 X90.863 Y60.219 F900.000
G1 X91.789 Y62.394 F900.000
G1 X94.576 Y65.417 F900.000
G1 X94.927 Y66.178 F900.000
G1 X95.351 Y68.759 F900.000
G1 X95.114 Y71.437 F900.000
G1 X98.617 Y73.521 F900.000
G1 X102.767 Y72.587 F900.000
G1 X104.685 Y72.770 F900.000
G1 X106.383 Y74.317 F900.000
G1 X107.321 Y74.476 F900.000
G1 X110.122 Y76.087 F900.000
G1 X111.417 Y76.226 F900.000
G1 X112.330 Y76.685 F900.000
G1 X113.668 Y76.564 F900.000
G1 X114.514 Y76.883 F900.000
G1 X115.330 Y76.864 F900.000
G1 X116.509 Y77.174 F900.000
G1 X115.992 Y76.887 F900.000
G1 F900
G1 X116.569 Y76.877 0.00000
G1 X117.768 Y76.656 0.00000
G1 X117.421 Y78.052 0.00000
G1 X115.918 Y77.169 0.00000
G1 X115.970 Y76.971 0.00000
G1 X116.530 Y76.492 F900.000
G1 F900
G1 X118.330 Y76.160 0.00000
G1 X118.171 Y76.633 0.00000
G1 X117.110 Y80.903 0.00000
G1 X115.652 Y84.774 0.00000
G1 X113.700 Y88.619 0.00000
G1 X111.953 Y91.416 0.00000
G1 X109.509 Y94.598 0.00000
G1 X106.730 Y97.508 0.00000
G1 X102.619 Y101.094 0.00000
G1 X98.885 Y103.996 0.00000
G1 X92.890 Y108.866 0.00000
G1 X87.275 Y114.110 0.00000
G1 X82.072 Y119.698 0.00000
G1 X77.258 Y125.645 0.00000
G1 X72.828 Y131.958 0.00000
G1 X71.086 Y134.712 0.00000
G1 X67.823 Y139.556 0.00000
G1 X63.358 Y145.272 0.00000
G1 X62.507 Y146.300 0.00000
G1 X59.196 Y149.871 0.00000
G1 X58.162 Y150.772 0.00000
G1 X57.908 Y150.506 0.00000
G1 X59.085 Y149.274 0.00000
G1 X61.735 Y146.192 0.00000
G1 X66.057 Y140.740 0.00000
G2 X72.469 Y130.990 I-231.606 J-159.297
G1 X77.032 Y124.736 0.00000
G1 X81.957 Y118.854 0.00000
G1 X87.265 Y113.322 0.00000
G1 X92.976 Y108.123 0.00000
G1 X102.959 Y100.186 0.00000
G1 X106.493 Y96.870 0.00000
G1 X109.489 Y93.457 0.00000
G1 X112.001 Y89.892 0.00000
G1 X114.108 Y86.019 0.00000
G2 X117.293 Y78.424 I-177.677 J-78.975
G1 X114.875 Y77.003 0.00000
G1 X114.554 Y77.348 0.00000
G1 X113.531 Y76.673 0.00000
G1 X113.642 Y76.385 0.00000
G1 X114.582 Y76.526 0.00000
G1 X116.443 Y76.494 0.00000
G1 X113.552 Y76.371 F900.000
G1 F900
G1 X112.524 Y77.208 0.00000
G1 X112.653 Y76.236 0.00000
G1 X113.466 Y76.358 0.00000
G1 X113.668 Y76.564 F900.000
G1 X112.330 Y76.685 F900.000
G1 X111.417 Y76.226 F900.000
G1 X110.122 Y76.087 F900.000
G1 X107.321 Y74.476 F900.000
G1 X106.383 Y74.317 F900.000
G1 X104.685 Y72.770 F900.000
G1 X102.767 Y72.587 F900.000
G1 X98.617 Y73.521 F900.000
G1 X95.114 Y71.437 F900.000
G1 X95.351 Y68.759 F900.000
G1 X94.927 Y66.178 F900.000
G1 X94.576 Y65.417 F900.000
G1 X91.789 Y62.394 F900.000
G1 X90.863 Y60.219 F900.000
G1 X92.137 Y56.048 F900.000
G1 X92.920 Y54.284 F900.000
G1 X93.815 Y52.759 F900.000
G1 X96.805 Y50.660 F900.000
G3 X97.658 Y50.414 I0.957 J1.716
G1 X99.866 Y51.774 F900.000
G1 X100.556 Y52.743 F900.000
G1 X102.022 Y54.295 F900.000
G1 X101.608 Y55.742 F900.000
G1 X101.357 Y57.667 F900.000
G1 X101.400 Y58.455 F900.000
G1 X101.821 Y59.175 F900.000
G1 X102.891 Y60.125 F900.000
G1 X104.525 Y60.663 F900.000
G1 X108.431 Y61.131 F900.000
G1 X111.065 Y62.037 F900.000
G1 X110.843 Y64.538 F900.000
G1 X111.087 Y66.003 F900.000
G1 X111.347 Y66.760 F900.000
G1 X112.065 Y67.962 F900.000
G1 X112.752 Y68.709 F900.000
G2 X114.221 Y69.558 I4.636 J-6.326
G1 X115.773 Y70.011 F900.000
G1 X117.794 Y70.167 F900.000
G1 X124.362 Y69.094 F900.000
G1 X125.334 Y69.241 F900.000
G1 X125.167 Y70.858 F900.000
G1 X125.217 Y70.136 F900.000
G1 F900
G1 X124.471 Y68.898 0.00000
G1 X126.567 Y68.355 0.00000
G1 X126.700 Y68.651 0.00000
G2 X125.982 Y69.198 I1.755 J3.048
G1 X125.272 Y70.069 0.00000
G1 X125.167 Y70.858 F900.000
G1 X125.334 Y69.241 F900.000
G1 X124.362 Y69.094 F900.000
G1 X117.794 Y70.167 F900.000
G1 X115.773 Y70.011 F900.000
G1 X114.221 Y69.558 F900.000
G3 X112.752 Y68.709 I3.167 J-7.175
G1 X111.821 Y67.612 F900.000
G1 X111.347 Y66.760 F900.000
G1 X110.913 Y65.313 F900.000
G1 X110.843 Y64.538 F900.000
G1 X111.065 Y62.037 F900.000
G1 X112.017 Y61.568 F900.000
G1 F900
G1 X111.614 Y61.966 0.00000
G1 X110.959 Y62.858 0.00000
G1 X110.763 Y61.612 0.00000
G3 X112.582 Y61.552 I5.922 J151.918
G1 F900
G2 X110.977 Y63.744 I3.577 J4.303
G1 X110.701 Y63.700 0.00000
G1 X110.314 Y61.242 0.00000
G1 X112.662 Y61.159 0.00000
G1 X112.754 Y61.430 0.00000
G1 X112.653 Y61.502 0.00000
G1 X112.831 Y61.849 F900.000
G1 F900
G2 X111.363 Y63.834 I3.230 J3.924
G1 X111.139 Y64.793 0.00000
G1 X111.104 Y65.601 0.00000
G1 X110.823 Y65.670 0.00000
G1 X110.562 Y65.219 0.00000
G1 X110.511 Y64.976 0.00000
G1 X109.983 Y61.618 0.00000
G1 X108.165 Y61.275 0.00000
G1 X108.191 Y60.932 0.00000
G1 X114.067 Y60.724 0.00000
G1 X114.143 Y61.024 0.00000
G2 X112.902 Y61.798 I1.839 J4.330
G1 X120.833 Y60.703 F900.000
G1 F900
G1 X120.833 Y60.362 0.00000
G1 X121.785 Y60.246 0.00000
G1 X127.464 Y59.058 0.00000
G1 X127.554 Y59.417 0.00000
G1 X122.659 Y60.867 0.00000
G3 X120.919 Y60.713 I-0.137 J-8.360
G1 X119.826 Y60.968 F900.000
G1 F900
G1 X117.897 Y60.666 0.00000
G1 X117.903 Y60.331 0.00000
G1 X121.722 Y59.865 0.00000
G1 X128.655 Y58.415 0.00000
G1 X134.162 Y56.809 0.00000
G1 X134.291 Y57.134 0.00000
G1 X133.574 Y57.501 0.00000
G1 X128.280 Y59.604 0.00000
G1 X122.731 Y61.248 0.00000
G3 X122.058 Y61.242 I-0.313 J-2.586
G1 X119.913 Y60.978 0.00000
G1 X119.773 Y61.350 F900.000
G1 F900
G1 X117.729 Y61.030 0.00000
G1 X115.966 Y60.928 0.00000
G2 X111.728 Y63.968 I0.454 J5.107
G2 X111.796 Y67.290 I4.959 J1.560
G1 X111.521 Y67.431 0.00000
G1 X111.106 Y66.928 0.00000
G1 X110.198 Y65.359 0.00000
G1 X110.131 Y65.046 0.00000
G1 X109.644 Y61.946 0.00000
G1 X105.126 Y61.095 0.00000
G1 X103.685 Y60.750 0.00000
G1 X103.730 Y60.405 0.00000
G1 X108.280 Y60.543 0.00000
G1 X114.907 Y60.308 0.00000
G1 X121.659 Y59.485 0.00000
G1 X128.561 Y58.041 0.00000
G1 X134.927 Y56.184 0.00000
G1 X139.128 Y54.621 0.00000
G1 X139.282 Y54.931 0.00000
G1 X138.623 Y55.350 0.00000
G1 X133.733 Y57.853 0.00000
G1 X128.407 Y59.968 0.00000
G1 X122.803 Y61.628 0.00000
G3 X122.026 Y61.627 I-0.385 J-2.970
G1 X119.859 Y61.360 0.00000
G1 X101.906 Y59.387 F900.000
G1 F900
G3 X101.064 Y58.846 I1.293 J-2.938
G3 X100.853 Y58.190 I0.689 J-0.583
G1 X100.889 Y57.603 0.00000
G1 X101.387 Y55.298 0.00000
G1 X101.724 Y55.327 0.00000
G1 X101.902 Y59.300 0.00000
G1 X114.571 Y51.766 F900.000
G1 F900
G1 X114.508 Y51.400 0.00000
G1 X116.294 Y51.029 0.00000
G1 X121.469 Y50.263 0.00000
G1 X121.532 Y50.635 0.00000
G3 X114.657 Y51.754 I-14.298 J-66.166
G1 X116.226 Y50.650 F900.000
G1 F900
G1 X123.427 Y49.583 0.00000
G1 X129.013 Y49.042 0.00000
G1 X129.075 Y49.393 0.00000
G1 X125.998 Y50.187 0.00000
G1 X118.041 Y51.685 0.00000
G3 X107.073 Y53.107 I-52.827 J-364.452
G1 X107.004 Y52.758 0.00000
G1 X109.751 Y51.993 0.00000
G1 X116.141 Y50.667 0.00000
G1 X116.159 Y50.270 F900.000
G1 F900
G1 X123.380 Y49.200 0.00000
G1 X133.356 Y48.234 0.00000
G1 X133.428 Y48.570 0.00000
G1 X132.175 Y48.991 0.00000
G1 X126.082 Y50.564 0.00000
G1 X118.102 Y52.065 0.00000
G3 X101.333 Y54.187 I-78.462 J-552.724
G1 X101.279 Y53.585 0.00000
G2 X102.809 Y53.526 I0.567 J-5.171
G1 X109.660 Y51.618 0.00000
G1 X116.074 Y50.287 0.00000
G1 X116.091 Y49.890 F900.000
G1 F900
G1 X123.334 Y48.818 0.00000
G1 X133.228 Y47.859 0.00000
G1 X136.337 Y47.645 0.00000
G1 X136.403 Y47.978 0.00000
G1 X132.284 Y49.361 0.00000
G1 X126.166 Y50.940 0.00000
G1 X118.164 Y52.446 0.00000
G3 X102.072 Y54.486 I-75.931 J-534.470
G1 X102.317 Y59.933 0.00000
G3 X100.673 Y58.987 I1.023 J-3.679
G3 X100.506 Y57.550 I2.102 J-0.973
G1 X100.978 Y55.368 0.00000
G2 X100.850 Y53.115 I-14.032 J-0.333
G2 X102.735 Y53.146 I1.017 J-4.524
G1 X109.569 Y51.243 0.00000
G1 X116.006 Y49.908 0.00000
G1 X116.024 Y49.510 F900.000
G1 F900
G1 X123.287 Y48.435 0.00000
G1 X133.196 Y47.475 0.00000
G1 X139.078 Y47.059 0.00000
G1 X139.159 Y47.386 0.00000
G1 X137.887 Y47.886 0.00000
G1 X132.394 Y49.730 0.00000
G1 X126.250 Y51.317 0.00000
G1 X118.225 Y52.827 0.00000
G3 X102.474 Y54.826 I-73.909 J-519.305
G1 X102.729 Y60.509 0.00000
G1 X101.420 Y59.995 0.00000
G3 X100.364 Y59.219 I1.206 J-2.748
G3 X100.080 Y58.201 I1.283 J-0.907
G1 X100.123 Y57.497 0.00000
G1 X100.592 Y55.328 0.00000
G1 X100.585 Y54.474 0.00000
G1 X100.421 Y52.645 0.00000
G2 X102.660 Y52.767 I1.397 J-5.029
G1 X109.478 Y50.868 0.00000
G1 X115.939 Y49.528 0.00000
G1 X115.956 Y49.130 F900.000
G1 F900
G1 X123.240 Y48.052 0.00000
G1 X133.164 Y47.090 0.00000
G1 X138.766 Y46.706 0.00000
G1 X141.528 Y46.399 0.00000
G1 X141.616 Y46.714 0.00000
G3 X138.019 Y48.248 I-14.836 J-29.804
G1 X132.504 Y50.100 0.00000
G1 X126.334 Y51.694 0.00000
G1 X118.287 Y53.208 0.00000
G3 X102.875 Y55.166 I-73.030 J-513.207
G1 X103.092 Y60.000 0.00000
G1 X108.279 Y60.157 0.00000
G1 X114.876 Y59.923 0.00000
G1 X121.596 Y59.104 0.00000
G1 X128.468 Y57.667 0.00000
G1 X134.805 Y55.818 0.00000
G1 X141.863 Y53.192 0.00000
G1 X142.582 Y52.867 0.00000
G1 X142.753 Y53.183 0.00000
G1 X138.815 Y55.685 0.00000
G1 X133.893 Y58.204 0.00000
G1 X128.533 Y60.333 0.00000
G1 X122.875 Y62.009 0.00000
G3 X121.994 Y62.011 I-0.448 J-3.272
G3 X117.688 Y61.414 I6.847 J-65.211
G1 X115.983 Y61.315 0.00000
G2 X112.093 Y64.102 I0.434 J4.714
G2 X113.118 Y68.807 I4.707 J1.439
G1 X112.924 Y69.061 0.00000
G3 X111.503 Y68.016 I1.898 J-4.069
G1 X110.788 Y67.149 0.00000
G1 X109.850 Y65.529 0.00000
G1 X109.752 Y65.116 0.00000
G1 X109.305 Y62.275 0.00000
G1 X105.046 Y61.472 0.00000
G1 X102.688 Y60.907 0.00000
G1 X101.250 Y60.343 0.00000
G3 X100.055 Y59.452 I1.361 J-3.073
G3 X99.693 Y58.206 I1.605 J-1.142
G1 X99.740 Y57.444 0.00000
G1 X100.206 Y55.288 0.00000
G1 X100.199 Y54.493 0.00000
G1 X99.981 Y52.045 0.00000
G2 X102.586 Y52.387 I1.850 J-3.996
G1 X109.387 Y50.493 0.00000
G1 X115.871 Y49.148 0.00000
G1 X115.889 Y48.750 F900.000
G1 F900
G1 X123.193 Y47.669 0.00000
G1 X133.132 Y46.706 0.00000
G1 X138.731 Y46.321 0.00000
G1 X143.808 Y45.758 0.00000
G1 X143.897 Y46.073 0.00000
G1 X140.301 Y47.755 0.00000
G1 X138.151 Y48.611 0.00000
G1 X132.614 Y50.470 0.00000
G1 X126.418 Y52.070 0.00000
G1 X118.349 Y53.589 0.00000
G3 X103.276 Y55.507 I-71.561 J-502.192
G1 X103.461 Y59.626 0.00000
G1 X108.278 Y59.771 0.00000
G1 X114.846 Y59.539 0.00000
G1 X121.534 Y58.723 0.00000
G1 X128.374 Y57.292 0.00000
G1 X134.684 Y55.451 0.00000
G1 X141.716 Y52.835 0.00000
G1 X145.638 Y51.063 0.00000
G1 X145.815 Y51.352 0.00000
G3 X143.227 Y53.338 I-19.890 J-23.240
G1 X139.007 Y56.020 0.00000
G1 X134.052 Y58.556 0.00000
G1 X128.659 Y60.698 0.00000
G1 X122.922 Y62.392 0.00000
G3 X121.962 Y62.396 I-0.495 J-3.636
G3 X117.647 Y61.798 I6.888 J-65.568
G1 X116.000 Y61.702 0.00000
G2 X112.458 Y64.236 I0.415 J4.323
G2 X113.599 Y68.763 I4.369 J1.306
G1 X114.651 Y69.454 0.00000
G1 X115.151 Y69.704 0.00000
G1 X115.056 Y70.015 0.00000
G3 X111.224 Y68.284 I0.215 J-5.584
G1 X110.470 Y67.369 0.00000
G1 X109.500 Y65.693 0.00000
G3 X109.373 Y65.186 I1.651 J-0.683
G1 X108.967 Y62.603 0.00000
G1 X104.965 Y61.849 0.00000
G1 X102.572 Y61.276 0.00000
G1 X101.079 Y60.690 0.00000
G3 X99.746 Y59.684 I1.525 J-3.407
G3 X99.306 Y58.212 I1.903 J-1.371
G1 X99.356 Y57.392 0.00000
G1 X99.820 Y55.249 0.00000
G1 X99.814 Y54.512 0.00000
G1 X99.525 Y51.278 0.00000
G1 X100.258 Y51.733 0.00000
G2 X102.512 Y52.008 I1.578 J-3.558
G1 X109.296 Y50.118 0.00000
G1 X115.804 Y48.768 0.00000
G1 X115.821 Y48.370 F900.000
G1 F900
G1 X123.146 Y47.286 0.00000
G1 X133.101 Y46.322 0.00000
G1 X138.697 Y45.937 0.00000
G1 X143.863 Y45.364 0.00000
G1 X146.170 Y44.985 0.00000
G1 X146.278 Y45.287 0.00000
G1 X145.397 Y45.796 0.00000
G1 X140.456 Y48.108 0.00000
G1 X138.283 Y48.973 0.00000
G1 X132.723 Y50.840 0.00000
G1 X126.502 Y52.447 0.00000
G1 X118.410 Y53.969 0.00000
G3 X103.678 Y55.847 I-70.087 J-491.076
G1 X103.830 Y59.251 0.00000
G1 X108.277 Y59.385 0.00000
G1 X114.816 Y59.154 0.00000
G1 X121.471 Y58.342 0.00000
G1 X128.281 Y56.918 0.00000
G1 X134.562 Y55.085 0.00000
G1 X141.569 Y52.479 0.00000
G1 X148.235 Y49.467 0.00000
G1 X148.412 Y49.756 0.00000
G1 X144.634 Y52.798 0.00000
G1 X143.443 Y53.657 0.00000
G1 X139.198 Y56.355 0.00000
G1 X134.212 Y58.908 0.00000
G1 X128.785 Y61.063 0.00000
G1 X122.978 Y62.775 0.00000
G3 X121.929 Y62.780 I-0.544 J-4.053
G3 X117.606 Y62.182 I6.847 J-65.423
G1 X116.017 Y62.090 0.00000
G2 X112.822 Y64.370 I0.395 J3.933
G2 X113.852 Y68.468 I4.001 J1.173
G2 X116.772 Y69.967 I5.923 J-7.944
G1 X116.744 Y70.276 0.00000
G3 X112.146 Y69.534 I-1.318 J-6.449
G3 X110.946 Y68.553 I3.272 J-5.227
G1 X110.152 Y67.590 0.00000
G1 X109.150 Y65.858 0.00000
G3 X108.993 Y65.256 I1.930 J-0.825
G1 X108.628 Y62.932 0.00000
G1 X104.884 Y62.227 0.00000
G1 X102.456 Y61.645 0.00000
G1 X100.909 Y61.038 0.00000
G3 X99.719 Y60.236 I1.943 J-4.167
G3 X98.920 Y58.218 I1.881 J-1.912
G1 X98.973 Y57.339 0.00000
G1 X99.434 Y55.209 0.00000
G1 X99.428 Y54.531 0.00000
G1 X99.054 Y50.340 0.00000
G1 X99.904 Y51.060 0.00000
G2 X102.438 Y51.628 I1.938 J-2.711
G1 X109.205 Y49.743 0.00000
G1 X115.736 Y48.388 0.00000
G1 X115.684 Y47.596 F900.000
G1 X116.337 Y51.275 F900.000
G1 X109.846 Y52.386 F900.000
G1 X104.078 Y53.574 F900.000
G1 X102.022 Y54.295 F900.000
G1 X100.556 Y52.743 F900.000
G1 X99.866 Y51.774 F900.000
G1 X97.658 Y50.414 F900.000
G1 X97.035 Y50.526 F900.000
G1 X93.815 Y52.759 F900.000
G1 X92.920 Y54.284 F900.000
G1 X92.137 Y56.048 F900.000
G1 X90.930 Y60.004 F900.000
G1 X91.153 Y59.845 F900.000
G1 F900
G1 X91.204 Y60.548 0.00000
G1 X90.583 Y60.419 0.00000
G1 X90.856 Y59.795 0.00000
G1 X91.067 Y59.831 0.00000
G1 X91.533 Y59.758 F900.000
G1 F900
G1 X91.626 Y61.030 0.00000
G1 X90.040 Y60.700 0.00000
G1 X91.432 Y57.510 0.00000
G1 X91.751 Y57.593 0.00000
G1 X91.542 Y59.671 0.00000
G1 X93.616 Y53.374 F900.000
G1 F900
G1 X93.313 Y53.203 0.00000
G1 X93.530 Y52.705 0.00000
G1 X93.938 Y52.917 0.00000
G1 X93.666 Y53.302 0.00000
G1 X94.402 Y52.929 F900.000
G1 F900
G1 X93.389 Y54.364 0.00000
G1 X92.612 Y56.007 0.00000
G1 X92.120 Y57.777 0.00000
G1 X91.920 Y59.763 0.00000
G1 X92.048 Y61.511 0.00000
G1 X88.024 Y60.675 0.00000
G1 X87.381 Y60.610 0.00000
G1 X87.101 Y60.000 0.00000
G1 X89.775 Y60.342 0.00000
G1 X93.342 Y52.173 0.00000
G1 X93.704 Y52.361 0.00000
G1 X95.554 Y51.319 0.00000
G1 X95.754 Y51.606 0.00000
G1 X95.475 Y51.843 0.00000
G1 X94.463 Y52.867 0.00000
G1 X94.699 Y53.177 F900.000
G1 F900
G1 X93.723 Y54.559 0.00000
G1 X92.974 Y56.142 0.00000
G1 X92.500 Y57.849 0.00000
G1 X92.307 Y59.768 0.00000
G1 X92.469 Y61.993 0.00000
G1 X87.965 Y61.056 0.00000
G1 X87.123 Y60.971 0.00000
G1 X86.460 Y59.530 0.00000
G1 X89.537 Y59.923 0.00000
G1 X93.153 Y51.641 0.00000
G1 X93.696 Y51.922 0.00000
G1 X96.626 Y50.272 0.00000
G3 X97.271 Y50.100 I0.662 J1.186
G1 X97.826 Y50.351 0.00000
G1 X95.737 Y52.126 0.00000
G1 X94.760 Y53.115 0.00000
G1 X94.995 Y53.425 F900.000
G1 F900
G1 X94.057 Y54.754 0.00000
G1 X93.337 Y56.277 0.00000
G1 X92.881 Y57.920 0.00000
G1 X92.694 Y59.774 0.00000
G1 X92.837 Y61.734 0.00000
G1 X93.027 Y62.502 0.00000
G1 X87.906 Y61.438 0.00000
G1 X86.865 Y61.333 0.00000
G1 X85.818 Y59.059 0.00000
G1 X89.299 Y59.504 0.00000
G1 X92.965 Y51.109 0.00000
G1 X93.689 Y51.484 0.00000
G1 X96.464 Y49.921 0.00000
G3 X97.480 Y49.759 I0.720 J1.246
G3 X98.429 Y50.345 I-1.378 J3.292
G1 X96.000 Y52.409 0.00000
G1 X95.056 Y53.363 0.00000
G1 X95.292 Y53.674 F900.000
G1 F900
G1 X94.392 Y54.949 0.00000
G1 X93.700 Y56.413 0.00000
G1 X93.261 Y57.992 0.00000
G1 X93.081 Y59.779 0.00000
G1 X93.219 Y61.674 0.00000
G1 X93.548 Y63.005 0.00000
G1 X87.848 Y61.820 0.00000
G1 X86.607 Y61.694 0.00000
G1 X85.417 Y59.108 0.00000
G1 X83.073 Y59.080 0.00000
G1 X83.104 Y58.323 0.00000
G1 X89.062 Y59.085 0.00000
G1 X92.777 Y50.576 0.00000
G1 X93.681 Y51.046 0.00000
G1 X96.302 Y49.570 0.00000
G3 X97.617 Y49.398 I0.876 J1.586
G1 X97.994 Y49.577 0.00000
G3 X99.042 Y50.330 I-3.240 J5.614
G1 X96.262 Y52.692 0.00000
G1 X95.353 Y53.612 0.00000
G1 X93.580 Y63.134 F900.000
G1 F900
G1 X93.680 Y63.538 0.00000
G1 X94.134 Y64.706 0.00000
G1 X93.911 Y64.882 0.00000
G2 X92.073 Y63.963 I-2.842 J3.387
G1 X93.504 Y63.176 0.00000
G1 X94.048 Y63.421 F900.000
G1 F900
G1 X94.458 Y64.474 0.00000
G1 X95.330 Y66.067 0.00000
G1 X96.056 Y66.988 0.00000
G1 X95.791 Y67.229 0.00000
G1 X93.552 Y65.103 0.00000
G2 X91.362 Y64.214 I-2.644 J3.370
G1 X91.312 Y63.942 0.00000
G1 X92.641 Y63.210 0.00000
G1 X87.789 Y62.201 0.00000
G1 X86.349 Y62.056 0.00000
G1 X85.168 Y59.491 0.00000
G1 X82.671 Y59.461 0.00000
G1 X82.736 Y57.887 0.00000
G1 X88.824 Y58.665 0.00000
G1 X92.401 Y50.472 0.00000
G1 X91.653 Y49.968 0.00000
G1 X91.839 Y49.655 0.00000
G1 X93.674 Y50.607 0.00000
G1 X96.140 Y49.218 0.00000
G3 X97.506 Y48.964 I1.098 J2.104
G3 X98.187 Y49.241 I-0.509 J2.227
G3 X100.132 Y50.747 I-6.607 J10.542
G2 X102.363 Y51.248 I1.707 J-2.384
G1 X109.114 Y49.368 0.00000
G1 X115.754 Y47.991 0.00000
G1 X123.099 Y46.903 0.00000
G1 X133.069 Y45.937 0.00000
G1 X138.662 Y45.553 0.00000
G1 X143.811 Y44.982 0.00000
G1 X148.188 Y44.262 0.00000
G1 X148.296 Y44.564 0.00000
G1 X145.576 Y46.138 0.00000
G1 X140.612 Y48.461 0.00000
G1 X138.415 Y49.336 0.00000
G1 X132.833 Y51.210 0.00000
G1 X126.586 Y52.823 0.00000
G1 X118.472 Y54.350 0.00000
G3 X104.079 Y56.187 I-68.088 J-476.169
G1 X104.199 Y58.876 0.00000
G1 X108.276 Y58.999 0.00000
G1 X114.786 Y58.769 0.00000
G1 X121.408 Y57.961 0.00000
G1 X128.187 Y56.543 0.00000
G1 X134.441 Y54.719 0.00000
G1 X141.423 Y52.122 0.00000
G1 X148.568 Y48.893 0.00000
G1 X151.010 Y47.612 0.00000
G1 X151.203 Y47.896 0.00000
G1 X149.384 Y49.468 0.00000
G1 X144.868 Y53.105 0.00000
G1 X143.660 Y53.977 0.00000
G1 X139.390 Y56.690 0.00000
G1 X134.371 Y59.259 0.00000
G1 X128.911 Y61.428 0.00000
G1 X123.167 Y63.129 0.00000
G3 X121.897 Y63.165 I-0.747 J-3.945
G3 X117.565 Y62.566 I6.923 J-66.033
G1 X116.034 Y62.477 0.00000
G2 X113.187 Y64.503 I0.382 J3.549
G2 X114.104 Y68.172 I3.632 J1.041
G2 X117.208 Y69.701 I5.717 J-7.690
G2 X119.404 Y69.706 I1.112 J-6.009
G1 X122.082 Y69.318 0.00000
G1 X122.151 Y69.680 0.00000
G3 X115.738 Y70.789 I-11.966 J-50.100
G3 X111.497 Y69.558 I-0.337 J-6.761
G1 X110.667 Y68.821 0.00000
G1 X109.835 Y67.811 0.00000
G1 X108.800 Y66.023 0.00000
G3 X108.614 Y65.326 I2.248 J-0.973
G1 X108.289 Y63.260 0.00000
G1 X104.804 Y62.604 0.00000
G1 X102.340 Y62.014 0.00000
G1 X100.739 Y61.385 0.00000
G3 X99.450 Y60.514 I2.109 J-4.510
G3 X98.533 Y58.223 I2.148 J-2.189
G1 X98.590 Y57.286 0.00000
G1 X99.048 Y55.170 0.00000
G1 X99.043 Y54.550 0.00000
G1 X98.734 Y51.097 0.00000
G1 X96.525 Y52.975 0.00000
G1 X95.589 Y53.922 0.00000
G1 X94.726 Y55.144 0.00000
G1 X94.063 Y56.548 0.00000
G1 X93.641 Y58.063 0.00000
G1 X93.468 Y59.784 0.00000
G1 X93.602 Y61.613 0.00000
G1 X94.027 Y63.337 0.00000
G1 X94.441 Y63.340 F900.000
G1 X93.095 Y63.673 F900.000
G1 X91.789 Y62.394 F900.000
G1 X90.863 Y60.219 F900.000
G1 X92.137 Y56.048 F900.000
G1 X92.920 Y54.284 F900.000
G1 X93.815 Y52.759 F900.000
G1 X97.056 Y50.517 F900.000
G1 X97.658 Y50.414 F900.000
G1 X99.866 Y51.774 F900.000
G1 X100.556 Y52.743 F900.000
G1 X102.022 Y54.295 F900.000
G1 X101.426 Y56.808 F900.000
G1 X101.400 Y58.455 F900.000
G1 X101.821 Y59.175 F900.000
G1 X102.891 Y60.125 F900.000
G1 X104.525 Y60.663 F900.000
G1 X108.431 Y61.131 F900.000
G1 X111.065 Y62.037 F900.000
G1 X113.006 Y61.195 F900.000
G1 X115.035 Y60.670 F900.000
G1 X122.627 Y60.458 F900.000
G1 X128.109 Y59.086 F900.000
G1 X133.470 Y57.272 F900.000
G1 X138.496 Y55.128 F900.000
G1 X142.871 Y52.915 F900.000
G1 X148.802 Y49.314 F900.000
G1 X155.016 Y45.091 F900.000
G1 X156.474 Y44.701 F900.000
G1 F900
G1 X157.893 Y43.881 0.00000
G1 X157.579 Y44.993 0.00000
G1 X157.398 Y45.389 0.00000
G1 X156.544 Y44.753 0.00000
G1 X155.493 Y44.879 F900.000
G1 X155.016 Y45.091 F900.000
G1 X148.802 Y49.314 F900.000
G1 X142.871 Y52.915 F900.000
G1 X138.496 Y55.128 F900.000
G1 X133.470 Y57.272 F900.000
G1 X128.109 Y59.086 F900.000
G1 X122.627 Y60.458 F900.000
G1 X115.035 Y60.670 F900.000
G1 X113.006 Y61.195 F900.000
G1 X111.065 Y62.037 F900.000
G1 X108.431 Y61.131 F900.000
G1 X104.525 Y60.663 F900.000
G1 X102.891 Y60.125 F900.000
G1 X101.821 Y59.175 F900.000
G1 X101.400 Y58.455 F900.000
G1 X101.426 Y56.808 F900.000
G1 X102.022 Y54.295 F900.000
G1 X100.556 Y52.743 F900.000
G1 X99.866 Y51.774 F900.000
G1 X97.658 Y50.414 F900.000
G2 X96.805 Y50.660 I0.104 J1.962
G1 X93.815 Y52.759 F900.000
G1 X92.954 Y51.078 F900.000
G1 X92.244 Y50.107 F900.000
G1 X90.535 Y49.090 F900.000
G1 X87.441 Y46.859 F900.000
G1 X84.523 Y44.156 F900.000
G1 X81.938 Y41.013 F900.000
G1 X79.901 Y37.755 F900.000
G1 X79.942 Y37.430 F900.000
G1 F900
G1 X79.614 Y37.594 0.00000
G1 X78.642 Y35.871 0.00000
G1 X77.230 Y32.488 0.00000
G1 X76.066 Y28.543 0.00000
G1 X75.263 Y24.179 0.00000
G1 X74.845 Y19.319 0.00000
G1 X74.878 Y11.703 0.00000
G3 X75.852 Y12.238 I-1.313 J3.545
G1 X75.560 Y18.067 0.00000
G1 X75.806 Y22.890 0.00000
G1 X76.606 Y27.936 0.00000
G1 X77.790 Y32.250 0.00000
G1 X78.247 Y33.556 0.00000
G1 X79.907 Y37.351 0.00000
G1 X79.863 Y37.683 F900.000
G1 X77.515 Y32.386 F900.000
G1 X76.302 Y28.043 F900.000
G1 X75.629 Y24.130 F900.000
G1 X75.234 Y19.304 F900.000
G1 X75.365 Y12.534 F900.000
G1 X74.726 Y11.592 F900.000
G1 X74.198 Y11.444 F900.000
G1 X72.454 Y12.104 F900.000
G1 X65.785 Y16.350 F900.000
G1 X63.030 Y18.612 F900.000
G1 X60.874 Y21.269 F900.000
G1 X61.281 Y21.020 F900.000
G1 F900
G1 X60.991 Y20.806 0.00000
G1 X61.495 Y20.017 0.00000
G1 X62.885 Y18.451 0.00000
G1 X63.736 Y17.754 0.00000
G1 X63.981 Y18.041 0.00000
G1 X63.223 Y18.716 0.00000
G1 X61.337 Y20.953 0.00000
G1 X56.279 Y35.567 F900.000
G1 F900
G1 X57.240 Y37.158 0.00000
G1 X56.231 Y36.846 0.00000
G3 X55.980 Y35.678 I5.683 J-1.832
G1 X56.197 Y35.598 0.00000
G1 X56.523 Y34.239 F900.000
G1 F900
G1 X56.427 Y33.662 0.00000
G1 X56.766 Y33.573 0.00000
G1 X56.912 Y33.975 0.00000
G1 X56.595 Y34.190 0.00000
G1 X56.241 Y34.896 F900.000
G1 F900
G1 X55.603 Y31.058 0.00000
G1 X56.357 Y31.316 0.00000
G1 X57.377 Y34.125 0.00000
G1 X56.313 Y34.847 0.00000
G1 X55.960 Y35.553 F900.000
G1 F900
G1 X55.117 Y30.485 0.00000
G1 X56.656 Y31.011 0.00000
G1 X57.842 Y34.276 0.00000
G1 X56.032 Y35.504 0.00000
G1 X57.977 Y30.199 F900.000
G1 F900
G1 X57.809 Y29.966 0.00000
G2 X58.306 Y29.137 I-2.283 J-1.932
G1 X58.588 Y29.196 0.00000
G1 X58.646 Y29.966 0.00000
G1 X58.059 Y30.171 0.00000
G1 X57.648 Y29.544 F900.000
G1 F900
G2 X58.251 Y27.895 I-3.954 J-2.381
G1 X58.719 Y26.161 0.00000
G1 X59.063 Y26.218 0.00000
G1 X58.919 Y28.461 0.00000
G1 X59.053 Y30.232 0.00000
G1 X57.039 Y30.935 0.00000
G1 X58.307 Y34.426 0.00000
G1 X56.699 Y35.518 0.00000
G1 X58.093 Y37.826 0.00000
G1 X55.915 Y37.152 0.00000
G1 X55.709 Y36.396 0.00000
G1 X54.630 Y29.911 0.00000
G1 X56.793 Y30.650 0.00000
G1 X57.595 Y29.613 0.00000
G1 X54.443 Y29.506 F900.000
G1 F900
G1 X53.192 Y29.481 0.00000
G1 X53.363 Y29.102 0.00000
G1 X54.164 Y27.816 0.00000
G1 X54.443 Y27.896 0.00000
G1 X54.443 Y29.419 0.00000
G1 X54.829 Y29.900 F900.000
G1 F900
G1 X52.601 Y29.855 0.00000
G1 X53.022 Y28.920 0.00000
G1 X54.550 Y26.468 0.00000
G1 X54.829 Y26.548 0.00000
G1 X54.829 Y29.813 0.00000
G1 X56.626 Y38.509 F900.000
G1 F900
G1 X58.056 Y40.798 0.00000
G1 X58.512 Y41.365 0.00000
G1 X57.749 Y42.757 0.00000
G1 X56.795 Y40.381 0.00000
G1 X56.321 Y38.642 0.00000
G1 X56.546 Y38.544 0.00000
G1 X58.659 Y43.939 F900.000
G1 F900
G1 X59.410 Y44.738 0.00000
G1 X58.757 Y44.801 0.00000
G1 X58.384 Y44.142 0.00000
G1 X58.589 Y43.991 0.00000
G1 X58.207 Y43.613 F900.000
G1 X58.891 Y44.543 F900.000
G1 X58.549 Y45.230 F900.000
G1 X59.509 Y46.493 F900.000
G1 X62.879 Y50.127 F900.000
G1 X65.503 Y52.217 F900.000
G1 X68.335 Y53.762 F900.000
G1 X72.109 Y55.278 F900.000
G1 X76.500 Y56.506 F900.000
G1 X82.368 Y57.590 F900.000
G1 X83.449 Y58.732 F900.000
G1 X84.908 Y58.826 F900.000
G1 X86.157 Y59.307 F900.000
G1 X87.607 Y60.372 F900.000
G1 X86.332 Y61.859 F900.000
G1 X86.246 Y65.420 F900.000
G1 X86.063 Y65.705 F900.000
G1 X86.234 Y65.767 F900.000
G1 X87.787 Y68.403 F900.000
G1 X89.582 Y72.108 F900.000
G1 X88.490 Y73.013 F900.000
G1 X87.594 Y74.528 F900.000
G1 X87.019 Y76.362 F900.000
G1 X87.115 Y78.162 F900.000
G1 X88.015 Y80.246 F900.000
G1 X89.690 Y81.942 F900.000
G1 X92.269 Y83.277 F900.000
G1 X93.977 Y82.857 F900.000
G1 X93.648 Y83.818 F900.000
G1 X93.991 Y84.609 F900.000
G1 X92.836 Y85.663 F900.000
G1 X91.345 Y88.459 F900.000
G1 X89.541 Y90.879 F900.000
G1 X87.370 Y92.963 F900.000
G1 X84.794 Y94.806 F900.000
G1 X82.072 Y96.251 F900.000
G1 X78.510 Y97.553 F900.000
G1 X74.992 Y98.395 F900.000
G1 X70.449 Y98.969 F900.000
G1 X68.784 Y98.809 F900.000
G1 X67.617 Y99.038 F900.000
G1 X63.396 Y98.360 F900.000
G1 X58.149 Y96.700 F900.000
G1 X55.423 Y93.147 F900.000
G1 X54.527 Y91.120 F900.000
G1 X54.103 Y88.894 F900.000
G1 X53.620 Y88.236 F900.000
G1 X53.682 Y88.372 F900.000
G1 F900
G1 X54.419 Y88.674 0.00000
G1 X54.581 Y90.805 0.00000
G1 X54.248 Y90.873 0.00000
G1 X53.945 Y89.971 0.00000
G1 X53.696 Y88.458 0.00000
G1 X53.273 Y88.265 F900.000
G1 F900
G1 X53.272 Y87.788 0.00000
G1 X54.812 Y88.418 0.00000
G1 X54.799 Y88.584 0.00000
G1 X54.950 Y90.572 0.00000
G1 X55.419 Y92.522 0.00000
G1 X55.801 Y93.425 0.00000
G1 X55.544 Y93.603 0.00000
G1 X55.293 Y93.366 0.00000
G1 X54.525 Y92.350 0.00000
G1 X54.000 Y91.345 0.00000
G1 X53.569 Y90.064 0.00000
G1 X53.288 Y88.351 0.00000
G1 X52.888 Y88.297 F900.000
G1 F900
G1 X52.884 Y87.213 0.00000
G1 X55.219 Y88.167 0.00000
G1 X55.186 Y88.585 0.00000
G1 X55.332 Y90.512 0.00000
G1 X55.786 Y92.401 0.00000
G1 X56.459 Y93.993 0.00000
G1 X57.011 Y94.965 0.00000
G1 X56.771 Y95.172 0.00000
G3 X55.005 Y93.625 I7.477 J-10.317
G1 X54.198 Y92.557 0.00000
G1 X53.644 Y91.496 0.00000
G1 X53.194 Y90.157 0.00000
G1 X52.902 Y88.383 0.00000
G1 X52.502 Y88.329 F900.000
G1 F900
G1 X52.497 Y86.769 0.00000
G1 X53.248 Y86.945 0.00000
G1 X55.626 Y87.917 0.00000
G1 X55.573 Y88.585 0.00000
G1 X55.715 Y90.452 0.00000
G1 X56.154 Y92.280 0.00000
G1 X56.806 Y93.822 0.00000
G2 X58.213 Y95.972 I9.571 J-4.728
G1 X58.284 Y96.843 0.00000
G1 X55.772 Y94.880 0.00000
G1 X54.717 Y93.883 0.00000
G1 X53.871 Y92.764 0.00000
G1 X53.288 Y91.648 0.00000
G1 X52.818 Y90.251 0.00000
G1 X52.517 Y88.415 0.00000
G1 X52.117 Y88.362 F900.000
G1 F900
G1 X52.110 Y86.282 0.00000
G1 X53.366 Y86.577 0.00000
G1 X56.033 Y87.667 0.00000
G1 X55.960 Y88.586 0.00000
G1 X56.097 Y90.392 0.00000
G1 X56.521 Y92.159 0.00000
G1 X57.152 Y93.651 0.00000
G2 X58.589 Y95.831 I9.674 J-4.813
G1 X58.704 Y97.256 0.00000
G1 X58.374 Y97.403 0.00000
G1 X55.520 Y95.172 0.00000
G1 X54.429 Y94.141 0.00000
G1 X53.544 Y92.971 0.00000
G1 X52.933 Y91.800 0.00000
G1 X52.443 Y90.344 0.00000
G1 X52.131 Y88.447 0.00000
G1 X51.731 Y88.394 F900.000
G1 F900
G1 X51.724 Y86.198 0.00000
G1 X51.782 Y85.809 0.00000
G1 X53.484 Y86.208 0.00000
G1 X56.440 Y87.416 0.00000
G1 X56.346 Y88.587 0.00000
G1 X56.479 Y90.332 0.00000
G1 X56.889 Y92.038 0.00000
G1 X57.499 Y93.481 0.00000
G1 X58.052 Y94.456 0.00000
G1 X58.964 Y95.690 0.00000
G1 X59.110 Y97.497 0.00000
G1 X58.319 Y97.849 0.00000
G1 X55.268 Y95.465 0.00000
G1 X54.140 Y94.399 0.00000
G1 X53.217 Y93.178 0.00000
G1 X52.577 Y91.951 0.00000
G1 X52.067 Y90.438 0.00000
G1 X51.746 Y88.480 0.00000
G1 X51.346 Y88.426 F900.000
G1 F900
G1 X51.338 Y86.170 0.00000
G1 X51.462 Y85.337 0.00000
G1 X53.602 Y85.840 0.00000
G1 X56.847 Y87.166 0.00000
G1 X56.733 Y88.588 0.00000
G1 X56.861 Y90.272 0.00000
G1 X57.256 Y91.917 0.00000
G1 X57.845 Y93.310 0.00000
G1 X58.376 Y94.246 0.00000
G1 X59.340 Y95.550 0.00000
G1 X59.517 Y97.738 0.00000
G1 X58.264 Y98.296 0.00000
G1 X55.017 Y95.758 0.00000
G1 X53.852 Y94.657 0.00000
G1 X52.890 Y93.385 0.00000
G1 X52.221 Y92.103 0.00000
G1 X51.692 Y90.531 0.00000
G1 X51.360 Y88.512 0.00000
G1 X50.960 Y88.458 F900.000
G1 F900
G1 X50.953 Y86.142 0.00000
G1 X51.142 Y84.866 0.00000
G1 X53.719 Y85.472 0.00000
G1 X57.254 Y86.916 0.00000
G1 X57.120 Y88.588 0.00000
G1 X57.243 Y90.212 0.00000
G1 X57.624 Y91.796 0.00000
G2 X58.700 Y94.035 I10.174 J-3.512
G1 X59.601 Y95.254 0.00000
G1 X59.711 Y95.361 0.00000
G1 X59.923 Y97.980 0.00000
G1 X58.209 Y98.742 0.00000
G1 X54.765 Y96.050 0.00000
G1 X53.564 Y94.915 0.00000
G1 X52.563 Y93.592 0.00000
G1 X51.865 Y92.255 0.00000
G1 X51.317 Y90.624 0.00000
G1 X50.974 Y88.544 0.00000
G1 X50.575 Y88.490 F900.000
G1 F900
G1 X50.567 Y86.114 0.00000
G1 X50.822 Y84.395 0.00000
G1 X53.837 Y85.103 0.00000
G1 X57.708 Y86.685 0.00000
G1 X57.634 Y86.999 0.00000
G1 X57.507 Y88.589 0.00000
G1 X57.625 Y90.152 0.00000
G1 X57.991 Y91.675 0.00000
G2 X59.024 Y93.825 I9.770 J-3.371
G1 X59.892 Y94.999 0.00000
G1 X60.084 Y95.185 0.00000
G1 X60.322 Y98.123 0.00000
G1 X60.048 Y98.346 0.00000
G1 X58.154 Y99.189 0.00000
G1 X54.513 Y96.343 0.00000
G1 X53.276 Y95.174 0.00000
G1 X52.237 Y93.799 0.00000
G1 X51.509 Y92.407 0.00000
G1 X50.941 Y90.718 0.00000
G1 X50.589 Y88.576 0.00000
G1 X50.189 Y88.522 F900.000
G1 F900
G1 X50.181 Y86.086 0.00000
G1 X50.502 Y83.924 0.00000
G1 X53.955 Y84.735 0.00000
G1 X57.907 Y86.350 0.00000
G1 X58.165 Y86.427 0.00000
G1 X58.016 Y87.059 0.00000
G1 X57.893 Y88.590 0.00000
G1 X58.008 Y90.092 0.00000
G1 X58.359 Y91.554 0.00000
G2 X60.457 Y95.009 I8.846 J-3.007
G1 X60.722 Y98.293 0.00000
G1 X60.252 Y98.677 0.00000
G1 X58.099 Y99.635 0.00000
G1 X54.262 Y96.636 0.00000
G1 X52.987 Y95.432 0.00000
G1 X51.910 Y94.006 0.00000
G1 X51.154 Y92.558 0.00000
G1 X50.566 Y90.811 0.00000
G1 X50.203 Y88.608 0.00000
G1 X49.804 Y88.554 F900.000
G1 F900
G1 X49.795 Y86.058 0.00000
G1 X50.193 Y83.383 0.00000
G1 X50.277 Y83.102 0.00000
G1 X50.619 Y83.169 0.00000
G1 X50.584 Y83.547 0.00000
G1 X54.073 Y84.366 0.00000
G1 X58.036 Y85.986 0.00000
G1 X58.623 Y86.162 0.00000
G1 X58.398 Y87.119 0.00000
G1 X58.280 Y88.591 0.00000
G1 X58.390 Y90.032 0.00000
G1 X58.727 Y91.433 0.00000
G2 X60.829 Y94.833 I8.395 J-2.840
G1 X61.123 Y98.464 0.00000
G1 X60.456 Y99.009 0.00000
G1 X58.044 Y100.082 0.00000
G1 X54.010 Y96.929 0.00000
G1 X52.699 Y95.690 0.00000
G1 X51.583 Y94.213 0.00000
G1 X50.798 Y92.710 0.00000
G1 X50.190 Y90.904 0.00000
G1 X49.818 Y88.640 0.00000
G1 X49.418 Y88.586 F900.000
G1 F900
G1 X49.410 Y86.031 0.00000
G1 X49.815 Y83.298 0.00000
G1 X50.457 Y81.166 0.00000
G1 X51.170 Y81.390 0.00000
G1 X50.999 Y83.248 0.00000
G1 X54.190 Y83.998 0.00000
G1 X58.164 Y85.622 0.00000
G1 X59.082 Y85.897 0.00000
G1 X58.780 Y87.178 0.00000
G1 X58.667 Y88.591 0.00000
G1 X58.772 Y89.972 0.00000
G1 X59.094 Y91.312 0.00000
G2 X61.202 Y94.657 I8.026 J-2.721
G1 X61.524 Y98.635 0.00000
G1 X60.660 Y99.340 0.00000
G1 X58.214 Y100.428 0.00000
G1 X58.005 Y100.541 0.00000
G1 X53.758 Y97.221 0.00000
G1 X52.411 Y95.948 0.00000
G1 X51.256 Y94.420 0.00000
G1 X50.442 Y92.862 0.00000
G1 X49.815 Y90.998 0.00000
G1 X49.432 Y88.672 0.00000
G1 X49.033 Y88.619 F900.000
G1 F900
G1 X49.024 Y86.003 0.00000
G1 X49.438 Y83.214 0.00000
G1 X50.201 Y80.680 0.00000
G1 X51.582 Y81.116 0.00000
G1 X51.413 Y82.949 0.00000
G1 X54.308 Y83.629 0.00000
G1 X58.293 Y85.258 0.00000
G1 X59.573 Y85.642 0.00000
G2 X59.162 Y87.238 I8.371 J3.007
G1 X59.054 Y88.592 0.00000
G1 X59.154 Y89.912 0.00000
G1 X59.462 Y91.191 0.00000
G2 X61.575 Y94.480 I7.466 J-2.473
G1 X61.864 Y98.061 0.00000
G1 X62.729 Y98.149 0.00000
G1 X60.864 Y99.671 0.00000
G1 X58.384 Y100.775 0.00000
G1 X57.313 Y101.351 0.00000
G1 X57.111 Y101.136 0.00000
G1 X57.448 Y100.594 0.00000
G1 X53.506 Y97.514 0.00000
G1 X52.123 Y96.206 0.00000
G1 X50.929 Y94.626 0.00000
G1 X50.086 Y93.013 0.00000
G1 X49.439 Y91.091 0.00000
G1 X49.047 Y88.704 0.00000
G1 X48.647 Y88.651 F900.000
G1 F900
G1 X48.638 Y85.975 0.00000
G1 X49.061 Y83.130 0.00000
G1 X49.944 Y80.195 0.00000
G1 X51.995 Y80.842 0.00000
G1 X51.828 Y82.651 0.00000
G1 X54.426 Y83.261 0.00000
G1 X58.422 Y84.894 0.00000
G1 X60.065 Y85.387 0.00000
G2 X59.536 Y89.852 I8.614 J3.284
G1 X59.829 Y91.070 0.00000
G2 X61.947 Y94.304 I7.181 J-2.393
G1 X62.223 Y97.710 0.00000
G1 X63.694 Y97.859 0.00000
G1 X61.068 Y100.003 0.00000
G1 X58.554 Y101.121 0.00000
G2 X56.118 Y102.576 I5.983 J12.783
G1 X55.893 Y102.360 0.00000
G1 X56.937 Y100.685 0.00000
G1 X53.255 Y97.807 0.00000
G1 X51.835 Y96.465 0.00000
G1 X50.602 Y94.833 0.00000
G1 X49.730 Y93.165 0.00000
G1 X49.064 Y91.185 0.00000
G1 X48.661 Y88.737 0.00000
G1 X48.262 Y88.683 F900.000
G1 F900
G1 X48.253 Y85.947 0.00000
G1 X48.683 Y83.045 0.00000
G1 X49.546 Y80.180 0.00000
G1 X49.753 Y79.731 0.00000
G1 X52.407 Y80.568 0.00000
G1 X52.243 Y82.352 0.00000
G1 X54.544 Y82.892 0.00000
G1 X58.551 Y84.530 0.00000
G1 X60.604 Y85.147 0.00000
G2 X60.197 Y90.949 I7.213 J3.421
G2 X62.320 Y94.128 I6.888 J-2.302
G1 X62.581 Y97.358 0.00000
G1 X64.034 Y97.505 0.00000
G1 X64.059 Y98.058 0.00000
G1 X61.272 Y100.334 0.00000
G1 X58.724 Y101.468 0.00000
G1 X57.363 Y102.200 0.00000
G1 X54.832 Y103.911 0.00000
G1 X54.608 Y103.694 0.00000
G1 X56.426 Y100.775 0.00000
G1 X53.003 Y98.099 0.00000
G1 X51.546 Y96.723 0.00000
G1 X50.275 Y95.040 0.00000
G1 X49.374 Y93.317 0.00000
G1 X48.688 Y91.278 0.00000
G1 X48.276 Y88.769 0.00000
G1 X47.876 Y88.715 F900.000
G1 F900
G1 X47.867 Y85.919 0.00000
G1 X48.306 Y82.961 0.00000
G1 X49.184 Y80.043 0.00000
G1 X49.546 Y79.261 0.00000
G1 X52.820 Y80.293 0.00000
G1 X52.658 Y82.053 0.00000
G1 X54.661 Y82.524 0.00000
G1 X58.679 Y84.166 0.00000
G1 X60.896 Y84.832 0.00000
G1 X61.154 Y84.867 0.00000
G2 X60.301 Y89.732 I7.235 J3.776
G2 X62.693 Y93.952 I6.851 J-1.095
G1 X62.940 Y97.007 0.00000
G1 X64.404 Y97.155 0.00000
G1 X64.453 Y98.234 0.00000
G1 X61.646 Y100.526 0.00000
G1 X61.658 Y100.584 0.00000
G1 X58.894 Y101.814 0.00000
G1 X57.563 Y102.530 0.00000
G1 X54.087 Y104.880 0.00000
G1 X53.483 Y105.430 0.00000
G1 X53.227 Y105.235 0.00000
G1 X53.384 Y104.929 0.00000
G1 X55.916 Y100.865 0.00000
G1 X52.751 Y98.392 0.00000
G1 X51.258 Y96.981 0.00000
G1 X49.948 Y95.247 0.00000
G1 X49.019 Y93.468 0.00000
G1 X48.313 Y91.371 0.00000
G1 X47.890 Y88.801 0.00000
G1 X47.491 Y88.747 F900.000
G1 F900
G1 X47.481 Y85.891 0.00000
G1 X47.929 Y82.877 0.00000
G1 X48.823 Y79.906 0.00000
G1 X50.118 Y77.104 0.00000
G1 X51.568 Y74.858 0.00000
G1 X51.878 Y75.018 0.00000
G1 X50.265 Y79.083 0.00000
G1 X53.232 Y80.019 0.00000
G1 X53.073 Y81.755 0.00000
G1 X54.779 Y82.155 0.00000
G1 X58.808 Y83.802 0.00000
G1 X60.978 Y84.454 0.00000
G1 X61.718 Y84.554 0.00000
G1 X61.122 Y85.874 0.00000
G2 X60.683 Y89.672 I6.922 J2.724
G2 X63.064 Y93.755 I6.455 J-1.028
G1 X63.298 Y96.656 0.00000
G1 X64.775 Y96.805 0.00000
G1 X64.847 Y98.410 0.00000
G1 X63.001 Y99.918 0.00000
G1 X63.349 Y99.923 0.00000
G1 X63.411 Y100.226 0.00000
G1 X59.064 Y102.161 0.00000
G1 X57.763 Y102.861 0.00000
G1 X54.326 Y105.184 0.00000
G1 X51.959 Y107.341 0.00000
G1 X51.700 Y107.109 0.00000
G1 X52.151 Y106.486 0.00000
G1 X53.049 Y104.739 0.00000
G1 X55.405 Y100.956 0.00000
G1 X52.499 Y98.685 0.00000
G1 X50.970 Y97.239 0.00000
G1 X49.621 Y95.454 0.00000
G1 X48.663 Y93.620 0.00000
G1 X47.938 Y91.465 0.00000
G1 X47.505 Y88.833 0.00000
G1 X47.105 Y88.779 F900.000
G1 F900
G1 X47.095 Y85.864 0.00000
G1 X47.551 Y82.792 0.00000
G1 X48.461 Y79.769 0.00000
G1 X49.779 Y76.917 0.00000
G1 X51.512 Y74.234 0.00000
G1 X52.270 Y73.325 0.00000
G1 X52.510 Y74.470 0.00000
G1 X50.776 Y78.840 0.00000
G1 X53.645 Y79.745 0.00000
G1 X53.487 Y81.456 0.00000
G1 X54.897 Y81.787 0.00000
G1 X58.937 Y83.438 0.00000
G1 X61.060 Y84.076 0.00000
G1 X62.282 Y84.241 0.00000
G1 X61.482 Y86.015 0.00000
G2 X61.656 Y91.431 I6.286 J2.509
G2 X63.433 Y93.543 I5.184 J-2.558
G1 X63.657 Y96.304 0.00000
G1 X65.145 Y96.455 0.00000
G1 X65.241 Y98.587 0.00000
G1 X64.063 Y99.549 0.00000
G1 X65.387 Y99.569 0.00000
G1 X65.438 Y99.888 0.00000
G1 X63.994 Y100.388 0.00000
G1 X59.234 Y102.507 0.00000
G1 X57.963 Y103.191 0.00000
G1 X54.565 Y105.487 0.00000
G1 X51.725 Y108.076 0.00000
G1 X50.430 Y109.617 0.00000
G1 X50.148 Y109.445 0.00000
G1 X51.082 Y107.216 0.00000
G2 X51.822 Y106.284 I-2.580 J-2.808
G1 X52.713 Y104.548 0.00000
G1 X54.895 Y101.046 0.00000
G1 X52.248 Y98.977 0.00000
G1 X50.682 Y97.497 0.00000
G1 X49.294 Y95.661 0.00000
G1 X48.307 Y93.772 0.00000
G1 X47.562 Y91.558 0.00000
G1 X47.119 Y88.865 0.00000
G1 X46.720 Y88.811 F900.000
G1 F900
G1 X46.710 Y85.836 0.00000
G1 X47.174 Y82.708 0.00000
G1 X48.100 Y79.632 0.00000
G1 X49.440 Y76.731 0.00000
G1 X51.201 Y74.005 0.00000
G1 X52.647 Y72.271 0.00000
G1 X52.699 Y73.492 0.00000
G1 X52.912 Y74.505 0.00000
G1 X51.288 Y78.597 0.00000
G1 X54.058 Y79.471 0.00000
G1 X53.902 Y81.157 0.00000
G1 X55.015 Y81.418 0.00000
G1 X59.065 Y83.074 0.00000
G1 X61.142 Y83.698 0.00000
G1 X62.969 Y83.946 0.00000
G1 X62.544 Y84.599 0.00000
G1 X61.841 Y86.157 0.00000
G2 X62.003 Y91.261 I5.934 J2.366
G2 X63.803 Y93.332 I4.876 J-2.420
G1 X64.015 Y95.953 0.00000
G1 X65.515 Y96.105 0.00000
G1 X65.635 Y98.763 0.00000
G1 X65.124 Y99.180 0.00000
G1 X67.577 Y99.218 0.00000
G1 X67.629 Y99.537 0.00000
G1 X64.136 Y100.747 0.00000
G1 X59.404 Y102.853 0.00000
G1 X58.163 Y103.521 0.00000
G1 X54.804 Y105.791 0.00000
G1 X52.004 Y108.343 0.00000
G1 X49.984 Y110.747 0.00000
G3 X49.466 Y110.075 I2.792 J-2.688
G1 X50.755 Y106.998 0.00000
G2 X51.492 Y106.082 I-2.522 J-2.783
G1 X52.377 Y104.358 0.00000
G1 X54.384 Y101.136 0.00000
G1 X51.996 Y99.270 0.00000
G1 X50.393 Y97.755 0.00000
G1 X48.967 Y95.868 0.00000
G1 X47.951 Y93.923 0.00000
G1 X47.187 Y91.651 0.00000
G1 X46.734 Y88.897 0.00000
G1 X46.334 Y88.843 F900.000
G1 F900
G1 X46.324 Y85.808 0.00000
G1 X46.797 Y82.624 0.00000
G1 X47.739 Y79.495 0.00000
G1 X49.102 Y76.544 0.00000
G1 X50.890 Y73.776 0.00000
G1 X52.742 Y71.555 0.00000
G1 X53.174 Y71.145 0.00000
G2 X53.083 Y73.444 I7.080 J1.432
G1 X53.313 Y74.539 0.00000
G1 X51.799 Y78.354 0.00000
G1 X54.470 Y79.196 0.00000
G1 X54.317 Y80.858 0.00000
G1 X55.132 Y81.050 0.00000
G1 X59.194 Y82.710 0.00000
G1 X61.224 Y83.320 0.00000
G1 X63.625 Y83.645 0.00000
G1 X62.884 Y84.784 0.00000
G1 X62.200 Y86.298 0.00000
G2 X62.349 Y91.090 I5.603 J2.224
G2 X64.173 Y93.120 I4.609 J-2.307
G1 X64.373 Y95.602 0.00000
G1 X65.885 Y95.755 0.00000
G1 X65.998 Y98.266 0.00000
G1 X66.465 Y98.240 0.00000
G1 X66.566 Y98.501 0.00000
G1 X66.186 Y98.811 0.00000
G1 X69.891 Y98.869 0.00000
G1 X69.933 Y99.200 0.00000
G1 X69.187 Y99.405 0.00000
G1 X64.278 Y101.106 0.00000
G1 X59.574 Y103.200 0.00000
G1 X58.363 Y103.852 0.00000
G1 X55.043 Y106.095 0.00000
G1 X52.283 Y108.611 0.00000
G1 X49.982 Y111.350 0.00000
G3 X49.089 Y110.205 I4.854 J-4.707
G1 X49.039 Y110.094 0.00000
G1 X50.429 Y106.779 0.00000
G2 X51.162 Y105.879 I-2.495 J-2.780
G1 X52.041 Y104.168 0.00000
G1 X53.873 Y101.227 0.00000
G1 X51.744 Y99.563 0.00000
G1 X50.105 Y98.014 0.00000
G1 X48.640 Y96.075 0.00000
G1 X47.595 Y94.075 0.00000
G1 X46.811 Y91.745 0.00000
G1 X46.348 Y88.929 0.00000
G1 X45.949 Y88.876 F900.000
G1 F900
G1 X45.938 Y85.780 0.00000
G1 X46.419 Y82.539 0.00000
G1 X47.377 Y79.358 0.00000
G1 X48.763 Y76.358 0.00000
G1 X50.579 Y73.547 0.00000
G1 X52.460 Y71.291 0.00000
G1 X53.541 Y70.267 0.00000
G1 X53.792 Y70.418 0.00000
G2 X53.729 Y74.535 I5.997 J2.151
G1 X52.310 Y78.111 0.00000
G1 X54.883 Y78.922 0.00000
G1 X54.732 Y80.560 0.00000
G1 X55.975 Y80.852 0.00000
G1 X55.888 Y80.942 0.00000
G1 X59.323 Y82.346 0.00000
G1 X61.306 Y82.942 0.00000
G1 X63.498 Y83.239 0.00000
G1 X64.521 Y83.221 0.00000
G1 X63.921 Y83.897 0.00000
G1 X63.223 Y84.970 0.00000
G1 X62.560 Y86.439 0.00000
G2 X62.696 Y90.919 I5.243 J2.083
G2 X64.543 Y92.908 I4.383 J-2.218
G1 X64.732 Y95.250 0.00000
G1 X66.256 Y95.404 0.00000
G1 X66.366 Y97.859 0.00000
G1 X67.626 Y97.790 0.00000
G1 X67.727 Y98.050 0.00000
G1 X67.248 Y98.442 0.00000
G1 X72.594 Y98.526 0.00000
G1 X72.636 Y98.857 0.00000
G1 X69.302 Y99.773 0.00000
G1 X64.420 Y101.465 0.00000
G1 X59.744 Y103.546 0.00000
G1 X58.562 Y104.182 0.00000
G1 X55.282 Y106.399 0.00000
G1 X52.562 Y108.879 0.00000
G1 X49.979 Y111.953 0.00000
G1 X48.980 Y110.741 0.00000
G3 X48.643 Y110.129 I1.392 J-1.165
G1 X48.664 Y109.994 0.00000
G1 X49.855 Y107.149 0.00000
G1 X49.442 Y107.070 0.00000
G2 X50.833 Y105.677 I-2.156 J-3.544
G1 X51.706 Y103.977 0.00000
G1 X53.363 Y101.317 0.00000
G1 X51.493 Y99.855 0.00000
G1 X49.817 Y98.272 0.00000
G1 X48.313 Y96.282 0.00000
G1 X47.239 Y94.227 0.00000
G1 X46.436 Y91.838 0.00000
G1 X45.963 Y88.961 0.00000
G1 X45.563 Y88.908 F900.000
G1 F900
G1 X45.553 Y85.752 0.00000
G1 X46.042 Y82.455 0.00000
G1 X47.016 Y79.220 0.00000
G1 X48.424 Y76.172 0.00000
G1 X50.268 Y73.318 0.00000
G1 X52.179 Y71.026 0.00000
G1 X54.850 Y68.496 0.00000
G1 X55.113 Y68.718 0.00000
G2 X54.049 Y74.294 I5.050 J3.853
G1 X54.255 Y74.821 0.00000
G1 X54.024 Y74.837 0.00000
G1 X52.822 Y77.868 0.00000
G1 X55.295 Y78.648 0.00000
G1 X55.146 Y80.261 0.00000
G1 X56.721 Y80.631 0.00000
G1 X56.559 Y80.800 0.00000
G1 X59.452 Y81.982 0.00000
G1 X61.387 Y82.563 0.00000
G1 X63.520 Y82.853 0.00000
G1 X65.532 Y82.817 0.00000
G2 X63.562 Y85.155 I4.693 J5.954
G1 X62.919 Y86.580 0.00000
G2 X63.042 Y90.748 I4.896 J1.941
G2 X64.912 Y92.697 I4.214 J-2.172
G1 X65.090 Y94.899 0.00000
G1 X66.626 Y95.054 0.00000
G1 X66.734 Y97.453 0.00000
G1 X68.787 Y97.339 0.00000
G1 X68.888 Y97.600 0.00000
G1 X68.309 Y98.073 0.00000
G1 X74.897 Y98.176 0.00000
G1 X75.545 Y98.083 0.00000
G1 X75.618 Y98.437 0.00000
G1 X69.416 Y100.142 0.00000
G1 X64.561 Y101.824 0.00000
G1 X59.914 Y103.893 0.00000
G1 X58.762 Y104.513 0.00000
G1 X55.521 Y106.703 0.00000
G1 X52.840 Y109.147 0.00000
G1 X50.435 Y112.009 0.00000
G1 X50.039 Y112.632 0.00000
G1 X48.669 Y110.970 0.00000
G3 X48.265 Y110.210 I1.229 J-1.141
G3 X48.295 Y109.874 I0.720 J-0.105
G1 X49.316 Y107.438 0.00000
G1 X48.664 Y107.313 0.00000
G1 X48.627 Y107.040 0.00000
G2 X50.503 Y105.475 I-1.324 J-3.494
G1 X51.370 Y103.787 0.00000
G1 X52.852 Y101.408 0.00000
G1 X51.241 Y100.148 0.00000
G1 X49.529 Y98.530 0.00000
G1 X47.986 Y96.489 0.00000
G1 X46.884 Y94.378 0.00000
G1 X46.060 Y91.932 0.00000
G1 X45.577 Y88.994 0.00000
G1 X44.777 Y88.973 F900.000
G1 X53.620 Y88.236 F900.000
G1 X54.103 Y88.894 F900.000
G1 X54.527 Y91.120 F900.000
G1 X55.423 Y93.147 F900.000
G1 X58.149 Y96.700 F900.000
G1 X63.396 Y98.360 F900.000
G1 X67.617 Y99.038 F900.000
G1 X68.784 Y98.809 F900.000
G1 X70.449 Y98.969 F900.000
G1 X74.992 Y98.395 F900.000
G1 X78.510 Y97.553 F900.000
G1 X82.072 Y96.251 F900.000
G1 X84.794 Y94.806 F900.000
G1 X87.370 Y92.963 F900.000
G1 X89.541 Y90.879 F900.000
G1 X91.345 Y88.459 F900.000
G1 X93.029 Y85.110 F900.000
G1 F900
G1 X93.049 Y84.157 0.00000
G1 X94.270 Y82.760 0.00000
G1 X94.557 Y82.983 0.00000
G1 X94.417 Y83.186 0.00000
G1 X93.321 Y85.188 0.00000
G1 X93.113 Y85.132 0.00000
G1 X98.663 Y73.894 F900.000
G1 F900
G2 X97.887 Y73.216 I-2.666 J2.268
G1 X98.060 Y72.928 0.00000
G1 X99.165 Y73.401 0.00000
G1 X98.725 Y73.833 0.00000
G1 X95.793 Y71.970 F900.000
G1 F900
G2 X94.617 Y71.600 I-2.125 J4.701
G1 X94.655 Y71.277 0.00000
G1 X95.415 Y71.238 0.00000
G2 X95.959 Y71.657 I1.508 J-1.395
G1 X95.834 Y71.893 0.00000
G1 X90.668 Y71.902 F900.000
G1 F900
G2 X88.708 Y72.968 I2.087 J6.172
G1 X88.483 Y72.716 0.00000
G3 X90.566 Y71.559 I2.480 J2.012
G1 X90.643 Y71.818 0.00000
G1 X91.244 Y72.095 F900.000
G1 F900
G2 X87.860 Y74.299 I1.968 J6.721
G1 X87.585 Y74.177 0.00000
G3 X89.972 Y71.295 I3.153 J0.182
G1 X90.964 Y71.078 0.00000
G1 X95.555 Y70.845 0.00000
G1 X95.913 Y71.170 0.00000
G1 X97.874 Y72.429 0.00000
G1 X99.845 Y73.273 0.00000
G1 X98.662 Y74.459 0.00000
G1 X98.204 Y73.966 0.00000
G1 X97.129 Y73.100 0.00000
G2 X91.329 Y72.077 I-4.011 J5.787
G1 X91.352 Y72.466 F900.000
G1 F900
G2 X88.250 Y74.425 I1.943 J6.511
G1 X87.426 Y75.490 0.00000
G1 X87.320 Y75.680 0.00000
G1 X87.031 Y75.604 0.00000
G1 X87.035 Y75.085 0.00000
G1 X87.324 Y73.428 0.00000
G3 X89.144 Y71.202 I3.333 J0.868
G3 X90.913 Y70.694 I2.514 J5.420
G1 X95.696 Y70.451 0.00000
G1 X96.149 Y70.863 0.00000
G1 X98.055 Y72.087 0.00000
G1 X100.186 Y72.999 0.00000
G1 X100.578 Y73.094 0.00000
G2 X98.656 Y75.020 I34.074 J35.925
G1 X97.941 Y74.249 0.00000
G1 X96.910 Y73.419 0.00000
G2 X91.438 Y72.449 I-3.788 J5.448
G1 X91.461 Y72.837 F900.000
G1 F900
G2 X88.536 Y74.686 I1.827 J6.128
G1 X87.749 Y75.703 0.00000
G1 X87.187 Y76.716 0.00000
G1 X87.113 Y76.915 0.00000
G1 X86.838 Y76.908 0.00000
G3 X86.650 Y75.050 I4.312 J-1.375
G1 X86.948 Y73.341 0.00000
G3 X87.583 Y71.988 I4.149 J1.122
G3 X89.749 Y70.554 I3.292 J2.620
G1 X90.862 Y70.311 0.00000
G1 X95.837 Y70.058 0.00000
G1 X96.384 Y70.555 0.00000
G1 X98.236 Y71.745 0.00000
G1 X100.308 Y72.632 0.00000
G1 X101.360 Y72.885 0.00000
G2 X98.651 Y75.582 I38.534 J41.415
G1 X97.677 Y74.532 0.00000
G1 X96.692 Y73.738 0.00000
G2 X91.546 Y72.820 I-3.570 J5.132
G1 X91.569 Y73.209 F900.000
G1 F900
G2 X88.822 Y74.946 I1.701 J5.731
G2 X87.538 Y76.878 I5.688 J5.173
G1 X87.070 Y78.129 0.00000
G3 X86.257 Y75.973 I2.845 J-2.304
G1 X86.264 Y75.016 0.00000
G1 X86.571 Y73.254 0.00000
G3 X88.806 Y70.506 I4.076 J1.032
G1 X89.637 Y70.184 0.00000
G1 X90.811 Y69.927 0.00000
G1 X95.977 Y69.665 0.00000
G1 X96.620 Y70.248 0.00000
G1 X98.418 Y71.403 0.00000
G1 X100.430 Y72.265 0.00000
G1 X102.140 Y72.676 0.00000
G2 X98.646 Y76.143 I47.460 J51.324
G1 X97.413 Y74.815 0.00000
G1 X96.473 Y74.058 0.00000
G2 X91.654 Y73.191 I-3.351 J4.802
G1 X91.677 Y73.580 F900.000
G1 F900
G2 X89.108 Y75.206 I1.597 J5.366
G2 X87.339 Y78.977 I5.154 J4.718
G3 X85.871 Y76.000 I2.695 J-3.179
G1 X85.879 Y74.981 0.00000
G1 X86.195 Y73.168 0.00000
G3 X88.637 Y70.158 I4.454 J1.118
G1 X89.526 Y69.813 0.00000
G1 X90.759 Y69.544 0.00000
G1 X96.118 Y69.272 0.00000
G1 X96.855 Y69.941 0.00000
G1 X98.599 Y71.062 0.00000
G1 X100.552 Y71.897 0.00000
G1 X102.919 Y72.467 0.00000
G2 X98.640 Y76.704 I55.686 J60.518
G1 X97.150 Y75.097 0.00000
G1 X96.255 Y74.377 0.00000
G2 X91.763 Y73.563 I-3.132 J4.481
G1 X91.786 Y73.952 F900.000
G1 F900
G2 X89.395 Y75.467 I1.461 J4.950
G2 X87.744 Y78.915 I4.801 J4.418
G1 X87.712 Y79.754 0.00000
G3 X85.485 Y76.027 I2.525 J-4.037
G1 X85.494 Y74.946 0.00000
G1 X85.819 Y73.081 0.00000
G3 X88.469 Y69.810 I4.823 J1.198
G1 X89.414 Y69.443 0.00000
G1 X90.708 Y69.160 0.00000
G1 X96.258 Y68.878 0.00000
G1 X97.091 Y69.634 0.00000
G1 X98.780 Y70.720 0.00000
G1 X100.674 Y71.530 0.00000
G1 X102.747 Y72.030 0.00000
G1 X104.880 Y72.163 0.00000
G1 X105.467 Y72.943 0.00000
G1 X106.825 Y74.412 0.00000
G1 X106.399 Y74.599 0.00000
G1 X103.377 Y72.564 0.00000
G2 X98.635 Y77.266 I60.054 J65.307
G1 X96.886 Y75.380 0.00000
G2 X94.805 Y74.064 I-4.233 J4.390
G2 X91.871 Y73.934 I-1.664 J4.385
G1 X91.894 Y74.323 F900.000
G1 F900
G2 X89.681 Y75.727 I1.352 J4.577
G2 X88.129 Y78.960 I4.498 J4.148
G2 X88.202 Y80.505 I4.791 J0.548
G1 X87.810 Y80.303 0.00000
G3 X85.464 Y77.679 I3.059 J-5.095
G3 X85.099 Y76.054 I4.959 J-1.967
G1 X85.108 Y74.911 0.00000
G1 X85.442 Y72.994 0.00000
G3 X87.466 Y69.953 I5.258 J1.306
G3 X89.303 Y69.072 I3.627 J5.206
G1 X90.657 Y68.777 0.00000
G1 X96.399 Y68.485 0.00000
G1 X97.326 Y69.327 0.00000
G1 X98.962 Y70.378 0.00000
G1 X100.796 Y71.163 0.00000
G1 X102.805 Y71.647 0.00000
G1 X105.088 Y71.797 0.00000
G1 X105.764 Y72.696 0.00000
G1 X107.106 Y74.148 0.00000
G1 X107.570 Y74.506 0.00000
G1 X106.359 Y75.038 0.00000
G1 X103.418 Y73.057 0.00000
G2 X98.630 Y77.827 I61.558 J66.578
G1 X96.622 Y75.663 0.00000
G2 X93.321 Y74.150 I-3.756 J3.838
G2 X91.979 Y74.306 I-0.198 J4.148
G1 X92.002 Y74.694 F900.000
G1 F900
G2 X89.363 Y76.767 I1.566 J4.709
G2 X88.487 Y79.668 I4.066 J2.811
G1 X88.567 Y80.315 0.00000
G1 X88.856 Y81.277 0.00000
G1 X87.606 Y80.632 0.00000
G3 X85.492 Y78.587 I3.447 J-5.679
G3 X84.714 Y76.082 I4.715 J-2.838
G1 X84.723 Y74.876 0.00000
G1 X85.066 Y72.907 0.00000
G3 X87.243 Y69.636 I5.830 J1.520
G3 X89.191 Y68.702 I3.825 J5.479
G1 X90.606 Y68.393 0.00000
G1 X96.539 Y68.092 0.00000
G1 X97.561 Y69.020 0.00000
G1 X99.143 Y70.036 0.00000
G1 X100.918 Y70.796 0.00000
G1 X102.863 Y71.264 0.00000
G3 X105.296 Y71.432 I-0.559 J25.790
G1 X106.060 Y72.448 0.00000
G1 X107.367 Y73.863 0.00000
G1 X108.321 Y74.598 0.00000
G1 X105.859 Y75.678 0.00000
G1 X105.950 Y75.227 0.00000
G1 X103.459 Y73.550 0.00000
G2 X96.549 Y80.778 I55.526 J60.000
G1 X94.746 Y83.389 0.00000
G1 X91.805 Y88.758 0.00000
G1 X89.924 Y91.224 0.00000
G1 X87.679 Y93.348 0.00000
G1 X84.998 Y95.163 0.00000
G1 X82.176 Y96.512 0.00000
G1 X80.784 Y96.957 0.00000
G1 X80.651 Y96.623 0.00000
G1 X83.170 Y95.415 0.00000
G1 X86.299 Y93.286 0.00000
G1 X88.879 Y90.891 0.00000
G1 X90.587 Y88.706 0.00000
G1 X92.389 Y85.418 0.00000
G1 X92.639 Y85.344 0.00000
G1 X92.666 Y84.009 0.00000
G1 X98.087 Y77.809 0.00000
G1 X96.359 Y75.946 0.00000
G2 X93.304 Y74.537 I-3.496 J3.563
G2 X92.088 Y74.677 I-0.184 J3.751
G1 X108.524 Y76.085 F900.000
G1 F900
G1 X108.901 Y75.051 0.00000
G1 X109.636 Y75.440 0.00000
G1 X108.599 Y76.041 0.00000
G1 X109.924 Y76.669 F900.000
G1 F900
G1 X110.038 Y75.653 0.00000
G1 X110.804 Y76.059 0.00000
G1 X109.995 Y76.620 0.00000
G1 X109.885 Y77.165 F900.000
G1 F900
G1 X109.441 Y77.506 0.00000
G1 X109.623 Y75.894 0.00000
G1 X107.798 Y76.952 0.00000
G1 X108.536 Y74.924 0.00000
G1 X105.335 Y76.330 0.00000
G1 X105.521 Y75.403 0.00000
G1 X103.501 Y74.043 0.00000
G2 X96.854 Y81.015 I54.002 J58.139
G1 X95.075 Y83.591 0.00000
G1 X92.129 Y88.969 0.00000
G1 X90.212 Y91.482 0.00000
G1 X87.921 Y93.650 0.00000
G1 X85.190 Y95.498 0.00000
G1 X82.318 Y96.871 0.00000
G1 X78.667 Y98.040 0.00000
G1 X76.929 Y98.476 0.00000
G1 X69.530 Y100.510 0.00000
G1 X64.703 Y102.183 0.00000
G1 X60.084 Y104.239 0.00000
G1 X58.962 Y104.843 0.00000
G1 X55.761 Y107.007 0.00000
G1 X53.119 Y109.414 0.00000
G1 X50.747 Y112.238 0.00000
G1 X48.919 Y115.109 0.00000
G1 X48.605 Y114.945 0.00000
G1 X49.566 Y112.665 0.00000
G1 X48.358 Y111.199 0.00000
G3 X47.870 Y110.132 I1.667 J-1.407
G3 X47.927 Y109.755 I1.128 J-0.022
G1 X48.777 Y107.728 0.00000
G1 X46.328 Y107.257 0.00000
G1 X46.365 Y106.905 0.00000
G2 X49.068 Y106.388 I0.471 J-4.860
G2 X50.174 Y105.272 I-1.759 J-2.849
G1 X51.034 Y103.597 0.00000
G1 X52.342 Y101.498 0.00000
G1 X50.989 Y100.441 0.00000
G1 X49.240 Y98.788 0.00000
G1 X47.659 Y96.696 0.00000
G1 X46.528 Y94.530 0.00000
G1 X45.685 Y92.025 0.00000
G1 X45.178 Y88.940 0.00000
G1 X45.167 Y85.724 0.00000
G1 X45.665 Y82.371 0.00000
G1 X46.654 Y79.083 0.00000
G1 X48.086 Y75.985 0.00000
G1 X49.956 Y73.089 0.00000
G1 X51.897 Y70.762 0.00000
G1 X54.717 Y68.091 0.00000
G1 X57.908 Y65.797 0.00000
G1 X59.209 Y65.103 0.00000
G1 X59.400 Y65.403 0.00000
G1 X57.673 Y66.701 0.00000
G1 X56.165 Y68.078 0.00000
G2 X54.235 Y73.299 I4.360 J4.579
G2 X54.805 Y75.169 I5.848 J-0.761
G1 X54.293 Y75.205 0.00000
G1 X53.333 Y77.625 0.00000
G1 X55.708 Y78.374 0.00000
G1 X55.561 Y79.962 0.00000
G1 X57.466 Y80.410 0.00000
G1 X57.229 Y80.657 0.00000
G1 X59.580 Y81.618 0.00000
G1 X61.469 Y82.185 0.00000
G1 X63.543 Y82.467 0.00000
G1 X65.953 Y82.424 0.00000
G1 X66.377 Y82.357 0.00000
G1 X66.493 Y82.636 0.00000
G2 X65.136 Y83.689 I4.827 J7.621
G2 X63.901 Y85.341 I4.927 J4.971
G1 X63.278 Y86.721 0.00000
G2 X63.389 Y90.578 I4.548 J1.799
G2 X65.279 Y92.440 I3.794 J-1.961
G1 X65.449 Y94.548 0.00000
G1 X66.996 Y94.704 0.00000
G1 X67.102 Y97.046 0.00000
G1 X69.948 Y96.889 0.00000
G1 X70.049 Y97.150 0.00000
G1 X69.371 Y97.704 0.00000
G1 X74.872 Y97.790 0.00000
G1 X76.950 Y97.490 0.00000
G1 X79.672 Y96.666 0.00000
G1 X82.977 Y95.080 0.00000
G1 X86.058 Y92.984 0.00000
G1 X88.594 Y90.629 0.00000
G1 X90.263 Y88.493 0.00000
G1 X92.127 Y85.093 0.00000
G1 X92.259 Y85.054 0.00000
G1 X92.290 Y83.546 0.00000
G1 X92.472 Y83.645 0.00000
G1 X97.568 Y77.817 0.00000
G1 X96.095 Y76.229 0.00000
G2 X93.288 Y74.923 I-3.238 J3.290
G2 X90.253 Y76.248 I-0.114 J3.876
G2 X88.897 Y79.051 I3.788 J3.562
G2 X89.672 Y81.754 I3.541 J0.447
G1 X89.504 Y81.977 0.00000
G1 X89.107 Y81.841 0.00000
G1 X87.403 Y80.961 0.00000
G3 X85.720 Y79.546 I3.928 J-6.380
G3 X84.328 Y76.109 I4.406 J-3.785
G1 X84.338 Y74.841 0.00000
G1 X84.690 Y72.821 0.00000
G3 X87.021 Y69.320 I6.169 J1.581
G1 X87.962 Y68.765 0.00000
G1 X89.080 Y68.332 0.00000
G1 X90.554 Y68.010 0.00000
G1 X96.680 Y67.699 0.00000
G1 X97.797 Y68.713 0.00000
G1 X99.324 Y69.694 0.00000
G1 X101.039 Y70.428 0.00000
G1 X102.920 Y70.881 0.00000
G3 X105.325 Y71.047 I-0.611 J26.357
G3 X105.621 Y71.223 I-0.104 J0.512
G1 X106.357 Y72.201 0.00000
G1 X107.628 Y73.577 0.00000
G1 X109.136 Y74.739 0.00000
G1 X110.825 Y75.634 0.00000
G1 X111.686 Y75.917 0.00000
G1 X109.957 Y77.115 0.00000
G1 X109.892 Y76.725 F900.000
G1 X109.135 Y76.640 F900.000
G1 X108.695 Y75.881 F900.000
G1 X107.844 Y75.666 F900.000
G1 X107.321 Y74.476 F900.000
G1 X106.383 Y74.317 F900.000
G1 X104.685 Y72.770 F900.000
G1 X102.767 Y72.587 F900.000
G1 X98.617 Y73.521 F900.000
G1 X98.727 Y75.809 F900.000
G1 X98.358 Y77.967 F900.000
G1 X94.493 Y82.770 F900.000
G1 X94.528 Y83.316 F900.000
G1 X93.991 Y84.609 F900.000
G1 X92.836 Y85.663 F900.000
G1 X90.942 Y89.064 F900.000
G1 X89.302 Y91.141 F900.000
G1 X86.482 Y93.661 F900.000
G1 X83.238 Y95.693 F900.000
G1 X79.788 Y97.155 F900.000
G1 X77.121 Y97.951 F900.000
G1 X74.992 Y98.395 F900.000
G1 X70.449 Y98.969 F900.000
G1 X68.784 Y98.809 F900.000
G1 X67.617 Y99.038 F900.000
G1 X63.396 Y98.360 F900.000
G1 X58.149 Y96.700 F900.000
G1 X57.151 Y99.823 F900.000
G1 X55.013 Y103.495 F900.000
G1 X51.063 Y107.984 F900.000
G1 X48.468 Y107.130 F900.000
G1 X42.393 Y106.878 F900.000
G1 X37.814 Y106.321 F900.000
G1 X33.835 Y105.287 F900.000
G1 X29.874 Y103.779 F900.000
G1 X25.256 Y101.384 F900.000
G1 X21.182 Y98.660 F900.000
G1 X17.386 Y95.604 F900.000
G1 X16.356 Y94.363 F900.000
G1 X16.247 Y94.122 F900.000
G1 X16.314 Y92.631 F900.000
G1 X17.757 Y85.470 F900.000
G1 X17.561 Y87.372 F900.000
G1 F900
G1 X16.566 Y92.618 0.00000
G2 X17.375 Y95.367 I3.760 J0.387
G1 X17.120 Y95.593 0.00000
G1 X15.734 Y94.367 0.00000
G3 X15.711 Y94.023 I0.663 J-0.217
G1 X17.189 Y87.296 0.00000
G1 X17.475 Y87.355 0.00000
G1 X17.757 Y85.470 F900.000
G1 X16.314 Y92.631 F900.000
G1 X16.247 Y94.122 F900.000
G1 X16.356 Y94.363 F900.000
G1 X17.386 Y95.604 F900.000
G1 X21.182 Y98.660 F900.000
G1 X25.209 Y101.355 F900.000
G1 X29.353 Y103.546 F900.000
G1 X33.835 Y105.287 F900.000
G1 X37.975 Y106.355 F900.000
G1 X42.393 Y106.878 F900.000
G1 X48.242 Y107.150 F900.000
G1 X48.168 Y107.905 F900.000
G1 X50.700 Y108.761 F900.000
G1 X50.000 Y110.006 F900.000
G1 X50.000 Y111.994 F900.000
G1 X49.809 Y113.031 F900.000
G1 X48.156 Y116.340 F900.000
G1 X48.006 Y116.366 F900.000
G1 F900
G1 X48.285 Y116.390 0.00000
G1 X48.568 Y117.608 0.00000
G3 X47.753 Y119.440 I-21.688 J-8.551
G1 X47.438 Y119.348 0.00000
G1 X47.738 Y117.001 0.00000
G1 X47.972 Y116.446 0.00000
G1 X48.648 Y116.252 F900.000
G1 F900
G1 X48.972 Y117.643 0.00000
G3 X47.735 Y120.377 I-32.781 J-13.185
G1 X47.722 Y122.427 0.00000
G1 X46.535 Y123.371 0.00000
G1 X47.176 Y118.359 0.00000
G1 X47.004 Y118.496 0.00000
G1 X46.766 Y118.315 0.00000
G1 X49.120 Y112.731 0.00000
G1 X48.047 Y111.428 0.00000
G3 X47.483 Y110.140 I1.964 J-1.627
G3 X47.559 Y109.636 I1.565 J-0.022
G1 X48.238 Y108.017 0.00000
G1 X46.216 Y107.628 0.00000
G1 X41.959 Y107.362 0.00000
G1 X38.459 Y106.990 0.00000
G1 X37.922 Y106.893 0.00000
G1 X33.672 Y105.801 0.00000
G1 X29.655 Y104.274 0.00000
G1 X25.695 Y102.266 0.00000
G1 X21.741 Y99.743 0.00000
G1 X17.726 Y96.644 0.00000
G1 X15.422 Y94.606 0.00000
G3 X15.328 Y93.969 I0.860 J-0.452
G1 X17.224 Y85.341 0.00000
G1 X19.616 Y76.940 0.00000
G1 X22.436 Y69.008 0.00000
G1 X25.675 Y61.497 0.00000
G1 X29.335 Y54.365 0.00000
G1 X33.121 Y48.034 0.00000
G3 X34.673 Y45.717 I39.428 J24.732
G1 X34.984 Y45.914 0.00000
G1 X31.635 Y51.782 0.00000
G1 X27.852 Y58.806 0.00000
G1 X25.699 Y63.334 0.00000
G1 X22.744 Y70.510 0.00000
G1 X20.308 Y77.760 0.00000
G1 X18.386 Y85.089 0.00000
G1 X16.950 Y92.661 0.00000
G2 X17.813 Y95.239 I3.175 J0.371
G1 X21.509 Y98.261 0.00000
G1 X25.493 Y100.934 0.00000
G1 X29.540 Y103.068 0.00000
G1 X33.681 Y104.690 0.00000
G1 X37.949 Y105.812 0.00000
G1 X42.380 Y106.432 0.00000
G1 X46.996 Y106.533 0.00000
G2 X49.553 Y105.473 I0.088 J-3.402
G1 X49.844 Y105.070 0.00000
G3 X51.831 Y101.588 I21.885 J10.181
G1 X50.737 Y100.733 0.00000
G1 X48.952 Y99.046 0.00000
G1 X47.332 Y96.903 0.00000
G1 X46.172 Y94.682 0.00000
G1 X45.309 Y92.118 0.00000
G1 X44.792 Y88.972 0.00000
G1 X44.781 Y85.697 0.00000
G1 X45.287 Y82.286 0.00000
G1 X46.293 Y78.946 0.00000
G1 X47.747 Y75.799 0.00000
G1 X49.645 Y72.860 0.00000
G1 X51.615 Y70.497 0.00000
G1 X54.471 Y67.793 0.00000
G1 X57.703 Y65.468 0.00000
G1 X61.373 Y63.512 0.00000
G1 X65.087 Y62.084 0.00000
G1 X67.819 Y61.373 0.00000
G1 X67.933 Y61.714 0.00000
G1 X63.630 Y63.488 0.00000
G1 X59.534 Y65.785 0.00000
G2 X56.438 Y68.351 I11.855 J17.454
G2 X54.619 Y73.251 I4.101 J4.310
G2 X55.483 Y75.508 I4.832 J-0.556
G1 X54.562 Y75.572 0.00000
G1 X53.844 Y77.382 0.00000
G1 X56.120 Y78.099 0.00000
G1 X55.976 Y79.664 0.00000
G1 X58.212 Y80.189 0.00000
G1 X57.900 Y80.515 0.00000
G2 X61.551 Y81.807 I8.522 J-18.278
G1 X63.565 Y82.081 0.00000
G1 X65.919 Y82.039 0.00000
G1 X67.878 Y81.729 0.00000
G1 X67.994 Y82.008 0.00000
G1 X65.715 Y83.689 0.00000
G2 X64.241 Y85.527 I4.140 J4.830
G1 X63.638 Y86.863 0.00000
G2 X63.735 Y90.407 I4.188 J1.659
G2 X65.645 Y92.190 I3.504 J-1.839
G1 X65.807 Y94.196 0.00000
G1 X67.366 Y94.354 0.00000
G1 X67.469 Y96.640 0.00000
G1 X71.109 Y96.439 0.00000
G1 X71.211 Y96.699 0.00000
G1 X70.433 Y97.335 0.00000
G1 X74.848 Y97.404 0.00000
G1 X76.866 Y97.113 0.00000
G1 X79.531 Y96.305 0.00000
G1 X82.784 Y94.745 0.00000
G1 X85.817 Y92.682 0.00000
G1 X88.309 Y90.367 0.00000
G1 X89.940 Y88.280 0.00000
G1 X91.566 Y85.314 0.00000
G1 X91.241 Y85.271 0.00000
G1 X91.217 Y84.961 0.00000
G1 X91.879 Y84.764 0.00000
G1 X91.918 Y82.906 0.00000
G1 X92.385 Y83.159 0.00000
G1 X97.049 Y77.824 0.00000
G1 X95.831 Y76.511 0.00000
G2 X93.271 Y75.310 I-2.977 J3.017
G2 X90.539 Y76.508 I-0.099 J3.488
G2 X89.281 Y79.097 I3.502 J3.302
G2 X90.919 Y82.366 I3.437 J0.323
G1 X91.571 Y82.718 0.00000
G1 X91.429 Y83.043 0.00000
G1 X88.955 Y82.196 0.00000
G1 X87.199 Y81.290 0.00000
G3 X85.427 Y79.799 I4.164 J-6.747
G3 X83.942 Y76.136 I4.701 J-4.038
G1 X83.952 Y74.807 0.00000
G1 X84.313 Y72.734 0.00000
G3 X86.059 Y69.621 I6.751 J1.741
G1 X86.798 Y69.004 0.00000
G1 X87.794 Y68.417 0.00000
G1 X88.968 Y67.961 0.00000
G1 X90.503 Y67.626 0.00000
G1 X95.388 Y67.378 0.00000
G1 X93.308 Y65.403 0.00000
G2 X90.030 Y64.541 I-2.758 J3.826
G1 X89.952 Y64.250 0.00000
G1 X91.542 Y63.375 0.00000
G1 X87.730 Y62.583 0.00000
G1 X86.264 Y62.435 0.00000
G1 X85.128 Y62.508 0.00000
G1 X84.943 Y62.550 0.00000
G1 X84.826 Y62.233 0.00000
G1 X85.777 Y61.735 0.00000
G1 X84.920 Y59.874 0.00000
G1 X82.269 Y59.842 0.00000
G1 X82.368 Y57.451 0.00000
G1 X88.586 Y58.246 0.00000
G1 X91.919 Y50.612 0.00000
G1 X89.095 Y48.709 0.00000
G1 X85.709 Y45.964 0.00000
G1 X82.810 Y42.967 0.00000
G1 X80.347 Y39.676 0.00000
G1 X78.295 Y36.041 0.00000
G1 X76.866 Y32.617 0.00000
G1 X75.691 Y28.633 0.00000
G1 X74.881 Y24.231 0.00000
G1 X74.459 Y19.335 0.00000
G1 X74.493 Y11.564 0.00000
G1 X69.087 Y14.602 0.00000
G1 X66.042 Y16.721 0.00000
G1 X63.500 Y18.986 0.00000
G1 X61.309 Y21.585 0.00000
G1 X61.157 Y21.800 0.00000
G1 X60.390 Y23.123 0.00000
G1 X59.815 Y24.612 0.00000
G1 X59.442 Y26.335 0.00000
G1 X59.305 Y28.459 0.00000
G1 X59.460 Y30.498 0.00000
G1 X57.535 Y31.170 0.00000
G1 X58.772 Y34.577 0.00000
G1 X57.218 Y35.631 0.00000
G1 X58.947 Y38.494 0.00000
G1 X56.621 Y37.774 0.00000
G1 X58.371 Y40.574 0.00000
G1 X58.974 Y41.324 0.00000
G1 X58.147 Y42.833 0.00000
G1 X60.230 Y45.047 0.00000
G1 X58.544 Y45.209 0.00000
G1 X57.763 Y43.826 0.00000
G1 X56.429 Y40.504 0.00000
G1 X55.332 Y36.479 0.00000
G1 X54.300 Y30.275 0.00000
G1 X52.531 Y30.239 0.00000
G1 X51.930 Y33.126 0.00000
G1 X51.657 Y36.457 0.00000
G1 X51.833 Y39.724 0.00000
G1 X51.476 Y39.768 0.00000
G1 X51.031 Y37.412 0.00000
G1 X50.904 Y35.066 0.00000
G1 X51.151 Y32.899 0.00000
G1 X51.727 Y30.858 0.00000
G1 X52.681 Y28.738 0.00000
G1 X54.191 Y26.315 0.00000
G1 X54.958 Y25.363 0.00000
G1 X55.214 Y25.454 0.00000
G1 X55.214 Y29.703 0.00000
G1 X56.657 Y30.196 0.00000
G1 X57.324 Y29.333 0.00000
G2 X57.876 Y27.803 I-3.647 J-2.180
G1 X58.835 Y24.254 0.00000
G1 X59.944 Y21.729 0.00000
G1 X61.187 Y19.784 0.00000
G1 X62.617 Y18.173 0.00000
G1 X64.358 Y16.746 0.00000
G2 X71.173 Y12.255 I-181.447 J-282.758
G1 X72.238 Y11.610 0.00000
G3 X74.566 Y11.215 I1.731 J3.142
G3 X76.254 Y12.041 I-1.030 J4.243
G1 X76.208 Y12.614 0.00000
G1 X75.946 Y18.066 0.00000
G1 X76.190 Y22.850 0.00000
G1 X76.983 Y27.855 0.00000
G1 X78.158 Y32.136 0.00000
G1 X78.606 Y33.415 0.00000
G1 X80.383 Y37.477 0.00000
G1 X82.344 Y40.773 0.00000
G1 X84.840 Y43.905 0.00000
G1 X87.664 Y46.532 0.00000
G1 X90.812 Y48.688 0.00000
G1 X93.666 Y50.169 0.00000
G1 X95.978 Y48.867 0.00000
G3 X97.584 Y48.585 I1.259 J2.459
G3 X98.381 Y48.906 I-0.615 J2.677
G3 X100.359 Y50.434 I-6.728 J10.753
G2 X102.289 Y50.869 I1.483 J-2.082
G1 X109.023 Y48.993 0.00000
G1 X115.687 Y47.611 0.00000
G1 X123.052 Y46.520 0.00000
G1 X133.037 Y45.553 0.00000
G1 X138.628 Y45.169 0.00000
G1 X143.758 Y44.600 0.00000
G1 X150.207 Y43.539 0.00000
G1 X150.315 Y43.841 0.00000
G1 X145.755 Y46.481 0.00000
G1 X140.767 Y48.814 0.00000
G1 X138.547 Y49.698 0.00000
G1 X132.943 Y51.580 0.00000
G1 X126.670 Y53.200 0.00000
G1 X118.534 Y54.731 0.00000
G3 X104.480 Y56.527 I-67.196 J-469.931
