; generated by Slic3r 1.3.0 on 2023-03-22 at 12:38:47

; external perimeters extrusion width = 0.50mm (2.95mm^3/s)
; perimeters extrusion width = 0.50mm (2.95mm^3/s)
; infill extrusion width = 0.50mm (2.95mm^3/s)
; solid infill extrusion width = 0.50mm (2.95mm^3/s)
; top infill extrusion width = 0.50mm (2.95mm^3/s)


; Filament gcode

G21 ; set units to millimeters
G90 ; use absolute coordinates
G1 Z-149.500 F900.000
G1 X111.740 Y116.452 F900.000
G1 F900
G1 X110.996 Y115.680 0.00000
G1 X110.489 Y115.001 0.00000
G1 X110.070 Y114.264 0.00000
G1 X109.748 Y113.480 0.00000
G1 X109.554 Y112.774 0.00000
G1 X110.664 Y111.480 0.00000
G1 X111.121 Y111.018 0.00000
G1 X111.660 Y111.077 0.00000
G1 X112.295 Y111.220 0.00000
G1 X112.910 Y111.434 0.00000
G1 X113.496 Y111.716 0.00000
G1 X114.047 Y112.063 0.00000
G1 X114.690 Y112.576 0.00000
G1 X116.233 Y111.833 0.00000
G1 X116.762 Y111.545 0.00000
G1 X116.427 Y110.527 0.00000
G1 X116.264 Y109.695 0.00000
G1 X116.207 Y108.850 0.00000
G1 X116.256 Y108.003 0.00000
G1 X116.388 Y107.283 0.00000
G1 X117.949 Y106.599 0.00000
G1 X118.562 Y106.381 0.00000
G1 X119.022 Y106.668 0.00000
G1 X119.532 Y107.072 0.00000
G1 X119.993 Y107.532 0.00000
G1 X120.399 Y108.041 0.00000
G1 X120.745 Y108.592 0.00000
G1 X121.101 Y109.333 0.00000
G1 X122.814 Y109.333 0.00000
G1 X123.416 Y109.304 0.00000
G1 X123.555 Y108.240 0.00000
G1 X123.770 Y107.420 0.00000
G1 X124.085 Y106.634 0.00000
G1 X124.497 Y105.893 0.00000
G1 X124.928 Y105.301 0.00000
G1 X126.632 Y105.362 0.00000
G1 X127.278 Y105.431 0.00000
G1 X127.568 Y105.890 0.00000
G1 X127.852 Y106.475 0.00000
G1 X128.068 Y107.089 0.00000
G1 X128.213 Y107.724 0.00000
G1 X128.286 Y108.371 0.00000
G1 X128.285 Y109.193 0.00000
G1 X129.828 Y109.936 0.00000
G1 X130.383 Y110.171 0.00000
G1 X130.970 Y109.273 0.00000
G1 X131.519 Y108.628 0.00000
G1 X132.145 Y108.056 0.00000
G1 X132.837 Y107.567 0.00000
G1 X133.483 Y107.220 0.00000
G1 X134.991 Y108.015 0.00000
G1 X135.543 Y108.358 0.00000
G1 X135.605 Y108.896 0.00000
G1 X135.607 Y109.547 0.00000
G1 X135.535 Y110.194 0.00000
G1 X135.391 Y110.829 0.00000
G1 X135.176 Y111.443 0.00000
G1 X134.818 Y112.183 0.00000
G1 X135.886 Y113.523 0.00000
G1 X136.284 Y113.975 0.00000
G1 X137.202 Y113.421 0.00000
G1 X137.977 Y113.077 0.00000
G1 X138.789 Y112.834 0.00000
G1 X139.625 Y112.693 0.00000
G1 X140.357 Y112.662 0.00000
G1 X141.371 Y114.031 0.00000
G1 X141.720 Y114.580 0.00000
G1 X141.542 Y115.092 0.00000
G1 X141.261 Y115.680 0.00000
G1 X140.916 Y116.231 0.00000
G1 X140.510 Y116.740 0.00000
G1 X140.050 Y117.201 0.00000
G1 X139.406 Y117.713 0.00000
G1 X139.788 Y119.383 0.00000
G1 X139.950 Y119.963 0.00000
G1 X141.018 Y119.862 0.00000
G1 X141.865 Y119.889 0.00000
G1 X142.702 Y120.021 0.00000
G1 X143.516 Y120.258 0.00000
G1 X144.189 Y120.547 0.00000
G1 X144.509 Y122.221 0.00000
G1 X144.585 Y122.867 0.00000
G1 X144.203 Y123.251 0.00000
G1 X143.695 Y123.658 0.00000
G1 X143.144 Y124.005 0.00000
G1 X142.558 Y124.288 0.00000
G1 X141.944 Y124.503 0.00000
G1 X141.142 Y124.685 0.00000
G1 X140.760 Y126.355 0.00000
G1 X140.655 Y126.949 0.00000
G1 X141.661 Y127.321 0.00000
G1 X142.413 Y127.712 0.00000
G1 X143.109 Y128.195 0.00000
G1 X143.740 Y128.761 0.00000
G1 X144.221 Y129.314 0.00000
G1 X143.783 Y130.961 0.00000
G1 X143.571 Y131.575 0.00000
G1 X143.060 Y131.756 0.00000
G1 X142.426 Y131.902 0.00000
G1 X141.779 Y131.976 0.00000
G1 X141.128 Y131.977 0.00000
G1 X140.481 Y131.904 0.00000
G1 X139.680 Y131.720 0.00000
G1 X138.612 Y133.059 0.00000
G1 X138.260 Y133.548 0.00000
G1 X139.004 Y134.320 0.00000
G1 X139.511 Y134.999 0.00000
G1 X139.930 Y135.736 0.00000
G1 X140.252 Y136.520 0.00000
G1 X140.446 Y137.226 0.00000
G1 X139.336 Y138.520 0.00000
G1 X138.879 Y138.982 0.00000
G1 X138.340 Y138.923 0.00000
G1 X137.705 Y138.780 0.00000
G1 X137.090 Y138.566 0.00000
G1 X136.504 Y138.284 0.00000
G1 X135.953 Y137.937 0.00000
G1 X135.310 Y137.424 0.00000
G1 X133.767 Y138.167 0.00000
G1 X133.238 Y138.455 0.00000
G1 X133.573 Y139.473 0.00000
G1 X133.736 Y140.305 0.00000
G1 X133.793 Y141.150 0.00000
G1 X133.744 Y141.997 0.00000
G1 X133.612 Y142.717 0.00000
G1 X132.051 Y143.401 0.00000
G1 X131.438 Y143.619 0.00000
G1 X130.978 Y143.332 0.00000
G1 X130.468 Y142.928 0.00000
G1 X130.007 Y142.468 0.00000
G1 X129.601 Y141.959 0.00000
G1 X129.255 Y141.408 0.00000
G1 X128.899 Y140.667 0.00000
G1 X127.186 Y140.667 0.00000
G1 X126.584 Y140.696 0.00000
G1 X126.445 Y141.760 0.00000
G1 X126.230 Y142.580 0.00000
G1 X125.915 Y143.366 0.00000
G1 X125.503 Y144.107 0.00000
G1 X125.072 Y144.699 0.00000
G1 X123.368 Y144.638 0.00000
G1 X122.722 Y144.569 0.00000
G1 X122.432 Y144.110 0.00000
G1 X122.148 Y143.525 0.00000
G1 X121.932 Y142.911 0.00000
G1 X121.787 Y142.276 0.00000
G1 X121.714 Y141.629 0.00000
G1 X121.715 Y140.807 0.00000
G1 X120.172 Y140.064 0.00000
G1 X119.617 Y139.829 0.00000
G1 X119.030 Y140.727 0.00000
G1 X118.481 Y141.372 0.00000
G1 X117.855 Y141.944 0.00000
G1 X117.163 Y142.433 0.00000
G1 X116.517 Y142.780 0.00000
G1 X115.009 Y141.985 0.00000
G1 X114.457 Y141.642 0.00000
G1 X114.395 Y141.104 0.00000
G1 X114.393 Y140.453 0.00000
G1 X114.465 Y139.806 0.00000
G1 X114.609 Y139.171 0.00000
G1 X114.824 Y138.557 0.00000
G1 X115.182 Y137.817 0.00000
G1 X114.114 Y136.477 0.00000
G1 X113.716 Y136.025 0.00000
G1 X112.798 Y136.579 0.00000
G1 X112.023 Y136.923 0.00000
G1 X111.211 Y137.166 0.00000
G1 X110.375 Y137.307 0.00000
G1 X109.643 Y137.338 0.00000
G1 X108.629 Y135.969 0.00000
G1 X108.280 Y135.420 0.00000
G1 X108.458 Y134.908 0.00000
G1 X108.739 Y134.320 0.00000
G1 X109.084 Y133.769 0.00000
G1 X109.490 Y133.260 0.00000
G1 X109.950 Y132.799 0.00000
G1 X110.594 Y132.287 0.00000
G1 X110.212 Y130.617 0.00000
G1 X110.050 Y130.037 0.00000
G1 X108.982 Y130.138 0.00000
G1 X108.135 Y130.111 0.00000
G1 X107.298 Y129.979 0.00000
G1 X106.484 Y129.742 0.00000
G1 X105.811 Y129.453 0.00000
G1 X105.491 Y127.779 0.00000
G1 X105.415 Y127.133 0.00000
G1 X105.797 Y126.749 0.00000
G1 X106.305 Y126.342 0.00000
G1 X106.856 Y125.995 0.00000
G1 X107.442 Y125.712 0.00000
G1 X108.056 Y125.497 0.00000
G1 X108.858 Y125.315 0.00000
G1 X109.240 Y123.645 0.00000
G1 X109.345 Y123.051 0.00000
G1 X108.339 Y122.679 0.00000
G1 X107.587 Y122.288 0.00000
G1 X106.891 Y121.805 0.00000
G1 X106.260 Y121.239 0.00000
G1 X105.779 Y120.686 0.00000
G1 X106.217 Y119.039 0.00000
G1 X106.429 Y118.425 0.00000
G1 X106.940 Y118.244 0.00000
G1 X107.574 Y118.098 0.00000
G1 X108.221 Y118.024 0.00000
G1 X108.872 Y118.023 0.00000
G1 X109.519 Y118.096 0.00000
G1 X110.320 Y118.280 0.00000
G1 X111.388 Y116.941 0.00000
G1 X111.690 Y116.522 0.00000
G1 X112.138 Y116.030 F900.000
G1 X112.251 Y116.415 F900.000
G1 F900
G1 X111.296 Y115.425 0.00000
G1 X110.818 Y114.786 0.00000
G1 X110.424 Y114.092 0.00000
G1 X110.120 Y113.353 0.00000
G1 X109.988 Y112.871 0.00000
G1 X110.953 Y111.747 0.00000
G1 X111.267 Y111.429 0.00000
G1 X111.595 Y111.465 0.00000
G1 X112.187 Y111.599 0.00000
G1 X112.759 Y111.798 0.00000
G1 X113.306 Y112.061 0.00000
G1 X113.819 Y112.383 0.00000
G1 X114.637 Y113.037 0.00000
G1 X116.412 Y112.183 0.00000
G1 X117.238 Y111.734 0.00000
G1 X116.807 Y110.428 0.00000
G1 X116.654 Y109.644 0.00000
G1 X116.600 Y108.848 0.00000
G1 X116.647 Y108.050 0.00000
G1 X116.737 Y107.559 0.00000
G1 X118.094 Y106.964 0.00000
G1 X118.515 Y106.814 0.00000
G1 X118.795 Y106.989 0.00000
G1 X119.270 Y107.366 0.00000
G1 X119.700 Y107.794 0.00000
G1 X120.078 Y108.268 0.00000
G1 X120.401 Y108.782 0.00000
G1 X120.854 Y109.726 0.00000
G1 X122.824 Y109.726 0.00000
G1 X123.763 Y109.680 0.00000
G1 X123.941 Y108.316 0.00000
G1 X124.143 Y107.544 0.00000
G1 X124.440 Y106.803 0.00000
G1 X124.829 Y106.104 0.00000
G1 X125.122 Y105.702 0.00000
G1 X126.605 Y105.754 0.00000
G1 X127.048 Y105.802 0.00000
G1 X127.224 Y106.081 0.00000
G1 X127.489 Y106.627 0.00000
G1 X127.690 Y107.199 0.00000
G1 X127.825 Y107.790 0.00000
G1 X127.893 Y108.392 0.00000
G1 X127.892 Y109.440 0.00000
G1 X129.667 Y110.294 0.00000
G1 X130.533 Y110.660 0.00000
G1 X131.285 Y109.509 0.00000
G1 X131.802 Y108.901 0.00000
G1 X132.391 Y108.362 0.00000
G1 X133.044 Y107.901 0.00000
G1 X133.484 Y107.665 0.00000
G1 X134.795 Y108.356 0.00000
G1 X135.175 Y108.591 0.00000
G1 X135.213 Y108.919 0.00000
G1 X135.214 Y109.526 0.00000
G1 X135.147 Y110.129 0.00000
G1 X135.013 Y110.720 0.00000
G1 X134.812 Y111.292 0.00000
G1 X134.357 Y112.235 0.00000
G1 X135.585 Y113.775 0.00000
G1 X136.207 Y114.481 0.00000
G1 X137.384 Y113.770 0.00000
G1 X138.114 Y113.446 0.00000
G1 X138.878 Y113.217 0.00000
G1 X139.666 Y113.085 0.00000
G1 X140.165 Y113.063 0.00000
G1 X141.047 Y114.254 0.00000
G1 X141.287 Y114.631 0.00000
G1 X141.178 Y114.943 0.00000
G1 X140.917 Y115.490 0.00000
G1 X140.595 Y116.004 0.00000
G1 X140.217 Y116.478 0.00000
G1 X139.788 Y116.907 0.00000
G1 X138.969 Y117.559 0.00000
G1 X139.407 Y119.480 0.00000
G1 X139.661 Y120.385 0.00000
G1 X141.030 Y120.255 0.00000
G1 X141.828 Y120.280 0.00000
G1 X142.616 Y120.405 0.00000
G1 X143.384 Y120.628 0.00000
G1 X143.843 Y120.825 0.00000
G1 X144.120 Y122.281 0.00000
G1 X144.173 Y122.724 0.00000
G1 X143.940 Y122.958 0.00000
G1 X143.467 Y123.338 0.00000
G1 X142.954 Y123.661 0.00000
G1 X142.407 Y123.925 0.00000
G1 X141.835 Y124.125 0.00000
G1 X140.814 Y124.357 0.00000
G1 X140.375 Y126.277 0.00000
G1 X140.212 Y127.203 0.00000
G1 X141.501 Y127.680 0.00000
G1 X142.209 Y128.049 0.00000
G1 X142.865 Y128.504 0.00000
G1 X143.460 Y129.038 0.00000
G1 X143.788 Y129.414 0.00000
G1 X143.407 Y130.846 0.00000
G1 X143.261 Y131.268 0.00000
G1 X142.950 Y131.378 0.00000
G1 X142.359 Y131.515 0.00000
G1 X141.757 Y131.584 0.00000
G1 X141.150 Y131.584 0.00000
G1 X140.548 Y131.516 0.00000
G1 X139.527 Y131.282 0.00000
G1 X138.299 Y132.822 0.00000
G1 X137.749 Y133.585 0.00000
G1 X138.704 Y134.575 0.00000
G1 X139.182 Y135.214 0.00000
G1 X139.576 Y135.908 0.00000
G1 X139.880 Y136.647 0.00000
G1 X140.012 Y137.129 0.00000
G1 X139.047 Y138.253 0.00000
G1 X138.733 Y138.571 0.00000
G1 X138.405 Y138.535 0.00000
G1 X137.813 Y138.401 0.00000
G1 X137.241 Y138.202 0.00000
G1 X136.694 Y137.939 0.00000
G1 X136.181 Y137.617 0.00000
G1 X135.363 Y136.963 0.00000
G1 X133.588 Y137.817 0.00000
G1 X132.762 Y138.266 0.00000
G1 X133.193 Y139.572 0.00000
G1 X133.346 Y140.356 0.00000
G1 X133.400 Y141.152 0.00000
G1 X133.353 Y141.950 0.00000
G1 X133.263 Y142.441 0.00000
G1 X131.906 Y143.036 0.00000
G1 X131.485 Y143.186 0.00000
G1 X131.205 Y143.011 0.00000
G1 X130.730 Y142.634 0.00000
G1 X130.300 Y142.206 0.00000
G1 X129.922 Y141.732 0.00000
G1 X129.599 Y141.218 0.00000
G1 X129.146 Y140.274 0.00000
G1 X127.176 Y140.274 0.00000
G1 X126.237 Y140.320 0.00000
G1 X126.059 Y141.684 0.00000
G1 X125.857 Y142.456 0.00000
G1 X125.560 Y143.197 0.00000
G1 X125.171 Y143.896 0.00000
G1 X124.877 Y144.299 0.00000
G1 X123.396 Y144.246 0.00000
G1 X122.952 Y144.198 0.00000
G1 X122.776 Y143.919 0.00000
G1 X122.511 Y143.373 0.00000
G1 X122.310 Y142.801 0.00000
G1 X122.175 Y142.210 0.00000
G1 X122.107 Y141.608 0.00000
G1 X122.108 Y140.560 0.00000
G1 X120.333 Y139.706 0.00000
G1 X119.467 Y139.340 0.00000
G1 X118.715 Y140.491 0.00000
G1 X118.198 Y141.099 0.00000
G1 X117.609 Y141.638 0.00000
G1 X116.956 Y142.099 0.00000
G1 X116.516 Y142.335 0.00000
G1 X115.205 Y141.644 0.00000
G1 X114.825 Y141.409 0.00000
G1 X114.787 Y141.081 0.00000
G1 X114.786 Y140.474 0.00000
G1 X114.853 Y139.871 0.00000
G1 X114.987 Y139.280 0.00000
G1 X115.188 Y138.708 0.00000
G1 X115.643 Y137.765 0.00000
G1 X114.415 Y136.225 0.00000
G1 X113.793 Y135.519 0.00000
G1 X112.616 Y136.230 0.00000
G1 X111.886 Y136.554 0.00000
G1 X111.122 Y136.783 0.00000
G1 X110.334 Y136.915 0.00000
G1 X109.835 Y136.937 0.00000
G1 X108.953 Y135.746 0.00000
G1 X108.713 Y135.369 0.00000
G1 X108.822 Y135.057 0.00000
G1 X109.083 Y134.510 0.00000
G1 X109.405 Y133.996 0.00000
G1 X109.783 Y133.522 0.00000
G1 X110.212 Y133.093 0.00000
G1 X111.031 Y132.441 0.00000
G1 X110.593 Y130.520 0.00000
G1 X110.339 Y129.615 0.00000
G1 X108.970 Y129.745 0.00000
G1 X108.172 Y129.720 0.00000
G1 X107.384 Y129.595 0.00000
G1 X106.616 Y129.372 0.00000
G1 X106.157 Y129.175 0.00000
G1 X105.880 Y127.719 0.00000
G1 X105.827 Y127.276 0.00000
G1 X106.060 Y127.042 0.00000
G1 X106.533 Y126.662 0.00000
G1 X107.046 Y126.339 0.00000
G1 X107.593 Y126.075 0.00000
G1 X108.165 Y125.875 0.00000
G1 X109.186 Y125.643 0.00000
G1 X109.625 Y123.723 0.00000
G1 X109.788 Y122.797 0.00000
G1 X108.499 Y122.320 0.00000
G1 X107.791 Y121.951 0.00000
G1 X107.135 Y121.496 0.00000
G1 X106.540 Y120.962 0.00000
G1 X106.212 Y120.586 0.00000
G1 X106.593 Y119.154 0.00000
G1 X106.739 Y118.732 0.00000
G1 X107.050 Y118.622 0.00000
G1 X107.641 Y118.485 0.00000
G1 X108.243 Y118.416 0.00000
G1 X108.850 Y118.416 0.00000
G1 X109.452 Y118.484 0.00000
G1 X110.473 Y118.718 0.00000
G1 X111.701 Y117.178 0.00000
G1 X112.200 Y116.486 0.00000
G1 X112.761 Y116.379 F900.000
G1 F900
G1 X111.596 Y115.171 0.00000
G1 X111.147 Y114.571 0.00000
G1 X110.778 Y113.919 0.00000
G1 X110.492 Y113.226 0.00000
G1 X110.422 Y112.968 0.00000
G1 X111.241 Y112.013 0.00000
G1 X111.412 Y111.840 0.00000
G1 X111.530 Y111.853 0.00000
G1 X112.079 Y111.977 0.00000
G1 X112.609 Y112.162 0.00000
G1 X113.116 Y112.405 0.00000
G1 X113.592 Y112.704 0.00000
G1 X114.585 Y113.498 0.00000
G1 X116.591 Y112.532 0.00000
G1 X117.714 Y111.922 0.00000
G1 X117.188 Y110.328 0.00000
G1 X117.044 Y109.593 0.00000
G1 X116.994 Y108.846 0.00000
G1 X117.038 Y108.097 0.00000
G1 X117.086 Y107.835 0.00000
G1 X118.239 Y107.329 0.00000
G1 X118.468 Y107.248 0.00000
G1 X119.009 Y107.660 0.00000
G1 X119.407 Y108.057 0.00000
G1 X119.757 Y108.496 0.00000
G1 X120.056 Y108.972 0.00000
G1 X120.607 Y110.119 0.00000
G1 X122.834 Y110.119 0.00000
G1 X124.110 Y110.056 0.00000
G1 X124.327 Y108.391 0.00000
G1 X124.517 Y107.667 0.00000
G1 X124.796 Y106.972 0.00000
G1 X125.160 Y106.316 0.00000
G1 X125.315 Y106.103 0.00000
G1 X126.578 Y106.146 0.00000
G1 X126.817 Y106.172 0.00000
G1 X127.126 Y106.778 0.00000
G1 X127.312 Y107.308 0.00000
G1 X127.437 Y107.856 0.00000
G1 X127.500 Y108.414 0.00000
G1 X127.499 Y109.686 0.00000
G1 X129.505 Y110.652 0.00000
G1 X130.682 Y111.149 0.00000
G1 X131.600 Y109.744 0.00000
G1 X132.085 Y109.174 0.00000
G1 X132.638 Y108.669 0.00000
G1 X133.251 Y108.236 0.00000
G1 X133.486 Y108.110 0.00000
G1 X134.600 Y108.697 0.00000
G1 X134.806 Y108.825 0.00000
G1 X134.821 Y109.505 0.00000
G1 X134.759 Y110.063 0.00000
G1 X134.635 Y110.611 0.00000
G1 X134.449 Y111.141 0.00000
G1 X133.896 Y112.287 0.00000
G1 X135.284 Y114.028 0.00000
G1 X136.129 Y114.986 0.00000
G1 X137.566 Y114.119 0.00000
G1 X138.250 Y113.815 0.00000
G1 X138.967 Y113.600 0.00000
G1 X139.707 Y113.476 0.00000
G1 X139.974 Y113.464 0.00000
G1 X140.723 Y114.476 0.00000
G1 X140.853 Y114.681 0.00000
G1 X140.572 Y115.301 0.00000
G1 X140.274 Y115.777 0.00000
G1 X139.924 Y116.216 0.00000
G1 X139.526 Y116.614 0.00000
G1 X138.531 Y117.406 0.00000
G1 X139.026 Y119.576 0.00000
G1 X139.371 Y120.807 0.00000
G1 X141.043 Y120.649 0.00000
G1 X141.791 Y120.672 0.00000
G1 X142.530 Y120.789 0.00000
G1 X143.251 Y120.999 0.00000
G1 X143.496 Y121.104 0.00000
G1 X143.732 Y122.341 0.00000
G1 X143.761 Y122.582 0.00000
G1 X143.238 Y123.018 0.00000
G1 X142.763 Y123.317 0.00000
G1 X142.257 Y123.561 0.00000
G1 X141.726 Y123.747 0.00000
G1 X140.486 Y124.028 0.00000
G1 X139.990 Y126.199 0.00000
G1 X139.768 Y127.457 0.00000
G1 X141.342 Y128.040 0.00000
G1 X142.006 Y128.386 0.00000
G1 X142.621 Y128.812 0.00000
G1 X143.180 Y129.314 0.00000
G1 X143.355 Y129.515 0.00000
G1 X143.031 Y130.731 0.00000
G1 X142.952 Y130.961 0.00000
G1 X142.292 Y131.127 0.00000
G1 X141.734 Y131.191 0.00000
G1 X141.172 Y131.191 0.00000
G1 X140.614 Y131.128 0.00000
G1 X139.374 Y130.844 0.00000
G1 X137.986 Y132.585 0.00000
G1 X137.239 Y133.621 0.00000
G1 X138.404 Y134.829 0.00000
G1 X138.853 Y135.429 0.00000
G1 X139.222 Y136.081 0.00000
G1 X139.508 Y136.774 0.00000
G1 X139.578 Y137.032 0.00000
G1 X138.759 Y137.987 0.00000
G1 X138.588 Y138.160 0.00000
G1 X138.470 Y138.147 0.00000
G1 X137.921 Y138.023 0.00000
G1 X137.391 Y137.838 0.00000
G1 X136.884 Y137.595 0.00000
G1 X136.408 Y137.296 0.00000
G1 X135.415 Y136.502 0.00000
G1 X133.409 Y137.468 0.00000
G1 X132.286 Y138.078 0.00000
G1 X132.812 Y139.672 0.00000
G1 X132.956 Y140.407 0.00000
G1 X133.006 Y141.154 0.00000
G1 X132.962 Y141.903 0.00000
G1 X132.914 Y142.165 0.00000
G1 X131.761 Y142.671 0.00000
G1 X131.532 Y142.752 0.00000
G1 X130.991 Y142.340 0.00000
G1 X130.593 Y141.943 0.00000
G1 X130.243 Y141.504 0.00000
G1 X129.944 Y141.028 0.00000
G1 X129.393 Y139.881 0.00000
G1 X127.166 Y139.881 0.00000
G1 X125.890 Y139.944 0.00000
G1 X125.673 Y141.609 0.00000
G1 X125.483 Y142.333 0.00000
G1 X125.204 Y143.028 0.00000
G1 X124.840 Y143.684 0.00000
G1 X124.683 Y143.899 0.00000
G1 X123.425 Y143.854 0.00000
G1 X123.183 Y143.828 0.00000
G1 X122.874 Y143.222 0.00000
G1 X122.688 Y142.692 0.00000
G1 X122.563 Y142.144 0.00000
G1 X122.500 Y141.586 0.00000
G1 X122.501 Y140.314 0.00000
G1 X120.495 Y139.348 0.00000
G1 X119.318 Y138.851 0.00000
G1 X118.400 Y140.256 0.00000
G1 X117.915 Y140.826 0.00000
G1 X117.362 Y141.331 0.00000
G1 X116.749 Y141.764 0.00000
G1 X116.514 Y141.890 0.00000
G1 X115.400 Y141.303 0.00000
G1 X115.194 Y141.175 0.00000
G1 X115.179 Y140.495 0.00000
G1 X115.241 Y139.937 0.00000
G1 X115.365 Y139.389 0.00000
G1 X115.551 Y138.859 0.00000
G1 X116.104 Y137.713 0.00000
G1 X114.716 Y135.972 0.00000
G1 X113.871 Y135.014 0.00000
G1 X112.434 Y135.881 0.00000
G1 X111.750 Y136.185 0.00000
G1 X111.033 Y136.400 0.00000
G1 X110.293 Y136.524 0.00000
G1 X110.026 Y136.536 0.00000
G1 X109.277 Y135.524 0.00000
G1 X109.147 Y135.319 0.00000
G1 X109.428 Y134.699 0.00000
G1 X109.726 Y134.223 0.00000
G1 X110.076 Y133.784 0.00000
G1 X110.474 Y133.386 0.00000
G1 X111.469 Y132.594 0.00000
G1 X110.974 Y130.424 0.00000
G1 X110.629 Y129.193 0.00000
G1 X108.957 Y129.351 0.00000
G1 X108.209 Y129.328 0.00000
G1 X107.470 Y129.211 0.00000
G1 X106.749 Y129.001 0.00000
G1 X106.504 Y128.896 0.00000
G1 X106.268 Y127.659 0.00000
G1 X106.239 Y127.418 0.00000
G1 X106.762 Y126.982 0.00000
G1 X107.237 Y126.683 0.00000
G1 X107.743 Y126.439 0.00000
G1 X108.274 Y126.253 0.00000
G1 X109.514 Y125.972 0.00000
G1 X110.010 Y123.801 0.00000
G1 X110.232 Y122.543 0.00000
G1 X108.658 Y121.960 0.00000
G1 X107.994 Y121.614 0.00000
G1 X107.379 Y121.188 0.00000
G1 X106.820 Y120.686 0.00000
G1 X106.645 Y120.485 0.00000
G1 X106.969 Y119.269 0.00000
G1 X107.048 Y119.039 0.00000
G1 X107.708 Y118.873 0.00000
G1 X108.266 Y118.809 0.00000
G1 X108.828 Y118.809 0.00000
G1 X109.386 Y118.872 0.00000
G1 X110.626 Y119.156 0.00000
G1 X112.014 Y117.415 0.00000
G1 X112.710 Y116.449 0.00000
G1 X115.757 Y118.621 F900.000
G1 F900
G1 X116.497 Y117.632 0.00000
G1 X117.632 Y116.497 0.00000
G1 X118.917 Y115.535 0.00000
G1 X120.326 Y114.766 0.00000
G1 X121.830 Y114.205 0.00000
G1 X123.399 Y113.864 0.00000
G1 X124.980 Y113.751 0.00000
G1 X126.601 Y113.864 0.00000
G1 X128.170 Y114.205 0.00000
G1 X129.674 Y114.766 0.00000
G1 X131.083 Y115.535 0.00000
G1 X132.368 Y116.497 0.00000
G1 X133.503 Y117.632 0.00000
G1 X134.465 Y118.917 0.00000
G1 X135.234 Y120.326 0.00000
G1 X135.795 Y121.830 0.00000
G1 X136.132 Y123.379 0.00000
G1 X136.251 Y125.000 0.00000
G1 X136.136 Y126.601 0.00000
G1 X135.795 Y128.170 0.00000
G1 X135.234 Y129.674 0.00000
G1 X134.465 Y131.083 0.00000
G1 X133.503 Y132.368 0.00000
G1 X132.368 Y133.503 0.00000
G1 X131.083 Y134.465 0.00000
G1 X129.674 Y135.234 0.00000
G1 X128.170 Y135.795 0.00000
G1 X126.601 Y136.136 0.00000
G1 X125.000 Y136.251 0.00000
G1 X123.399 Y136.136 0.00000
G1 X121.830 Y135.795 0.00000
G1 X120.326 Y135.234 0.00000
G1 X118.917 Y134.465 0.00000
G1 X117.632 Y133.503 0.00000
G1 X116.511 Y132.382 0.00000
G1 X115.535 Y131.083 0.00000
G1 X114.766 Y129.674 0.00000
G1 X114.205 Y128.170 0.00000
G1 X113.868 Y126.621 0.00000
G1 X113.749 Y125.000 0.00000
G1 X113.864 Y123.399 0.00000
G1 X114.201 Y121.850 0.00000
G1 X114.766 Y120.327 0.00000
G1 X115.535 Y118.917 0.00000
G1 X115.705 Y118.691 0.00000
G1 X115.508 Y118.097 F900.000
G1 X115.443 Y118.386 F900.000
G1 F900
G1 X116.200 Y117.375 0.00000
G1 X117.375 Y116.200 0.00000
G1 X118.705 Y115.204 0.00000
G1 X120.163 Y114.408 0.00000
G1 X121.719 Y113.827 0.00000
G1 X123.343 Y113.474 0.00000
G1 X124.980 Y113.357 0.00000
G1 X126.657 Y113.474 0.00000
G1 X128.281 Y113.827 0.00000
G1 X129.837 Y114.408 0.00000
G1 X131.295 Y115.204 0.00000
G1 X132.625 Y116.200 0.00000
G1 X133.800 Y117.375 0.00000
G1 X134.796 Y118.705 0.00000
G1 X135.592 Y120.163 0.00000
G1 X136.173 Y121.719 0.00000
G1 X136.522 Y123.323 0.00000
G1 X136.644 Y124.999 0.00000
G1 X136.526 Y126.657 0.00000
G1 X136.173 Y128.281 0.00000
G1 X135.592 Y129.837 0.00000
G1 X134.796 Y131.295 0.00000
G1 X133.800 Y132.625 0.00000
G1 X132.625 Y133.800 0.00000
G1 X131.295 Y134.796 0.00000
G1 X129.837 Y135.592 0.00000
G1 X128.281 Y136.173 0.00000
G1 X126.657 Y136.526 0.00000
G1 X125.000 Y136.644 0.00000
G1 X123.343 Y136.526 0.00000
G1 X121.719 Y136.173 0.00000
G1 X120.163 Y135.592 0.00000
G1 X118.705 Y134.796 0.00000
G1 X117.375 Y133.800 0.00000
G1 X116.214 Y132.640 0.00000
G1 X115.204 Y131.296 0.00000
G1 X114.408 Y129.837 0.00000
G1 X113.827 Y128.281 0.00000
G1 X113.478 Y126.677 0.00000
G1 X113.356 Y125.001 0.00000
G1 X113.474 Y123.343 0.00000
G1 X113.823 Y121.739 0.00000
G1 X114.408 Y120.163 0.00000
G1 X115.204 Y118.705 0.00000
G1 X115.391 Y118.456 0.00000
G1 X115.128 Y118.151 F900.000
G1 F900
G1 X115.902 Y117.117 0.00000
G1 X117.117 Y115.902 0.00000
G1 X118.492 Y114.873 0.00000
G1 X119.999 Y114.050 0.00000
G1 X121.608 Y113.450 0.00000
G1 X123.287 Y113.084 0.00000
G1 X124.980 Y112.963 0.00000
G1 X126.712 Y113.084 0.00000
G1 X128.392 Y113.450 0.00000
G1 X130.001 Y114.050 0.00000
G1 X131.508 Y114.873 0.00000
G1 X132.883 Y115.902 0.00000
G1 X134.098 Y117.117 0.00000
G1 X135.127 Y118.492 0.00000
G1 X135.950 Y119.999 0.00000
G1 X136.550 Y121.608 0.00000
G1 X136.911 Y123.267 0.00000
G1 X137.038 Y124.999 0.00000
G1 X136.916 Y126.713 0.00000
G1 X136.550 Y128.392 0.00000
G1 X135.950 Y130.001 0.00000
G1 X135.127 Y131.508 0.00000
G1 X134.098 Y132.883 0.00000
G1 X132.883 Y134.098 0.00000
G1 X131.508 Y135.127 0.00000
G1 X130.001 Y135.950 0.00000
G1 X128.392 Y136.550 0.00000
G1 X126.713 Y136.916 0.00000
G1 X125.000 Y137.038 0.00000
G1 X123.287 Y136.916 0.00000
G1 X121.608 Y136.550 0.00000
G1 X119.999 Y135.950 0.00000
G1 X118.492 Y135.127 0.00000
G1 X117.117 Y134.098 0.00000
G1 X115.917 Y132.898 0.00000
G1 X114.873 Y131.509 0.00000
G1 X114.050 Y130.001 0.00000
G1 X113.450 Y128.392 0.00000
G1 X113.089 Y126.733 0.00000
G1 X112.962 Y125.001 0.00000
G1 X113.084 Y123.287 0.00000
G1 X113.445 Y121.629 0.00000
G1 X114.049 Y120.000 0.00000
G1 X114.873 Y118.492 0.00000
G1 X115.076 Y118.220 0.00000
G1 X112.432 Y117.507 F900.000
G1 F900
G1 X117.399 Y112.540 0.00000
G1 X116.770 Y112.882 0.00000
G1 X116.249 Y113.133 0.00000
G1 X113.158 Y116.224 0.00000
G1 X112.884 Y115.941 0.00000
G1 X115.174 Y113.650 0.00000
G1 X114.533 Y113.959 0.00000
G1 X114.408 Y113.860 0.00000
G1 X112.611 Y115.657 0.00000
G1 X112.337 Y115.373 0.00000
G1 X114.098 Y113.612 0.00000
G1 X113.789 Y113.364 0.00000
G1 X112.063 Y115.090 0.00000
G1 X111.803 Y114.793 0.00000
G1 X113.479 Y113.117 0.00000
G1 X113.149 Y112.890 0.00000
G1 X111.565 Y114.474 0.00000
G1 X111.350 Y114.132 0.00000
G1 X112.795 Y112.686 0.00000
G1 X112.415 Y112.510 0.00000
G1 X111.148 Y113.776 0.00000
G1 X110.982 Y113.385 0.00000
G1 X112.001 Y112.366 0.00000
G1 X111.542 Y112.268 0.00000
G1 X111.530 Y112.280 0.00000
G1 X111.542 Y112.268 0.00000
G1 X111.831 Y113.203 F900.000
G1 X113.626 Y114.856 F900.000
G1 X114.583 Y115.532 F900.000
G1 X118.298 Y113.308 F900.000
G1 X117.633 Y111.961 F900.000
G1 X118.100 Y111.839 F900.000
G1 F900
G1 X120.058 Y109.882 0.00000
G1 X119.877 Y109.505 0.00000
G1 X117.962 Y111.420 0.00000
G1 X117.824 Y111.001 0.00000
G1 X119.693 Y109.132 0.00000
G1 X119.478 Y108.789 0.00000
G1 X117.685 Y110.582 0.00000
G1 X117.554 Y110.156 0.00000
G1 X119.237 Y108.473 0.00000
G1 X118.974 Y108.179 0.00000
G1 X117.463 Y109.690 0.00000
G1 X117.434 Y109.542 0.00000
G1 X117.410 Y109.185 0.00000
G1 X118.687 Y107.909 0.00000
G1 X118.399 Y107.689 0.00000
G1 X118.313 Y107.726 0.00000
G1 X117.399 Y108.639 0.00000
G1 X117.434 Y108.110 0.00000
G1 X118.313 Y107.726 0.00000
G1 X118.431 Y107.253 F900.000
G1 X118.231 Y108.674 F900.000
G1 X119.732 Y111.947 F900.000
G1 X124.035 Y111.559 F900.000
G1 X124.020 Y110.056 F900.000
G1 X124.530 Y109.867 F900.000
G1 F900
G1 X126.943 Y107.454 0.00000
G1 X126.801 Y107.039 0.00000
G1 X124.614 Y109.226 0.00000
G1 X124.698 Y108.585 0.00000
G1 X126.629 Y106.654 0.00000
G1 X126.574 Y106.541 0.00000
G1 X126.199 Y106.527 0.00000
G1 X124.875 Y107.851 0.00000
G1 X125.151 Y107.141 0.00000
G1 X125.306 Y106.862 0.00000
G1 X125.659 Y106.510 0.00000
G1 X125.566 Y106.593 F900.000
G1 X125.994 Y107.323 F900.000
G1 X125.918 Y110.958 F900.000
G1 X129.963 Y112.470 F900.000
G1 X130.601 Y111.111 F900.000
G1 X131.343 Y110.855 F900.000
G1 F900
G1 X133.590 Y108.608 0.00000
G1 X133.509 Y108.096 F900.000
G1 X133.543 Y109.529 F900.000
G1 X131.920 Y112.745 F900.000
G1 X135.130 Y116.081 F900.000
G1 X136.556 Y116.958 F900.000
G1 X139.136 Y114.971 F900.000
G1 X140.292 Y115.790 F900.000
G1 X139.205 Y116.367 F900.000
G1 F900
G1 X139.679 Y115.894 0.00000
G1 X139.953 Y115.550 0.00000
G1 X140.227 Y115.111 0.00000
G1 X140.414 Y114.722 0.00000
G1 X140.364 Y114.651 0.00000
G1 X135.910 Y119.106 0.00000
G1 X135.713 Y118.745 0.00000
G1 X140.127 Y114.331 0.00000
G1 X139.890 Y114.011 0.00000
G1 X135.516 Y118.385 0.00000
G1 X135.290 Y118.054 0.00000
G1 X139.421 Y113.922 0.00000
G1 X139.057 Y113.983 0.00000
G1 X138.694 Y114.092 0.00000
G1 X135.051 Y117.735 0.00000
G1 X134.813 Y117.416 0.00000
G1 X137.772 Y114.457 0.00000
G1 X136.376 Y115.296 0.00000
G1 X134.574 Y117.098 0.00000
G1 X134.325 Y116.789 0.00000
G1 X135.850 Y115.264 0.00000
G1 X135.589 Y114.968 0.00000
G1 X134.047 Y116.510 0.00000
G1 X133.768 Y116.232 0.00000
G1 X135.328 Y114.672 0.00000
G1 X135.067 Y114.376 0.00000
G1 X133.490 Y115.953 0.00000
G1 X133.211 Y115.675 0.00000
G1 X134.816 Y114.070 0.00000
G1 X134.568 Y113.760 0.00000
G1 X132.902 Y115.426 0.00000
G1 X132.584 Y115.187 0.00000
G1 X134.321 Y113.450 0.00000
G1 X134.074 Y113.140 0.00000
G1 X132.265 Y114.949 0.00000
G1 X131.946 Y114.710 0.00000
G1 X133.827 Y112.830 0.00000
G1 X133.579 Y112.520 0.00000
G1 X131.615 Y114.484 0.00000
G1 X131.255 Y114.287 0.00000
G1 X133.651 Y111.891 0.00000
G1 X134.086 Y110.991 0.00000
G1 X134.135 Y110.850 0.00000
G1 X130.894 Y114.090 0.00000
G1 X130.534 Y113.894 0.00000
G1 X134.354 Y110.073 0.00000
G1 X134.427 Y109.443 0.00000
G1 X130.174 Y113.697 0.00000
G1 X129.769 Y113.544 0.00000
G1 X134.320 Y108.993 0.00000
G1 X133.955 Y108.801 0.00000
G1 X129.363 Y113.393 0.00000
G1 X128.957 Y113.241 0.00000
G1 X130.640 Y111.558 0.00000
G1 X130.249 Y111.393 0.00000
G1 X128.551 Y113.090 0.00000
G1 X128.100 Y112.984 0.00000
G1 X129.857 Y111.227 0.00000
G1 X129.465 Y111.062 0.00000
G1 X127.642 Y112.885 0.00000
G1 X127.185 Y112.785 0.00000
G1 X129.084 Y110.885 0.00000
G1 X128.708 Y110.704 0.00000
G1 X126.721 Y112.691 0.00000
G1 X126.200 Y112.655 0.00000
G1 X128.332 Y110.523 0.00000
G1 X127.956 Y110.342 0.00000
G1 X125.679 Y112.619 0.00000
G1 X125.158 Y112.582 0.00000
G1 X127.580 Y110.161 0.00000
G1 X127.204 Y109.980 0.00000
G1 X124.586 Y112.598 0.00000
G1 X123.985 Y112.641 0.00000
G1 X127.106 Y109.520 0.00000
G1 X127.107 Y108.962 0.00000
G1 X123.385 Y112.684 0.00000
G1 X123.231 Y112.695 0.00000
G1 X122.702 Y112.810 0.00000
G1 X127.104 Y108.407 0.00000
G1 X127.047 Y107.908 0.00000
G1 X121.990 Y112.965 0.00000
G1 X121.498 Y113.072 0.00000
G1 X121.223 Y113.174 0.00000
G1 X123.940 Y110.457 0.00000
G1 X123.354 Y110.486 0.00000
G1 X120.334 Y113.506 0.00000
G1 X119.836 Y113.692 0.00000
G1 X119.297 Y113.986 0.00000
G1 X122.772 Y110.511 0.00000
G1 X122.214 Y110.511 0.00000
G1 X117.900 Y114.825 0.00000
G1 X116.859 Y115.605 0.00000
G1 X115.605 Y116.859 0.00000
G1 X114.825 Y117.900 0.00000
G1 X110.502 Y122.224 0.00000
G1 X110.095 Y122.073 0.00000
G1 X121.657 Y110.511 0.00000
G1 X121.100 Y110.511 0.00000
G1 X109.688 Y121.923 0.00000
G1 X109.282 Y121.772 0.00000
G1 X120.543 Y110.511 0.00000
G1 X120.360 Y110.511 0.00000
G1 X120.238 Y110.258 0.00000
G1 X108.875 Y121.621 0.00000
G1 X108.503 Y121.436 0.00000
G1 X110.426 Y119.513 0.00000
G1 X109.973 Y119.409 0.00000
G1 X108.143 Y121.239 0.00000
G1 X107.814 Y121.011 0.00000
G1 X109.520 Y119.305 0.00000
G1 X109.320 Y119.259 0.00000
G1 X109.040 Y119.228 0.00000
G1 X107.499 Y120.768 0.00000
G1 X107.206 Y120.505 0.00000
G1 X108.509 Y119.202 0.00000
G1 X108.289 Y119.202 0.00000
G1 X107.908 Y119.245 0.00000
G1 X107.191 Y119.962 0.00000
G1 X107.350 Y119.368 0.00000
G1 X107.778 Y119.260 0.00000
G1 X107.908 Y119.245 0.00000
G1 X110.502 Y122.224 F900.000
G1 F900
G1 X110.676 Y122.288 0.00000
G1 X110.608 Y122.675 0.00000
G1 X113.986 Y119.297 0.00000
G1 X113.691 Y119.837 0.00000
G1 X113.507 Y120.333 0.00000
G1 X110.488 Y123.352 0.00000
G1 X110.358 Y124.039 0.00000
G1 X113.178 Y121.219 0.00000
G1 X113.067 Y121.518 0.00000
G1 X112.965 Y121.990 0.00000
G1 X110.193 Y124.761 0.00000
G1 X110.028 Y125.483 0.00000
G1 X112.810 Y122.702 0.00000
G1 X112.695 Y123.231 0.00000
G1 X112.684 Y123.385 0.00000
G1 X109.863 Y126.206 0.00000
G1 X107.273 Y127.124 F900.000
G1 F900
G1 X106.993 Y127.301 0.00000
G1 X106.654 Y127.583 0.00000
G1 X106.679 Y127.718 0.00000
G1 X107.273 Y127.124 0.00000
G1 X107.428 Y127.027 0.00000
G1 X107.894 Y126.802 0.00000
G1 X108.292 Y126.663 0.00000
G1 X106.768 Y128.186 0.00000
G1 X106.850 Y128.618 0.00000
G1 X106.881 Y128.631 0.00000
G1 X109.027 Y126.485 0.00000
G1 X109.748 Y126.321 0.00000
G1 X107.313 Y128.756 0.00000
G1 X107.555 Y128.827 0.00000
G1 X107.766 Y128.860 0.00000
G1 X112.641 Y123.985 0.00000
G1 X112.598 Y124.586 0.00000
G1 X108.247 Y128.936 0.00000
G1 X108.787 Y128.953 0.00000
G1 X112.580 Y125.161 0.00000
G1 X112.618 Y125.680 0.00000
G1 X109.381 Y128.917 0.00000
G1 X109.996 Y128.859 0.00000
G1 X112.656 Y126.199 0.00000
G1 X112.694 Y126.718 0.00000
G1 X110.612 Y128.801 0.00000
G1 X110.918 Y128.772 0.00000
G1 X110.979 Y128.990 0.00000
G1 X112.785 Y127.185 0.00000
G1 X112.885 Y127.642 0.00000
G1 X111.102 Y129.425 0.00000
G1 X111.224 Y129.861 0.00000
G1 X112.984 Y128.100 0.00000
G1 X113.090 Y128.551 0.00000
G1 X111.346 Y130.296 0.00000
G1 X111.451 Y130.748 0.00000
G1 X113.241 Y128.957 0.00000
G1 X113.393 Y129.363 0.00000
G1 X111.554 Y131.202 0.00000
G1 X111.658 Y131.655 0.00000
G1 X113.544 Y129.769 0.00000
G1 X113.697 Y130.174 0.00000
G1 X111.761 Y132.109 0.00000
G1 X111.865 Y132.563 0.00000
G1 X113.894 Y130.534 0.00000
G1 X114.090 Y130.894 0.00000
G1 X109.636 Y135.349 0.00000
G1 X109.873 Y135.669 0.00000
G1 X114.287 Y131.255 0.00000
G1 X114.484 Y131.615 0.00000
G1 X110.110 Y135.989 0.00000
G1 X110.217 Y136.134 0.00000
G1 X110.579 Y136.078 0.00000
G1 X114.711 Y131.946 0.00000
G1 X114.950 Y132.264 0.00000
G1 X111.306 Y135.908 0.00000
G1 X111.613 Y135.816 0.00000
G1 X112.228 Y135.543 0.00000
G1 X115.189 Y132.582 0.00000
G1 X115.428 Y132.901 0.00000
G1 X113.624 Y134.704 0.00000
G1 X113.949 Y134.508 0.00000
G1 X114.150 Y134.736 0.00000
G1 X115.675 Y133.211 0.00000
G1 X115.953 Y133.490 0.00000
G1 X114.411 Y135.032 0.00000
G1 X114.672 Y135.328 0.00000
G1 X116.232 Y133.768 0.00000
G1 X116.510 Y134.047 0.00000
G1 X114.933 Y135.624 0.00000
G1 X115.184 Y135.930 0.00000
G1 X116.789 Y134.325 0.00000
G1 X117.098 Y134.574 0.00000
G1 X115.432 Y136.240 0.00000
G1 X115.679 Y136.550 0.00000
G1 X117.416 Y134.813 0.00000
G1 X117.735 Y135.051 0.00000
G1 X115.926 Y136.860 0.00000
G1 X116.173 Y137.170 0.00000
G1 X118.054 Y135.290 0.00000
G1 X118.385 Y135.516 0.00000
G1 X116.421 Y137.480 0.00000
G1 X116.565 Y137.661 0.00000
G1 X116.349 Y138.109 0.00000
G1 X118.745 Y135.713 0.00000
G1 X119.106 Y135.910 0.00000
G1 X115.865 Y139.150 0.00000
G1 X115.743 Y139.498 0.00000
G1 X115.646 Y139.927 0.00000
G1 X119.466 Y136.106 0.00000
G1 X119.826 Y136.303 0.00000
G1 X115.573 Y140.557 0.00000
G1 X115.582 Y140.954 0.00000
G1 X115.595 Y140.963 0.00000
G1 X115.680 Y141.007 0.00000
G1 X120.231 Y136.456 0.00000
G1 X120.637 Y136.607 0.00000
G1 X116.045 Y141.199 0.00000
G1 X116.410 Y141.392 0.00000
G1 X118.657 Y139.145 0.00000
G1 X119.169 Y138.361 0.00000
G1 X119.360 Y138.442 0.00000
G1 X121.043 Y136.759 0.00000
G1 X121.449 Y136.910 0.00000
G1 X119.751 Y138.607 0.00000
G1 X120.143 Y138.773 0.00000
G1 X121.900 Y137.016 0.00000
G1 X122.358 Y137.115 0.00000
G1 X120.535 Y138.938 0.00000
G1 X120.916 Y139.115 0.00000
G1 X122.816 Y137.215 0.00000
G1 X123.279 Y137.309 0.00000
G1 X121.292 Y139.296 0.00000
G1 X121.668 Y139.477 0.00000
G1 X123.799 Y137.346 0.00000
G1 X124.319 Y137.383 0.00000
G1 X122.044 Y139.658 0.00000
G1 X122.420 Y139.839 0.00000
G1 X124.839 Y137.420 0.00000
G1 X125.000 Y137.432 0.00000
G1 X125.415 Y137.402 0.00000
G1 X122.796 Y140.020 0.00000
G1 X122.894 Y140.067 0.00000
G1 X122.894 Y140.480 0.00000
G1 X126.015 Y137.359 0.00000
G1 X126.615 Y137.316 0.00000
G1 X122.893 Y141.038 0.00000
G1 X122.896 Y141.593 0.00000
G1 X127.298 Y137.190 0.00000
G1 X128.010 Y137.035 0.00000
G1 X122.953 Y142.092 0.00000
G1 X123.057 Y142.546 0.00000
G1 X125.470 Y140.133 0.00000
G1 X125.544 Y139.568 0.00000
G1 X126.060 Y139.543 0.00000
G1 X128.777 Y136.826 0.00000
G1 X129.666 Y136.494 0.00000
G1 X126.646 Y139.514 0.00000
G1 X127.228 Y139.489 0.00000
G1 X130.703 Y136.014 0.00000
G1 X131.721 Y135.458 0.00000
G1 X132.100 Y135.175 0.00000
G1 X127.786 Y139.489 0.00000
G1 X128.343 Y139.489 0.00000
G1 X139.905 Y127.927 0.00000
G1 X140.312 Y128.077 0.00000
G1 X128.900 Y139.489 0.00000
G1 X129.457 Y139.489 0.00000
G1 X140.718 Y128.228 0.00000
G1 X141.125 Y128.379 0.00000
G1 X129.762 Y139.742 0.00000
G1 X129.942 Y140.118 0.00000
G1 X131.900 Y138.161 0.00000
G1 X131.811 Y137.890 0.00000
G1 X132.601 Y137.460 0.00000
G1 X137.567 Y132.493 0.00000
G1 X136.729 Y133.658 0.00000
G1 X136.842 Y133.776 0.00000
G1 X133.751 Y136.867 0.00000
G1 X134.826 Y136.350 0.00000
G1 X137.116 Y134.059 0.00000
G1 X137.389 Y134.343 0.00000
G1 X135.592 Y136.140 0.00000
G1 X135.902 Y136.388 0.00000
G1 X137.663 Y134.627 0.00000
G1 X137.937 Y134.910 0.00000
G1 X136.211 Y136.636 0.00000
G1 X136.521 Y136.883 0.00000
G1 X138.197 Y135.207 0.00000
G1 X138.435 Y135.526 0.00000
G1 X136.851 Y137.110 0.00000
G1 X137.205 Y137.314 0.00000
G1 X138.650 Y135.868 0.00000
G1 X138.852 Y136.224 0.00000
G1 X137.585 Y137.490 0.00000
G1 X137.999 Y137.634 0.00000
G1 X139.018 Y136.615 0.00000
G1 X139.144 Y136.934 0.00000
G1 X138.458 Y137.732 0.00000
G1 X137.567 Y132.493 F900.000
G1 F900
G1 X139.221 Y130.406 0.00000
G1 X139.574 Y130.487 0.00000
G1 X141.497 Y128.564 0.00000
G1 X141.857 Y128.761 0.00000
G1 X140.027 Y130.591 0.00000
G1 X140.480 Y130.695 0.00000
G1 X142.186 Y128.989 0.00000
G1 X142.501 Y129.232 0.00000
G1 X140.960 Y130.772 0.00000
G1 X141.194 Y130.799 0.00000
G1 X141.491 Y130.798 0.00000
G1 X142.794 Y129.495 0.00000
G1 X142.922 Y129.615 0.00000
G1 X142.809 Y130.038 0.00000
G1 X142.092 Y130.755 0.00000
G1 X137.359 Y126.015 F900.000
G1 F900
G1 X142.234 Y121.140 0.00000
G1 X141.753 Y121.064 0.00000
G1 X137.402 Y125.415 0.00000
G1 X137.432 Y124.999 0.00000
G1 X137.420 Y124.839 0.00000
G1 X141.213 Y121.047 0.00000
G1 X141.055 Y121.042 0.00000
G1 X140.619 Y121.083 0.00000
G1 X137.382 Y124.320 0.00000
G1 X137.344 Y123.801 0.00000
G1 X140.004 Y121.141 0.00000
G1 X139.388 Y121.199 0.00000
G1 X137.306 Y123.282 0.00000
G1 X137.215 Y122.816 0.00000
G1 X139.021 Y121.010 0.00000
G1 X138.898 Y120.575 0.00000
G1 X137.115 Y122.358 0.00000
G1 X137.016 Y121.900 0.00000
G1 X138.776 Y120.139 0.00000
G1 X138.654 Y119.704 0.00000
G1 X136.910 Y121.449 0.00000
G1 X136.759 Y121.043 0.00000
G1 X138.549 Y119.252 0.00000
G1 X138.446 Y118.798 0.00000
G1 X136.607 Y120.637 0.00000
G1 X136.456 Y120.231 0.00000
G1 X138.342 Y118.345 0.00000
G1 X138.239 Y117.891 0.00000
G1 X136.303 Y119.826 0.00000
G1 X136.106 Y119.466 0.00000
G1 X138.135 Y117.437 0.00000
G1 X140.137 Y123.795 F900.000
G1 F900
G1 X137.316 Y126.615 0.00000
G1 X137.305 Y126.769 0.00000
G1 X137.190 Y127.298 0.00000
G1 X139.972 Y124.517 0.00000
G1 X139.807 Y125.239 0.00000
G1 X137.035 Y128.010 0.00000
G1 X136.928 Y128.502 0.00000
G1 X136.826 Y128.777 0.00000
G1 X139.642 Y125.961 0.00000
G1 X139.512 Y126.648 0.00000
G1 X136.494 Y129.666 0.00000
G1 X136.308 Y130.164 0.00000
G1 X136.014 Y130.703 0.00000
G1 X139.392 Y127.325 0.00000
G1 X139.324 Y127.712 0.00000
G1 X139.498 Y127.776 0.00000
G1 X135.175 Y132.100 0.00000
G1 X131.900 Y138.161 F900.000
G1 F900
G1 X132.038 Y138.580 0.00000
G1 X130.123 Y140.495 0.00000
G1 X130.307 Y140.868 0.00000
G1 X132.176 Y138.999 0.00000
G1 X132.315 Y139.418 0.00000
G1 X130.522 Y141.211 0.00000
G1 X130.763 Y141.527 0.00000
G1 X132.446 Y139.844 0.00000
G1 X132.537 Y140.310 0.00000
G1 X131.026 Y141.821 0.00000
G1 X131.313 Y142.091 0.00000
G1 X132.590 Y140.815 0.00000
G1 X132.613 Y141.156 0.00000
G1 X132.601 Y141.361 0.00000
G1 X131.687 Y142.274 0.00000
G1 X131.569 Y142.747 F900.000
G1 X131.769 Y141.326 F900.000
G1 X130.268 Y138.053 F900.000
G1 X125.965 Y138.441 F900.000
G1 X125.114 Y138.598 F900.000
G1 X124.082 Y139.043 F900.000
G1 X124.015 Y142.646 F900.000
G1 X124.668 Y143.922 F900.000
G1 X124.338 Y143.494 F900.000
G1 F900
G1 X124.694 Y143.138 0.00000
G1 X124.849 Y142.859 0.00000
G1 X125.125 Y142.149 0.00000
G1 X123.800 Y143.475 0.00000
G1 X123.436 Y143.461 0.00000
G1 X123.376 Y143.342 0.00000
G1 X125.302 Y141.416 0.00000
G1 X125.386 Y140.774 0.00000
G1 X123.199 Y142.961 0.00000
G1 X123.057 Y142.546 0.00000
G1 X122.666 Y142.698 F900.000
G1 X124.028 Y142.305 F900.000
G1 X124.082 Y139.043 F900.000
G1 X119.478 Y137.356 F900.000
G1 X118.080 Y137.255 F900.000
G1 X114.870 Y133.919 F900.000
G1 X113.444 Y133.042 F900.000
G1 X113.172 Y132.083 F900.000
G1 X111.417 Y132.502 F900.000
G1 X111.865 Y132.563 F900.000
G1 F900
G1 X111.907 Y132.748 0.00000
G1 X110.795 Y133.632 0.00000
G1 X110.321 Y134.106 0.00000
G1 X109.708 Y134.210 F900.000
G1 X110.864 Y135.029 F900.000
G1 X113.444 Y133.042 F900.000
G1 X114.870 Y133.919 F900.000
G1 X118.080 Y137.255 F900.000
G1 X119.478 Y137.356 F900.000
G1 X124.082 Y139.043 F900.000
G1 X125.114 Y138.598 F900.000
G1 X125.965 Y138.441 F900.000
G1 X130.268 Y138.053 F900.000
G1 X130.797 Y137.404 F900.000
G1 X131.702 Y136.692 F900.000
G1 X135.417 Y134.468 F900.000
G1 X136.114 Y132.629 F900.000
G1 X138.506 Y129.022 F900.000
G1 X138.331 Y127.053 F900.000
G1 X138.725 Y123.749 F900.000
G1 X140.492 Y124.135 F900.000
G1 X140.137 Y123.795 F900.000
G1 F900
G1 X140.158 Y123.700 0.00000
G1 X140.252 Y123.679 0.00000
G1 X142.687 Y121.244 0.00000
G1 X143.119 Y121.369 0.00000
G1 X140.973 Y123.515 0.00000
G1 X141.708 Y123.337 0.00000
G1 X143.232 Y121.814 0.00000
G1 X143.321 Y122.282 0.00000
G1 X142.727 Y122.875 0.00000
G1 Z-149.000 F900.000
G1 X142.650 Y122.972 F900.000
G1 X141.950 Y121.765 F900.000
G1 X138.811 Y122.487 F900.000
G1 X137.878 Y121.111 F900.000
G1 X136.350 Y116.747 F900.000
G1 X135.125 Y116.086 F900.000
G1 X131.645 Y112.640 F900.000
G1 X130.530 Y112.624 F900.000
G1 X129.698 Y112.418 F900.000
G1 X125.624 Y110.982 F900.000
G1 X124.823 Y111.377 F900.000
G1 X123.774 Y111.624 F900.000
G1 X119.474 Y112.090 F900.000
G1 X118.091 Y113.480 F900.000
G1 X115.263 Y115.301 F900.000
G1 X114.410 Y115.772 F900.000
G1 X113.996 Y115.520 F900.000
G1 X112.612 Y116.745 F900.000
G1 X111.651 Y116.770 F900.000
G1 F900
G1 X110.888 Y116.010 0.00000
G1 X110.368 Y115.341 0.00000
G1 X109.935 Y114.613 0.00000
G1 X109.597 Y113.835 0.00000
G1 X109.387 Y113.128 0.00000
G1 X110.750 Y111.517 0.00000
G1 X110.894 Y111.372 0.00000
G1 X111.432 Y111.421 0.00000
G1 X112.069 Y111.552 0.00000
G1 X112.688 Y111.754 0.00000
G1 X113.280 Y112.024 0.00000
G1 X113.838 Y112.360 0.00000
G1 X114.487 Y112.858 0.00000
G1 X115.330 Y112.453 0.00000
G1 X116.543 Y111.793 0.00000
G1 X116.186 Y110.778 0.00000
G1 X116.007 Y109.949 0.00000
G1 X115.934 Y109.105 0.00000
G1 X115.967 Y108.257 0.00000
G1 X116.084 Y107.529 0.00000
G1 X118.011 Y106.670 0.00000
G1 X118.204 Y106.601 0.00000
G1 X118.667 Y106.879 0.00000
G1 X119.185 Y107.273 0.00000
G1 X119.655 Y107.723 0.00000
G1 X120.071 Y108.224 0.00000
G1 X120.428 Y108.768 0.00000
G1 X120.796 Y109.499 0.00000
G1 X121.731 Y109.499 0.00000
G1 X123.111 Y109.432 0.00000
G1 X123.230 Y108.362 0.00000
G1 X123.428 Y107.538 0.00000
G1 X123.728 Y106.745 0.00000
G1 X124.126 Y105.996 0.00000
G1 X124.548 Y105.391 0.00000
G1 X126.656 Y105.452 0.00000
G1 X126.860 Y105.474 0.00000
G1 X127.157 Y105.925 0.00000
G1 X127.452 Y106.506 0.00000
G1 X127.680 Y107.115 0.00000
G1 X127.838 Y107.747 0.00000
G1 X127.923 Y108.392 0.00000
G1 X127.938 Y109.211 0.00000
G1 X128.781 Y109.616 0.00000
G1 X130.053 Y110.154 0.00000
G1 X130.624 Y109.242 0.00000
G1 X131.160 Y108.585 0.00000
G1 X131.775 Y108.001 0.00000
G1 X132.458 Y107.499 0.00000
G1 X133.101 Y107.136 0.00000
G1 X134.974 Y108.107 0.00000
G1 X135.147 Y108.215 0.00000
G1 X135.219 Y108.750 0.00000
G1 X135.234 Y109.401 0.00000
G1 X135.175 Y110.049 0.00000
G1 X135.043 Y110.686 0.00000
G1 X134.840 Y111.305 0.00000
G1 X134.498 Y112.049 0.00000
G1 X135.081 Y112.780 0.00000
G1 X135.994 Y113.817 0.00000
G1 X136.905 Y113.242 0.00000
G1 X137.673 Y112.884 0.00000
G1 X138.479 Y112.624 0.00000
G1 X139.313 Y112.468 0.00000
G1 X140.049 Y112.420 0.00000
G1 X141.316 Y114.107 0.00000
G1 X141.425 Y114.280 0.00000
G1 X141.258 Y114.793 0.00000
G1 X140.988 Y115.386 0.00000
G1 X140.654 Y115.944 0.00000
G1 X140.259 Y116.461 0.00000
G1 X139.807 Y116.930 0.00000
G1 X139.177 Y117.453 0.00000
G1 X139.385 Y118.364 0.00000
G1 X139.758 Y119.694 0.00000
G1 X140.827 Y119.572 0.00000
G1 X141.675 Y119.582 0.00000
G1 X142.514 Y119.698 0.00000
G1 X143.333 Y119.919 0.00000
G1 X144.017 Y120.195 0.00000
G1 X144.426 Y122.265 0.00000
G1 X144.450 Y122.468 0.00000
G1 X144.076 Y122.858 0.00000
G1 X143.576 Y123.275 0.00000
G1 X143.033 Y123.633 0.00000
G1 X142.452 Y123.927 0.00000
G1 X141.842 Y124.154 0.00000
G1 X141.047 Y124.351 0.00000
G1 X140.839 Y125.263 0.00000
G1 X140.598 Y126.623 0.00000
G1 X141.615 Y126.977 0.00000
G1 X142.374 Y127.353 0.00000
G1 X143.080 Y127.822 0.00000
G1 X143.722 Y128.376 0.00000
G1 X144.218 Y128.922 0.00000
G1 X143.689 Y130.965 0.00000
G1 X143.622 Y131.158 0.00000
G1 X143.116 Y131.347 0.00000
G1 X142.485 Y131.506 0.00000
G1 X141.840 Y131.593 0.00000
G1 X141.189 Y131.606 0.00000
G1 X140.541 Y131.546 0.00000
G1 X139.740 Y131.378 0.00000
G1 X139.157 Y132.109 0.00000
G1 X138.349 Y133.230 0.00000
G1 X139.112 Y133.990 0.00000
G1 X139.632 Y134.659 0.00000
G1 X140.065 Y135.387 0.00000
G1 X140.403 Y136.165 0.00000
G1 X140.613 Y136.872 0.00000
G1 X139.250 Y138.483 0.00000
G1 X139.106 Y138.628 0.00000
G1 X138.568 Y138.579 0.00000
G1 X137.931 Y138.448 0.00000
G1 X137.312 Y138.246 0.00000
G1 X136.720 Y137.976 0.00000
G1 X136.162 Y137.640 0.00000
G1 X135.513 Y137.142 0.00000
G1 X134.670 Y137.547 0.00000
G1 X133.457 Y138.207 0.00000
G1 X133.814 Y139.222 0.00000
G1 X133.993 Y140.051 0.00000
G1 X134.066 Y140.895 0.00000
G1 X134.033 Y141.743 0.00000
G1 X133.916 Y142.471 0.00000
G1 X131.989 Y143.330 0.00000
G1 X131.796 Y143.399 0.00000
G1 X131.333 Y143.121 0.00000
G1 X130.815 Y142.727 0.00000
G1 X130.345 Y142.276 0.00000
G1 X129.929 Y141.776 0.00000
G1 X129.572 Y141.232 0.00000
G1 X129.204 Y140.501 0.00000
G1 X128.269 Y140.501 0.00000
G1 X126.889 Y140.568 0.00000
G1 X126.770 Y141.638 0.00000
G1 X126.572 Y142.462 0.00000
G1 X126.272 Y143.255 0.00000
G1 X125.874 Y144.004 0.00000
G1 X125.448 Y144.615 0.00000
G1 X123.343 Y144.548 0.00000
G1 X123.140 Y144.526 0.00000
G1 X122.843 Y144.075 0.00000
G1 X122.548 Y143.494 0.00000
G1 X122.320 Y142.885 0.00000
G1 X122.162 Y142.253 0.00000
G1 X122.077 Y141.608 0.00000
G1 X122.062 Y140.789 0.00000
G1 X121.219 Y140.384 0.00000
G1 X119.947 Y139.846 0.00000
G1 X119.376 Y140.758 0.00000
G1 X118.840 Y141.415 0.00000
G1 X118.225 Y141.999 0.00000
G1 X117.542 Y142.501 0.00000
G1 X116.899 Y142.864 0.00000
G1 X115.026 Y141.893 0.00000
G1 X114.853 Y141.785 0.00000
G1 X114.781 Y141.250 0.00000
G1 X114.766 Y140.599 0.00000
G1 X114.825 Y139.951 0.00000
G1 X114.957 Y139.314 0.00000
G1 X115.160 Y138.695 0.00000
G1 X115.502 Y137.951 0.00000
G1 X114.919 Y137.220 0.00000
G1 X114.006 Y136.183 0.00000
G1 X113.095 Y136.758 0.00000
G1 X112.327 Y137.116 0.00000
G1 X111.521 Y137.376 0.00000
G1 X110.687 Y137.532 0.00000
G1 X109.951 Y137.580 0.00000
G1 X108.684 Y135.893 0.00000
G1 X108.575 Y135.720 0.00000
G1 X108.742 Y135.207 0.00000
G1 X109.012 Y134.614 0.00000
G1 X109.346 Y134.056 0.00000
G1 X109.741 Y133.539 0.00000
G1 X110.193 Y133.070 0.00000
G1 X110.823 Y132.547 0.00000
G1 X110.615 Y131.636 0.00000
G1 X110.242 Y130.306 0.00000
G1 X109.173 Y130.428 0.00000
G1 X108.325 Y130.418 0.00000
G1 X107.486 Y130.302 0.00000
G1 X106.667 Y130.081 0.00000
G1 X105.983 Y129.805 0.00000
G1 X105.574 Y127.735 0.00000
G1 X105.550 Y127.532 0.00000
G1 X105.924 Y127.142 0.00000
G1 X106.424 Y126.725 0.00000
G1 X106.967 Y126.367 0.00000
G1 X107.548 Y126.073 0.00000
G1 X108.158 Y125.846 0.00000
G1 X108.953 Y125.649 0.00000
G1 X109.161 Y124.737 0.00000
G1 X109.402 Y123.377 0.00000
G1 X108.385 Y123.023 0.00000
G1 X107.626 Y122.647 0.00000
G1 X106.920 Y122.178 0.00000
G1 X106.278 Y121.624 0.00000
G1 X105.782 Y121.078 0.00000
G1 X106.311 Y119.035 0.00000
G1 X106.378 Y118.842 0.00000
G1 X106.884 Y118.653 0.00000
G1 X107.515 Y118.494 0.00000
G1 X108.160 Y118.407 0.00000
G1 X108.811 Y118.394 0.00000
G1 X109.459 Y118.454 0.00000
G1 X110.260 Y118.622 0.00000
G1 X110.843 Y117.891 0.00000
G1 X111.600 Y116.840 0.00000
G1 X112.040 Y116.340 F900.000
G1 X112.165 Y116.728 F900.000
G1 F900
G1 X111.183 Y115.749 0.00000
G1 X110.693 Y115.120 0.00000
G1 X110.285 Y114.433 0.00000
G1 X109.967 Y113.700 0.00000
G1 X109.821 Y113.209 0.00000
G1 X111.042 Y111.780 0.00000
G1 X111.374 Y111.810 0.00000
G1 X111.969 Y111.932 0.00000
G1 X112.545 Y112.120 0.00000
G1 X113.097 Y112.372 0.00000
G1 X113.616 Y112.685 0.00000
G1 X114.440 Y113.317 0.00000
G1 X115.509 Y112.802 0.00000
G1 X117.025 Y111.978 0.00000
G1 X116.565 Y110.670 0.00000
G1 X116.396 Y109.890 0.00000
G1 X116.327 Y109.095 0.00000
G1 X116.358 Y108.296 0.00000
G1 X116.440 Y107.791 0.00000
G1 X118.160 Y107.033 0.00000
G1 X118.446 Y107.204 0.00000
G1 X118.929 Y107.572 0.00000
G1 X119.367 Y107.992 0.00000
G1 X119.755 Y108.458 0.00000
G1 X120.087 Y108.965 0.00000
G1 X120.555 Y109.892 0.00000
G1 X121.741 Y109.892 0.00000
G1 X123.465 Y109.807 0.00000
G1 X123.618 Y108.430 0.00000
G1 X123.804 Y107.654 0.00000
G1 X124.087 Y106.907 0.00000
G1 X124.461 Y106.201 0.00000
G1 X124.754 Y105.781 0.00000
G1 X126.633 Y105.845 0.00000
G1 X126.817 Y106.123 0.00000
G1 X127.092 Y106.664 0.00000
G1 X127.304 Y107.232 0.00000
G1 X127.451 Y107.820 0.00000
G1 X127.531 Y108.421 0.00000
G1 X127.550 Y109.459 0.00000
G1 X128.619 Y109.974 0.00000
G1 X130.209 Y110.646 0.00000
G1 X130.944 Y109.471 0.00000
G1 X131.449 Y108.853 0.00000
G1 X132.027 Y108.303 0.00000
G1 X132.671 Y107.829 0.00000
G1 X133.118 Y107.578 0.00000
G1 X134.783 Y108.450 0.00000
G1 X134.827 Y108.781 0.00000
G1 X134.841 Y109.388 0.00000
G1 X134.786 Y109.991 0.00000
G1 X134.663 Y110.585 0.00000
G1 X134.474 Y111.161 0.00000
G1 X134.040 Y112.105 0.00000
G1 X134.780 Y113.032 0.00000
G1 X135.921 Y114.327 0.00000
G1 X137.093 Y113.588 0.00000
G1 X137.816 Y113.250 0.00000
G1 X138.576 Y113.005 0.00000
G1 X139.362 Y112.858 0.00000
G1 X139.873 Y112.825 0.00000
G1 X140.995 Y114.334 0.00000
G1 X140.891 Y114.651 0.00000
G1 X140.640 Y115.203 0.00000
G1 X140.328 Y115.723 0.00000
G1 X139.960 Y116.205 0.00000
G1 X139.540 Y116.642 0.00000
G1 X138.740 Y117.304 0.00000
G1 X139.004 Y118.461 0.00000
G1 X139.470 Y120.123 0.00000
G1 X140.847 Y119.965 0.00000
G1 X141.645 Y119.974 0.00000
G1 X142.436 Y120.084 0.00000
G1 X143.208 Y120.292 0.00000
G1 X143.683 Y120.484 0.00000
G1 X144.039 Y122.330 0.00000
G1 X143.808 Y122.571 0.00000
G1 X143.342 Y122.959 0.00000
G1 X142.835 Y123.293 0.00000
G1 X142.295 Y123.567 0.00000
G1 X141.726 Y123.778 0.00000
G1 X140.718 Y124.028 0.00000
G1 X140.454 Y125.185 0.00000
G1 X140.153 Y126.884 0.00000
G1 X141.462 Y127.339 0.00000
G1 X142.177 Y127.694 0.00000
G1 X142.842 Y128.136 0.00000
G1 X143.448 Y128.658 0.00000
G1 X143.792 Y129.037 0.00000
G1 X143.312 Y130.855 0.00000
G1 X142.999 Y130.972 0.00000
G1 X142.411 Y131.120 0.00000
G1 X141.810 Y131.200 0.00000
G1 X141.204 Y131.213 0.00000
G1 X140.600 Y131.157 0.00000
G1 X139.583 Y130.944 0.00000
G1 X138.844 Y131.872 0.00000
G1 X137.835 Y133.272 0.00000
G1 X138.817 Y134.251 0.00000
G1 X139.307 Y134.880 0.00000
G1 X139.715 Y135.567 0.00000
G1 X140.033 Y136.300 0.00000
G1 X140.179 Y136.791 0.00000
G1 X138.958 Y138.220 0.00000
G1 X138.626 Y138.190 0.00000
G1 X138.031 Y138.068 0.00000
G1 X137.455 Y137.880 0.00000
G1 X136.903 Y137.628 0.00000
G1 X136.384 Y137.315 0.00000
G1 X135.560 Y136.683 0.00000
G1 X134.491 Y137.198 0.00000
G1 X132.975 Y138.022 0.00000
G1 X133.435 Y139.330 0.00000
G1 X133.604 Y140.110 0.00000
G1 X133.673 Y140.905 0.00000
G1 X133.642 Y141.704 0.00000
G1 X133.560 Y142.209 0.00000
G1 X131.840 Y142.967 0.00000
G1 X131.554 Y142.796 0.00000
G1 X131.071 Y142.428 0.00000
G1 X130.633 Y142.008 0.00000
G1 X130.245 Y141.542 0.00000
G1 X129.913 Y141.035 0.00000
G1 X129.445 Y140.108 0.00000
G1 X128.259 Y140.108 0.00000
G1 X126.535 Y140.193 0.00000
G1 X126.382 Y141.570 0.00000
G1 X126.196 Y142.346 0.00000
G1 X125.913 Y143.093 0.00000
G1 X125.539 Y143.799 0.00000
G1 X125.248 Y144.216 0.00000
G1 X123.367 Y144.155 0.00000
G1 X123.183 Y143.877 0.00000
G1 X122.908 Y143.336 0.00000
G1 X122.696 Y142.768 0.00000
G1 X122.549 Y142.180 0.00000
G1 X122.469 Y141.579 0.00000
G1 X122.450 Y140.541 0.00000
G1 X121.381 Y140.026 0.00000
G1 X119.791 Y139.354 0.00000
G1 X119.056 Y140.529 0.00000
G1 X118.551 Y141.147 0.00000
G1 X117.973 Y141.697 0.00000
G1 X117.329 Y142.171 0.00000
G1 X116.882 Y142.422 0.00000
G1 X115.217 Y141.550 0.00000
G1 X115.173 Y141.219 0.00000
G1 X115.159 Y140.612 0.00000
G1 X115.214 Y140.009 0.00000
G1 X115.337 Y139.415 0.00000
G1 X115.526 Y138.839 0.00000
G1 X115.960 Y137.895 0.00000
G1 X115.220 Y136.968 0.00000
G1 X114.079 Y135.673 0.00000
G1 X112.907 Y136.412 0.00000
G1 X112.184 Y136.750 0.00000
G1 X111.424 Y136.995 0.00000
G1 X110.638 Y137.142 0.00000
G1 X110.127 Y137.175 0.00000
G1 X109.005 Y135.666 0.00000
G1 X109.109 Y135.349 0.00000
G1 X109.360 Y134.797 0.00000
G1 X109.672 Y134.277 0.00000
G1 X110.040 Y133.795 0.00000
G1 X110.460 Y133.358 0.00000
G1 X111.260 Y132.696 0.00000
G1 X110.996 Y131.539 0.00000
G1 X110.530 Y129.877 0.00000
G1 X109.153 Y130.035 0.00000
G1 X108.355 Y130.026 0.00000
G1 X107.564 Y129.916 0.00000
G1 X106.792 Y129.708 0.00000
G1 X106.317 Y129.516 0.00000
G1 X105.961 Y127.670 0.00000
G1 X106.192 Y127.429 0.00000
G1 X106.658 Y127.041 0.00000
G1 X107.165 Y126.707 0.00000
G1 X107.705 Y126.433 0.00000
G1 X108.274 Y126.222 0.00000
G1 X109.282 Y125.972 0.00000
G1 X109.546 Y124.815 0.00000
G1 X109.847 Y123.116 0.00000
G1 X108.538 Y122.661 0.00000
G1 X107.823 Y122.306 0.00000
G1 X107.158 Y121.864 0.00000
G1 X106.552 Y121.342 0.00000
G1 X106.208 Y120.963 0.00000
G1 X106.688 Y119.145 0.00000
G1 X107.001 Y119.028 0.00000
G1 X107.589 Y118.880 0.00000
G1 X108.190 Y118.800 0.00000
G1 X108.796 Y118.787 0.00000
G1 X109.400 Y118.843 0.00000
G1 X110.417 Y119.056 0.00000
G1 X111.156 Y118.128 0.00000
G1 X112.114 Y116.798 0.00000
G1 X112.679 Y116.686 F900.000
G1 F900
G1 X111.478 Y115.489 0.00000
G1 X111.018 Y114.898 0.00000
G1 X110.636 Y114.254 0.00000
G1 X110.336 Y113.565 0.00000
G1 X110.258 Y113.302 0.00000
G1 X111.209 Y112.189 0.00000
G1 X111.317 Y112.199 0.00000
G1 X111.868 Y112.312 0.00000
G1 X112.402 Y112.487 0.00000
G1 X112.913 Y112.720 0.00000
G1 X113.395 Y113.010 0.00000
G1 X114.392 Y113.776 0.00000
G1 X115.688 Y113.152 0.00000
G1 X117.506 Y112.163 0.00000
G1 X116.944 Y110.563 0.00000
G1 X116.786 Y109.832 0.00000
G1 X116.721 Y109.086 0.00000
G1 X116.750 Y108.335 0.00000
G1 X116.793 Y108.064 0.00000
G1 X118.133 Y107.474 0.00000
G1 X118.674 Y107.871 0.00000
G1 X119.079 Y108.260 0.00000
G1 X119.438 Y108.692 0.00000
G1 X119.746 Y109.162 0.00000
G1 X120.313 Y110.285 0.00000
G1 X121.751 Y110.285 0.00000
G1 X123.818 Y110.183 0.00000
G1 X124.005 Y108.498 0.00000
G1 X124.180 Y107.770 0.00000
G1 X124.445 Y107.069 0.00000
G1 X124.797 Y106.406 0.00000
G1 X124.954 Y106.180 0.00000
G1 X126.417 Y106.230 0.00000
G1 X126.732 Y106.822 0.00000
G1 X126.929 Y107.349 0.00000
G1 X127.065 Y107.894 0.00000
G1 X127.139 Y108.451 0.00000
G1 X127.162 Y109.708 0.00000
G1 X128.457 Y110.332 0.00000
G1 X130.364 Y111.138 0.00000
G1 X131.264 Y109.700 0.00000
G1 X131.737 Y109.120 0.00000
G1 X132.280 Y108.605 0.00000
G1 X132.885 Y108.159 0.00000
G1 X133.124 Y108.024 0.00000
G1 X134.421 Y108.704 0.00000
G1 X134.447 Y109.374 0.00000
G1 X134.396 Y109.934 0.00000
G1 X134.283 Y110.484 0.00000
G1 X134.107 Y111.018 0.00000
G1 X133.583 Y112.161 0.00000
G1 X134.479 Y113.285 0.00000
G1 X135.847 Y114.838 0.00000
G1 X137.282 Y113.933 0.00000
G1 X137.960 Y113.616 0.00000
G1 X138.673 Y113.387 0.00000
G1 X139.411 Y113.248 0.00000
G1 X139.685 Y113.231 0.00000
G1 X140.558 Y114.405 0.00000
G1 X140.292 Y115.021 0.00000
G1 X140.003 Y115.503 0.00000
G1 X139.662 Y115.949 0.00000
G1 X139.272 Y116.354 0.00000
G1 X138.303 Y117.156 0.00000
G1 X138.623 Y118.558 0.00000
G1 X139.182 Y120.551 0.00000
G1 X140.867 Y120.358 0.00000
G1 X141.616 Y120.367 0.00000
G1 X142.358 Y120.469 0.00000
G1 X143.083 Y120.665 0.00000
G1 X143.338 Y120.768 0.00000
G1 X143.615 Y122.205 0.00000
G1 X143.107 Y122.644 0.00000
G1 X142.638 Y122.953 0.00000
G1 X142.137 Y123.207 0.00000
G1 X141.610 Y123.403 0.00000
G1 X140.389 Y123.705 0.00000
G1 X140.069 Y125.107 0.00000
G1 X139.708 Y127.145 0.00000
G1 X141.310 Y127.702 0.00000
G1 X141.981 Y128.035 0.00000
G1 X142.604 Y128.449 0.00000
G1 X143.173 Y128.940 0.00000
G1 X143.358 Y129.143 0.00000
G1 X142.984 Y130.558 0.00000
G1 X142.336 Y130.734 0.00000
G1 X141.780 Y130.808 0.00000
G1 X141.218 Y130.820 0.00000
G1 X140.658 Y130.768 0.00000
G1 X139.427 Y130.510 0.00000
G1 X138.531 Y131.634 0.00000
G1 X137.321 Y133.314 0.00000
G1 X138.522 Y134.511 0.00000
G1 X138.982 Y135.102 0.00000
G1 X139.364 Y135.746 0.00000
G1 X139.664 Y136.435 0.00000
G1 X139.742 Y136.698 0.00000
G1 X138.791 Y137.811 0.00000
G1 X138.683 Y137.801 0.00000
G1 X138.132 Y137.688 0.00000
G1 X137.598 Y137.513 0.00000
G1 X137.087 Y137.280 0.00000
G1 X136.605 Y136.990 0.00000
G1 X135.608 Y136.224 0.00000
G1 X134.312 Y136.848 0.00000
G1 X132.494 Y137.837 0.00000
G1 X133.056 Y139.437 0.00000
G1 X133.214 Y140.168 0.00000
G1 X133.279 Y140.914 0.00000
G1 X133.250 Y141.665 0.00000
G1 X133.207 Y141.936 0.00000
G1 X131.867 Y142.526 0.00000
G1 X131.326 Y142.129 0.00000
G1 X130.921 Y141.740 0.00000
G1 X130.562 Y141.308 0.00000
G1 X130.254 Y140.838 0.00000
G1 X129.687 Y139.715 0.00000
G1 X128.249 Y139.715 0.00000
G1 X126.182 Y139.817 0.00000
G1 X125.995 Y141.502 0.00000
G1 X125.820 Y142.230 0.00000
G1 X125.555 Y142.931 0.00000
G1 X125.203 Y143.594 0.00000
G1 X125.048 Y143.816 0.00000
G1 X123.583 Y143.769 0.00000
G1 X123.268 Y143.178 0.00000
G1 X123.071 Y142.651 0.00000
G1 X122.935 Y142.106 0.00000
G1 X122.861 Y141.549 0.00000
G1 X122.838 Y140.292 0.00000
G1 X121.543 Y139.668 0.00000
G1 X119.636 Y138.862 0.00000
G1 X118.736 Y140.300 0.00000
G1 X118.263 Y140.880 0.00000
G1 X117.720 Y141.395 0.00000
G1 X117.115 Y141.841 0.00000
G1 X116.876 Y141.976 0.00000
G1 X115.579 Y141.296 0.00000
G1 X115.552 Y140.626 0.00000
G1 X115.604 Y140.066 0.00000
G1 X115.717 Y139.516 0.00000
G1 X115.893 Y138.982 0.00000
G1 X116.417 Y137.839 0.00000
G1 X115.521 Y136.715 0.00000
G1 X114.153 Y135.162 0.00000
G1 X112.718 Y136.067 0.00000
G1 X112.040 Y136.384 0.00000
G1 X111.327 Y136.613 0.00000
G1 X110.589 Y136.752 0.00000
G1 X110.315 Y136.769 0.00000
G1 X109.442 Y135.595 0.00000
G1 X109.708 Y134.979 0.00000
G1 X109.997 Y134.497 0.00000
G1 X110.338 Y134.051 0.00000
G1 X110.728 Y133.646 0.00000
G1 X111.697 Y132.844 0.00000
G1 X111.377 Y131.442 0.00000
G1 X110.818 Y129.449 0.00000
G1 X109.133 Y129.642 0.00000
G1 X108.384 Y129.633 0.00000
G1 X107.642 Y129.531 0.00000
G1 X106.917 Y129.335 0.00000
G1 X106.662 Y129.232 0.00000
G1 X106.385 Y127.795 0.00000
G1 X106.893 Y127.356 0.00000
G1 X107.362 Y127.047 0.00000
G1 X107.863 Y126.793 0.00000
G1 X108.390 Y126.597 0.00000
G1 X109.611 Y126.295 0.00000
G1 X109.931 Y124.893 0.00000
G1 X110.292 Y122.855 0.00000
G1 X108.690 Y122.298 0.00000
G1 X108.019 Y121.965 0.00000
G1 X107.396 Y121.551 0.00000
G1 X106.827 Y121.060 0.00000
G1 X106.642 Y120.857 0.00000
G1 X107.016 Y119.442 0.00000
G1 X107.664 Y119.266 0.00000
G1 X108.220 Y119.192 0.00000
G1 X108.782 Y119.180 0.00000
G1 X109.342 Y119.232 0.00000
G1 X110.573 Y119.490 0.00000
G1 X111.469 Y118.366 0.00000
G1 X112.628 Y116.756 0.00000
G1 X115.580 Y118.858 F900.000
G1 F900
G1 X116.497 Y117.632 0.00000
G1 X117.632 Y116.497 0.00000
G1 X118.870 Y115.571 0.00000
G1 X120.326 Y114.766 0.00000
G1 X121.830 Y114.205 0.00000
G1 X123.399 Y113.864 0.00000
G1 X124.941 Y113.754 0.00000
G1 X126.601 Y113.864 0.00000
G1 X128.170 Y114.205 0.00000
G1 X129.674 Y114.766 0.00000
G1 X131.083 Y115.535 0.00000
G1 X132.368 Y116.497 0.00000
G1 X133.503 Y117.632 0.00000
G1 X134.465 Y118.917 0.00000
G1 X135.234 Y120.326 0.00000
G1 X135.795 Y121.830 0.00000
G1 X136.136 Y123.399 0.00000
G1 X136.251 Y125.000 0.00000
G1 X136.136 Y126.601 0.00000
G1 X135.808 Y128.112 0.00000
G1 X135.234 Y129.673 0.00000
G1 X134.465 Y131.083 0.00000
G1 X133.503 Y132.368 0.00000
G1 X132.368 Y133.503 0.00000
G1 X131.049 Y134.489 0.00000
G1 X129.673 Y135.234 0.00000
G1 X128.225 Y135.774 0.00000
G1 X126.602 Y136.136 0.00000
G1 X125.000 Y136.251 0.00000
G1 X123.399 Y136.136 0.00000
G1 X121.830 Y135.795 0.00000
G1 X120.326 Y135.234 0.00000
G1 X118.917 Y134.465 0.00000
G1 X117.632 Y133.503 0.00000
G1 X116.497 Y132.368 0.00000
G1 X115.571 Y131.130 0.00000
G1 X114.766 Y129.674 0.00000
G1 X114.205 Y128.170 0.00000
G1 X113.864 Y126.601 0.00000
G1 X113.749 Y125.000 0.00000
G1 X113.864 Y123.399 0.00000
G1 X114.205 Y121.830 0.00000
G1 X114.745 Y120.382 0.00000
G1 X115.529 Y118.928 0.00000
G1 X115.315 Y118.342 F900.000
G1 X115.266 Y118.622 F900.000
G1 F900
G1 X116.200 Y117.375 0.00000
G1 X117.375 Y116.200 0.00000
G1 X118.656 Y115.240 0.00000
G1 X120.161 Y114.409 0.00000
G1 X121.719 Y113.827 0.00000
G1 X123.343 Y113.474 0.00000
G1 X124.940 Y113.360 0.00000
G1 X126.656 Y113.474 0.00000
G1 X128.281 Y113.827 0.00000
G1 X129.837 Y114.408 0.00000
G1 X131.295 Y115.204 0.00000
G1 X132.625 Y116.200 0.00000
G1 X133.800 Y117.375 0.00000
G1 X134.796 Y118.705 0.00000
G1 X135.592 Y120.163 0.00000
G1 X136.173 Y121.719 0.00000
G1 X136.526 Y123.343 0.00000
G1 X136.644 Y125.000 0.00000
G1 X136.526 Y126.657 0.00000
G1 X136.186 Y128.221 0.00000
G1 X135.593 Y129.836 0.00000
G1 X134.796 Y131.295 0.00000
G1 X133.800 Y132.625 0.00000
G1 X132.625 Y133.800 0.00000
G1 X131.262 Y134.821 0.00000
G1 X129.836 Y135.592 0.00000
G1 X128.337 Y136.152 0.00000
G1 X126.659 Y136.526 0.00000
G1 X125.000 Y136.644 0.00000
G1 X123.343 Y136.526 0.00000
G1 X121.719 Y136.173 0.00000
G1 X120.163 Y135.592 0.00000
G1 X118.705 Y134.796 0.00000
G1 X117.375 Y133.800 0.00000
G1 X116.200 Y132.625 0.00000
G1 X115.240 Y131.344 0.00000
G1 X114.409 Y129.839 0.00000
G1 X113.827 Y128.281 0.00000
G1 X113.474 Y126.657 0.00000
G1 X113.356 Y125.000 0.00000
G1 X113.474 Y123.343 0.00000
G1 X113.827 Y121.719 0.00000
G1 X114.387 Y120.219 0.00000
G1 X115.214 Y118.692 0.00000
G1 X114.951 Y118.387 F900.000
G1 F900
G1 X115.902 Y117.117 0.00000
G1 X117.117 Y115.902 0.00000
G1 X118.442 Y114.910 0.00000
G1 X119.997 Y114.051 0.00000
G1 X121.608 Y113.450 0.00000
G1 X123.287 Y113.084 0.00000
G1 X124.939 Y112.966 0.00000
G1 X126.711 Y113.084 0.00000
G1 X128.392 Y113.450 0.00000
G1 X130.001 Y114.050 0.00000
G1 X131.508 Y114.873 0.00000
G1 X132.883 Y115.902 0.00000
G1 X134.098 Y117.117 0.00000
G1 X135.127 Y118.492 0.00000
G1 X135.950 Y119.999 0.00000
G1 X136.550 Y121.608 0.00000
G1 X136.916 Y123.287 0.00000
G1 X137.038 Y125.000 0.00000
G1 X136.916 Y126.713 0.00000
G1 X136.563 Y128.331 0.00000
G1 X135.951 Y129.998 0.00000
G1 X135.127 Y131.508 0.00000
G1 X134.098 Y132.883 0.00000
G1 X132.883 Y134.098 0.00000
G1 X131.474 Y135.153 0.00000
G1 X129.999 Y135.951 0.00000
G1 X128.449 Y136.529 0.00000
G1 X126.716 Y136.915 0.00000
G1 X125.000 Y137.038 0.00000
G1 X123.287 Y136.916 0.00000
G1 X121.608 Y136.550 0.00000
G1 X119.999 Y135.950 0.00000
G1 X118.492 Y135.127 0.00000
G1 X117.117 Y134.098 0.00000
G1 X115.902 Y132.883 0.00000
G1 X114.910 Y131.558 0.00000
G1 X114.051 Y130.003 0.00000
G1 X113.450 Y128.392 0.00000
G1 X113.084 Y126.713 0.00000
G1 X112.962 Y125.000 0.00000
G1 X113.084 Y123.287 0.00000
G1 X113.450 Y121.608 0.00000
G1 X114.028 Y120.057 0.00000
G1 X114.899 Y118.457 0.00000
G1 X110.584 Y122.541 F900.000
G1 F900
G1 X107.704 Y119.661 0.00000
G1 X107.340 Y119.753 0.00000
G1 X107.319 Y119.832 0.00000
G1 X109.731 Y122.244 0.00000
G1 X108.878 Y121.947 0.00000
G1 X107.203 Y120.272 0.00000
G1 X107.087 Y120.712 0.00000
G1 X107.475 Y121.100 0.00000
G1 X107.102 Y120.779 0.00000
G1 X107.076 Y120.751 0.00000
G1 X107.087 Y120.712 0.00000
G1 X106.628 Y120.844 F900.000
G1 X107.975 Y120.473 F900.000
G1 X111.458 Y121.271 F900.000
G1 X111.705 Y122.984 F900.000
G1 X111.189 Y127.513 F900.000
G1 X107.697 Y128.308 F900.000
G1 X106.380 Y127.836 F900.000
G1 X106.881 Y128.293 F900.000
G1 F900
G1 X107.008 Y128.948 0.00000
G1 X107.735 Y129.147 0.00000
G1 X106.881 Y128.293 0.00000
G1 X106.814 Y127.944 0.00000
G1 X106.961 Y127.817 0.00000
G1 X108.381 Y129.236 0.00000
G1 X108.948 Y129.247 0.00000
G1 X107.275 Y127.575 0.00000
G1 X107.616 Y127.359 0.00000
G1 X109.465 Y129.209 0.00000
G1 X109.964 Y129.152 0.00000
G1 X107.985 Y127.172 0.00000
G1 X108.387 Y127.018 0.00000
G1 X110.463 Y129.095 0.00000
G1 X110.963 Y129.037 0.00000
G1 X108.820 Y126.895 0.00000
G1 X109.266 Y126.785 0.00000
G1 X115.552 Y133.071 0.00000
G1 X114.579 Y131.771 0.00000
G1 X114.296 Y131.258 0.00000
G1 X109.712 Y126.674 0.00000
G1 X109.940 Y126.618 0.00000
G1 X109.990 Y126.397 0.00000
G1 X113.652 Y130.059 0.00000
G1 X113.321 Y129.172 0.00000
G1 X110.094 Y125.944 0.00000
G1 X110.197 Y125.491 0.00000
G1 X113.034 Y128.328 0.00000
G1 X112.879 Y127.617 0.00000
G1 X110.300 Y125.038 0.00000
G1 X110.387 Y124.569 0.00000
G1 X112.725 Y126.906 0.00000
G1 X112.695 Y126.769 0.00000
G1 X112.660 Y126.286 0.00000
G1 X110.471 Y124.096 0.00000
G1 X110.554 Y123.624 0.00000
G1 X112.617 Y125.687 0.00000
G1 X112.575 Y125.088 0.00000
G1 X110.638 Y123.151 0.00000
G1 X110.722 Y122.679 0.00000
G1 X112.600 Y124.557 0.00000
G1 X112.637 Y124.038 0.00000
G1 X108.191 Y119.592 0.00000
G1 X108.729 Y119.574 0.00000
G1 X112.674 Y123.519 0.00000
G1 X112.695 Y123.231 0.00000
G1 X112.739 Y123.028 0.00000
G1 X109.346 Y119.634 0.00000
G1 X110.049 Y119.781 0.00000
G1 X112.838 Y122.571 0.00000
G1 X112.938 Y122.114 0.00000
G1 X110.737 Y119.913 0.00000
G1 X110.984 Y119.604 0.00000
G1 X113.037 Y121.657 0.00000
G1 X113.072 Y121.498 0.00000
G1 X113.170 Y121.234 0.00000
G1 X111.231 Y119.295 0.00000
G1 X111.477 Y118.985 0.00000
G1 X113.321 Y120.829 0.00000
G1 X113.472 Y120.424 0.00000
G1 X111.724 Y118.676 0.00000
G1 X111.960 Y118.356 0.00000
G1 X113.623 Y120.019 0.00000
G1 X113.805 Y119.644 0.00000
G1 X112.193 Y118.033 0.00000
G1 X112.426 Y117.709 0.00000
G1 X114.000 Y119.283 0.00000
G1 X114.194 Y118.922 0.00000
G1 X112.659 Y117.386 0.00000
G1 X112.891 Y117.063 0.00000
G1 X114.389 Y118.560 0.00000
G1 X114.594 Y118.209 0.00000
G1 X113.124 Y116.739 0.00000
G1 X113.193 Y116.644 0.00000
G1 X111.772 Y115.228 0.00000
G1 X111.343 Y114.676 0.00000
G1 X110.963 Y114.021 0.00000
G1 X114.832 Y117.891 0.00000
G1 X115.070 Y117.573 0.00000
G1 X110.786 Y113.288 0.00000
G1 X111.042 Y112.989 0.00000
G1 X115.308 Y117.255 0.00000
G1 X115.546 Y116.937 0.00000
G1 X111.298 Y112.689 0.00000
G1 X111.360 Y112.617 0.00000
G1 X111.771 Y112.694 0.00000
G1 X111.902 Y112.736 0.00000
G1 X115.815 Y116.649 0.00000
G1 X116.093 Y116.371 0.00000
G1 X112.880 Y113.159 0.00000
G1 X113.173 Y113.335 0.00000
G1 X114.345 Y114.234 0.00000
G1 X114.458 Y114.180 0.00000
G1 X116.371 Y116.093 0.00000
G1 X116.649 Y115.815 0.00000
G1 X114.833 Y113.999 0.00000
G1 X115.209 Y113.818 0.00000
G1 X116.937 Y115.546 0.00000
G1 X117.255 Y115.308 0.00000
G1 X115.584 Y113.638 0.00000
G1 X115.956 Y113.453 0.00000
G1 X117.573 Y115.070 0.00000
G1 X117.891 Y114.832 0.00000
G1 X116.316 Y113.257 0.00000
G1 X116.676 Y113.061 0.00000
G1 X118.209 Y114.594 0.00000
G1 X118.565 Y114.394 0.00000
G1 X117.037 Y112.866 0.00000
G1 X117.397 Y112.670 0.00000
G1 X118.923 Y114.196 0.00000
G1 X119.281 Y113.998 0.00000
G1 X117.757 Y112.474 0.00000
G1 X117.988 Y112.348 0.00000
G1 X117.879 Y112.040 0.00000
G1 X119.639 Y113.800 0.00000
G1 X119.832 Y113.693 0.00000
G1 X120.019 Y113.623 0.00000
G1 X117.577 Y111.181 0.00000
G1 X117.298 Y110.346 0.00000
G1 X120.424 Y113.472 0.00000
G1 X120.829 Y113.321 0.00000
G1 X117.164 Y109.656 0.00000
G1 X117.115 Y109.051 0.00000
G1 X121.234 Y113.170 0.00000
G1 X121.498 Y113.072 0.00000
G1 X121.657 Y113.037 0.00000
G1 X117.136 Y108.515 0.00000
G1 X117.147 Y108.337 0.00000
G1 X117.402 Y108.225 0.00000
G1 X122.114 Y112.938 0.00000
G1 X122.571 Y112.838 0.00000
G1 X120.410 Y110.677 0.00000
G1 X120.966 Y110.677 0.00000
G1 X123.028 Y112.739 0.00000
G1 X123.231 Y112.695 0.00000
G1 X123.519 Y112.674 0.00000
G1 X121.522 Y110.677 0.00000
G1 X122.064 Y110.663 0.00000
G1 X124.038 Y112.637 0.00000
G1 X124.557 Y112.600 0.00000
G1 X122.594 Y110.636 0.00000
G1 X123.124 Y110.610 0.00000
G1 X125.097 Y112.583 0.00000
G1 X125.692 Y112.623 0.00000
G1 X123.654 Y110.584 0.00000
G1 X124.173 Y110.547 0.00000
G1 X126.288 Y112.662 0.00000
G1 X126.766 Y112.694 0.00000
G1 X126.907 Y112.725 0.00000
G1 X124.228 Y110.046 0.00000
G1 X124.284 Y109.546 0.00000
G1 X127.617 Y112.879 0.00000
G1 X128.328 Y113.034 0.00000
G1 X124.340 Y109.045 0.00000
G1 X124.397 Y108.547 0.00000
G1 X129.172 Y113.322 0.00000
G1 X130.059 Y113.652 0.00000
G1 X124.505 Y108.099 0.00000
G1 X124.556 Y107.886 0.00000
G1 X124.637 Y107.674 0.00000
G1 X126.771 Y109.808 0.00000
G1 X126.761 Y109.242 0.00000
G1 X124.789 Y107.270 0.00000
G1 X124.978 Y106.903 0.00000
G1 X126.750 Y108.675 0.00000
G1 X126.746 Y108.480 0.00000
G1 X126.691 Y108.060 0.00000
G1 X125.213 Y106.582 0.00000
G1 X125.789 Y106.602 0.00000
G1 X126.494 Y107.307 0.00000
G1 X127.056 Y110.093 F900.000
G1 F900
G1 X131.244 Y114.281 0.00000
G1 X131.721 Y114.542 0.00000
G1 X133.072 Y115.553 0.00000
G1 X128.129 Y110.610 0.00000
G1 X129.109 Y111.034 0.00000
G1 X138.833 Y120.758 0.00000
G1 X138.616 Y119.985 0.00000
G1 X130.072 Y111.440 0.00000
G1 X130.519 Y111.630 0.00000
G1 X130.634 Y111.447 0.00000
G1 X138.399 Y119.212 0.00000
G1 X138.197 Y118.453 0.00000
G1 X130.848 Y111.105 0.00000
G1 X131.062 Y110.763 0.00000
G1 X138.032 Y117.733 0.00000
G1 X137.868 Y117.012 0.00000
G1 X136.038 Y115.182 0.00000
G1 X136.379 Y114.967 0.00000
G1 X138.169 Y116.757 0.00000
G1 X138.473 Y116.505 0.00000
G1 X136.720 Y114.752 0.00000
G1 X137.061 Y114.537 0.00000
G1 X138.778 Y116.253 0.00000
G1 X139.074 Y115.994 0.00000
G1 X137.402 Y114.322 0.00000
G1 X137.773 Y114.137 0.00000
G1 X139.347 Y115.710 0.00000
G1 X139.590 Y115.397 0.00000
G1 X138.158 Y113.965 0.00000
G1 X138.579 Y113.830 0.00000
G1 X139.810 Y115.061 0.00000
G1 X139.942 Y114.841 0.00000
G1 X140.003 Y114.698 0.00000
G1 X139.025 Y113.720 0.00000
G1 X139.498 Y113.637 0.00000
G1 X136.038 Y115.182 F900.000
G1 F900
G1 X135.774 Y115.348 0.00000
G1 X134.178 Y113.537 0.00000
G1 X133.332 Y112.476 0.00000
G1 X131.276 Y110.420 0.00000
G1 X131.490 Y110.078 0.00000
G1 X133.283 Y111.871 0.00000
G1 X133.458 Y111.490 0.00000
G1 X131.725 Y109.757 0.00000
G1 X131.975 Y109.451 0.00000
G1 X133.633 Y111.109 0.00000
G1 X133.794 Y110.713 0.00000
G1 X132.253 Y109.172 0.00000
G1 X132.538 Y108.902 0.00000
G1 X133.923 Y110.286 0.00000
G1 X134.013 Y109.820 0.00000
G1 X132.859 Y108.666 0.00000
G1 X133.131 Y108.471 0.00000
G1 X133.318 Y108.569 0.00000
G1 X134.052 Y109.303 0.00000
G1 X134.392 Y108.674 F900.000
G1 X133.202 Y109.409 F900.000
G1 X131.645 Y112.640 F900.000
G1 X135.125 Y116.086 F900.000
G1 X136.350 Y116.747 F900.000
G1 X137.772 Y120.827 F900.000
G1 X139.178 Y120.462 F900.000
G1 X139.038 Y120.963 F900.000
G1 F900
G1 X141.180 Y123.105 0.00000
G1 X141.614 Y122.982 0.00000
G1 X139.537 Y120.905 0.00000
G1 X140.036 Y120.848 0.00000
G1 X142.015 Y122.828 0.00000
G1 X142.384 Y122.641 0.00000
G1 X140.535 Y120.791 0.00000
G1 X140.887 Y120.751 0.00000
G1 X141.052 Y120.753 0.00000
G1 X142.725 Y122.425 0.00000
G1 X142.870 Y122.330 0.00000
G1 X143.039 Y122.183 0.00000
G1 X141.619 Y120.764 0.00000
G1 X142.265 Y120.853 0.00000
G1 X143.119 Y121.707 0.00000
G1 X140.734 Y123.215 F900.000
G1 F900
G1 X134.447 Y116.928 0.00000
G1 X135.458 Y118.279 0.00000
G1 X135.719 Y118.756 0.00000
G1 X140.288 Y123.325 0.00000
G1 X140.060 Y123.382 0.00000
G1 X140.010 Y123.603 0.00000
G1 X136.348 Y119.941 0.00000
G1 X136.678 Y120.828 0.00000
G1 X139.906 Y124.056 0.00000
G1 X139.803 Y124.509 0.00000
G1 X136.966 Y121.672 0.00000
G1 X137.121 Y122.383 0.00000
G1 X139.700 Y124.962 0.00000
G1 X139.613 Y125.431 0.00000
G1 X137.275 Y123.093 0.00000
G1 X137.305 Y123.231 0.00000
G1 X137.340 Y123.714 0.00000
G1 X139.529 Y125.904 0.00000
G1 X139.446 Y126.376 0.00000
G1 X137.383 Y124.313 0.00000
G1 X137.425 Y124.912 0.00000
G1 X139.362 Y126.849 0.00000
G1 X139.278 Y127.321 0.00000
G1 X137.400 Y125.443 0.00000
G1 X137.363 Y125.962 0.00000
G1 X141.809 Y130.408 0.00000
G1 X141.271 Y130.426 0.00000
G1 X137.326 Y126.481 0.00000
G1 X137.305 Y126.769 0.00000
G1 X137.261 Y126.972 0.00000
G1 X140.655 Y130.366 0.00000
G1 X139.952 Y130.219 0.00000
G1 X137.162 Y127.429 0.00000
G1 X137.062 Y127.886 0.00000
G1 X139.263 Y130.086 0.00000
G1 X139.016 Y130.396 0.00000
G1 X136.963 Y128.343 0.00000
G1 X136.824 Y128.760 0.00000
G1 X138.770 Y130.705 0.00000
G1 X138.523 Y131.015 0.00000
G1 X136.675 Y129.167 0.00000
G1 X136.526 Y129.574 0.00000
G1 X138.276 Y131.324 0.00000
G1 X138.040 Y131.644 0.00000
G1 X136.376 Y129.981 0.00000
G1 X136.310 Y130.161 0.00000
G1 X136.201 Y130.361 0.00000
G1 X137.807 Y131.967 0.00000
G1 X137.574 Y132.291 0.00000
G1 X136.004 Y130.721 0.00000
G1 X135.808 Y131.081 0.00000
G1 X137.341 Y132.614 0.00000
G1 X137.109 Y132.937 0.00000
G1 X135.612 Y131.440 0.00000
G1 X135.406 Y131.791 0.00000
G1 X136.876 Y133.261 0.00000
G1 X136.807 Y133.356 0.00000
G1 X138.228 Y134.772 0.00000
G1 X138.657 Y135.324 0.00000
G1 X139.037 Y135.978 0.00000
G1 X135.168 Y132.109 0.00000
G1 X134.930 Y132.427 0.00000
G1 X139.214 Y136.711 0.00000
G1 X138.958 Y137.011 0.00000
G1 X134.692 Y132.745 0.00000
G1 X134.454 Y133.063 0.00000
G1 X138.702 Y137.311 0.00000
G1 X138.640 Y137.383 0.00000
G1 X138.229 Y137.306 0.00000
G1 X138.098 Y137.264 0.00000
G1 X134.185 Y133.351 0.00000
G1 X133.907 Y133.629 0.00000
G1 X137.120 Y136.842 0.00000
G1 X136.827 Y136.665 0.00000
G1 X135.655 Y135.766 0.00000
G1 X135.542 Y135.820 0.00000
G1 X133.629 Y133.907 0.00000
G1 X133.351 Y134.185 0.00000
G1 X135.167 Y136.001 0.00000
G1 X134.791 Y136.182 0.00000
G1 X133.063 Y134.454 0.00000
G1 X132.745 Y134.692 0.00000
G1 X134.416 Y136.362 0.00000
G1 X134.044 Y136.547 0.00000
G1 X132.427 Y134.930 0.00000
G1 X132.109 Y135.168 0.00000
G1 X133.684 Y136.743 0.00000
G1 X133.324 Y136.939 0.00000
G1 X131.791 Y135.406 0.00000
G1 X131.686 Y135.484 0.00000
G1 X131.444 Y135.615 0.00000
G1 X132.963 Y137.134 0.00000
G1 X132.603 Y137.330 0.00000
G1 X131.083 Y135.811 0.00000
G1 X130.722 Y136.006 0.00000
G1 X132.243 Y137.526 0.00000
G1 X132.012 Y137.652 0.00000
G1 X132.121 Y137.960 0.00000
G1 X130.362 Y136.201 0.00000
G1 X130.162 Y136.309 0.00000
G1 X129.981 Y136.377 0.00000
G1 X132.423 Y138.818 0.00000
G1 X132.702 Y139.653 0.00000
G1 X129.576 Y136.528 0.00000
G1 X129.171 Y136.679 0.00000
G1 X132.836 Y140.344 0.00000
G1 X132.885 Y140.949 0.00000
G1 X128.766 Y136.830 0.00000
G1 X128.561 Y136.906 0.00000
G1 X128.336 Y136.956 0.00000
G1 X132.864 Y141.485 0.00000
G1 X132.853 Y141.663 0.00000
G1 X132.598 Y141.775 0.00000
G1 X127.881 Y137.058 0.00000
G1 X127.427 Y137.159 0.00000
G1 X129.590 Y139.323 0.00000
G1 X129.034 Y139.323 0.00000
G1 X126.972 Y137.261 0.00000
G1 X126.773 Y137.305 0.00000
G1 X126.481 Y137.326 0.00000
G1 X128.478 Y139.323 0.00000
G1 X127.936 Y139.337 0.00000
G1 X125.962 Y137.363 0.00000
G1 X125.443 Y137.400 0.00000
G1 X127.406 Y139.364 0.00000
G1 X126.876 Y139.390 0.00000
G1 X124.912 Y137.425 0.00000
G1 X124.313 Y137.383 0.00000
G1 X126.346 Y139.416 0.00000
G1 X125.827 Y139.453 0.00000
G1 X123.714 Y137.340 0.00000
G1 X123.231 Y137.305 0.00000
G1 X123.094 Y137.275 0.00000
G1 X125.772 Y139.953 0.00000
G1 X125.716 Y140.454 0.00000
G1 X122.383 Y137.121 0.00000
G1 X121.672 Y136.966 0.00000
G1 X125.661 Y140.955 0.00000
G1 X125.603 Y141.453 0.00000
G1 X120.828 Y136.679 0.00000
G1 X119.941 Y136.348 0.00000
G1 X125.495 Y141.901 0.00000
G1 X125.444 Y142.114 0.00000
G1 X125.364 Y142.326 0.00000
G1 X123.229 Y140.192 0.00000
G1 X123.239 Y140.758 0.00000
G1 X125.211 Y142.730 0.00000
G1 X125.022 Y143.097 0.00000
G1 X123.250 Y141.325 0.00000
G1 X123.254 Y141.520 0.00000
G1 X123.309 Y141.940 0.00000
G1 X124.784 Y143.415 0.00000
G1 X124.209 Y143.397 0.00000
G1 X123.506 Y142.693 0.00000
G1 X122.944 Y139.907 F900.000
G1 F900
G1 X118.756 Y135.719 0.00000
G1 X118.279 Y135.458 0.00000
G1 X116.929 Y134.448 0.00000
G1 X121.872 Y139.390 0.00000
G1 X120.892 Y138.966 0.00000
G1 X111.167 Y129.242 0.00000
G1 X111.384 Y130.015 0.00000
G1 X119.929 Y138.560 0.00000
G1 X119.481 Y138.370 0.00000
G1 X119.366 Y138.553 0.00000
G1 X111.601 Y130.788 0.00000
G1 X111.803 Y131.547 0.00000
G1 X119.152 Y138.895 0.00000
G1 X118.938 Y139.237 0.00000
G1 X111.968 Y132.267 0.00000
G1 X112.132 Y132.988 0.00000
G1 X113.962 Y134.818 0.00000
G1 X113.621 Y135.033 0.00000
G1 X111.831 Y133.243 0.00000
G1 X111.527 Y133.495 0.00000
G1 X113.280 Y135.248 0.00000
G1 X112.939 Y135.463 0.00000
G1 X111.222 Y133.746 0.00000
G1 X110.926 Y134.006 0.00000
G1 X112.598 Y135.678 0.00000
G1 X112.227 Y135.863 0.00000
G1 X110.653 Y134.290 0.00000
G1 X110.411 Y134.603 0.00000
G1 X111.842 Y136.035 0.00000
G1 X111.422 Y136.170 0.00000
G1 X110.190 Y134.939 0.00000
G1 X110.058 Y135.159 0.00000
G1 X109.997 Y135.302 0.00000
G1 X110.975 Y136.280 0.00000
G1 X110.502 Y136.363 0.00000
G1 X110.296 Y136.772 F900.000
G1 X110.846 Y135.488 F900.000
G1 X113.650 Y133.253 F900.000
G1 X114.875 Y133.914 F900.000
G1 X118.355 Y137.360 F900.000
G1 X116.798 Y140.591 F900.000
G1 X115.608 Y141.326 F900.000
G1 X115.948 Y140.697 F900.000
G1 F900
G1 X115.963 Y141.054 0.00000
G1 X116.682 Y141.431 0.00000
G1 X115.948 Y140.697 0.00000
G1 X115.987 Y140.180 0.00000
G1 X117.141 Y141.334 0.00000
G1 X117.462 Y141.098 0.00000
G1 X116.077 Y139.714 0.00000
G1 X116.206 Y139.286 0.00000
G1 X117.747 Y140.828 0.00000
G1 X118.025 Y140.549 0.00000
G1 X116.367 Y138.891 0.00000
G1 X116.542 Y138.510 0.00000
G1 X118.275 Y140.243 0.00000
G1 X118.510 Y139.922 0.00000
G1 X116.717 Y138.129 0.00000
G1 X116.875 Y137.783 0.00000
G1 X116.668 Y137.524 0.00000
G1 X118.724 Y139.579 0.00000
G1 X129.590 Y139.323 F900.000
G1 F900
G1 X129.929 Y139.323 0.00000
G1 X130.274 Y140.006 0.00000
G1 X132.212 Y141.945 0.00000
G1 X131.908 Y142.522 F900.000
G1 X132.076 Y141.133 F900.000
G1 X130.526 Y137.910 F900.000
G1 X130.831 Y137.483 F900.000
G1 X131.911 Y136.525 F900.000
G1 X135.590 Y134.228 F900.000
G1 X136.231 Y132.387 F900.000
G1 X138.542 Y128.729 F900.000
G1 X141.675 Y129.440 F900.000
G1 X141.782 Y130.831 F900.000
G1 X141.809 Y130.408 F900.000
G1 F900
G1 X142.296 Y130.339 0.00000
G1 X139.416 Y127.459 0.00000
G1 X140.269 Y127.756 0.00000
G1 X142.681 Y130.167 0.00000
G1 X142.797 Y129.728 0.00000
G1 X141.122 Y128.053 0.00000
G1 X141.784 Y128.376 0.00000
G1 X142.367 Y128.763 0.00000
G1 X142.913 Y129.288 0.00000
G1 X143.372 Y129.156 F900.000
G1 X142.025 Y129.527 F900.000
G1 X138.542 Y128.729 F900.000
G1 X138.295 Y127.016 F900.000
G1 X138.811 Y122.487 F900.000
G1 X137.878 Y121.111 F900.000
G1 X136.350 Y116.747 F900.000
G1 X135.125 Y116.086 F900.000
G1 X131.645 Y112.640 F900.000
G1 X130.530 Y112.624 F900.000
G1 X129.698 Y112.418 F900.000
G1 X125.624 Y110.982 F900.000
G1 X124.823 Y111.377 F900.000
G1 X123.774 Y111.624 F900.000
G1 X120.473 Y112.028 F900.000
G1 X120.421 Y110.265 F900.000
G1 X119.726 Y109.994 F900.000
G1 F900
G1 X117.788 Y108.055 0.00000
G1 X117.402 Y108.225 0.00000
G1 Z-148.500 F900.000
G1 X117.758 Y107.706 F900.000
G1 X117.621 Y109.067 F900.000
G1 X119.249 Y112.235 F900.000
G1 X119.120 Y112.445 F900.000
G1 X117.926 Y113.622 F900.000
G1 X114.615 Y115.826 F900.000
G1 X114.254 Y116.012 F900.000
G1 X113.876 Y115.791 F900.000
G1 X112.519 Y117.041 F900.000
G1 X111.561 Y117.088 F900.000
G1 F900
G1 X110.780 Y116.340 0.00000
G1 X110.247 Y115.681 0.00000
G1 X109.800 Y114.961 0.00000
G1 X109.446 Y114.190 0.00000
G1 X109.227 Y113.491 0.00000
G1 X109.794 Y112.758 0.00000
G1 X110.682 Y111.728 0.00000
G1 X111.204 Y111.765 0.00000
G1 X111.844 Y111.883 0.00000
G1 X112.467 Y112.073 0.00000
G1 X113.064 Y112.332 0.00000
G1 X113.628 Y112.656 0.00000
G1 X114.292 Y113.145 0.00000
G1 X116.325 Y112.040 0.00000
G1 X115.946 Y111.028 0.00000
G1 X115.751 Y110.203 0.00000
G1 X115.661 Y109.360 0.00000
G1 X115.677 Y108.512 0.00000
G1 X115.783 Y107.787 0.00000
G1 X116.612 Y107.373 0.00000
G1 X117.858 Y106.830 0.00000
G1 X118.312 Y107.090 0.00000
G1 X118.838 Y107.474 0.00000
G1 X119.317 Y107.915 0.00000
G1 X119.743 Y108.407 0.00000
G1 X120.110 Y108.945 0.00000
G1 X120.496 Y109.673 0.00000
G1 X122.807 Y109.560 0.00000
G1 X122.905 Y108.483 0.00000
G1 X123.087 Y107.655 0.00000
G1 X123.371 Y106.857 0.00000
G1 X123.754 Y106.100 0.00000
G1 X124.164 Y105.492 0.00000
G1 X125.091 Y105.479 0.00000
G1 X126.449 Y105.531 0.00000
G1 X126.746 Y105.962 0.00000
G1 X127.053 Y106.536 0.00000
G1 X127.293 Y107.141 0.00000
G1 X127.463 Y107.769 0.00000
G1 X127.561 Y108.413 0.00000
G1 X127.592 Y109.237 0.00000
G1 X129.723 Y110.137 0.00000
G1 X130.279 Y109.210 0.00000
G1 X130.802 Y108.543 0.00000
G1 X131.405 Y107.947 0.00000
G1 X132.078 Y107.431 0.00000
G1 X132.711 Y107.061 0.00000
G1 X133.551 Y107.452 0.00000
G1 X134.753 Y108.088 0.00000
G1 X134.833 Y108.604 0.00000
G1 X134.861 Y109.255 0.00000
G1 X134.814 Y109.904 0.00000
G1 X134.695 Y110.544 0.00000
G1 X134.504 Y111.167 0.00000
G1 X134.175 Y111.922 0.00000
G1 X135.704 Y113.658 0.00000
G1 X136.607 Y113.064 0.00000
G1 X137.368 Y112.690 0.00000
G1 X138.170 Y112.415 0.00000
G1 X139.000 Y112.242 0.00000
G1 X139.730 Y112.183 0.00000
G1 X140.319 Y112.900 0.00000
G1 X141.125 Y113.994 0.00000
G1 X140.973 Y114.495 0.00000
G1 X140.716 Y115.093 0.00000
G1 X140.392 Y115.657 0.00000
G1 X140.007 Y116.182 0.00000
G1 X139.565 Y116.660 0.00000
G1 X138.940 Y117.198 0.00000
G1 X139.565 Y119.426 0.00000
G1 X140.636 Y119.282 0.00000
G1 X141.484 Y119.275 0.00000
G1 X142.326 Y119.375 0.00000
G1 X143.149 Y119.579 0.00000
G1 X143.832 Y119.844 0.00000
G1 X144.052 Y120.745 0.00000
G1 X144.303 Y122.080 0.00000
G1 X143.950 Y122.466 0.00000
G1 X143.458 Y122.892 0.00000
G1 X142.921 Y123.261 0.00000
G1 X142.347 Y123.567 0.00000
G1 X141.741 Y123.806 0.00000
G1 X140.945 Y124.019 0.00000
G1 X140.541 Y126.298 0.00000
G1 X141.569 Y126.633 0.00000
G1 X142.336 Y126.994 0.00000
G1 X143.051 Y127.450 0.00000
G1 X143.703 Y127.991 0.00000
G1 X144.205 Y128.526 0.00000
G1 X144.011 Y129.432 0.00000
G1 X143.658 Y130.745 0.00000
G1 X143.173 Y130.938 0.00000
G1 X142.544 Y131.110 0.00000
G1 X141.901 Y131.209 0.00000
G1 X141.251 Y131.235 0.00000
G1 X140.601 Y131.187 0.00000
G1 X139.791 Y131.035 0.00000
G1 X138.439 Y132.912 0.00000
G1 X139.220 Y133.660 0.00000
G1 X139.753 Y134.319 0.00000
G1 X140.200 Y135.039 0.00000
G1 X140.554 Y135.810 0.00000
G1 X140.773 Y136.509 0.00000
G1 X140.206 Y137.242 0.00000
G1 X139.318 Y138.272 0.00000
G1 X138.796 Y138.235 0.00000
G1 X138.156 Y138.117 0.00000
G1 X137.533 Y137.927 0.00000
G1 X136.936 Y137.668 0.00000
G1 X136.372 Y137.344 0.00000
G1 X135.708 Y136.855 0.00000
G1 X133.675 Y137.960 0.00000
G1 X134.054 Y138.972 0.00000
G1 X134.249 Y139.797 0.00000
G1 X134.339 Y140.640 0.00000
G1 X134.323 Y141.488 0.00000
G1 X134.217 Y142.213 0.00000
G1 X133.388 Y142.627 0.00000
G1 X132.142 Y143.170 0.00000
G1 X131.688 Y142.910 0.00000
G1 X131.162 Y142.526 0.00000
G1 X130.683 Y142.085 0.00000
G1 X130.257 Y141.593 0.00000
G1 X129.890 Y141.055 0.00000
G1 X129.504 Y140.327 0.00000
G1 X127.193 Y140.440 0.00000
G1 X127.095 Y141.517 0.00000
G1 X126.913 Y142.345 0.00000
G1 X126.629 Y143.143 0.00000
G1 X126.246 Y143.900 0.00000
G1 X125.835 Y144.510 0.00000
G1 X125.338 Y144.526 0.00000
G1 X123.550 Y144.468 0.00000
G1 X123.254 Y144.038 0.00000
G1 X122.947 Y143.464 0.00000
G1 X122.707 Y142.859 0.00000
G1 X122.537 Y142.231 0.00000
G1 X122.439 Y141.587 0.00000
G1 X122.408 Y140.763 0.00000
G1 X120.277 Y139.863 0.00000
G1 X119.721 Y140.790 0.00000
G1 X119.198 Y141.457 0.00000
G1 X118.595 Y142.053 0.00000
G1 X117.922 Y142.569 0.00000
G1 X117.289 Y142.939 0.00000
G1 X116.449 Y142.548 0.00000
G1 X115.247 Y141.912 0.00000
G1 X115.167 Y141.396 0.00000
G1 X115.139 Y140.745 0.00000
G1 X115.186 Y140.096 0.00000
G1 X115.305 Y139.456 0.00000
G1 X115.496 Y138.833 0.00000
G1 X115.825 Y138.078 0.00000
G1 X114.296 Y136.342 0.00000
G1 X113.393 Y136.936 0.00000
G1 X112.632 Y137.310 0.00000
G1 X111.830 Y137.585 0.00000
G1 X111.000 Y137.758 0.00000
G1 X110.270 Y137.817 0.00000
G1 X109.681 Y137.100 0.00000
G1 X108.875 Y136.006 0.00000
G1 X109.027 Y135.505 0.00000
G1 X109.284 Y134.907 0.00000
G1 X109.608 Y134.343 0.00000
G1 X109.993 Y133.818 0.00000
G1 X110.435 Y133.340 0.00000
G1 X111.060 Y132.802 0.00000
G1 X110.435 Y130.574 0.00000
G1 X109.364 Y130.718 0.00000
G1 X108.516 Y130.725 0.00000
G1 X107.674 Y130.625 0.00000
G1 X106.851 Y130.421 0.00000
G1 X106.168 Y130.156 0.00000
G1 X105.948 Y129.255 0.00000
G1 X105.697 Y127.920 0.00000
G1 X106.050 Y127.534 0.00000
G1 X106.542 Y127.108 0.00000
G1 X107.079 Y126.739 0.00000
G1 X107.653 Y126.433 0.00000
G1 X108.259 Y126.194 0.00000
G1 X109.055 Y125.981 0.00000
G1 X109.459 Y123.702 0.00000
G1 X108.431 Y123.367 0.00000
G1 X107.664 Y123.006 0.00000
G1 X106.949 Y122.550 0.00000
G1 X106.297 Y122.009 0.00000
G1 X105.795 Y121.474 0.00000
G1 X105.989 Y120.568 0.00000
G1 X106.342 Y119.255 0.00000
G1 X106.827 Y119.062 0.00000
G1 X107.456 Y118.890 0.00000
G1 X108.099 Y118.791 0.00000
G1 X108.749 Y118.765 0.00000
G1 X109.399 Y118.813 0.00000
G1 X110.209 Y118.965 0.00000
G1 X111.510 Y117.158 0.00000
G1 X111.980 Y116.687 F900.000
G1 X112.079 Y117.040 F900.000
G1 F900
G1 X111.070 Y116.074 0.00000
G1 X110.567 Y115.453 0.00000
G1 X110.146 Y114.775 0.00000
G1 X109.814 Y114.049 0.00000
G1 X109.663 Y113.569 0.00000
G1 X110.099 Y113.007 0.00000
G1 X110.851 Y112.134 0.00000
G1 X111.154 Y112.155 0.00000
G1 X111.751 Y112.265 0.00000
G1 X112.331 Y112.442 0.00000
G1 X112.887 Y112.683 0.00000
G1 X113.413 Y112.985 0.00000
G1 X114.260 Y113.609 0.00000
G1 X116.812 Y112.222 0.00000
G1 X116.322 Y110.914 0.00000
G1 X116.139 Y110.137 0.00000
G1 X116.054 Y109.343 0.00000
G1 X116.069 Y108.545 0.00000
G1 X116.142 Y108.047 0.00000
G1 X116.778 Y107.729 0.00000
G1 X117.835 Y107.269 0.00000
G1 X118.099 Y107.420 0.00000
G1 X118.588 Y107.778 0.00000
G1 X119.034 Y108.189 0.00000
G1 X119.431 Y108.647 0.00000
G1 X119.774 Y109.148 0.00000
G1 X120.266 Y110.078 0.00000
G1 X123.167 Y109.935 0.00000
G1 X123.294 Y108.543 0.00000
G1 X123.465 Y107.764 0.00000
G1 X123.733 Y107.012 0.00000
G1 X124.093 Y106.299 0.00000
G1 X124.375 Y105.882 0.00000
G1 X125.086 Y105.872 0.00000
G1 X126.237 Y105.916 0.00000
G1 X126.410 Y106.166 0.00000
G1 X126.696 Y106.701 0.00000
G1 X126.919 Y107.265 0.00000
G1 X127.078 Y107.851 0.00000
G1 X127.169 Y108.450 0.00000
G1 X127.209 Y109.501 0.00000
G1 X129.885 Y110.632 0.00000
G1 X130.603 Y109.433 0.00000
G1 X131.096 Y108.805 0.00000
G1 X131.663 Y108.243 0.00000
G1 X132.297 Y107.758 0.00000
G1 X132.731 Y107.504 0.00000
G1 X133.377 Y107.803 0.00000
G1 X134.395 Y108.343 0.00000
G1 X134.442 Y108.643 0.00000
G1 X134.467 Y109.249 0.00000
G1 X134.424 Y109.854 0.00000
G1 X134.313 Y110.450 0.00000
G1 X134.135 Y111.030 0.00000
G1 X133.715 Y111.995 0.00000
G1 X135.635 Y114.174 0.00000
G1 X136.802 Y113.405 0.00000
G1 X137.519 Y113.053 0.00000
G1 X138.274 Y112.794 0.00000
G1 X139.056 Y112.631 0.00000
G1 X139.557 Y112.591 0.00000
G1 X140.009 Y113.141 0.00000
G1 X140.692 Y114.069 0.00000
G1 X140.604 Y114.360 0.00000
G1 X140.364 Y114.917 0.00000
G1 X140.062 Y115.443 0.00000
G1 X139.703 Y115.932 0.00000
G1 X139.292 Y116.377 0.00000
G1 X138.495 Y117.064 0.00000
G1 X139.279 Y119.861 0.00000
G1 X140.664 Y119.674 0.00000
G1 X141.463 Y119.668 0.00000
G1 X142.255 Y119.762 0.00000
G1 X143.030 Y119.955 0.00000
G1 X143.499 Y120.136 0.00000
G1 X143.668 Y120.827 0.00000
G1 X143.881 Y121.960 0.00000
G1 X143.675 Y122.184 0.00000
G1 X143.217 Y122.581 0.00000
G1 X142.717 Y122.925 0.00000
G1 X142.182 Y123.210 0.00000
G1 X141.618 Y123.432 0.00000
G1 X140.602 Y123.705 0.00000
G1 X140.095 Y126.565 0.00000
G1 X141.424 Y126.998 0.00000
G1 X142.146 Y127.339 0.00000
G1 X142.819 Y127.768 0.00000
G1 X143.434 Y128.277 0.00000
G1 X143.778 Y128.644 0.00000
G1 X143.629 Y129.340 0.00000
G1 X143.330 Y130.453 0.00000
G1 X143.048 Y130.565 0.00000
G1 X142.463 Y130.725 0.00000
G1 X141.863 Y130.818 0.00000
G1 X141.257 Y130.842 0.00000
G1 X140.652 Y130.797 0.00000
G1 X139.619 Y130.603 0.00000
G1 X137.921 Y132.960 0.00000
G1 X138.930 Y133.926 0.00000
G1 X139.433 Y134.547 0.00000
G1 X139.854 Y135.225 0.00000
G1 X140.186 Y135.951 0.00000
G1 X140.337 Y136.431 0.00000
G1 X139.901 Y136.993 0.00000
G1 X139.149 Y137.866 0.00000
G1 X138.846 Y137.845 0.00000
G1 X138.249 Y137.735 0.00000
G1 X137.669 Y137.558 0.00000
G1 X137.113 Y137.317 0.00000
G1 X136.587 Y137.015 0.00000
G1 X135.740 Y136.391 0.00000
G1 X133.188 Y137.778 0.00000
G1 X133.678 Y139.086 0.00000
G1 X133.861 Y139.863 0.00000
G1 X133.946 Y140.657 0.00000
G1 X133.931 Y141.455 0.00000
G1 X133.858 Y141.953 0.00000
G1 X133.222 Y142.271 0.00000
G1 X132.165 Y142.731 0.00000
G1 X131.901 Y142.580 0.00000
G1 X131.412 Y142.222 0.00000
G1 X130.966 Y141.811 0.00000
G1 X130.569 Y141.353 0.00000
G1 X130.226 Y140.852 0.00000
G1 X129.734 Y139.922 0.00000
G1 X126.833 Y140.065 0.00000
G1 X126.706 Y141.457 0.00000
G1 X126.535 Y142.236 0.00000
G1 X126.267 Y142.988 0.00000
G1 X125.907 Y143.701 0.00000
G1 X125.621 Y144.124 0.00000
G1 X125.338 Y144.133 0.00000
G1 X123.761 Y144.082 0.00000
G1 X123.590 Y143.834 0.00000
G1 X123.304 Y143.299 0.00000
G1 X123.081 Y142.735 0.00000
G1 X122.922 Y142.149 0.00000
G1 X122.831 Y141.550 0.00000
G1 X122.791 Y140.499 0.00000
G1 X120.115 Y139.368 0.00000
G1 X119.397 Y140.567 0.00000
G1 X118.904 Y141.195 0.00000
G1 X118.337 Y141.757 0.00000
G1 X117.703 Y142.242 0.00000
G1 X117.269 Y142.496 0.00000
G1 X116.623 Y142.197 0.00000
G1 X115.605 Y141.657 0.00000
G1 X115.558 Y141.357 0.00000
G1 X115.533 Y140.751 0.00000
G1 X115.576 Y140.146 0.00000
G1 X115.687 Y139.550 0.00000
G1 X115.865 Y138.970 0.00000
G1 X116.285 Y138.005 0.00000
G1 X114.365 Y135.826 0.00000
G1 X113.198 Y136.595 0.00000
G1 X112.481 Y136.947 0.00000
G1 X111.726 Y137.206 0.00000
G1 X110.944 Y137.369 0.00000
G1 X110.443 Y137.409 0.00000
G1 X109.991 Y136.859 0.00000
G1 X109.308 Y135.931 0.00000
G1 X109.396 Y135.640 0.00000
G1 X109.636 Y135.083 0.00000
G1 X109.938 Y134.557 0.00000
G1 X110.297 Y134.068 0.00000
G1 X110.708 Y133.623 0.00000
G1 X111.505 Y132.936 0.00000
G1 X110.721 Y130.139 0.00000
G1 X109.336 Y130.326 0.00000
G1 X108.537 Y130.332 0.00000
G1 X107.745 Y130.238 0.00000
G1 X106.970 Y130.045 0.00000
G1 X106.501 Y129.864 0.00000
G1 X106.332 Y129.173 0.00000
G1 X106.119 Y128.040 0.00000
G1 X106.325 Y127.816 0.00000
G1 X106.783 Y127.419 0.00000
G1 X107.283 Y127.075 0.00000
G1 X107.818 Y126.790 0.00000
G1 X108.382 Y126.568 0.00000
G1 X109.398 Y126.295 0.00000
G1 X109.905 Y123.435 0.00000
G1 X108.576 Y123.002 0.00000
G1 X107.854 Y122.661 0.00000
G1 X107.181 Y122.232 0.00000
G1 X106.566 Y121.723 0.00000
G1 X106.222 Y121.356 0.00000
G1 X106.371 Y120.660 0.00000
G1 X106.670 Y119.547 0.00000
G1 X106.952 Y119.435 0.00000
G1 X107.537 Y119.275 0.00000
G1 X108.137 Y119.182 0.00000
G1 X108.743 Y119.158 0.00000
G1 X109.348 Y119.203 0.00000
G1 X110.381 Y119.397 0.00000
G1 X112.028 Y117.111 0.00000
G1 X112.597 Y116.993 F900.000
G1 F900
G1 X111.359 Y115.807 0.00000
G1 X110.888 Y115.225 0.00000
G1 X110.493 Y114.589 0.00000
G1 X110.181 Y113.908 0.00000
G1 X110.099 Y113.647 0.00000
G1 X110.403 Y113.255 0.00000
G1 X111.020 Y112.539 0.00000
G1 X111.105 Y112.545 0.00000
G1 X111.658 Y112.647 0.00000
G1 X112.195 Y112.811 0.00000
G1 X112.711 Y113.035 0.00000
G1 X113.198 Y113.315 0.00000
G1 X114.228 Y114.074 0.00000
G1 X117.299 Y112.404 0.00000
G1 X116.699 Y110.799 0.00000
G1 X116.526 Y110.070 0.00000
G1 X116.447 Y109.326 0.00000
G1 X116.461 Y108.577 0.00000
G1 X116.501 Y108.306 0.00000
G1 X116.944 Y108.085 0.00000
G1 X117.811 Y107.708 0.00000
G1 X118.339 Y108.082 0.00000
G1 X118.752 Y108.462 0.00000
G1 X119.120 Y108.888 0.00000
G1 X119.437 Y109.351 0.00000
G1 X120.035 Y110.482 0.00000
G1 X123.527 Y110.310 0.00000
G1 X123.682 Y108.604 0.00000
G1 X123.843 Y107.872 0.00000
G1 X124.095 Y107.167 0.00000
G1 X124.432 Y106.498 0.00000
G1 X124.585 Y106.272 0.00000
G1 X125.081 Y106.265 0.00000
G1 X126.026 Y106.301 0.00000
G1 X126.339 Y106.867 0.00000
G1 X126.546 Y107.389 0.00000
G1 X126.693 Y107.932 0.00000
G1 X126.778 Y108.487 0.00000
G1 X126.826 Y109.766 0.00000
G1 X130.046 Y111.126 0.00000
G1 X130.927 Y109.656 0.00000
G1 X131.389 Y109.067 0.00000
G1 X131.922 Y108.540 0.00000
G1 X132.516 Y108.084 0.00000
G1 X132.752 Y107.947 0.00000
G1 X133.202 Y108.155 0.00000
G1 X134.037 Y108.598 0.00000
G1 X134.074 Y109.243 0.00000
G1 X134.034 Y109.804 0.00000
G1 X133.931 Y110.357 0.00000
G1 X133.766 Y110.894 0.00000
G1 X133.255 Y112.067 0.00000
G1 X135.566 Y114.690 0.00000
G1 X136.998 Y113.747 0.00000
G1 X137.670 Y113.417 0.00000
G1 X138.378 Y113.173 0.00000
G1 X139.111 Y113.021 0.00000
G1 X139.384 Y112.999 0.00000
G1 X139.698 Y113.382 0.00000
G1 X140.259 Y114.143 0.00000
G1 X140.012 Y114.741 0.00000
G1 X139.733 Y115.229 0.00000
G1 X139.400 Y115.682 0.00000
G1 X139.018 Y116.094 0.00000
G1 X138.049 Y116.929 0.00000
G1 X138.993 Y120.295 0.00000
G1 X140.692 Y120.067 0.00000
G1 X141.441 Y120.061 0.00000
G1 X142.185 Y120.149 0.00000
G1 X142.912 Y120.330 0.00000
G1 X143.166 Y120.428 0.00000
G1 X143.284 Y120.910 0.00000
G1 X143.459 Y121.839 0.00000
G1 X142.977 Y122.270 0.00000
G1 X142.513 Y122.588 0.00000
G1 X142.017 Y122.852 0.00000
G1 X141.494 Y123.059 0.00000
G1 X140.259 Y123.391 0.00000
G1 X139.649 Y126.833 0.00000
G1 X141.278 Y127.364 0.00000
G1 X141.956 Y127.684 0.00000
G1 X142.588 Y128.086 0.00000
G1 X143.164 Y128.564 0.00000
G1 X143.351 Y128.763 0.00000
G1 X143.247 Y129.248 0.00000
G1 X143.002 Y130.161 0.00000
G1 X142.381 Y130.340 0.00000
G1 X141.825 Y130.426 0.00000
G1 X141.264 Y130.448 0.00000
G1 X140.703 Y130.407 0.00000
G1 X139.446 Y130.170 0.00000
G1 X137.403 Y133.007 0.00000
G1 X138.641 Y134.193 0.00000
G1 X139.112 Y134.775 0.00000
G1 X139.507 Y135.411 0.00000
G1 X139.819 Y136.092 0.00000
G1 X139.901 Y136.353 0.00000
G1 X139.597 Y136.745 0.00000
G1 X138.980 Y137.461 0.00000
G1 X138.895 Y137.455 0.00000
G1 X138.342 Y137.353 0.00000
G1 X137.805 Y137.189 0.00000
G1 X137.289 Y136.965 0.00000
G1 X136.802 Y136.685 0.00000
G1 X135.772 Y135.926 0.00000
G1 X132.701 Y137.596 0.00000
G1 X133.301 Y139.201 0.00000
G1 X133.474 Y139.930 0.00000
G1 X133.553 Y140.674 0.00000
G1 X133.539 Y141.423 0.00000
G1 X133.499 Y141.694 0.00000
G1 X133.056 Y141.915 0.00000
G1 X132.189 Y142.292 0.00000
G1 X131.661 Y141.918 0.00000
G1 X131.248 Y141.538 0.00000
G1 X130.880 Y141.112 0.00000
G1 X130.563 Y140.649 0.00000
G1 X129.965 Y139.518 0.00000
G1 X126.473 Y139.690 0.00000
G1 X126.318 Y141.396 0.00000
G1 X126.157 Y142.128 0.00000
G1 X125.905 Y142.833 0.00000
G1 X125.568 Y143.502 0.00000
G1 X125.408 Y143.738 0.00000
G1 X123.972 Y143.696 0.00000
G1 X123.926 Y143.629 0.00000
G1 X123.661 Y143.133 0.00000
G1 X123.454 Y142.611 0.00000
G1 X123.307 Y142.068 0.00000
G1 X123.222 Y141.513 0.00000
G1 X123.174 Y140.234 0.00000
G1 X119.954 Y138.874 0.00000
G1 X119.073 Y140.344 0.00000
G1 X118.611 Y140.933 0.00000
G1 X118.078 Y141.460 0.00000
G1 X117.484 Y141.916 0.00000
G1 X117.248 Y142.053 0.00000
G1 X116.798 Y141.845 0.00000
G1 X115.963 Y141.402 0.00000
G1 X115.926 Y140.757 0.00000
G1 X115.966 Y140.196 0.00000
G1 X116.069 Y139.643 0.00000
G1 X116.234 Y139.106 0.00000
G1 X116.745 Y137.933 0.00000
G1 X114.434 Y135.310 0.00000
G1 X113.002 Y136.253 0.00000
G1 X112.330 Y136.583 0.00000
G1 X111.622 Y136.827 0.00000
G1 X110.889 Y136.979 0.00000
G1 X110.616 Y137.001 0.00000
G1 X110.302 Y136.618 0.00000
G1 X109.741 Y135.857 0.00000
G1 X109.988 Y135.259 0.00000
G1 X110.267 Y134.771 0.00000
G1 X110.600 Y134.318 0.00000
G1 X110.982 Y133.906 0.00000
G1 X111.951 Y133.071 0.00000
G1 X111.007 Y129.705 0.00000
G1 X109.308 Y129.933 0.00000
G1 X108.559 Y129.939 0.00000
G1 X107.815 Y129.851 0.00000
G1 X107.088 Y129.670 0.00000
G1 X106.834 Y129.572 0.00000
G1 X106.716 Y129.090 0.00000
G1 X106.541 Y128.161 0.00000
G1 X107.023 Y127.730 0.00000
G1 X107.487 Y127.412 0.00000
G1 X107.983 Y127.148 0.00000
G1 X108.506 Y126.941 0.00000
G1 X109.741 Y126.609 0.00000
G1 X110.351 Y123.167 0.00000
G1 X108.722 Y122.636 0.00000
G1 X108.044 Y122.316 0.00000
G1 X107.412 Y121.914 0.00000
G1 X106.836 Y121.436 0.00000
G1 X106.649 Y121.237 0.00000
G1 X106.753 Y120.752 0.00000
G1 X106.998 Y119.839 0.00000
G1 X107.619 Y119.660 0.00000
G1 X108.175 Y119.574 0.00000
G1 X108.736 Y119.552 0.00000
G1 X109.297 Y119.593 0.00000
G1 X110.554 Y119.830 0.00000
G1 X112.546 Y117.063 0.00000
G1 X115.535 Y118.917 F900.000
G1 F900
G1 X116.497 Y117.632 0.00000
G1 X117.632 Y116.497 0.00000
G1 X118.917 Y115.535 0.00000
G1 X120.326 Y114.766 0.00000
G1 X121.830 Y114.205 0.00000
G1 X123.399 Y113.864 0.00000
G1 X125.000 Y113.749 0.00000
G1 X126.601 Y113.864 0.00000
G1 X128.170 Y114.205 0.00000
G1 X129.674 Y114.766 0.00000
G1 X131.083 Y115.535 0.00000
G1 X132.368 Y116.497 0.00000
G1 X133.503 Y117.632 0.00000
G1 X134.465 Y118.917 0.00000
G1 X135.234 Y120.326 0.00000
G1 X135.795 Y121.830 0.00000
G1 X136.136 Y123.399 0.00000
G1 X136.251 Y125.000 0.00000
G1 X136.136 Y126.601 0.00000
G1 X135.795 Y128.170 0.00000
G1 X135.234 Y129.674 0.00000
G1 X134.465 Y131.083 0.00000
G1 X133.503 Y132.368 0.00000
G1 X132.368 Y133.503 0.00000
G1 X131.083 Y134.465 0.00000
G1 X129.674 Y135.234 0.00000
G1 X128.170 Y135.795 0.00000
G1 X126.601 Y136.136 0.00000
G1 X125.000 Y136.251 0.00000
G1 X123.399 Y136.136 0.00000
G1 X121.830 Y135.795 0.00000
G1 X120.326 Y135.234 0.00000
G1 X118.917 Y134.465 0.00000
G1 X117.632 Y133.503 0.00000
G1 X116.497 Y132.368 0.00000
G1 X115.535 Y131.083 0.00000
G1 X114.766 Y129.674 0.00000
G1 X114.205 Y128.170 0.00000
G1 X113.864 Y126.601 0.00000
G1 X113.749 Y125.000 0.00000
G1 X113.864 Y123.399 0.00000
G1 X114.205 Y121.830 0.00000
G1 X114.766 Y120.326 0.00000
G1 X115.494 Y118.994 0.00000
G1 X115.535 Y118.917 F900.000
G1 X115.221 Y118.682 F900.000
G1 F900
G1 X116.200 Y117.375 0.00000
G1 X117.375 Y116.200 0.00000
G1 X118.705 Y115.204 0.00000
G1 X120.163 Y114.408 0.00000
G1 X121.719 Y113.827 0.00000
G1 X123.343 Y113.474 0.00000
G1 X125.000 Y113.356 0.00000
G1 X126.657 Y113.474 0.00000
G1 X128.281 Y113.827 0.00000
G1 X129.837 Y114.408 0.00000
G1 X131.295 Y115.204 0.00000
G1 X132.625 Y116.200 0.00000
G1 X133.800 Y117.375 0.00000
G1 X134.796 Y118.705 0.00000
G1 X135.592 Y120.163 0.00000
G1 X136.173 Y121.719 0.00000
G1 X136.526 Y123.343 0.00000
G1 X136.644 Y125.000 0.00000
G1 X136.526 Y126.657 0.00000
G1 X136.173 Y128.281 0.00000
G1 X135.592 Y129.837 0.00000
G1 X134.796 Y131.295 0.00000
G1 X133.800 Y132.625 0.00000
G1 X132.625 Y133.800 0.00000
G1 X131.295 Y134.796 0.00000
G1 X129.837 Y135.592 0.00000
G1 X128.281 Y136.173 0.00000
G1 X126.657 Y136.526 0.00000
G1 X125.000 Y136.644 0.00000
G1 X123.343 Y136.526 0.00000
G1 X121.719 Y136.173 0.00000
G1 X120.163 Y135.592 0.00000
G1 X118.705 Y134.796 0.00000
G1 X117.375 Y133.800 0.00000
G1 X116.200 Y132.625 0.00000
G1 X115.204 Y131.295 0.00000
G1 X114.408 Y129.837 0.00000
G1 X113.827 Y128.281 0.00000
G1 X113.474 Y126.657 0.00000
G1 X113.356 Y125.000 0.00000
G1 X113.474 Y123.343 0.00000
G1 X113.827 Y121.719 0.00000
G1 X114.408 Y120.163 0.00000
G1 X115.176 Y118.756 0.00000
G1 X114.907 Y118.447 F900.000
G1 F900
G1 X115.902 Y117.117 0.00000
G1 X117.117 Y115.902 0.00000
G1 X118.492 Y114.873 0.00000
G1 X119.999 Y114.050 0.00000
G1 X121.608 Y113.450 0.00000
G1 X123.287 Y113.084 0.00000
G1 X125.000 Y112.962 0.00000
G1 X126.713 Y113.084 0.00000
G1 X128.392 Y113.450 0.00000
G1 X130.001 Y114.050 0.00000
G1 X131.508 Y114.873 0.00000
G1 X132.883 Y115.902 0.00000
G1 X134.098 Y117.117 0.00000
G1 X135.127 Y118.492 0.00000
G1 X135.950 Y119.999 0.00000
G1 X136.550 Y121.608 0.00000
G1 X136.916 Y123.287 0.00000
G1 X137.038 Y125.000 0.00000
G1 X136.916 Y126.713 0.00000
G1 X136.550 Y128.392 0.00000
G1 X135.950 Y130.001 0.00000
G1 X135.127 Y131.508 0.00000
G1 X134.098 Y132.883 0.00000
G1 X132.883 Y134.098 0.00000
G1 X131.508 Y135.127 0.00000
G1 X130.001 Y135.950 0.00000
G1 X128.392 Y136.550 0.00000
G1 X126.713 Y136.916 0.00000
G1 X125.000 Y137.038 0.00000
G1 X123.287 Y136.916 0.00000
G1 X121.608 Y136.550 0.00000
G1 X119.999 Y135.950 0.00000
G1 X118.492 Y135.127 0.00000
G1 X117.117 Y134.098 0.00000
G1 X115.902 Y132.883 0.00000
