DVAR $hFile

G71
G76
G91 ;G90 = absolute, G91 = relative
G68

RAMP TYPE SINE X Y
VELOCITY OFF
RAMP RATE 900

ENABLE X Y D
G90
G0 D-80 F60
G0 X0 Y0 {Z}0 F60
G91

;Begin Motion
G0 X150 Y50 F60
G0 D-149.5 F60
G1 F30

FILECLOSE
$hFile = FILEOPEN "COM5", 2
COMMINIT $hFile, "baud=115200 parity=N data=8 stop=1"
COMMSETTIMEOUT $hFile, -1, -1, 1000


FILEWRITE $hFile"\x05\x02\x30\x38\x50\x53\x20\x20\x30\x33\x34\x30\x45\x45\x03"

; generated by Slic3r 1.3.0 on 2023-03-24 at 23:03:14 
; external perimeters extrusion width = 0.50mm (2.95mm^3/s) 
; perimeters extrusion width = 0.50mm (2.95mm^3/s) 
; infill extrusion width = 0.50mm (2.95mm^3/s) 
; solid infill extrusion width = 0.50mm (2.95mm^3/s) 
; top infill extrusion width = 0.50mm (2.95mm^3/s) 
; Filament gcode 
; G21 ; set units to millimeters 
G90 ; use absolute coordinates 
G1 D-149.500 ;not extruding 
G1 X12.022 Y12.974 ;not extruding 
FILEWRITE $hFile"\x05\x02\x30\x34\x44\x49\x20\x20\x43\x46\x03"
G1 X13.392 Y11.735 ;extruding 
G1 X14.897 Y10.702 ;extruding 
G1 X16.561 Y9.857 ;extruding 
G1 X18.307 Y9.251 ;extruding 
G1 X20.117 Y8.883 ;extruding 
G1 X21.938 Y8.761 ;extruding 
G1 X23.801 Y8.883 ;extruding 
G1 X25.612 Y9.251 ;extruding 
G1 X27.357 Y9.857 ;extruding 
G1 X29.005 Y10.690 ;extruding 
G1 X30.528 Y11.735 ;extruding 
G1 X31.897 Y12.974 ;extruding 
G1 X33.076 Y14.368 ;extruding 
G1 X34.083 Y15.939 ;extruding 
G1 X34.861 Y17.616 ;extruding 
G1 X35.408 Y19.380 ;extruding 
G1 X35.715 Y21.201 ;extruding 
G1 X35.777 Y23.047 ;extruding 
G1 X35.592 Y24.884 ;extruding 
G1 X35.164 Y26.681 ;extruding 
G1 X34.500 Y28.404 ;extruding 
G1 X33.613 Y30.024 ;extruding 
G1 X32.517 Y31.510 ;extruding 
G1 X31.233 Y32.838 ;extruding 
G1 X29.784 Y33.983 ;extruding 
G1 X28.195 Y34.924 ;extruding 
G1 X26.495 Y35.645 ;extruding 
G1 X24.714 Y36.133 ;extruding 
G1 X22.883 Y36.379 ;extruding 
G1 X21.036 Y36.379 ;extruding 
G1 X19.206 Y36.133 ;extruding 
G1 X17.425 Y35.645 ;extruding 
G1 X15.725 Y34.924 ;extruding 
G1 X14.128 Y33.978 ;extruding 
G1 X12.686 Y32.837 ;extruding 
G1 X11.402 Y31.510 ;extruding 
G1 X10.307 Y30.024 ;extruding 
G1 X9.419 Y28.404 ;extruding 
G1 X8.756 Y26.681 ;extruding 
G1 X8.328 Y24.884 ;extruding 
G1 X8.143 Y23.047 ;extruding 
G1 X8.204 Y21.201 ;extruding 
G1 X8.508 Y19.401 ;extruding 
G1 X9.058 Y17.617 ;extruding 
G1 X9.836 Y15.941 ;extruding 
G1 X10.830 Y14.384 ;extruding 
G1 X11.966 Y13.040 ;extruding 
FILEWRITE $hFile"\x05\x02\x30\x34\x44\x49\x20\x20\x43\x46\x03"
G1 X12.305 Y13.247 ;not extruding 
FILEWRITE $hFile"\x05\x02\x30\x34\x44\x49\x20\x20\x43\x46\x03"
G1 X13.636 Y12.044 ;extruding 
G1 X15.097 Y11.040 ;extruding 
G1 X16.715 Y10.220 ;extruding 
G1 X18.411 Y9.631 ;extruding 
G1 X20.170 Y9.273 ;extruding 
G1 X21.939 Y9.155 ;extruding 
G1 X23.749 Y9.273 ;extruding 
G1 X25.508 Y9.631 ;extruding 
G1 X27.203 Y10.219 ;extruding 
G1 X28.805 Y11.028 ;extruding 
G1 X30.284 Y12.044 ;extruding 
G1 X31.615 Y13.247 ;extruding 
G1 X32.759 Y14.601 ;extruding 
G1 X33.738 Y16.129 ;extruding 
G1 X34.494 Y17.757 ;extruding 
G1 X35.025 Y19.471 ;extruding 
G1 X35.324 Y21.240 ;extruding 
G1 X35.384 Y23.034 ;extruding 
G1 X35.204 Y24.819 ;extruding 
G1 X34.788 Y26.564 ;extruding 
G1 X34.143 Y28.238 ;extruding 
G1 X33.281 Y29.812 ;extruding 
G1 X32.217 Y31.256 ;extruding 
G1 X30.969 Y32.546 ;extruding 
G1 X29.561 Y33.658 ;extruding 
G1 X28.017 Y34.572 ;extruding 
G1 X26.366 Y35.273 ;extruding 
G1 X24.635 Y35.747 ;extruding 
G1 X22.857 Y35.986 ;extruding 
G1 X21.063 Y35.986 ;extruding 
G1 X19.284 Y35.747 ;extruding 
G1 X17.554 Y35.273 ;extruding 
G1 X15.902 Y34.572 ;extruding 
G1 X14.351 Y33.653 ;extruding 
G1 X12.950 Y32.546 ;extruding 
G1 X11.703 Y31.256 ;extruding 
G1 X10.639 Y29.812 ;extruding 
G1 X9.776 Y28.238 ;extruding 
G1 X9.132 Y26.564 ;extruding 
G1 X8.716 Y24.819 ;extruding 
G1 X8.536 Y23.034 ;extruding 
G1 X8.596 Y21.240 ;extruding 
G1 X8.891 Y19.492 ;extruding 
G1 X9.425 Y17.758 ;extruding 
G1 X10.181 Y16.130 ;extruding 
G1 X11.147 Y14.618 ;extruding 
G1 X12.249 Y13.314 ;extruding 
FILEWRITE $hFile"\x05\x02\x30\x34\x44\x49\x20\x20\x43\x46\x03"
G1 X12.588 Y13.521 ;not extruding 
FILEWRITE $hFile"\x05\x02\x30\x34\x44\x49\x20\x20\x43\x46\x03"
G1 X13.880 Y12.353 ;extruding 
G1 X15.298 Y11.379 ;extruding 
G1 X16.869 Y10.582 ;extruding 
G1 X18.515 Y10.010 ;extruding 
G1 X20.222 Y9.663 ;extruding 
G1 X21.939 Y9.548 ;extruding 
G1 X23.697 Y9.663 ;extruding 
G1 X25.404 Y10.010 ;extruding 
G1 X27.050 Y10.582 ;extruding 
G1 X28.604 Y11.367 ;extruding 
G1 X30.040 Y12.353 ;extruding 
G1 X31.332 Y13.521 ;extruding 
G1 X32.443 Y14.835 ;extruding 
G1 X33.393 Y16.318 ;extruding 
G1 X34.126 Y17.899 ;extruding 
G1 X34.642 Y19.562 ;extruding 
G1 X34.932 Y21.280 ;extruding 
G1 X34.990 Y23.020 ;extruding 
G1 X34.816 Y24.753 ;extruding 
G1 X34.412 Y26.447 ;extruding 
G1 X33.786 Y28.073 ;extruding 
G1 X32.949 Y29.600 ;extruding 
G1 X31.916 Y31.002 ;extruding 
G1 X30.705 Y32.254 ;extruding 
G1 X29.338 Y33.334 ;extruding 
G1 X27.840 Y34.221 ;extruding 
G1 X26.236 Y34.901 ;extruding 
G1 X24.557 Y35.361 ;extruding 
G1 X22.831 Y35.593 ;extruding 
G1 X21.089 Y35.593 ;extruding 
G1 X19.363 Y35.361 ;extruding 
G1 X17.683 Y34.901 ;extruding 
G1 X16.080 Y34.221 ;extruding 
G1 X14.574 Y33.329 ;extruding 
G1 X13.214 Y32.254 ;extruding 
G1 X12.004 Y31.002 ;extruding 
G1 X10.970 Y29.600 ;extruding 
G1 X10.133 Y28.073 ;extruding 
G1 X9.507 Y26.447 ;extruding 
G1 X9.104 Y24.753 ;extruding 
G1 X8.929 Y23.020 ;extruding 
G1 X8.988 Y21.280 ;extruding 
G1 X9.274 Y19.583 ;extruding 
G1 X9.793 Y17.900 ;extruding 
G1 X10.526 Y16.319 ;extruding 
G1 X11.464 Y14.851 ;extruding 
G1 X12.532 Y13.587 ;extruding 
FILEWRITE $hFile"\x05\x02\x30\x34\x44\x49\x20\x20\x43\x46\x03"
G1 X12.871 Y13.795 ;not extruding 
FILEWRITE $hFile"\x05\x02\x30\x34\x44\x49\x20\x20\x43\x46\x03"
G1 X14.124 Y12.662 ;extruding 
G1 X15.499 Y11.717 ;extruding 
G1 X17.023 Y10.944 ;extruding 
G1 X18.619 Y10.390 ;extruding 
G1 X20.275 Y10.053 ;extruding 
G1 X21.939 Y9.942 ;extruding 
G1 X23.645 Y10.053 ;extruding 
G1 X25.300 Y10.390 ;extruding 
G1 X26.896 Y10.944 ;extruding 
G1 X28.403 Y11.706 ;extruding 
G1 X29.796 Y12.662 ;extruding 
G1 X31.049 Y13.795 ;extruding 
G1 X32.126 Y15.069 ;extruding 
G1 X33.048 Y16.508 ;extruding 
G1 X33.759 Y18.040 ;extruding 
G1 X34.259 Y19.654 ;extruding 
G1 X34.540 Y21.319 ;extruding 
G1 X34.597 Y23.007 ;extruding 
G1 X34.428 Y24.688 ;extruding 
G1 X34.036 Y26.331 ;extruding 
G1 X33.429 Y27.907 ;extruding 
G1 X32.617 Y29.388 ;extruding 
G1 X31.616 Y30.748 ;extruding 
G1 X30.441 Y31.962 ;extruding 
G1 X29.116 Y33.009 ;extruding 
G1 X27.662 Y33.870 ;extruding 
G1 X26.107 Y34.529 ;extruding 
G1 X24.478 Y34.975 ;extruding 
G1 X22.804 Y35.201 ;extruding 
G1 X21.115 Y35.201 ;extruding 
G1 X19.441 Y34.975 ;extruding 
G1 X17.812 Y34.529 ;extruding 
G1 X16.257 Y33.870 ;extruding 
G1 X14.796 Y33.005 ;extruding 
G1 X13.478 Y31.962 ;extruding 
G1 X12.304 Y30.748 ;extruding 
G1 X11.302 Y29.388 ;extruding 
G1 X10.490 Y27.907 ;extruding 
G1 X9.883 Y26.331 ;extruding 
G1 X9.492 Y24.688 ;extruding 
G1 X9.323 Y23.007 ;extruding 
G1 X9.379 Y21.319 ;extruding 
G1 X9.657 Y19.674 ;extruding 
G1 X10.160 Y18.041 ;extruding 
G1 X10.872 Y16.508 ;extruding 
G1 X11.780 Y15.084 ;extruding 
G1 X12.815 Y13.861 ;extruding 
FILEWRITE $hFile"\x05\x02\x30\x34\x44\x49\x20\x20\x43\x46\x03"
G1 X13.154 Y14.068 ;not extruding 
FILEWRITE $hFile"\x05\x02\x30\x34\x44\x49\x20\x20\x43\x46\x03"
G1 X14.368 Y12.970 ;extruding 
G1 X15.700 Y12.056 ;extruding 
G1 X17.177 Y11.306 ;extruding 
G1 X18.723 Y10.769 ;extruding 
G1 X20.327 Y10.443 ;extruding 
G1 X21.940 Y10.336 ;extruding 
G1 X23.592 Y10.443 ;extruding 
G1 X25.196 Y10.769 ;extruding 
G1 X26.742 Y11.306 ;extruding 
G1 X28.203 Y12.044 ;extruding 
G1 X29.552 Y12.970 ;extruding 
G1 X30.766 Y14.068 ;extruding 
G1 X31.809 Y15.302 ;extruding 
G1 X32.703 Y16.697 ;extruding 
G1 X33.392 Y18.182 ;extruding 
G1 X33.877 Y19.745 ;extruding 
G1 X34.149 Y21.358 ;extruding 
G1 X34.204 Y22.994 ;extruding 
G1 X34.040 Y24.622 ;extruding 
G1 X33.660 Y26.214 ;extruding 
G1 X33.072 Y27.741 ;extruding 
G1 X32.286 Y29.177 ;extruding 
G1 X31.315 Y30.494 ;extruding 
G1 X30.177 Y31.670 ;extruding 
G1 X28.893 Y32.685 ;extruding 
G1 X27.485 Y33.519 ;extruding 
G1 X25.978 Y34.157 ;extruding 
G1 X24.400 Y34.590 ;extruding 
G1 X22.778 Y34.808 ;extruding 
G1 X21.142 Y34.808 ;extruding 
G1 X19.520 Y34.590 ;extruding 
G1 X17.941 Y34.157 ;extruding 
G1 X16.435 Y33.519 ;extruding 
G1 X15.019 Y32.680 ;extruding 
G1 X13.742 Y31.670 ;extruding 
G1 X12.605 Y30.494 ;extruding 
G1 X11.634 Y29.177 ;extruding 
G1 X10.847 Y27.741 ;extruding 
G1 X10.259 Y26.214 ;extruding 
G1 X9.880 Y24.622 ;extruding 
G1 X9.716 Y22.994 ;extruding 
G1 X9.771 Y21.358 ;extruding 
G1 X10.040 Y19.765 ;extruding 
G1 X10.528 Y18.182 ;extruding 
G1 X11.217 Y16.697 ;extruding 
G1 X12.097 Y15.318 ;extruding 
G1 X13.098 Y14.135 ;extruding 
FILEWRITE $hFile"\x05\x02\x30\x34\x44\x49\x20\x20\x43\x46\x03"
G1 X13.154 Y14.068 ;not extruding 
G1 X11.861 Y12.677 ;not extruding 
FILEWRITE $hFile"\x05\x02\x30\x34\x44\x49\x20\x20\x43\x46\x03"
G1 X14.295 Y10.415 ;extruding 
G1 X16.454 Y9.578 ;extruding 
G1 X19.161 Y8.479 ;extruding 
G1 X24.494 Y8.427 ;extruding 
G1 X26.653 Y9.264 ;extruding 
G1 X29.394 Y10.275 ;extruding 
G1 X33.371 Y13.829 ;extruding 
G1 X34.403 Y15.902 ;extruding 
G1 X35.747 Y18.496 ;extruding 
G1 X36.288 Y23.772 ;extruding 
G1 X34.888 Y28.881 ;extruding 
G1 X32.577 Y31.975 ;extruding 
G1 X31.841 Y33.056 ;extruding 
G1 X27.258 Y35.956 ;extruding 
G1 X24.982 Y36.381 ;extruding 
G1 X22.119 Y36.965 ;extruding 
G1 X16.883 Y36.038 ;extruding 
G1 X13.590 Y34.023 ;extruding 
G1 X12.445 Y33.390 ;extruding 
G1 X9.135 Y29.094 ;extruding 
G1 X8.501 Y26.867 ;extruding 
G1 X7.656 Y24.070 ;extruding 
G1 X8.097 Y18.755 ;extruding 
G1 X9.129 Y16.682 ;extruding 
G1 X10.388 Y14.046 ;extruding 
G1 X11.797 Y12.737 ;extruding 
FILEWRITE $hFile"\x05\x02\x30\x34\x44\x49\x20\x20\x43\x46\x03"
G1 X10.124 Y13.756 ;not extruding 
FILEWRITE $hFile"\x05\x02\x30\x34\x44\x49\x20\x20\x43\x46\x03"
G1 X14.043 Y10.113 ;extruding 
G1 X12.520 Y7.754 ;extruding 
G1 X12.001 Y6.989 ;extruding 
G1 X12.129 Y6.905 ;extruding 
G1 X13.238 Y8.752 ;extruding 
G1 X14.106 Y10.067 ;extruding 
G1 X16.309 Y9.213 ;extruding 
G1 X19.081 Y8.087 ;extruding 
G1 X18.515 Y5.345 ;extruding 
G1 X18.308 Y4.449 ;extruding 
G1 X18.450 Y4.418 ;extruding 
G1 X18.563 Y4.978 ;extruding 
G1 X18.823 Y6.532 ;extruding 
G1 X19.161 Y8.086 ;extruding 
G1 X24.511 Y8.034 ;extruding 
G1 X24.975 Y5.265 ;extruding 
G1 X25.107 Y4.351 ;extruding 
G1 X25.258 Y4.374 ;extruding 
G1 X24.833 Y6.486 ;extruding 
G1 X24.589 Y8.043 ;extruding 
G1 X26.792 Y8.896 ;extruding 
G1 X29.599 Y9.932 ;extruding 
G1 X31.028 Y7.524 ;extruding 
G1 X31.479 Y6.722 ;extruding 
G1 X31.612 Y6.798 ;extruding 
G1 X30.454 Y8.612 ;extruding 
G1 X29.659 Y9.985 ;extruding 
G1 X33.648 Y13.551 ;extruding 
G1 X35.856 Y11.816 ;extruding 
G1 X36.570 Y11.229 ;extruding 
G1 X36.661 Y11.343 ;extruding 
G1 X36.206 Y11.696 ;extruding 
G1 X34.932 Y12.621 ;extruding 
G1 X33.700 Y13.610 ;extruding 
G1 X34.753 Y15.724 ;extruding 
G1 X36.130 Y18.381 ;extruding 
G1 X38.808 Y17.564 ;extruding 
G1 X39.681 Y17.275 ;extruding 
G1 X39.728 Y17.421 ;extruding 
G1 X37.651 Y17.981 ;extruding 
G1 X36.138 Y18.460 ;extruding 
G1 X36.684 Y23.783 ;extruding 
G1 X39.484 Y23.989 ;extruding 
G1 X40.403 Y24.036 ;extruding 
G1 X40.394 Y24.180 ;extruding 
G1 X39.824 Y24.136 ;extruding 
G1 X38.258 Y23.961 ;extruding 
G1 X36.671 Y23.860 ;extruding 
G1 X35.256 Y29.021 ;extruding 
G1 X37.793 Y30.224 ;extruding 
G1 X38.633 Y30.600 ;extruding 
G1 X38.570 Y30.739 ;extruding 
G1 X36.657 Y29.754 ;extruding 
G1 X35.221 Y29.091 ;extruding 
G1 X32.897 Y32.203 ;extruding 
G1 X32.066 Y33.424 ;extruding 
G1 X33.964 Y35.428 ;extruding 
G1 X34.614 Y36.084 ;extruding 
G1 X34.509 Y36.184 ;extruding 
G1 X34.117 Y35.766 ;extruding 
G1 X33.078 Y34.582 ;extruding 
G1 X31.972 Y33.438 ;extruding 
G1 X27.450 Y36.299 ;extruding 
G1 X28.514 Y38.898 ;extruding 
G1 X28.882 Y39.741 ;extruding 
G1 X28.741 Y39.801 ;extruding 
G1 X27.991 Y37.784 ;extruding 
G1 X27.380 Y36.333 ;extruding 
G1 X25.057 Y36.767 ;extruding 
G1 X22.125 Y37.364 ;extruding 
G1 X22.179 Y40.164 ;extruding 
G1 X22.217 Y41.083 ;extruding 
G1 X22.072 Y41.088 ;extruding 
G1 X22.064 Y40.516 ;extruding 
G1 X22.094 Y38.941 ;extruding 
G1 X22.047 Y37.351 ;extruding 
G1 X16.778 Y36.419 ;extruding 
G1 X15.814 Y39.056 ;extruding 
G1 X15.517 Y39.926 ;extruding 
G1 X15.380 Y39.879 ;extruding 
G1 X15.579 Y39.342 ;extruding 
G1 X16.176 Y37.884 ;extruding 
G1 X16.705 Y36.390 ;extruding 
G1 X13.392 Y34.363 ;extruding 
G1 X12.100 Y33.648 ;extruding 
G1 X10.279 Y35.723 ;extruding 
G1 X9.686 Y36.430 ;extruding 
G1 X9.570 Y36.330 ;extruding 
G1 X11.042 Y34.759 ;extruding 
G1 X12.076 Y33.556 ;extruding 
G1 X8.811 Y29.317 ;extruding 
G1 X6.321 Y30.616 ;extruding 
G1 X5.516 Y31.060 ;extruding 
G1 X5.443 Y30.926 ;extruding 
G1 X7.382 Y29.993 ;extruding 
G1 X8.771 Y29.250 ;extruding 
G1 X8.124 Y26.978 ;extruding 
G1 X7.259 Y24.113 ;extruding 
G1 X4.476 Y24.425 ;extruding 
G1 X3.564 Y24.547 ;extruding 
G1 X3.546 Y24.403 ;extruding 
G1 X4.115 Y24.343 ;extruding 
G1 X5.686 Y24.227 ;extruding 
G1 X7.265 Y24.034 ;extruding 
G1 X7.707 Y18.701 ;extruding 
G1 X4.992 Y17.984 ;extruding 
G1 X4.098 Y17.770 ;extruding 
G1 X4.133 Y17.629 ;extruding 
G1 X4.685 Y17.778 ;extruding 
G1 X6.192 Y18.237 ;extruding 
G1 X7.723 Y18.625 ;extruding 
G1 X8.776 Y16.510 ;extruding 
G1 X10.066 Y13.810 ;extruding 
G1 X7.800 Y12.166 ;extruding 
G1 X7.043 Y11.642 ;extruding 
G1 X7.127 Y11.524 ;extruding 
G1 X7.588 Y11.862 ;extruding 
G1 X8.827 Y12.835 ;extruding 
G1 X10.053 Y13.705 ;extruding 
FILEWRITE $hFile"\x05\x02\x30\x34\x44\x49\x20\x20\x43\x46\x03"
G1 X10.091 Y13.251 ;not extruding 
FILEWRITE $hFile"\x05\x02\x30\x34\x44\x49\x20\x20\x43\x46\x03"
G1 X13.534 Y10.049 ;extruding 
G1 X12.195 Y7.975 ;extruding 
G1 X11.965 Y7.655 ;extruding 
G1 X11.459 Y6.876 ;extruding 
G1 X12.255 Y6.352 ;extruding 
G1 X13.570 Y8.543 ;extruding 
G1 X14.259 Y9.586 ;extruding 
G1 X16.164 Y8.848 ;extruding 
G1 X18.631 Y7.847 ;extruding 
G1 X18.132 Y5.434 ;extruding 
G1 X18.033 Y5.052 ;extruding 
G1 X17.844 Y4.150 ;extruding 
G1 X18.769 Y3.945 ;extruding 
G1 X19.209 Y6.458 ;extruding 
G1 X19.477 Y7.690 ;extruding 
G1 X24.178 Y7.645 ;extruding 
G1 X24.586 Y5.210 ;extruding 
G1 X24.632 Y4.817 ;extruding 
G1 X24.783 Y3.902 ;extruding 
G1 X25.723 Y4.051 ;extruding 
G1 X25.220 Y6.556 ;extruding 
G1 X25.026 Y7.791 ;extruding 
G1 X26.931 Y8.529 ;extruding 
G1 X29.428 Y9.450 ;extruding 
G1 X30.685 Y7.332 ;extruding 
G1 X30.869 Y6.982 ;extruding 
G1 X31.338 Y6.188 ;extruding 
G1 X32.164 Y6.662 ;extruding 
G1 X30.790 Y8.816 ;extruding 
G1 X30.159 Y9.905 ;extruding 
G1 X33.664 Y13.039 ;extruding 
G1 X35.606 Y11.514 ;extruding 
G1 X35.904 Y11.255 ;extruding 
G1 X36.634 Y10.679 ;extruding 
G1 X37.224 Y11.419 ;extruding 
G1 X35.170 Y12.934 ;extruding 
G1 X34.192 Y13.718 ;extruding 
G1 X35.103 Y15.546 ;extruding 
G1 X36.328 Y17.910 ;extruding 
G1 X38.684 Y17.191 ;extruding 
G1 X39.055 Y17.057 ;extruding 
G1 X39.937 Y16.786 ;extruding 
G1 X40.228 Y17.693 ;extruding 
G1 X37.762 Y18.358 ;extruding 
G1 X36.561 Y18.738 ;extruding 
G1 X37.041 Y23.415 ;extruding 
G1 X39.503 Y23.596 ;extruding 
G1 X39.898 Y23.606 ;extruding 
G1 X40.817 Y23.671 ;extruding 
G1 X40.762 Y24.617 ;extruding 
G1 X38.224 Y24.352 ;extruding 
G1 X36.965 Y24.272 ;extruding 
G1 X35.722 Y28.807 ;extruding 
G1 X37.953 Y29.866 ;extruding 
G1 X38.318 Y30.017 ;extruding 
G1 X39.151 Y30.410 ;extruding 
G1 X38.756 Y31.276 ;extruding 
G1 X36.485 Y30.107 ;extruding 
G1 X35.345 Y29.581 ;extruding 
G1 X33.217 Y32.431 ;extruding 
G1 X32.569 Y33.383 ;extruding 
G1 X34.243 Y35.151 ;extruding 
G1 X34.528 Y35.424 ;extruding 
G1 X35.168 Y36.097 ;extruding 
G1 X34.485 Y36.752 ;extruding 
G1 X32.789 Y34.848 ;extruding 
G1 X31.912 Y33.941 ;extruding 
G1 X27.938 Y36.455 ;extruding 
G1 X28.874 Y38.740 ;extruding 
G1 X29.041 Y39.097 ;extruding 
G1 X29.393 Y39.950 ;extruding 
G1 X28.517 Y40.323 ;extruding 
G1 X27.626 Y37.929 ;extruding 
G1 X27.141 Y36.777 ;extruding 
G1 X25.133 Y37.152 ;extruding 
G1 X22.524 Y37.684 ;extruding 
G1 X22.571 Y40.146 ;extruding 
G1 X22.598 Y40.540 ;extruding 
G1 X22.618 Y41.462 ;extruding 
G1 X21.671 Y41.494 ;extruding 
G1 X21.701 Y38.943 ;extruding 
G1 X21.664 Y37.682 ;extruding 
G1 X17.034 Y36.863 ;extruding 
G1 X16.186 Y39.181 ;extruding 
G1 X16.069 Y39.559 ;extruding 
G1 X15.754 Y40.425 ;extruding 
G1 X14.860 Y40.113 ;extruding 
G1 X15.809 Y37.744 ;extruding 
G1 X16.229 Y36.559 ;extruding 
G1 X13.194 Y34.702 ;extruding 
G1 X12.186 Y34.145 ;extruding 
G1 X10.580 Y35.975 ;extruding 
G1 X10.335 Y36.284 ;extruding 
G1 X9.724 Y36.983 ;extruding 
G1 X9.005 Y36.360 ;extruding 
G1 X10.750 Y34.497 ;extruding 
G1 X11.570 Y33.542 ;extruding 
G1 X8.700 Y29.818 ;extruding 
G1 X6.512 Y30.960 ;extruding 
G1 X6.171 Y31.160 ;extruding 
G1 X5.355 Y31.588 ;extruding 
G1 X4.902 Y30.750 ;extruding 
G1 X7.204 Y29.643 ;extruding 
G1 X8.306 Y29.053 ;extruding 
G1 X7.747 Y27.088 ;extruding 
G1 X6.977 Y24.540 ;extruding 
G1 X4.529 Y24.814 ;extruding 
G1 X4.140 Y24.877 ;extruding 
G1 X3.224 Y24.982 ;extruding 
G1 X3.105 Y24.042 ;extruding 
G1 X5.648 Y23.836 ;extruding 
G1 X6.900 Y23.683 ;extruding 
G1 X7.288 Y18.997 ;extruding 
G1 X4.901 Y18.367 ;extruding 
G1 X4.515 Y18.285 ;extruding 
G1 X3.623 Y18.051 ;extruding 
G1 X3.851 Y17.133 ;extruding 
G1 X6.297 Y17.859 ;extruding 
G1 X7.512 Y18.166 ;extruding 
G1 X8.423 Y16.338 ;extruding 
G1 X9.570 Y13.936 ;extruding 
G1 X7.577 Y12.489 ;extruding 
G1 X7.246 Y12.273 ;extruding 
G1 X6.499 Y11.733 ;extruding 
G1 X7.044 Y10.959 ;extruding 
G1 X9.062 Y12.520 ;extruding 
G1 X10.020 Y13.200 ;extruding 
FILEWRITE $hFile"\x05\x02\x30\x34\x44\x49\x20\x20\x43\x46\x03"
G1 X10.057 Y12.745 ;not extruding 
FILEWRITE $hFile"\x05\x02\x30\x34\x44\x49\x20\x20\x43\x46\x03"
G1 X13.026 Y9.986 ;extruding 
G1 X10.918 Y6.762 ;extruding 
G1 X12.149 Y5.952 ;extruding 
G1 X12.391 Y5.817 ;extruding 
G1 X13.903 Y8.333 ;extruding 
G1 X14.413 Y9.106 ;extruding 
G1 X16.019 Y8.483 ;extruding 
G1 X18.180 Y7.606 ;extruding 
G1 X17.381 Y3.850 ;extruding 
G1 X18.822 Y3.531 ;extruding 
G1 X19.091 Y3.493 ;extruding 
G1 X19.594 Y6.384 ;extruding 
G1 X19.793 Y7.295 ;extruding 
G1 X23.845 Y7.255 ;extruding 
G1 X24.459 Y3.453 ;extruding 
G1 X25.915 Y3.683 ;extruding 
G1 X26.185 Y3.747 ;extruding 
G1 X25.606 Y6.625 ;extruding 
G1 X25.463 Y7.539 ;extruding 
G1 X27.070 Y8.162 ;extruding 
G1 X29.258 Y8.969 ;extruding 
G1 X31.197 Y5.655 ;extruding 
G1 X32.478 Y6.390 ;extruding 
G1 X32.705 Y6.545 ;extruding 
G1 X31.126 Y9.020 ;extruding 
G1 X30.659 Y9.825 ;extruding 
G1 X33.681 Y12.527 ;extruding 
G1 X36.697 Y10.129 ;extruding 
G1 X37.617 Y11.281 ;extruding 
G1 X37.772 Y11.507 ;extruding 
G1 X35.408 Y13.246 ;extruding 
G1 X34.685 Y13.826 ;extruding 
G1 X35.453 Y15.369 ;extruding 
G1 X36.526 Y17.439 ;extruding 
G1 X40.192 Y16.297 ;extruding 
G1 X40.643 Y17.702 ;extruding 
G1 X40.706 Y17.970 ;extruding 
G1 X37.872 Y18.735 ;extruding 
G1 X36.985 Y19.016 ;extruding 
G1 X37.398 Y23.048 ;extruding 
G1 X41.232 Y23.307 ;extruding 
G1 X41.145 Y24.781 ;extruding 
G1 X41.108 Y25.051 ;extruding 
G1 X38.190 Y24.743 ;extruding 
G1 X37.259 Y24.685 ;extruding 
G1 X36.188 Y28.593 ;extruding 
G1 X39.670 Y30.221 ;extruding 
G1 X39.056 Y31.563 ;extruding 
G1 X38.922 Y31.804 ;extruding 
G1 X36.313 Y30.460 ;extruding 
G1 X35.470 Y30.070 ;extruding 
G1 X33.537 Y32.659 ;extruding 
G1 X33.071 Y33.343 ;extruding 
G1 X35.722 Y36.109 ;extruding 
G1 X34.451 Y37.309 ;extruding 
G1 X32.500 Y35.114 ;extruding 
G1 X31.852 Y34.444 ;extruding 
G1 X28.426 Y36.611 ;extruding 
G1 X29.903 Y40.159 ;extruding 
G1 X28.545 Y40.738 ;extruding 
G1 X28.284 Y40.825 ;extruding 
G1 X27.261 Y38.074 ;extruding 
G1 X26.902 Y37.221 ;extruding 
G1 X25.208 Y37.538 ;extruding 
G1 X22.923 Y38.003 ;extruding 
G1 X23.018 Y41.842 ;extruding 
G1 X21.543 Y41.891 ;extruding 
G1 X21.271 Y41.878 ;extruding 
G1 X21.308 Y38.945 ;extruding 
G1 X21.281 Y38.013 ;extruding 
G1 X17.290 Y37.307 ;extruding 
G1 X15.990 Y40.924 ;extruding 
G1 X14.597 Y40.437 ;extruding 
G1 X14.348 Y40.327 ;extruding 
G1 X15.442 Y37.604 ;extruding 
G1 X15.753 Y36.728 ;extruding 
G1 X12.997 Y35.042 ;extruding 
G1 X12.273 Y34.641 ;extruding 
G1 X9.763 Y37.536 ;extruding 
G1 X8.574 Y36.506 ;extruding 
G1 X8.448 Y36.379 ;extruding 
G1 X10.458 Y34.234 ;extruding 
G1 X11.064 Y33.529 ;extruding 
G1 X8.590 Y30.318 ;extruding 
G1 X5.193 Y32.116 ;extruding 
G1 X4.492 Y30.817 ;extruding 
G1 X4.380 Y30.565 ;extruding 
G1 X7.026 Y29.293 ;extruding 
G1 X7.842 Y28.856 ;extruding 
G1 X7.370 Y27.199 ;extruding 
G1 X6.696 Y24.967 ;extruding 
G1 X2.883 Y25.416 ;extruding 
G1 X2.697 Y23.951 ;extruding 
G1 X2.685 Y23.679 ;extruding 
G1 X5.609 Y23.445 ;extruding 
G1 X6.535 Y23.332 ;extruding 
G1 X6.870 Y19.293 ;extruding 
G1 X3.148 Y18.333 ;extruding 
G1 X3.505 Y16.900 ;extruding 
G1 X3.591 Y16.642 ;extruding 
G1 X6.403 Y17.481 ;extruding 
G1 X7.302 Y17.708 ;extruding 
G1 X8.070 Y16.166 ;extruding 
G1 X9.075 Y14.062 ;extruding 
G1 X5.954 Y11.825 ;extruding 
G1 X6.804 Y10.617 ;extruding 
G1 X6.978 Y10.408 ;extruding 
G1 X9.297 Y12.205 ;extruding 
G1 X9.986 Y12.695 ;extruding 
FILEWRITE $hFile"\x05\x02\x30\x34\x44\x49\x20\x20\x43\x46\x03"
G1 X10.024 Y12.240 ;not extruding 
FILEWRITE $hFile"\x05\x02\x30\x34\x44\x49\x20\x20\x43\x46\x03"
G1 X12.517 Y9.922 ;extruding 
G1 X11.546 Y8.418 ;extruding 
G1 X11.316 Y8.098 ;extruding 
G1 X10.372 Y6.651 ;extruding 
G1 X11.945 Y5.616 ;extruding 
G1 X12.532 Y5.289 ;extruding 
G1 X14.235 Y8.124 ;extruding 
G1 X14.566 Y8.625 ;extruding 
G1 X15.875 Y8.118 ;extruding 
G1 X17.729 Y7.365 ;extruding 
G1 X16.913 Y3.552 ;extruding 
G1 X18.752 Y3.144 ;extruding 
G1 X19.416 Y3.051 ;extruding 
G1 X19.980 Y6.309 ;extruding 
G1 X20.108 Y6.899 ;extruding 
G1 X23.512 Y6.866 ;extruding 
G1 X23.808 Y5.099 ;extruding 
G1 X23.854 Y4.708 ;extruding 
G1 X24.131 Y3.003 ;extruding 
G1 X25.991 Y3.298 ;extruding 
G1 X26.645 Y3.452 ;extruding 
G1 X25.993 Y6.694 ;extruding 
G1 X25.900 Y7.287 ;extruding 
G1 X27.209 Y7.794 ;extruding 
G1 X29.087 Y8.487 ;extruding 
G1 X31.053 Y5.119 ;extruding 
G1 X32.687 Y6.057 ;extruding 
G1 X33.240 Y6.436 ;extruding 
G1 X31.461 Y9.224 ;extruding 
G1 X31.159 Y9.745 ;extruding 
G1 X33.697 Y12.014 ;extruding 
G1 X35.105 Y10.908 ;extruding 
G1 X35.403 Y10.650 ;extruding 
G1 X36.758 Y9.575 ;extruding 
G1 X37.932 Y11.047 ;extruding 
G1 X38.311 Y11.600 ;extruding 
G1 X35.647 Y13.558 ;extruding 
G1 X35.177 Y13.934 ;extruding 
G1 X35.803 Y15.191 ;extruding 
G1 X36.724 Y16.968 ;extruding 
G1 X40.446 Y15.804 ;extruding 
G1 X41.022 Y17.597 ;extruding 
G1 X41.176 Y18.250 ;extruding 
G1 X37.982 Y19.112 ;extruding 
G1 X37.408 Y19.294 ;extruding 
G1 X37.755 Y22.680 ;extruding 
G1 X41.647 Y22.940 ;extruding 
G1 X41.536 Y24.820 ;extruding 
G1 X41.444 Y25.483 ;extruding 
G1 X38.156 Y25.135 ;extruding 
G1 X37.553 Y25.097 ;extruding 
G1 X36.654 Y28.380 ;extruding 
G1 X40.190 Y30.028 ;extruding 
G1 X39.407 Y31.741 ;extruding 
G1 X39.080 Y32.327 ;extruding 
G1 X36.140 Y30.813 ;extruding 
G1 X35.594 Y30.560 ;extruding 
G1 X33.857 Y32.887 ;extruding 
G1 X33.574 Y33.302 ;extruding 
G1 X34.800 Y34.597 ;extruding 
G1 X35.084 Y34.869 ;extruding 
G1 X36.279 Y36.119 ;extruding 
G1 X34.848 Y37.492 ;extruding 
G1 X34.407 Y37.854 ;extruding 
G1 X32.211 Y35.380 ;extruding 
G1 X31.791 Y34.946 ;extruding 
G1 X28.915 Y36.767 ;extruding 
G1 X30.418 Y40.367 ;extruding 
G1 X28.685 Y41.105 ;extruding 
G1 X28.049 Y41.319 ;extruding 
G1 X26.896 Y38.219 ;extruding 
G1 X26.663 Y37.665 ;extruding 
G1 X25.283 Y37.923 ;extruding 
G1 X23.322 Y38.323 ;extruding 
G1 X23.423 Y42.221 ;extruding 
G1 X21.540 Y42.284 ;extruding 
G1 X20.871 Y42.253 ;extruding 
G1 X20.915 Y38.947 ;extruding 
G1 X20.897 Y38.344 ;extruding 
G1 X17.545 Y37.751 ;extruding 
G1 X16.231 Y41.424 ;extruding 
G1 X14.453 Y40.802 ;extruding 
G1 X13.840 Y40.532 ;extruding 
G1 X15.075 Y37.464 ;extruding 
G1 X15.276 Y36.897 ;extruding 
G1 X12.799 Y35.381 ;extruding 
G1 X12.359 Y35.138 ;extruding 
G1 X11.184 Y36.478 ;extruding 
G1 X10.939 Y36.787 ;extruding 
G1 X9.804 Y38.092 ;extruding 
G1 X8.306 Y36.793 ;extruding 
G1 X7.903 Y36.387 ;extruding 
G1 X10.165 Y33.972 ;extruding 
G1 X10.558 Y33.515 ;extruding 
G1 X8.480 Y30.818 ;extruding 
G1 X5.034 Y32.647 ;extruding 
G1 X4.139 Y30.990 ;extruding 
G1 X3.868 Y30.376 ;extruding 
G1 X6.848 Y28.942 ;extruding 
G1 X7.378 Y28.659 ;extruding 
G1 X6.994 Y27.309 ;extruding 
G1 X6.415 Y25.393 ;extruding 
G1 X2.542 Y25.854 ;extruding 
G1 X2.306 Y23.985 ;extruding 
G1 X2.275 Y23.316 ;extruding 
G1 X5.571 Y23.054 ;extruding 
G1 X6.170 Y22.981 ;extruding 
G1 X6.451 Y19.588 ;extruding 
G1 X2.673 Y18.618 ;extruding 
G1 X3.127 Y16.790 ;extruding 
G1 X3.340 Y16.155 ;extruding 
G1 X6.508 Y17.102 ;extruding 
G1 X7.091 Y17.250 ;extruding 
G1 X7.717 Y15.993 ;extruding 
G1 X8.580 Y14.188 ;extruding 
G1 X5.408 Y11.919 ;extruding 
G1 X6.492 Y10.379 ;extruding 
G1 X6.920 Y9.863 ;extruding 
G1 X9.532 Y11.891 ;extruding 
G1 X9.953 Y12.190 ;extruding 
FILEWRITE $hFile"\x05\x02\x30\x34\x44\x49\x20\x20\x43\x46\x03"
G1 X10.442 Y12.642 ;not extruding 
G1 D-149.000 ;not extruding 
G1 X11.559 Y13.525 ;not extruding 
FILEWRITE $hFile"\x05\x02\x30\x34\x44\x49\x20\x20\x43\x46\x03"
G1 X12.019 Y12.977 ;extruding 
G1 X13.392 Y11.735 ;extruding 
G1 X14.914 Y10.690 ;extruding 
G1 X16.563 Y9.857 ;extruding 
G1 X18.307 Y9.251 ;extruding 
G1 X20.117 Y8.883 ;extruding 
G1 X21.895 Y8.764 ;extruding 
G1 X23.798 Y8.882 ;extruding 
G1 X25.612 Y9.251 ;extruding 
G1 X27.357 Y9.857 ;extruding 
G1 X28.948 Y10.661 ;extruding 
G1 X30.524 Y11.732 ;extruding 
G1 X31.897 Y12.974 ;extruding 
G1 X33.048 Y14.335 ;extruding 
G1 X34.082 Y15.937 ;extruding 
G1 X34.861 Y17.616 ;extruding 
G1 X35.408 Y19.380 ;extruding 
G1 X35.715 Y21.201 ;extruding 
G1 X35.777 Y23.047 ;extruding 
G1 X35.592 Y24.884 ;extruding 
G1 X35.164 Y26.681 ;extruding 
G1 X34.500 Y28.404 ;extruding 
G1 X33.644 Y29.967 ;extruding 
G1 X32.520 Y31.507 ;extruding 
G1 X31.233 Y32.838 ;extruding 
G1 X29.784 Y33.983 ;extruding 
G1 X28.195 Y34.924 ;extruding 
G1 X26.495 Y35.645 ;extruding 
G1 X24.714 Y36.133 ;extruding 
G1 X22.883 Y36.379 ;extruding 
G1 X21.036 Y36.379 ;extruding 
G1 X19.206 Y36.133 ;extruding 
G1 X17.425 Y35.645 ;extruding 
G1 X15.725 Y34.924 ;extruding 
G1 X14.136 Y33.983 ;extruding 
G1 X12.686 Y32.838 ;extruding 
G1 X11.402 Y31.510 ;extruding 
G1 X10.307 Y30.024 ;extruding 
G1 X9.419 Y28.404 ;extruding 
G1 X8.751 Y26.668 ;extruding 
G1 X8.327 Y24.883 ;extruding 
G1 X8.143 Y23.047 ;extruding 
G1 X8.204 Y21.201 ;extruding 
G1 X8.512 Y19.380 ;extruding 
G1 X9.059 Y17.616 ;extruding 
G1 X9.836 Y15.941 ;extruding 
G1 X10.795 Y14.438 ;extruding 
G1 X11.504 Y13.592 ;extruding 
FILEWRITE $hFile"\x05\x02\x30\x34\x44\x49\x20\x20\x43\x46\x03"
G1 X11.861 Y13.778 ;not extruding 
FILEWRITE $hFile"\x05\x02\x30\x34\x44\x49\x20\x20\x43\x46\x03"
G1 X12.303 Y13.250 ;extruding 
G1 X13.636 Y12.044 ;extruding 
G1 X15.115 Y11.028 ;extruding 
G1 X16.716 Y10.219 ;extruding 
G1 X18.411 Y9.631 ;extruding 
G1 X20.170 Y9.273 ;extruding 
G1 X21.896 Y9.158 ;extruding 
G1 X23.747 Y9.273 ;extruding 
G1 X25.508 Y9.631 ;extruding 
G1 X27.203 Y10.219 ;extruding 
G1 X28.748 Y11.000 ;extruding 
G1 X30.281 Y12.042 ;extruding 
G1 X31.615 Y13.247 ;extruding 
G1 X32.732 Y14.569 ;extruding 
G1 X33.737 Y16.127 ;extruding 
G1 X34.494 Y17.757 ;extruding 
G1 X35.025 Y19.471 ;extruding 
G1 X35.324 Y21.240 ;extruding 
G1 X35.384 Y23.034 ;extruding 
G1 X35.204 Y24.819 ;extruding 
G1 X34.788 Y26.564 ;extruding 
G1 X34.143 Y28.238 ;extruding 
G1 X33.311 Y29.756 ;extruding 
G1 X32.219 Y31.254 ;extruding 
G1 X30.969 Y32.546 ;extruding 
G1 X29.561 Y33.658 ;extruding 
G1 X28.017 Y34.572 ;extruding 
G1 X26.366 Y35.273 ;extruding 
G1 X24.635 Y35.747 ;extruding 
G1 X22.857 Y35.986 ;extruding 
G1 X21.063 Y35.986 ;extruding 
G1 X19.284 Y35.747 ;extruding 
G1 X17.554 Y35.273 ;extruding 
G1 X15.902 Y34.572 ;extruding 
G1 X14.358 Y33.658 ;extruding 
G1 X12.950 Y32.546 ;extruding 
G1 X11.703 Y31.256 ;extruding 
G1 X10.639 Y29.812 ;extruding 
G1 X9.776 Y28.238 ;extruding 
G1 X9.127 Y26.552 ;extruding 
G1 X8.716 Y24.818 ;extruding 
G1 X8.536 Y23.034 ;extruding 
G1 X8.596 Y21.240 ;extruding 
G1 X8.894 Y19.471 ;extruding 
G1 X9.426 Y17.757 ;extruding 
G1 X10.181 Y16.130 ;extruding 
G1 X11.112 Y14.671 ;extruding 
G1 X11.805 Y13.844 ;extruding 
FILEWRITE $hFile"\x05\x02\x30\x34\x44\x49\x20\x20\x43\x46\x03"
G1 X12.162 Y14.030 ;not extruding 
FILEWRITE $hFile"\x05\x02\x30\x34\x44\x49\x20\x20\x43\x46\x03"
G1 X12.586 Y13.523 ;extruding 
G1 X13.880 Y12.353 ;extruding 
G1 X15.316 Y11.367 ;extruding 
G1 X16.870 Y10.582 ;extruding 
G1 X18.515 Y10.010 ;extruding 
G1 X20.222 Y9.663 ;extruding 
G1 X21.897 Y9.551 ;extruding 
G1 X23.695 Y9.663 ;extruding 
G1 X25.404 Y10.010 ;extruding 
G1 X27.050 Y10.582 ;extruding 
G1 X28.548 Y11.339 ;extruding 
G1 X30.038 Y12.351 ;extruding 
G1 X31.332 Y13.521 ;extruding 
G1 X32.416 Y14.803 ;extruding 
G1 X33.392 Y16.317 ;extruding 
G1 X34.126 Y17.899 ;extruding 
G1 X34.642 Y19.562 ;extruding 
G1 X34.932 Y21.280 ;extruding 
G1 X34.990 Y23.020 ;extruding 
G1 X34.816 Y24.753 ;extruding 
G1 X34.412 Y26.447 ;extruding 
G1 X33.786 Y28.073 ;extruding 
G1 X32.979 Y29.545 ;extruding 
G1 X31.918 Y31.000 ;extruding 
G1 X30.705 Y32.254 ;extruding 
G1 X29.338 Y33.334 ;extruding 
G1 X27.840 Y34.221 ;extruding 
G1 X26.236 Y34.901 ;extruding 
G1 X24.557 Y35.361 ;extruding 
G1 X22.831 Y35.593 ;extruding 
G1 X21.089 Y35.593 ;extruding 
G1 X19.363 Y35.361 ;extruding 
G1 X17.683 Y34.901 ;extruding 
G1 X16.080 Y34.221 ;extruding 
G1 X14.581 Y33.334 ;extruding 
G1 X13.214 Y32.254 ;extruding 
G1 X12.004 Y31.002 ;extruding 
G1 X10.970 Y29.600 ;extruding 
G1 X10.133 Y28.073 ;extruding 
G1 X9.503 Y26.435 ;extruding 
G1 X9.104 Y24.753 ;extruding 
G1 X8.929 Y23.020 ;extruding 
G1 X8.988 Y21.280 ;extruding 
G1 X9.277 Y19.562 ;extruding 
G1 X9.793 Y17.899 ;extruding 
G1 X10.526 Y16.319 ;extruding 
G1 X11.430 Y14.904 ;extruding 
G1 X12.106 Y14.096 ;extruding 
FILEWRITE $hFile"\x05\x02\x30\x34\x44\x49\x20\x20\x43\x46\x03"
G1 X12.463 Y14.282 ;not extruding 
FILEWRITE $hFile"\x05\x02\x30\x34\x44\x49\x20\x20\x43\x46\x03"
G1 X12.870 Y13.796 ;extruding 
G1 X14.124 Y12.662 ;extruding 
G1 X15.516 Y11.706 ;extruding 
G1 X17.024 Y10.944 ;extruding 
G1 X18.619 Y10.390 ;extruding 
G1 X20.275 Y10.053 ;extruding 
G1 X21.898 Y9.945 ;extruding 
G1 X23.644 Y10.053 ;extruding 
G1 X25.300 Y10.390 ;extruding 
G1 X26.896 Y10.944 ;extruding 
G1 X28.348 Y11.678 ;extruding 
G1 X29.795 Y12.661 ;extruding 
G1 X31.049 Y13.795 ;extruding 
G1 X32.099 Y15.037 ;extruding 
G1 X33.047 Y16.507 ;extruding 
G1 X33.759 Y18.040 ;extruding 
G1 X34.259 Y19.654 ;extruding 
G1 X34.540 Y21.319 ;extruding 
G1 X34.597 Y23.007 ;extruding 
G1 X34.428 Y24.688 ;extruding 
G1 X34.036 Y26.331 ;extruding 
G1 X33.429 Y27.907 ;extruding 
G1 X32.647 Y29.334 ;extruding 
G1 X31.617 Y30.747 ;extruding 
G1 X30.441 Y31.962 ;extruding 
G1 X29.116 Y33.009 ;extruding 
G1 X27.662 Y33.870 ;extruding 
G1 X26.107 Y34.529 ;extruding 
G1 X24.478 Y34.975 ;extruding 
G1 X22.804 Y35.201 ;extruding 
G1 X21.115 Y35.201 ;extruding 
G1 X19.441 Y34.975 ;extruding 
G1 X17.812 Y34.529 ;extruding 
G1 X16.257 Y33.870 ;extruding 
G1 X14.804 Y33.009 ;extruding 
G1 X13.478 Y31.962 ;extruding 
G1 X12.304 Y30.748 ;extruding 
G1 X11.302 Y29.388 ;extruding 
G1 X10.490 Y27.907 ;extruding 
G1 X9.879 Y26.319 ;extruding 
G1 X9.492 Y24.687 ;extruding 
G1 X9.323 Y23.007 ;extruding 
G1 X9.379 Y21.319 ;extruding 
G1 X9.660 Y19.654 ;extruding 
G1 X10.161 Y18.040 ;extruding 
G1 X10.872 Y16.508 ;extruding 
G1 X11.747 Y15.136 ;extruding 
G1 X12.407 Y14.348 ;extruding 
FILEWRITE $hFile"\x05\x02\x30\x34\x44\x49\x20\x20\x43\x46\x03"
G1 X12.764 Y14.534 ;not extruding 
FILEWRITE $hFile"\x05\x02\x30\x34\x44\x49\x20\x20\x43\x46\x03"
G1 X13.153 Y14.069 ;extruding 
G1 X14.368 Y12.970 ;extruding 
G1 X15.717 Y12.044 ;extruding 
G1 X17.177 Y11.306 ;extruding 
G1 X18.723 Y10.769 ;extruding 
G1 X20.327 Y10.443 ;extruding 
G1 X21.899 Y10.338 ;extruding 
G1 X23.592 Y10.443 ;extruding 
G1 X25.196 Y10.769 ;extruding 
G1 X26.742 Y11.306 ;extruding 
G1 X28.149 Y12.017 ;extruding 
G1 X29.552 Y12.970 ;extruding 
G1 X30.766 Y14.068 ;extruding 
G1 X31.783 Y15.272 ;extruding 
G1 X32.703 Y16.697 ;extruding 
G1 X33.392 Y18.182 ;extruding 
G1 X33.877 Y19.745 ;extruding 
G1 X34.149 Y21.358 ;extruding 
G1 X34.204 Y22.994 ;extruding 
G1 X34.040 Y24.622 ;extruding 
G1 X33.660 Y26.214 ;extruding 
G1 X33.072 Y27.741 ;extruding 
G1 X32.315 Y29.123 ;extruding 
G1 X31.315 Y30.494 ;extruding 
G1 X30.177 Y31.670 ;extruding 
G1 X28.893 Y32.685 ;extruding 
G1 X27.485 Y33.519 ;extruding 
G1 X25.978 Y34.157 ;extruding 
G1 X24.400 Y34.590 ;extruding 
G1 X22.778 Y34.808 ;extruding 
G1 X21.142 Y34.808 ;extruding 
G1 X19.520 Y34.590 ;extruding 
G1 X17.941 Y34.157 ;extruding 
G1 X16.435 Y33.519 ;extruding 
G1 X15.027 Y32.685 ;extruding 
G1 X13.742 Y31.670 ;extruding 
G1 X12.605 Y30.494 ;extruding 
G1 X11.634 Y29.177 ;extruding 
G1 X10.847 Y27.741 ;extruding 
G1 X10.255 Y26.202 ;extruding 
G1 X9.880 Y24.622 ;extruding 
G1 X9.716 Y22.994 ;extruding 
G1 X9.771 Y21.358 ;extruding 
G1 X10.043 Y19.745 ;extruding 
G1 X10.528 Y18.182 ;extruding 
G1 X11.217 Y16.697 ;extruding 
G1 X12.065 Y15.369 ;extruding 
G1 X12.708 Y14.601 ;extruding 
FILEWRITE $hFile"\x05\x02\x30\x34\x44\x49\x20\x20\x43\x46\x03"
G1 X12.551 Y13.994 ;not extruding 
G1 X11.519 Y13.168 ;not extruding 
FILEWRITE $hFile"\x05\x02\x30\x34\x44\x49\x20\x20\x43\x46\x03"
G1 X14.126 Y10.614 ;extruding 
G1 X15.676 Y10.013 ;extruding 
G1 X18.979 Y8.592 ;extruding 
G1 X20.642 Y8.592 ;extruding 
G1 X24.235 Y8.460 ;extruding 
G1 X25.786 Y9.061 ;extruding 
G1 X29.184 Y10.236 ;extruding 
G1 X30.421 Y11.364 ;extruding 
G1 X31.106 Y11.929 ;extruding 
G1 X31.549 Y12.333 ;extruding 
G1 X33.141 Y13.647 ;extruding 
G1 X33.903 Y15.178 ;extruding 
G1 X34.337 Y15.952 ;extruding 
G1 X34.605 Y16.490 ;extruding 
G1 X35.614 Y18.290 ;extruding 
G1 X35.772 Y19.993 ;extruding 
G1 X35.897 Y20.872 ;extruding 
G1 X35.953 Y21.469 ;extruding 
G1 X36.244 Y23.513 ;extruding 
G1 X35.779 Y25.147 ;extruding 
G1 X34.922 Y28.638 ;extruding 
G1 X33.913 Y29.975 ;extruding 
G1 X33.414 Y30.708 ;extruding 
G1 X33.052 Y31.187 ;extruding 
G1 X31.891 Y32.893 ;extruding 
G1 X30.446 Y33.788 ;extruding 
G1 X27.461 Y35.791 ;extruding 
G1 X25.815 Y36.099 ;extruding 
G1 X24.952 Y36.305 ;extruding 
G1 X24.362 Y36.415 ;extruding 
G1 X22.354 Y36.893 ;extruding 
G1 X20.684 Y36.581 ;extruding 
G1 X17.128 Y36.051 ;extruding 
G1 X15.704 Y35.169 ;extruding 
G1 X14.928 Y34.739 ;extruding 
G1 X14.418 Y34.424 ;extruding 
G1 X12.611 Y33.424 ;extruding 
G1 X11.581 Y32.060 ;extruding 
G1 X11.012 Y31.378 ;extruding 
G1 X10.650 Y30.900 ;extruding 
G1 X9.327 Y29.315 ;extruding 
G1 X8.859 Y27.671 ;extruding 
G1 X8.574 Y26.830 ;extruding 
G1 X8.410 Y26.253 ;extruding 
G1 X7.749 Y24.297 ;extruding 
G1 X7.905 Y22.606 ;extruding 
G1 X8.106 Y19.016 ;extruding 
G1 X8.852 Y17.517 ;extruding 
G1 X9.208 Y16.704 ;extruding 
G1 X9.475 Y16.167 ;extruding 
G1 X10.304 Y14.276 ;extruding 
G1 X11.455 Y13.227 ;extruding 
FILEWRITE $hFile"\x05\x02\x30\x34\x44\x49\x20\x20\x43\x46\x03"
G1 X9.976 Y14.044 ;not extruding 
FILEWRITE $hFile"\x05\x02\x30\x34\x44\x49\x20\x20\x43\x46\x03"
G1 X11.289 Y12.846 ;extruding 
G1 X13.835 Y10.349 ;extruding 
G1 X12.756 Y8.679 ;extruding 
G1 X12.066 Y7.719 ;extruding 
G1 X11.761 Y7.249 ;extruding 
G1 X11.863 Y7.182 ;extruding 
G1 X12.164 Y7.639 ;extruding 
G1 X12.566 Y8.317 ;extruding 
G1 X13.871 Y10.291 ;extruding 
G1 X15.528 Y9.649 ;extruding 
G1 X18.803 Y8.240 ;extruding 
G1 X18.401 Y6.294 ;extruding 
G1 X18.104 Y5.149 ;extruding 
G1 X17.989 Y4.597 ;extruding 
G1 X18.108 Y4.572 ;extruding 
G1 X18.225 Y5.110 ;extruding 
G1 X18.355 Y5.887 ;extruding 
G1 X18.858 Y8.199 ;extruding 
G1 X20.635 Y8.199 ;extruding 
G1 X24.198 Y8.069 ;extruding 
G1 X24.526 Y6.108 ;extruding 
G1 X24.663 Y4.933 ;extruding 
G1 X24.754 Y4.381 ;extruding 
G1 X24.874 Y4.400 ;extruding 
G1 X24.790 Y4.941 ;extruding 
G1 X24.630 Y5.712 ;extruding 
G1 X24.264 Y8.050 ;extruding 
G1 X25.921 Y8.692 ;extruding 
G1 X29.291 Y9.857 ;extruding 
G1 X30.305 Y8.148 ;extruding 
G1 X30.857 Y7.102 ;extruding 
G1 X31.143 Y6.617 ;extruding 
G1 X31.248 Y6.678 ;extruding 
G1 X30.972 Y7.154 ;extruding 
G1 X30.545 Y7.816 ;extruding 
G1 X29.359 Y9.864 ;extruding 
G1 X30.678 Y11.067 ;extruding 
G1 X31.363 Y11.632 ;extruding 
G1 X31.806 Y12.037 ;extruding 
G1 X33.405 Y13.356 ;extruding 
G1 X34.957 Y12.137 ;extruding 
G1 X35.849 Y11.361 ;extruding 
G1 X36.291 Y11.012 ;extruding 
G1 X36.367 Y11.107 ;extruding 
G1 X35.938 Y11.452 ;extruding 
G1 X35.300 Y11.915 ;extruding 
G1 X33.454 Y13.396 ;extruding 
G1 X34.250 Y14.995 ;extruding 
G1 X34.684 Y15.769 ;extruding 
G1 X34.952 Y16.306 ;extruding 
G1 X35.966 Y18.114 ;extruding 
G1 X37.853 Y17.538 ;extruding 
G1 X38.966 Y17.137 ;extruding 
G1 X39.504 Y16.971 ;extruding 
G1 X39.541 Y17.087 ;extruding 
G1 X39.015 Y17.253 ;extruding 
G1 X38.254 Y17.454 ;extruding 
G1 X35.997 Y18.169 ;extruding 
G1 X36.162 Y19.947 ;extruding 
G1 X36.287 Y20.826 ;extruding 
G1 X36.343 Y21.423 ;extruding 
G1 X36.635 Y23.475 ;extruding 
G1 X38.603 Y23.620 ;extruding 
G1 X39.786 Y23.648 ;extruding 
G1 X40.344 Y23.688 ;extruding 
G1 X40.337 Y23.809 ;extruding 
G1 X39.790 Y23.775 ;extruding 
G1 X39.007 Y23.687 ;extruding 
G1 X36.645 Y23.538 ;extruding 
G1 X36.159 Y25.247 ;extruding 
G1 X35.309 Y28.710 ;extruding 
G1 X37.105 Y29.562 ;extruding 
G1 X38.198 Y30.015 ;extruding 
G1 X38.707 Y30.256 ;extruding 
G1 X38.656 Y30.366 ;extruding 
G1 X38.156 Y30.135 ;extruding 
G1 X37.458 Y29.771 ;extruding 
G1 X35.309 Y28.778 ;extruding 
G1 X34.233 Y30.204 ;extruding 
G1 X33.733 Y30.937 ;extruding 
G1 X33.371 Y31.416 ;extruding 
G1 X32.205 Y33.129 ;extruding 
G1 X33.562 Y34.562 ;extruding 
G1 X34.417 Y35.379 ;extruding 
G1 X34.803 Y35.785 ;extruding 
G1 X34.715 Y35.869 ;extruding 
G1 X34.335 Y35.476 ;extruding 
G1 X33.815 Y34.884 ;extruding 
G1 X32.170 Y33.182 ;extruding 
G1 X30.659 Y34.118 ;extruding 
G1 X27.698 Y36.105 ;extruding 
G1 X28.452 Y37.945 ;extruding 
G1 X28.954 Y39.016 ;extruding 
G1 X29.168 Y39.536 ;extruding 
G1 X29.056 Y39.583 ;extruding 
G1 X28.842 Y39.076 ;extruding 
G1 X28.572 Y38.336 ;extruding 
G1 X27.652 Y36.155 ;extruding 
G1 X25.897 Y36.483 ;extruding 
G1 X25.033 Y36.689 ;extruding 
G1 X24.444 Y36.799 ;extruding 
G1 X22.427 Y37.280 ;extruding 
G1 X22.465 Y39.252 ;extruding 
G1 X22.546 Y40.433 ;extruding 
G1 X22.558 Y40.996 ;extruding 
G1 X22.436 Y40.999 ;extruding 
G1 X22.420 Y40.448 ;extruding 
G1 X22.435 Y39.661 ;extruding 
G1 X22.366 Y37.295 ;extruding 
G1 X20.619 Y36.968 ;extruding 
G1 X17.092 Y36.442 ;extruding 
G1 X16.410 Y38.309 ;extruding 
G1 X16.059 Y39.439 ;extruding 
G1 X15.867 Y39.968 ;extruding 
G1 X15.752 Y39.927 ;extruding 
G1 X15.936 Y39.408 ;extruding 
G1 X16.234 Y38.679 ;extruding 
G1 X17.024 Y36.448 ;extruding 
G1 X15.506 Y35.508 ;extruding 
G1 X14.729 Y35.078 ;extruding 
G1 X14.219 Y34.763 ;extruding 
G1 X12.405 Y33.759 ;extruding 
G1 X11.104 Y35.242 ;extruding 
G1 X10.369 Y36.169 ;extruding 
G1 X10.000 Y36.591 ;extruding 
G1 X9.908 Y36.512 ;extruding 
G1 X10.265 Y36.096 ;extruding 
G1 X10.807 Y35.524 ;extruding 
G1 X12.350 Y33.729 ;extruding 
G1 X11.273 Y32.304 ;extruding 
G1 X10.704 Y31.623 ;extruding 
G1 X10.343 Y31.144 ;extruding 
G1 X9.014 Y29.553 ;extruding 
G1 X7.264 Y30.466 ;extruding 
G1 X6.244 Y31.065 ;extruding 
G1 X5.746 Y31.327 ;extruding 
G1 X5.689 Y31.219 ;extruding 
G1 X6.174 Y30.959 ;extruding 
G1 X6.886 Y30.622 ;extruding 
G1 X8.973 Y29.505 ;extruding 
G1 X8.484 Y27.787 ;extruding 
G1 X8.199 Y26.946 ;extruding 
G1 X8.035 Y26.369 ;extruding 
G1 X7.371 Y24.406 ;extruding 
G1 X5.410 Y24.625 ;extruding 
G1 X4.242 Y24.815 ;extruding 
G1 X3.683 Y24.879 ;extruding 
G1 X3.668 Y24.758 ;extruding 
G1 X4.215 Y24.691 ;extruding 
G1 X5.000 Y24.634 ;extruding 
G1 X7.350 Y24.346 ;extruding 
G1 X7.514 Y22.577 ;extruding 
G1 X7.712 Y19.017 ;extruding 
G1 X5.790 Y18.509 ;extruding 
G1 X4.633 Y18.264 ;extruding 
G1 X4.088 Y18.122 ;extruding 
G1 X4.118 Y18.004 ;extruding 
G1 X4.652 Y18.139 ;extruding 
G1 X5.405 Y18.369 ;extruding 
G1 X7.700 Y18.950 ;extruding 
G1 X8.496 Y17.351 ;extruding 
G1 X8.852 Y16.538 ;extruding 
G1 X9.120 Y16.001 ;extruding 
G1 X9.951 Y14.102 ;extruding 
G1 X8.354 Y12.943 ;extruding 
G1 X7.364 Y12.297 ;extruding 
G1 X6.907 Y11.967 ;extruding 
G1 X6.978 Y11.868 ;extruding 
G1 X7.427 Y12.187 ;extruding 
G1 X8.046 Y12.673 ;extruding 
G1 X9.905 Y13.993 ;extruding 
FILEWRITE $hFile"\x05\x02\x30\x34\x44\x49\x20\x20\x43\x46\x03"
G1 X9.945 Y13.540 ;not extruding 
FILEWRITE $hFile"\x05\x02\x30\x34\x44\x49\x20\x20\x43\x46\x03"
G1 X11.019 Y12.561 ;extruding 
G1 X13.331 Y10.293 ;extruding 
G1 X12.432 Y8.901 ;extruding 
G1 X11.741 Y7.940 ;extruding 
G1 X11.215 Y7.141 ;extruding 
G1 X11.974 Y6.638 ;extruding 
G1 X12.497 Y7.431 ;extruding 
G1 X12.899 Y8.108 ;extruding 
G1 X14.024 Y9.811 ;extruding 
G1 X15.379 Y9.286 ;extruding 
G1 X18.354 Y8.006 ;extruding 
G1 X18.018 Y6.383 ;extruding 
G1 X17.722 Y5.238 ;extruding 
G1 X17.518 Y4.297 ;extruding 
G1 X18.408 Y4.106 ;extruding 
G1 X18.611 Y5.036 ;extruding 
G1 X18.741 Y5.813 ;extruding 
G1 X19.174 Y7.807 ;extruding 
G1 X20.628 Y7.807 ;extruding 
G1 X23.864 Y7.688 ;extruding 
G1 X24.137 Y6.053 ;extruding 
G1 X24.274 Y4.878 ;extruding 
G1 X24.424 Y3.932 ;extruding 
G1 X25.323 Y4.072 ;extruding 
G1 X25.176 Y5.011 ;extruding 
G1 X25.017 Y5.782 ;extruding 
G1 X24.701 Y7.798 ;extruding 
G1 X26.056 Y8.323 ;extruding 
G1 X29.116 Y9.382 ;extruding 
G1 X29.962 Y7.956 ;extruding 
G1 X30.514 Y6.910 ;extruding 
G1 X30.998 Y6.077 ;extruding 
G1 X31.785 Y6.536 ;extruding 
G1 X31.307 Y7.359 ;extruding 
G1 X30.880 Y8.021 ;extruding 
G1 X29.857 Y9.787 ;extruding 
G1 X30.936 Y10.771 ;extruding 
G1 X31.620 Y11.336 ;extruding 
G1 X32.064 Y11.740 ;extruding 
G1 X33.411 Y12.852 ;extruding 
G1 X34.706 Y11.834 ;extruding 
G1 X35.599 Y11.059 ;extruding 
G1 X36.351 Y10.457 ;extruding 
G1 X36.919 Y11.169 ;extruding 
G1 X36.176 Y11.764 ;extruding 
G1 X35.539 Y12.227 ;extruding 
G1 X33.947 Y13.504 ;extruding 
G1 X34.598 Y14.811 ;extruding 
G1 X35.032 Y15.585 ;extruding 
G1 X35.299 Y16.122 ;extruding 
G1 X36.154 Y17.646 ;extruding 
G1 X37.729 Y17.165 ;extruding 
G1 X38.841 Y16.764 ;extruding 
G1 X39.760 Y16.474 ;extruding 
G1 X40.032 Y17.343 ;extruding 
G1 X39.125 Y17.631 ;extruding 
G1 X38.363 Y17.832 ;extruding 
G1 X36.418 Y18.447 ;extruding 
G1 X36.552 Y19.901 ;extruding 
G1 X36.678 Y20.780 ;extruding 
G1 X36.733 Y21.377 ;extruding 
G1 X36.979 Y23.107 ;extruding 
G1 X38.622 Y23.228 ;extruding 
G1 X39.804 Y23.255 ;extruding 
G1 X40.761 Y23.317 ;extruding 
G1 X40.704 Y24.226 ;extruding 
G1 X39.755 Y24.166 ;extruding 
G1 X38.973 Y24.078 ;extruding 
G1 X36.936 Y23.950 ;extruding 
G1 X36.538 Y25.348 ;extruding 
G1 X35.767 Y28.493 ;extruding 
G1 X37.265 Y29.203 ;extruding 
G1 X38.357 Y29.656 ;extruding 
G1 X39.231 Y30.061 ;extruding 
G1 X38.847 Y30.887 ;extruding 
G1 X37.983 Y30.488 ;extruding 
G1 X37.284 Y30.123 ;extruding 
G1 X35.432 Y29.267 ;extruding 
G1 X34.552 Y30.432 ;extruding 
G1 X34.052 Y31.166 ;extruding 
G1 X33.691 Y31.645 ;extruding 
G1 X32.708 Y33.089 ;extruding 
G1 X33.840 Y34.285 ;extruding 
G1 X34.695 Y35.102 ;extruding 
G1 X35.363 Y35.794 ;extruding 
G1 X34.703 Y36.422 ;extruding 
G1 X34.046 Y35.742 ;extruding 
G1 X33.526 Y35.150 ;extruding 
G1 X32.108 Y33.683 ;extruding 
G1 X30.872 Y34.448 ;extruding 
G1 X28.183 Y36.252 ;extruding 
G1 X28.811 Y37.787 ;extruding 
G1 X29.313 Y38.857 ;extruding 
G1 X29.686 Y39.745 ;extruding 
G1 X28.846 Y40.097 ;extruding 
G1 X28.477 Y39.220 ;extruding 
G1 X28.206 Y38.480 ;extruding 
G1 X27.413 Y36.599 ;extruding 
G1 X25.978 Y36.867 ;extruding 
G1 X25.115 Y37.073 ;extruding 
G1 X24.525 Y37.183 ;extruding 
G1 X22.826 Y37.588 ;extruding 
G1 X22.857 Y39.235 ;extruding 
G1 X22.938 Y40.415 ;extruding 
G1 X22.966 Y41.377 ;extruding 
G1 X22.055 Y41.402 ;extruding 
G1 X22.027 Y40.450 ;extruding 
G1 X22.042 Y39.663 ;extruding 
G1 X21.983 Y37.623 ;extruding 
G1 X20.554 Y37.356 ;extruding 
G1 X17.351 Y36.878 ;extruding 
G1 X16.782 Y38.435 ;extruding 
G1 X16.431 Y39.564 ;extruding 
G1 X16.109 Y40.472 ;extruding 
G1 X15.251 Y40.166 ;extruding 
G1 X15.569 Y39.268 ;extruding 
G1 X15.867 Y38.539 ;extruding 
G1 X16.549 Y36.616 ;extruding 
G1 X15.307 Y35.847 ;extruding 
G1 X14.531 Y35.417 ;extruding 
G1 X14.021 Y35.102 ;extruding 
G1 X12.492 Y34.256 ;extruding 
G1 X11.406 Y35.494 ;extruding 
G1 X10.671 Y36.421 ;extruding 
G1 X10.045 Y37.147 ;extruding 
G1 X9.354 Y36.554 ;extruding 
G1 X9.974 Y35.833 ;extruding 
G1 X10.515 Y35.261 ;extruding 
G1 X11.845 Y33.713 ;extruding 
G1 X10.966 Y32.548 ;extruding 
G1 X10.397 Y31.867 ;extruding 
G1 X10.035 Y31.388 ;extruding 
G1 X8.915 Y30.048 ;extruding 
G1 X7.455 Y30.810 ;extruding 
G1 X6.435 Y31.408 ;extruding 
G1 X5.586 Y31.862 ;extruding 
G1 X5.158 Y31.058 ;extruding 
G1 X5.997 Y30.609 ;extruding 
G1 X6.709 Y30.271 ;extruding 
G1 X8.508 Y29.308 ;extruding 
G1 X8.109 Y27.904 ;extruding 
G1 X7.824 Y27.063 ;extruding 
G1 X7.660 Y26.486 ;extruding 
G1 X7.100 Y24.831 ;extruding 
G1 X5.463 Y25.015 ;extruding 
G1 X4.296 Y25.204 ;extruding 
G1 X3.340 Y25.320 ;extruding 
G1 X3.232 Y24.416 ;extruding 
G1 X4.177 Y24.300 ;extruding 
G1 X4.962 Y24.243 ;extruding 
G1 X6.988 Y23.995 ;extruding 
G1 X7.122 Y22.548 ;extruding 
G1 X7.302 Y19.314 ;extruding 
G1 X5.699 Y18.891 ;extruding 
G1 X4.542 Y18.647 ;extruding 
G1 X3.609 Y18.409 ;extruding 
G1 X3.835 Y17.527 ;extruding 
G1 X4.758 Y17.761 ;extruding 
G1 X5.511 Y17.990 ;extruding 
G1 X7.489 Y18.491 ;extruding 
G1 X8.140 Y17.184 ;extruding 
G1 X8.496 Y16.371 ;extruding 
G1 X8.764 Y15.834 ;extruding 
G1 X9.465 Y14.234 ;extruding 
G1 X8.132 Y13.267 ;extruding 
G1 X7.141 Y12.621 ;extruding 
G1 X6.357 Y12.062 ;extruding 
G1 X6.886 Y11.321 ;extruding 
G1 X7.662 Y11.872 ;extruding 
G1 X8.281 Y12.359 ;extruding 
G1 X9.874 Y13.490 ;extruding 
FILEWRITE $hFile"\x05\x02\x30\x34\x44\x49\x20\x20\x43\x46\x03"
G1 X9.915 Y13.037 ;not extruding 
FILEWRITE $hFile"\x05\x02\x30\x34\x44\x49\x20\x20\x43\x46\x03"
G1 X10.750 Y12.276 ;extruding 
G1 X12.827 Y10.237 ;extruding 
G1 X12.107 Y9.122 ;extruding 
G1 X11.417 Y8.162 ;extruding 
G1 X10.972 Y7.475 ;extruding 
G1 X10.658 Y7.039 ;extruding 
G1 X12.093 Y6.091 ;extruding 
G1 X12.830 Y7.222 ;extruding 
G1 X13.232 Y7.900 ;extruding 
G1 X14.177 Y9.330 ;extruding 
G1 X15.231 Y8.922 ;extruding 
G1 X17.904 Y7.772 ;extruding 
G1 X17.636 Y6.472 ;extruding 
G1 X17.339 Y5.327 ;extruding 
G1 X17.172 Y4.526 ;extruding 
G1 X17.038 Y4.011 ;extruding 
G1 X18.718 Y3.641 ;extruding 
G1 X18.996 Y4.962 ;extruding 
G1 X19.126 Y5.738 ;extruding 
G1 X19.491 Y7.414 ;extruding 
G1 X20.620 Y7.414 ;extruding 
G1 X23.529 Y7.307 ;extruding 
G1 X23.748 Y5.998 ;extruding 
G1 X23.885 Y4.824 ;extruding 
G1 X24.018 Y4.016 ;extruding 
G1 X24.081 Y3.482 ;extruding 
G1 X25.780 Y3.749 ;extruding 
G1 X25.563 Y5.081 ;extruding 
G1 X25.403 Y5.852 ;extruding 
G1 X25.138 Y7.547 ;extruding 
G1 X26.191 Y7.955 ;extruding 
G1 X28.942 Y8.906 ;extruding 
G1 X29.619 Y7.764 ;extruding 
G1 X30.171 Y6.718 ;extruding 
G1 X30.587 Y6.014 ;extruding 
G1 X30.836 Y5.543 ;extruding 
G1 X32.276 Y6.368 ;extruding 
G1 X32.326 Y6.401 ;extruding 
G1 X31.642 Y7.565 ;extruding 
G1 X31.215 Y8.226 ;extruding 
G1 X30.356 Y9.710 ;extruding 
G1 X31.193 Y10.474 ;extruding 
G1 X31.878 Y11.039 ;extruding 
G1 X32.321 Y11.443 ;extruding 
G1 X33.417 Y12.348 ;extruding 
G1 X34.456 Y11.532 ;extruding 
G1 X35.348 Y10.756 ;extruding 
G1 X35.991 Y10.249 ;extruding 
G1 X36.393 Y9.900 ;extruding 
G1 X37.472 Y11.238 ;extruding 
G1 X36.414 Y12.077 ;extruding 
G1 X35.777 Y12.539 ;extruding 
G1 X34.439 Y13.612 ;extruding 
G1 X34.945 Y14.627 ;extruding 
G1 X35.379 Y15.401 ;extruding 
G1 X35.646 Y15.939 ;extruding 
G1 X36.341 Y17.178 ;extruding 
G1 X37.605 Y16.792 ;extruding 
G1 X38.717 Y16.391 ;extruding 
G1 X39.499 Y16.151 ;extruding 
G1 X40.000 Y15.970 ;extruding 
G1 X40.524 Y17.608 ;extruding 
G1 X39.234 Y18.008 ;extruding 
G1 X38.473 Y18.209 ;extruding 
G1 X36.838 Y18.726 ;extruding 
G1 X36.943 Y19.855 ;extruding 
G1 X37.068 Y20.734 ;extruding 
G1 X37.123 Y21.331 ;extruding 
G1 X37.323 Y22.738 ;extruding 
G1 X38.641 Y22.835 ;extruding 
G1 X39.823 Y22.863 ;extruding 
G1 X40.639 Y22.921 ;extruding 
G1 X41.178 Y22.934 ;extruding 
G1 X41.068 Y24.650 ;extruding 
G1 X39.721 Y24.557 ;extruding 
G1 X38.938 Y24.470 ;extruding 
G1 X37.227 Y24.362 ;extruding 
G1 X36.918 Y25.448 ;extruding 
G1 X36.225 Y28.275 ;extruding 
G1 X37.424 Y28.844 ;extruding 
G1 X38.516 Y29.297 ;extruding 
G1 X39.256 Y29.646 ;extruding 
G1 X39.748 Y29.850 ;extruding 
G1 X39.031 Y31.413 ;extruding 
G1 X37.809 Y30.840 ;extruding 
G1 X37.111 Y30.476 ;extruding 
G1 X35.554 Y29.757 ;extruding 
G1 X34.871 Y30.661 ;extruding 
G1 X34.371 Y31.395 ;extruding 
G1 X34.010 Y31.874 ;extruding 
G1 X33.210 Y33.049 ;extruding 
G1 X34.119 Y34.008 ;extruding 
G1 X34.973 Y34.825 ;extruding 
G1 X35.537 Y35.418 ;extruding 
G1 X35.922 Y35.786 ;extruding 
G1 X34.686 Y36.981 ;extruding 
G1 X33.757 Y36.008 ;extruding 
G1 X33.237 Y35.416 ;extruding 
G1 X32.045 Y34.183 ;extruding 
G1 X31.085 Y34.778 ;extruding 
G1 X28.668 Y36.400 ;extruding 
G1 X29.171 Y37.629 ;extruding 
G1 X29.673 Y38.699 ;extruding 
G1 X29.985 Y39.456 ;extruding 
G1 X30.211 Y39.938 ;extruding 
G1 X28.628 Y40.610 ;extruding 
G1 X28.111 Y39.363 ;extruding 
G1 X27.841 Y38.624 ;extruding 
G1 X27.174 Y37.043 ;extruding 
G1 X26.060 Y37.252 ;extruding 
G1 X25.197 Y37.457 ;extruding 
G1 X24.607 Y37.568 ;extruding 
G1 X23.224 Y37.897 ;extruding 
G1 X23.250 Y39.218 ;extruding 
G1 X23.331 Y40.397 ;extruding 
G1 X23.348 Y41.215 ;extruding 
G1 X23.385 Y41.747 ;extruding 
G1 X23.167 Y41.765 ;extruding 
G1 X21.666 Y41.802 ;extruding 
G1 X21.635 Y40.452 ;extruding 
G1 X21.650 Y39.665 ;extruding 
G1 X21.599 Y37.951 ;extruding 
G1 X20.489 Y37.743 ;extruding 
G1 X17.610 Y37.314 ;extruding 
G1 X17.154 Y38.561 ;extruding 
G1 X16.804 Y39.690 ;extruding 
G1 X16.524 Y40.459 ;extruding 
G1 X16.366 Y40.968 ;extruding 
G1 X14.744 Y40.398 ;extruding 
G1 X15.202 Y39.128 ;extruding 
G1 X15.500 Y38.399 ;extruding 
G1 X16.073 Y36.783 ;extruding 
G1 X15.109 Y36.186 ;extruding 
G1 X14.332 Y35.756 ;extruding 
G1 X13.822 Y35.440 ;extruding 
G1 X12.579 Y34.753 ;extruding 
G1 X11.707 Y35.746 ;extruding 
G1 X10.973 Y36.672 ;extruding 
G1 X10.434 Y37.288 ;extruding 
G1 X10.099 Y37.711 ;extruding 
G1 X8.838 Y36.629 ;extruding 
G1 X8.796 Y36.588 ;extruding 
G1 X9.682 Y35.570 ;extruding 
G1 X10.224 Y34.998 ;extruding 
G1 X11.341 Y33.697 ;extruding 
G1 X10.658 Y32.793 ;extruding 
G1 X10.089 Y32.111 ;extruding 
G1 X9.727 Y31.633 ;extruding 
G1 X8.817 Y30.542 ;extruding 
G1 X7.645 Y31.153 ;extruding 
G1 X6.626 Y31.752 ;extruding 
G1 X5.901 Y32.132 ;extruding 
G1 X5.442 Y32.402 ;extruding 
G1 X4.627 Y30.887 ;extruding 
G1 X5.820 Y30.258 ;extruding 
G1 X6.532 Y29.920 ;extruding 
G1 X8.044 Y29.111 ;extruding 
G1 X7.734 Y28.021 ;extruding 
G1 X7.449 Y27.180 ;extruding 
G1 X7.285 Y26.603 ;extruding 
G1 X6.830 Y25.257 ;extruding 
G1 X5.517 Y25.404 ;extruding 
G1 X4.350 Y25.593 ;extruding 
G1 X3.537 Y25.686 ;extruding 
G1 X3.011 Y25.772 ;extruding 
G1 X2.798 Y24.065 ;extruding 
G1 X4.138 Y23.909 ;extruding 
G1 X4.924 Y23.852 ;extruding 
G1 X6.626 Y23.644 ;extruding 
G1 X6.730 Y22.519 ;extruding 
G1 X6.892 Y19.612 ;extruding 
G1 X5.609 Y19.273 ;extruding 
G1 X4.452 Y19.029 ;extruding 
G1 X3.660 Y18.822 ;extruding 
G1 X3.139 Y18.711 ;extruding 
G1 X3.557 Y17.043 ;extruding 
G1 X4.863 Y17.382 ;extruding 
G1 X5.617 Y17.612 ;extruding 
G1 X7.279 Y18.033 ;extruding 
G1 X7.784 Y17.018 ;extruding 
G1 X8.141 Y16.205 ;extruding 
G1 X8.408 Y15.668 ;extruding 
G1 X8.978 Y14.366 ;extruding 
G1 X7.909 Y13.590 ;extruding 
G1 X6.919 Y12.944 ;extruding 
G1 X6.256 Y12.465 ;extruding 
G1 X5.809 Y12.174 ;extruding 
G1 X5.926 Y11.989 ;extruding 
G1 X6.801 Y10.769 ;extruding 
G1 X7.897 Y11.558 ;extruding 
G1 X8.517 Y12.044 ;extruding 
G1 X9.844 Y12.987 ;extruding 
FILEWRITE $hFile"\x05\x02\x30\x34\x44\x49\x20\x20\x43\x46\x03"
G1 X9.884 Y12.533 ;not extruding 
FILEWRITE $hFile"\x05\x02\x30\x34\x44\x49\x20\x20\x43\x46\x03"
G1 X10.480 Y11.990 ;extruding 
G1 X12.324 Y10.181 ;extruding 
G1 X11.782 Y9.343 ;extruding 
G1 X11.093 Y8.384 ;extruding 
G1 X10.647 Y7.697 ;extruding 
G1 X10.113 Y6.954 ;extruding 
G1 X10.347 Y6.773 ;extruding 
G1 X11.836 Y5.786 ;extruding 
G1 X12.233 Y5.558 ;extruding 
G1 X12.512 Y6.028 ;extruding 
G1 X13.163 Y7.014 ;extruding 
G1 X13.565 Y7.691 ;extruding 
G1 X14.330 Y8.850 ;extruding 
G1 X15.082 Y8.559 ;extruding 
G1 X17.455 Y7.538 ;extruding 
G1 X17.253 Y6.561 ;extruding 
G1 X16.957 Y5.417 ;extruding 
G1 X16.789 Y4.616 ;extruding 
G1 X16.561 Y3.735 ;extruding 
G1 X17.156 Y3.571 ;extruding 
G1 X18.587 Y3.264 ;extruding 
G1 X19.041 Y3.194 ;extruding 
G1 X19.131 Y3.733 ;extruding 
G1 X19.382 Y4.887 ;extruding 
G1 X19.512 Y5.664 ;extruding 
G1 X19.807 Y7.021 ;extruding 
G1 X20.613 Y7.021 ;extruding 
G1 X23.195 Y6.927 ;extruding 
G1 X23.359 Y5.943 ;extruding 
G1 X23.496 Y4.769 ;extruding 
G1 X23.629 Y3.961 ;extruding 
G1 X23.735 Y3.052 ;extruding 
G1 X24.030 Y3.077 ;extruding 
G1 X25.795 Y3.350 ;extruding 
G1 X26.243 Y3.449 ;extruding 
G1 X26.132 Y3.984 ;extruding 
G1 X25.949 Y5.151 ;extruding 
G1 X25.790 Y5.923 ;extruding 
G1 X25.575 Y7.295 ;extruding 
G1 X26.326 Y7.586 ;extruding 
G1 X28.768 Y8.430 ;extruding 
G1 X29.277 Y7.572 ;extruding 
G1 X29.828 Y6.527 ;extruding 
G1 X30.244 Y5.822 ;extruding 
G1 X30.669 Y5.017 ;extruding 
G1 X31.219 Y5.297 ;extruding 
G1 X32.484 Y6.034 ;extruding 
G1 X32.866 Y6.288 ;extruding 
G1 X32.570 Y6.747 ;extruding 
G1 X31.977 Y7.770 ;extruding 
G1 X31.550 Y8.431 ;extruding 
G1 X30.854 Y9.633 ;extruding 
G1 X31.451 Y10.177 ;extruding 
G1 X33.423 Y11.844 ;extruding 
G1 X34.206 Y11.229 ;extruding 
G1 X35.098 Y10.454 ;extruding 
G1 X35.740 Y9.947 ;extruding 
G1 X36.427 Y9.349 ;extruding 
G1 X36.838 Y9.809 ;extruding 
G1 X37.752 Y10.954 ;extruding 
G1 X38.017 Y11.328 ;extruding 
G1 X37.574 Y11.650 ;extruding 
G1 X36.653 Y12.389 ;extruding 
G1 X36.015 Y12.851 ;extruding 
G1 X34.932 Y13.721 ;extruding 
G1 X35.292 Y14.444 ;extruding 
G1 X35.726 Y15.218 ;extruding 
G1 X35.994 Y15.755 ;extruding 
G1 X36.529 Y16.710 ;extruding 
G1 X37.481 Y16.420 ;extruding 
G1 X38.593 Y16.019 ;extruding 
G1 X39.375 Y15.778 ;extruding 
G1 X40.231 Y15.469 ;extruding 
G1 X40.449 Y16.047 ;extruding 
G1 X40.887 Y17.444 ;extruding 
G1 X40.999 Y17.889 ;extruding 
G1 X40.470 Y18.029 ;extruding 
G1 X39.344 Y18.385 ;extruding 
G1 X38.582 Y18.586 ;extruding 
G1 X37.258 Y19.005 ;extruding 
G1 X37.333 Y19.809 ;extruding 
G1 X37.668 Y22.370 ;extruding 
G1 X38.660 Y22.443 ;extruding 
G1 X39.841 Y22.471 ;extruding 
G1 X40.658 Y22.529 ;extruding 
G1 X41.572 Y22.550 ;extruding 
G1 X41.575 Y22.878 ;extruding 
G1 X41.466 Y24.629 ;extruding 
G1 X41.409 Y25.084 ;extruding 
G1 X40.866 Y25.023 ;extruding 
G1 X39.687 Y24.948 ;extruding 
G1 X38.904 Y24.861 ;extruding 
G1 X37.518 Y24.773 ;extruding 
G1 X37.298 Y25.549 ;extruding 
G1 X36.682 Y28.058 ;extruding 
G1 X37.584 Y28.485 ;extruding 
G1 X38.675 Y28.938 ;extruding 
G1 X39.415 Y29.287 ;extruding 
G1 X40.256 Y29.636 ;extruding 
G1 X40.028 Y30.209 ;extruding 
G1 X39.411 Y31.537 ;extruding 
G1 X39.193 Y31.941 ;extruding 
G1 X38.709 Y31.688 ;extruding 
G1 X37.636 Y31.193 ;extruding 
G1 X36.938 Y30.828 ;extruding 
G1 X35.677 Y30.246 ;extruding 
G1 X35.190 Y30.890 ;extruding 
G1 X33.713 Y33.008 ;extruding 
G1 X34.397 Y33.731 ;extruding 
G1 X35.251 Y34.547 ;extruding 
G1 X35.815 Y35.140 ;extruding 
G1 X36.473 Y35.769 ;extruding 
G1 X36.054 Y36.221 ;extruding 
G1 X34.653 Y37.538 ;extruding 
G1 X34.289 Y37.124 ;extruding 
G1 X33.468 Y36.274 ;extruding 
G1 X32.948 Y35.682 ;extruding 
G1 X31.983 Y34.684 ;extruding 
G1 X31.298 Y35.108 ;extruding 
G1 X29.153 Y36.548 ;extruding 
G1 X29.531 Y37.471 ;extruding 
G1 X30.032 Y38.541 ;extruding 
G1 X30.344 Y39.298 ;extruding 
G1 X30.731 Y40.122 ;extruding 
G1 X30.176 Y40.392 ;extruding 
G1 X28.825 Y40.957 ;extruding 
G1 X28.392 Y41.109 ;extruding 
G1 X28.204 Y40.596 ;extruding 
G1 X27.746 Y39.507 ;extruding 
G1 X27.475 Y38.767 ;extruding 
G1 X26.936 Y37.488 ;extruding 
G1 X26.142 Y37.636 ;extruding 
G1 X23.623 Y38.206 ;extruding 
G1 X23.642 Y39.201 ;extruding 
G1 X23.723 Y40.380 ;extruding 
G1 X23.741 Y41.198 ;extruding 
G1 X23.803 Y42.106 ;extruding 
G1 X23.188 Y42.157 ;extruding 
G1 X21.725 Y42.196 ;extruding 
G1 X21.266 Y42.182 ;extruding 
G1 X21.276 Y41.635 ;extruding 
G1 X21.242 Y40.454 ;extruding 
G1 X21.257 Y39.667 ;extruding 
G1 X21.216 Y38.279 ;extruding 
G1 X20.424 Y38.131 ;extruding 
G1 X17.869 Y37.749 ;extruding 
G1 X17.526 Y38.686 ;extruding 
G1 X17.176 Y39.815 ;extruding 
G1 X16.897 Y40.584 ;extruding 
G1 X16.627 Y41.454 ;extruding 
G1 X16.035 Y41.279 ;extruding 
G1 X14.656 Y40.787 ;extruding 
G1 X14.234 Y40.608 ;extruding 
G1 X14.441 Y40.102 ;extruding 
G1 X14.835 Y38.988 ;extruding 
G1 X15.133 Y38.259 ;extruding 
G1 X15.597 Y36.950 ;extruding 
G1 X14.910 Y36.525 ;extruding 
G1 X14.134 Y36.095 ;extruding 
G1 X13.623 Y35.779 ;extruding 
G1 X12.665 Y35.249 ;extruding 
G1 X12.009 Y35.997 ;extruding 
G1 X11.275 Y36.923 ;extruding 
G1 X10.736 Y37.540 ;extruding 
G1 X10.168 Y38.256 ;extruding 
G1 X9.905 Y38.061 ;extruding 
G1 X8.573 Y36.919 ;extruding 
G1 X8.245 Y36.600 ;extruding 
G1 X8.620 Y36.203 ;extruding 
G1 X9.390 Y35.307 ;extruding 
G1 X9.932 Y34.735 ;extruding 
G1 X10.837 Y33.682 ;extruding 
G1 X10.351 Y33.037 ;extruding 
G1 X8.718 Y31.037 ;extruding 
G1 X7.836 Y31.497 ;extruding 
G1 X6.817 Y32.095 ;extruding 
G1 X6.092 Y32.475 ;extruding 
G1 X5.307 Y32.936 ;extruding 
G1 X4.987 Y32.409 ;extruding 
G1 X4.299 Y31.116 ;extruding 
G1 X4.108 Y30.699 ;extruding 
G1 X4.602 Y30.465 ;extruding 
G1 X5.643 Y29.907 ;extruding 
G1 X6.355 Y29.570 ;extruding 
G1 X7.580 Y28.914 ;extruding 
G1 X7.359 Y28.137 ;extruding 
G1 X7.074 Y27.297 ;extruding 
G1 X6.910 Y26.720 ;extruding 
G1 X6.559 Y25.682 ;extruding 
G1 X5.570 Y25.793 ;extruding 
G1 X4.404 Y25.983 ;extruding 
G1 X3.591 Y26.075 ;extruding 
G1 X2.692 Y26.221 ;extruding 
G1 X2.584 Y25.614 ;extruding 
G1 X2.410 Y24.160 ;extruding 
G1 X2.382 Y23.702 ;extruding 
G1 X2.927 Y23.662 ;extruding 
G1 X4.100 Y23.519 ;extruding 
G1 X4.886 Y23.461 ;extruding 
G1 X6.264 Y23.292 ;extruding 
G1 X6.339 Y22.490 ;extruding 
G1 X6.482 Y19.910 ;extruding 
G1 X5.518 Y19.656 ;extruding 
G1 X4.362 Y19.411 ;extruding 
G1 X3.570 Y19.204 ;extruding 
G1 X2.679 Y19.016 ;extruding 
G1 X2.798 Y18.410 ;extruding 
G1 X3.161 Y16.992 ;extruding 
G1 X3.301 Y16.554 ;extruding 
G1 X3.824 Y16.714 ;extruding 
G1 X4.969 Y17.004 ;extruding 
G1 X5.722 Y17.234 ;extruding 
G1 X7.069 Y17.574 ;extruding 
G1 X7.429 Y16.852 ;extruding 
G1 X8.492 Y14.498 ;extruding 
G1 X7.686 Y13.914 ;extruding 
G1 X6.696 Y13.268 ;extruding 
G1 X6.033 Y12.789 ;extruding 
G1 X5.271 Y12.292 ;extruding 
G1 X5.600 Y11.770 ;extruding 
G1 X6.451 Y10.578 ;extruding 
G1 X6.739 Y10.221 ;extruding 
G1 X7.169 Y10.559 ;extruding 
G1 X8.132 Y11.243 ;extruding 
G1 X8.752 Y11.729 ;extruding 
G1 X9.813 Y12.483 ;extruding 
FILEWRITE $hFile"\x05\x02\x30\x34\x44\x49\x20\x20\x43\x46\x03"
G1 X10.302 Y12.936 ;not extruding 
G1 D-148.500 ;not extruding 
G1 X9.838 Y13.813 ;not extruding 
G1 X10.542 Y14.514 ;not extruding 
G1 X9.728 Y15.951 ;not extruding 
G1 X8.298 Y19.413 ;not extruding 
G1 X8.057 Y22.993 ;not extruding 
G1 X8.221 Y25.073 ;not extruding 
G1 X9.739 Y29.438 ;not extruding 
G1 X12.555 Y32.894 ;not extruding 
G1 X13.040 Y33.390 ;not extruding 
G1 X14.124 Y34.086 ;not extruding 
G1 X17.542 Y35.892 ;not extruding 
G1 X22.648 Y36.588 ;not extruding 
G1 X22.692 Y37.489 ;not extruding 
FILEWRITE $hFile"\x05\x02\x30\x34\x44\x49\x20\x20\x43\x46\x03"
G1 X22.927 Y40.896 ;extruding 
G1 X22.792 Y40.900 ;extruding 
G1 X22.694 Y37.575 ;extruding 
FILEWRITE $hFile"\x05\x02\x30\x34\x44\x49\x20\x20\x43\x46\x03"
G1 X17.259 Y36.747 ;not extruding 
FILEWRITE $hFile"\x05\x02\x30\x34\x44\x49\x20\x20\x43\x46\x03"
G1 X16.247 Y40.009 ;extruding 
G1 X16.119 Y39.964 ;extruding 
G1 X17.230 Y36.829 ;extruding 
FILEWRITE $hFile"\x05\x02\x30\x34\x44\x49\x20\x20\x43\x46\x03"
G1 X12.460 Y34.092 ;not extruding 
FILEWRITE $hFile"\x05\x02\x30\x34\x44\x49\x20\x20\x43\x46\x03"
G1 X10.338 Y36.768 ;extruding 
G1 X10.236 Y36.681 ;extruding 
G1 X12.404 Y34.158 ;extruding 
FILEWRITE $hFile"\x05\x02\x30\x34\x44\x49\x20\x20\x43\x46\x03"
G1 X8.945 Y29.883 ;not extruding 
FILEWRITE $hFile"\x05\x02\x30\x34\x44\x49\x20\x20\x43\x46\x03"
G1 X5.999 Y31.612 ;extruding 
G1 X5.935 Y31.494 ;extruding 
G1 X8.868 Y29.924 ;extruding 
FILEWRITE $hFile"\x05\x02\x30\x34\x44\x49\x20\x20\x43\x46\x03"
G1 X7.187 Y24.689 ;not extruding 
FILEWRITE $hFile"\x05\x02\x30\x34\x44\x49\x20\x20\x43\x46\x03"
G1 X3.810 Y25.238 ;extruding 
G1 X3.794 Y25.104 ;extruding 
G1 X7.101 Y24.699 ;extruding 
FILEWRITE $hFile"\x05\x02\x30\x34\x44\x49\x20\x20\x43\x46\x03"
G1 X7.425 Y19.210 ;not extruding 
FILEWRITE $hFile"\x05\x02\x30\x34\x44\x49\x20\x20\x43\x46\x03"
G1 X4.083 Y18.504 ;extruding 
G1 X4.116 Y18.373 ;extruding 
G1 X7.340 Y19.189 ;extruding 
FILEWRITE $hFile"\x05\x02\x30\x34\x44\x49\x20\x20\x43\x46\x03"
G1 X9.625 Y14.187 ;not extruding 
FILEWRITE $hFile"\x05\x02\x30\x34\x44\x49\x20\x20\x43\x46\x03"
G1 X6.764 Y12.322 ;extruding 
G1 X6.842 Y12.211 ;extruding 
G1 X9.554 Y14.137 ;extruding 
FILEWRITE $hFile"\x05\x02\x30\x34\x44\x49\x20\x20\x43\x46\x03"
G1 X13.492 Y10.299 ;not extruding 
FILEWRITE $hFile"\x05\x02\x30\x34\x44\x49\x20\x20\x43\x46\x03"
G1 X11.499 Y7.527 ;extruding 
G1 X11.611 Y7.452 ;extruding 
G1 X13.444 Y10.226 ;extruding 
FILEWRITE $hFile"\x05\x02\x30\x34\x44\x49\x20\x20\x43\x46\x03"
G1 X18.502 Y8.069 ;not extruding 
FILEWRITE $hFile"\x05\x02\x30\x34\x44\x49\x20\x20\x43\x46\x03"
G1 X17.644 Y4.763 ;extruding 
G1 X17.776 Y4.734 ;extruding 
G1 X18.483 Y7.984 ;extruding 
FILEWRITE $hFile"\x05\x02\x30\x34\x44\x49\x20\x20\x43\x46\x03"
G1 X23.979 Y7.800 ;not extruding 
FILEWRITE $hFile"\x05\x02\x30\x34\x44\x49\x20\x20\x43\x46\x03"
G1 X24.374 Y4.409 ;extruding 
G1 X24.507 Y4.429 ;extruding 
G1 X23.992 Y7.714 ;extruding 
FILEWRITE $hFile"\x05\x02\x30\x34\x44\x49\x20\x20\x43\x46\x03"
G1 X29.183 Y9.528 ;not extruding 
FILEWRITE $hFile"\x05\x02\x30\x34\x44\x49\x20\x20\x43\x46\x03"
G1 X30.777 Y6.507 ;extruding 
G1 X30.894 Y6.574 ;extruding 
G1 X29.227 Y9.453 ;extruding 
FILEWRITE $hFile"\x05\x02\x30\x34\x44\x49\x20\x20\x43\x46\x03"
G1 X28.679 Y10.525 ;not extruding 
FILEWRITE $hFile"\x05\x02\x30\x34\x44\x49\x20\x20\x43\x46\x03"
G1 X29.005 Y10.690 ;extruding 
G1 X30.528 Y11.735 ;extruding 
G1 X31.897 Y12.974 ;extruding 
G1 X33.090 Y14.384 ;extruding 
G1 X34.084 Y15.941 ;extruding 
G1 X34.861 Y17.616 ;extruding 
G1 X35.408 Y19.380 ;extruding 
G1 X35.715 Y21.201 ;extruding 
G1 X35.777 Y23.047 ;extruding 
G1 X35.592 Y24.884 ;extruding 
G1 X35.164 Y26.681 ;extruding 
G1 X34.500 Y28.404 ;extruding 
G1 X33.613 Y30.024 ;extruding 
G1 X32.517 Y31.510 ;extruding 
G1 X31.233 Y32.838 ;extruding 
G1 X29.784 Y33.983 ;extruding 
G1 X28.195 Y34.924 ;extruding 
G1 X26.495 Y35.645 ;extruding 
G1 X24.714 Y36.133 ;extruding 
G1 X22.883 Y36.379 ;extruding 
G1 X21.036 Y36.379 ;extruding 
G1 X19.206 Y36.133 ;extruding 
G1 X17.425 Y35.645 ;extruding 
G1 X15.725 Y34.924 ;extruding 
G1 X14.136 Y33.983 ;extruding 
G1 X12.686 Y32.838 ;extruding 
G1 X11.402 Y31.510 ;extruding 
G1 X10.307 Y30.024 ;extruding 
G1 X9.419 Y28.404 ;extruding 
G1 X8.756 Y26.681 ;extruding 
G1 X8.328 Y24.884 ;extruding 
G1 X8.143 Y23.047 ;extruding 
G1 X8.204 Y21.201 ;extruding 
G1 X8.512 Y19.380 ;extruding 
G1 X9.059 Y17.616 ;extruding 
G1 X9.836 Y15.941 ;extruding 
G1 X10.830 Y14.384 ;extruding 
G1 X12.022 Y12.974 ;extruding 
G1 X13.392 Y11.735 ;extruding 
G1 X14.914 Y10.690 ;extruding 
G1 X16.563 Y9.857 ;extruding 
G1 X18.307 Y9.251 ;extruding 
G1 X20.117 Y8.883 ;extruding 
G1 X21.960 Y8.760 ;extruding 
G1 X23.802 Y8.883 ;extruding 
G1 X25.612 Y9.251 ;extruding 
G1 X27.357 Y9.857 ;extruding 
G1 X28.602 Y10.486 ;extruding 
FILEWRITE $hFile"\x05\x02\x30\x34\x44\x49\x20\x20\x43\x46\x03"
G1 X28.502 Y10.876 ;not extruding 
FILEWRITE $hFile"\x05\x02\x30\x34\x44\x49\x20\x20\x43\x46\x03"
G1 X28.805 Y11.028 ;extruding 
G1 X30.284 Y12.044 ;extruding 
G1 X31.615 Y13.247 ;extruding 
G1 X32.773 Y14.618 ;extruding 
G1 X33.738 Y16.130 ;extruding 
G1 X34.494 Y17.757 ;extruding 
G1 X35.025 Y19.471 ;extruding 
G1 X35.324 Y21.240 ;extruding 
G1 X35.384 Y23.034 ;extruding 
G1 X35.204 Y24.819 ;extruding 
G1 X34.788 Y26.564 ;extruding 
G1 X34.143 Y28.238 ;extruding 
G1 X33.281 Y29.812 ;extruding 
G1 X32.217 Y31.256 ;extruding 
G1 X30.969 Y32.546 ;extruding 
G1 X29.561 Y33.658 ;extruding 
G1 X28.017 Y34.572 ;extruding 
G1 X26.366 Y35.273 ;extruding 
G1 X24.635 Y35.747 ;extruding 
G1 X22.857 Y35.986 ;extruding 
G1 X21.063 Y35.986 ;extruding 
G1 X19.284 Y35.747 ;extruding 
G1 X17.554 Y35.273 ;extruding 
G1 X15.902 Y34.572 ;extruding 
G1 X14.358 Y33.658 ;extruding 
G1 X12.950 Y32.546 ;extruding 
G1 X11.703 Y31.256 ;extruding 
G1 X10.639 Y29.812 ;extruding 
G1 X9.776 Y28.238 ;extruding 
G1 X9.132 Y26.564 ;extruding 
G1 X8.716 Y24.819 ;extruding 
G1 X8.536 Y23.034 ;extruding 
G1 X8.596 Y21.240 ;extruding 
G1 X8.894 Y19.471 ;extruding 
G1 X9.426 Y17.757 ;extruding 
G1 X10.181 Y16.130 ;extruding 
G1 X11.147 Y14.618 ;extruding 
G1 X12.305 Y13.247 ;extruding 
G1 X13.636 Y12.044 ;extruding 
G1 X15.115 Y11.028 ;extruding 
G1 X16.716 Y10.219 ;extruding 
G1 X18.411 Y9.631 ;extruding 
G1 X20.170 Y9.273 ;extruding 
G1 X21.960 Y9.153 ;extruding 
G1 X23.750 Y9.273 ;extruding 
G1 X25.508 Y9.631 ;extruding 
G1 X27.203 Y10.219 ;extruding 
G1 X28.424 Y10.836 ;extruding 
FILEWRITE $hFile"\x05\x02\x30\x34\x44\x49\x20\x20\x43\x46\x03"
G1 X28.325 Y11.226 ;not extruding 
FILEWRITE $hFile"\x05\x02\x30\x34\x44\x49\x20\x20\x43\x46\x03"
G1 X28.604 Y11.367 ;extruding 
G1 X30.040 Y12.353 ;extruding 
G1 X31.332 Y13.521 ;extruding 
G1 X32.456 Y14.851 ;extruding 
G1 X33.393 Y16.319 ;extruding 
G1 X34.126 Y17.899 ;extruding 
G1 X34.642 Y19.562 ;extruding 
G1 X34.932 Y21.280 ;extruding 
G1 X34.990 Y23.020 ;extruding 
G1 X34.816 Y24.753 ;extruding 
G1 X34.412 Y26.447 ;extruding 
G1 X33.786 Y28.073 ;extruding 
G1 X32.949 Y29.600 ;extruding 
G1 X31.916 Y31.002 ;extruding 
G1 X30.705 Y32.254 ;extruding 
G1 X29.338 Y33.334 ;extruding 
G1 X27.840 Y34.221 ;extruding 
G1 X26.236 Y34.901 ;extruding 
G1 X24.557 Y35.361 ;extruding 
G1 X22.831 Y35.593 ;extruding 
G1 X21.089 Y35.593 ;extruding 
G1 X19.363 Y35.361 ;extruding 
G1 X17.683 Y34.901 ;extruding 
G1 X16.080 Y34.221 ;extruding 
G1 X14.581 Y33.334 ;extruding 
G1 X13.214 Y32.254 ;extruding 
G1 X12.004 Y31.002 ;extruding 
G1 X10.970 Y29.600 ;extruding 
G1 X10.133 Y28.073 ;extruding 
G1 X9.507 Y26.447 ;extruding 
G1 X9.104 Y24.753 ;extruding 
G1 X8.929 Y23.020 ;extruding 
G1 X8.988 Y21.280 ;extruding 
G1 X9.277 Y19.562 ;extruding 
G1 X9.793 Y17.899 ;extruding 
G1 X10.526 Y16.319 ;extruding 
G1 X11.464 Y14.851 ;extruding 
G1 X12.588 Y13.521 ;extruding 
G1 X13.880 Y12.353 ;extruding 
G1 X15.316 Y11.367 ;extruding 
G1 X16.870 Y10.582 ;extruding 
G1 X18.515 Y10.010 ;extruding 
G1 X20.222 Y9.663 ;extruding 
G1 X21.960 Y9.547 ;extruding 
G1 X23.698 Y9.663 ;extruding 
G1 X25.404 Y10.010 ;extruding 
G1 X27.050 Y10.582 ;extruding 
G1 X28.247 Y11.187 ;extruding 
FILEWRITE $hFile"\x05\x02\x30\x34\x44\x49\x20\x20\x43\x46\x03"
G1 X28.148 Y11.577 ;not extruding 
FILEWRITE $hFile"\x05\x02\x30\x34\x44\x49\x20\x20\x43\x46\x03"
G1 X28.403 Y11.706 ;extruding 
G1 X29.796 Y12.662 ;extruding 
G1 X31.049 Y13.795 ;extruding 
G1 X32.139 Y15.084 ;extruding 
G1 X33.048 Y16.508 ;extruding 
G1 X33.759 Y18.040 ;extruding 
G1 X34.259 Y19.654 ;extruding 
G1 X34.540 Y21.319 ;extruding 
G1 X34.597 Y23.007 ;extruding 
G1 X34.428 Y24.688 ;extruding 
G1 X34.036 Y26.331 ;extruding 
G1 X33.429 Y27.907 ;extruding 
G1 X32.617 Y29.388 ;extruding 
G1 X31.616 Y30.748 ;extruding 
G1 X30.441 Y31.962 ;extruding 
G1 X29.116 Y33.009 ;extruding 
G1 X27.662 Y33.870 ;extruding 
G1 X26.107 Y34.529 ;extruding 
G1 X24.478 Y34.975 ;extruding 
G1 X22.804 Y35.201 ;extruding 
G1 X21.115 Y35.201 ;extruding 
G1 X19.441 Y34.975 ;extruding 
G1 X17.812 Y34.529 ;extruding 
G1 X16.257 Y33.870 ;extruding 
G1 X14.804 Y33.009 ;extruding 
G1 X13.478 Y31.962 ;extruding 
G1 X12.304 Y30.748 ;extruding 
G1 X11.302 Y29.388 ;extruding 
G1 X10.490 Y27.907 ;extruding 
G1 X9.883 Y26.331 ;extruding 
G1 X9.492 Y24.688 ;extruding 
G1 X9.323 Y23.007 ;extruding 
G1 X9.379 Y21.319 ;extruding 
G1 X9.660 Y19.654 ;extruding 
G1 X10.161 Y18.040 ;extruding 
G1 X10.872 Y16.508 ;extruding 
G1 X11.780 Y15.084 ;extruding 
G1 X12.871 Y13.795 ;extruding 
G1 X14.124 Y12.662 ;extruding 
G1 X15.516 Y11.706 ;extruding 
G1 X17.024 Y10.944 ;extruding 
G1 X18.619 Y10.390 ;extruding 
G1 X20.275 Y10.053 ;extruding 
G1 X21.960 Y9.941 ;extruding 
G1 X23.645 Y10.053 ;extruding 
G1 X25.300 Y10.390 ;extruding 
G1 X26.896 Y10.944 ;extruding 
G1 X28.070 Y11.537 ;extruding 
FILEWRITE $hFile"\x05\x02\x30\x34\x44\x49\x20\x20\x43\x46\x03"
G1 X27.971 Y11.927 ;not extruding 
FILEWRITE $hFile"\x05\x02\x30\x34\x44\x49\x20\x20\x43\x46\x03"
G1 X28.203 Y12.044 ;extruding 
G1 X29.552 Y12.970 ;extruding 
G1 X30.766 Y14.068 ;extruding 
G1 X31.822 Y15.318 ;extruding 
G1 X32.703 Y16.697 ;extruding 
G1 X33.392 Y18.182 ;extruding 
G1 X33.877 Y19.745 ;extruding 
G1 X34.149 Y21.358 ;extruding 
G1 X34.204 Y22.994 ;extruding 
G1 X34.040 Y24.622 ;extruding 
G1 X33.660 Y26.214 ;extruding 
G1 X33.072 Y27.741 ;extruding 
G1 X32.286 Y29.177 ;extruding 
G1 X31.315 Y30.494 ;extruding 
G1 X30.177 Y31.670 ;extruding 
G1 X28.893 Y32.685 ;extruding 
G1 X27.485 Y33.519 ;extruding 
G1 X25.978 Y34.157 ;extruding 
G1 X24.400 Y34.590 ;extruding 
G1 X22.778 Y34.808 ;extruding 
G1 X21.142 Y34.808 ;extruding 
G1 X19.520 Y34.590 ;extruding 
G1 X17.941 Y34.157 ;extruding 
G1 X16.435 Y33.519 ;extruding 
G1 X15.027 Y32.685 ;extruding 
G1 X13.742 Y31.670 ;extruding 
G1 X12.605 Y30.494 ;extruding 
G1 X11.634 Y29.177 ;extruding 
G1 X10.847 Y27.741 ;extruding 
G1 X10.259 Y26.214 ;extruding 
G1 X9.880 Y24.622 ;extruding 
G1 X9.716 Y22.994 ;extruding 
G1 X9.771 Y21.358 ;extruding 
G1 X10.043 Y19.745 ;extruding 
G1 X10.528 Y18.182 ;extruding 
G1 X11.217 Y16.697 ;extruding 
G1 X12.097 Y15.318 ;extruding 
G1 X13.154 Y14.068 ;extruding 
G1 X14.368 Y12.970 ;extruding 
G1 X15.717 Y12.044 ;extruding 
G1 X17.177 Y11.306 ;extruding 
G1 X18.723 Y10.769 ;extruding 
G1 X20.327 Y10.443 ;extruding 
G1 X21.960 Y10.334 ;extruding 
G1 X23.593 Y10.443 ;extruding 
G1 X25.196 Y10.769 ;extruding 
G1 X26.742 Y11.306 ;extruding 
G1 X27.893 Y11.888 ;extruding 
FILEWRITE $hFile"\x05\x02\x30\x34\x44\x49\x20\x20\x43\x46\x03"
G1 X28.185 Y11.779 ;not extruding 
G1 X29.189 Y10.451 ;not extruding 
FILEWRITE $hFile"\x05\x02\x30\x34\x44\x49\x20\x20\x43\x46\x03"
G1 X32.859 Y13.481 ;extruding 
G1 X35.412 Y18.033 ;extruding 
G1 X36.148 Y23.200 ;extruding 
G1 X34.968 Y28.284 ;extruding 
G1 X32.031 Y32.598 ;extruding 
G1 X27.734 Y35.560 ;extruding 
G1 X22.657 Y36.769 ;extruding 
G1 X17.486 Y36.063 ;extruding 
G1 X12.919 Y33.537 ;extruding 
G1 X9.573 Y29.531 ;extruding 
G1 X7.900 Y24.587 ;extruding 
G1 X8.126 Y19.373 ;extruding 
G1 X10.220 Y14.593 ;extruding 
G1 X13.900 Y10.892 ;extruding 
G1 X18.668 Y8.770 ;extruding 
G1 X23.881 Y8.514 ;extruding 
G1 X28.835 Y10.158 ;extruding 
G1 X29.122 Y10.396 ;extruding 
FILEWRITE $hFile"\x05\x02\x30\x34\x44\x49\x20\x20\x43\x46\x03"
G1 X29.439 Y10.148 ;not extruding 
FILEWRITE $hFile"\x05\x02\x30\x34\x44\x49\x20\x20\x43\x46\x03"
G1 X33.166 Y13.225 ;extruding 
G1 X35.790 Y17.905 ;extruding 
G1 X36.547 Y23.217 ;extruding 
G1 X35.334 Y28.444 ;extruding 
G1 X32.314 Y32.879 ;extruding 
G1 X27.896 Y35.925 ;extruding 
G1 X22.676 Y37.168 ;extruding 
G1 X17.360 Y36.442 ;extruding 
G1 X12.664 Y33.845 ;extruding 
G1 X9.225 Y29.726 ;extruding 
G1 X7.505 Y24.644 ;extruding 
G1 X7.737 Y19.283 ;extruding 
G1 X9.890 Y14.368 ;extruding 
G1 X13.674 Y10.563 ;extruding 
G1 X18.576 Y8.381 ;extruding 
G1 X23.935 Y8.118 ;extruding 
G1 X29.028 Y9.808 ;extruding 
G1 X29.372 Y10.093 ;extruding 
FILEWRITE $hFile"\x05\x02\x30\x34\x44\x49\x20\x20\x43\x46\x03"
G1 X33.412 Y13.019 ;not extruding 
FILEWRITE $hFile"\x05\x02\x30\x34\x44\x49\x20\x20\x43\x46\x03"
G1 X35.995 Y10.774 ;extruding 
G1 X36.078 Y10.880 ;extruding 
G1 X33.480 Y12.964 ;extruding 
FILEWRITE $hFile"\x05\x02\x30\x34\x44\x49\x20\x20\x43\x46\x03"
G1 X36.094 Y17.802 ;not extruding 
FILEWRITE $hFile"\x05\x02\x30\x34\x44\x49\x20\x20\x43\x46\x03"
G1 X39.307 Y16.643 ;extruding 
G1 X39.349 Y16.772 ;extruding 
G1 X36.177 Y17.776 ;extruding 
FILEWRITE $hFile"\x05\x02\x30\x34\x44\x49\x20\x20\x43\x46\x03"
G1 X36.868 Y23.231 ;not extruding 
FILEWRITE $hFile"\x05\x02\x30\x34\x44\x49\x20\x20\x43\x46\x03"
G1 X40.282 Y23.311 ;extruding 
G1 X40.274 Y23.446 ;extruding 
G1 X36.954 Y23.236 ;extruding 
FILEWRITE $hFile"\x05\x02\x30\x34\x44\x49\x20\x20\x43\x46\x03"
G1 X35.628 Y28.573 ;not extruding 
FILEWRITE $hFile"\x05\x02\x30\x34\x44\x49\x20\x20\x43\x46\x03"
G1 X38.782 Y29.881 ;extruding 
G1 X38.726 Y30.004 ;extruding 
G1 X35.707 Y28.609 ;extruding 
FILEWRITE $hFile"\x05\x02\x30\x34\x44\x49\x20\x20\x43\x46\x03"
G1 X32.541 Y33.105 ;not extruding 
FILEWRITE $hFile"\x05\x02\x30\x34\x44\x49\x20\x20\x43\x46\x03"
G1 X35.011 Y35.465 ;extruding 
G1 X34.914 Y35.560 ;extruding 
G1 X32.602 Y33.168 ;extruding 
FILEWRITE $hFile"\x05\x02\x30\x34\x44\x49\x20\x20\x43\x46\x03"
G1 X28.026 Y36.218 ;not extruding 
FILEWRITE $hFile"\x05\x02\x30\x34\x44\x49\x20\x20\x43\x46\x03"
G1 X29.476 Y39.310 ;extruding 
G1 X29.352 Y39.363 ;extruding 
G1 X28.060 Y36.298 ;extruding 
FILEWRITE $hFile"\x05\x02\x30\x34\x44\x49\x20\x20\x43\x46\x03"
G1 X27.670 Y36.382 ;not extruding 
FILEWRITE $hFile"\x05\x02\x30\x34\x44\x49\x20\x20\x43\x46\x03"
G1 X23.085 Y37.475 ;extruding 
G1 X23.347 Y41.275 ;extruding 
G1 X22.411 Y41.306 ;extruding 
G1 X22.300 Y37.513 ;extruding 
G1 X17.630 Y36.875 ;extruding 
G1 X16.501 Y40.514 ;extruding 
G1 X15.618 Y40.205 ;extruding 
G1 X16.884 Y36.628 ;extruding 
G1 X12.760 Y34.346 ;extruding 
G1 X10.393 Y37.331 ;extruding 
G1 X9.681 Y36.724 ;extruding 
G1 X12.154 Y33.846 ;extruding 
G1 X9.132 Y30.229 ;extruding 
G1 X5.847 Y32.157 ;extruding 
G1 X5.402 Y31.333 ;extruding 
G1 X8.748 Y29.543 ;extruding 
G1 X7.237 Y25.079 ;extruding 
G1 X3.478 Y25.690 ;extruding 
G1 X3.362 Y24.761 ;extruding 
G1 X7.126 Y24.301 ;extruding 
G1 X7.331 Y19.592 ;extruding 
G1 X3.604 Y18.804 ;extruding 
G1 X3.830 Y17.895 ;extruding 
G1 X7.508 Y18.826 ;extruding 
G1 X9.400 Y14.509 ;extruding 
G1 X6.209 Y12.428 ;extruding 
G1 X6.748 Y11.663 ;extruding 
G1 X9.842 Y13.860 ;extruding 
G1 X13.165 Y10.517 ;extruding 
G1 X10.943 Y7.426 ;extruding 
G1 X11.721 Y6.906 ;extruding 
G1 X13.812 Y10.071 ;extruding 
G1 X18.118 Y8.155 ;extruding 
G1 X17.162 Y4.468 ;extruding 
G1 X18.076 Y4.265 ;extruding 
G1 X18.883 Y7.973 ;extruding 
G1 X23.590 Y7.742 ;extruding 
G1 X24.031 Y3.960 ;extruding 
G1 X24.956 Y4.100 ;extruding 
G1 X24.369 Y7.848 ;extruding 
G1 X28.842 Y9.333 ;extruding 
G1 X30.620 Y5.964 ;extruding 
G1 X31.432 Y6.430 ;extruding 
G1 X29.530 Y9.713 ;extruding 
G1 X33.164 Y12.714 ;extruding 
G1 X36.039 Y10.215 ;extruding 
G1 X36.626 Y10.944 ;extruding 
G1 X33.668 Y13.317 ;extruding 
G1 X35.973 Y17.428 ;extruding 
G1 X39.557 Y16.136 ;extruding 
G1 X39.843 Y17.027 ;extruding 
G1 X36.225 Y18.172 ;extruding 
G1 X36.890 Y22.839 ;extruding 
G1 X40.698 Y22.928 ;extruding 
G1 X40.643 Y23.863 ;extruding 
G1 X36.856 Y23.624 ;extruding 
G1 X35.790 Y28.215 ;extruding 
G1 X39.309 Y29.674 ;extruding 
G1 X38.920 Y30.526 ;extruding 
G1 X35.475 Y28.935 ;extruding 
G1 X32.822 Y32.831 ;extruding 
G1 X35.576 Y35.462 ;extruding 
G1 X34.906 Y36.116 ;extruding 
G1 X32.268 Y33.388 ;extruding 
G1 X28.387 Y36.063 ;extruding 
G1 X30.005 Y39.512 ;extruding 
G1 X29.143 Y39.879 ;extruding 
G1 X27.703 Y36.462 ;extruding 
FILEWRITE $hFile"\x05\x02\x30\x34\x44\x49\x20\x20\x43\x46\x03"
G1 X27.437 Y36.841 ;not extruding 
FILEWRITE $hFile"\x05\x02\x30\x34\x44\x49\x20\x20\x43\x46\x03"
G1 X23.499 Y37.779 ;extruding 
G1 X23.765 Y41.630 ;extruding 
G1 X23.421 Y41.665 ;extruding 
G1 X22.030 Y41.712 ;extruding 
G1 X21.917 Y37.857 ;extruding 
G1 X17.906 Y37.310 ;extruding 
G1 X16.763 Y40.996 ;extruding 
G1 X16.430 Y40.905 ;extruding 
G1 X15.116 Y40.445 ;extruding 
G1 X16.403 Y36.810 ;extruding 
G1 X12.861 Y34.851 ;extruding 
G1 X10.463 Y37.876 ;extruding 
G1 X10.185 Y37.670 ;extruding 
G1 X9.126 Y36.767 ;extruding 
G1 X11.639 Y33.842 ;extruding 
G1 X9.044 Y30.736 ;extruding 
G1 X5.715 Y32.690 ;extruding 
G1 X5.531 Y32.398 ;extruding 
G1 X4.869 Y31.173 ;extruding 
G1 X8.269 Y29.354 ;extruding 
G1 X6.972 Y25.520 ;extruding 
G1 X3.161 Y26.140 ;extruding 
G1 X3.029 Y25.327 ;extruding 
G1 X2.929 Y24.418 ;extruding 
G1 X6.749 Y23.951 ;extruding 
G1 X6.924 Y19.907 ;extruding 
G1 X3.147 Y19.109 ;extruding 
G1 X3.208 Y18.769 ;extruding 
G1 X3.544 Y17.418 ;extruding 
G1 X7.282 Y18.364 ;extruding 
G1 X8.906 Y14.656 ;extruding 
G1 X5.673 Y12.548 ;extruding 
G1 X5.853 Y12.252 ;extruding 
G1 X6.654 Y11.114 ;extruding 
G1 X9.798 Y13.347 ;extruding 
G1 X12.652 Y10.476 ;extruding 
G1 X10.398 Y7.341 ;extruding 
G1 X10.629 Y7.163 ;extruding 
G1 X11.831 Y6.360 ;extruding 
G1 X13.956 Y9.577 ;extruding 
G1 X17.655 Y7.932 ;extruding 
G1 X16.686 Y4.195 ;extruding 
G1 X17.017 Y4.098 ;extruding 
G1 X18.376 Y3.796 ;extruding 
G1 X19.196 Y7.564 ;extruding 
G1 X23.239 Y7.366 ;extruding 
G1 X23.685 Y3.531 ;extruding 
G1 X23.976 Y3.555 ;extruding 
G1 X25.405 Y3.771 ;extruding 
G1 X24.808 Y7.580 ;extruding 
G1 X28.650 Y8.855 ;extruding 
G1 X30.451 Y5.442 ;extruding 
G1 X30.762 Y5.593 ;extruding 
G1 X31.969 Y6.286 ;extruding 
G1 X30.036 Y9.622 ;extruding 
G1 X33.158 Y12.199 ;extruding 
G1 X36.071 Y9.666 ;extruding 
G1 X36.612 Y10.287 ;extruding 
G1 X37.175 Y11.007 ;extruding 
G1 X34.173 Y13.415 ;extruding 
G1 X36.153 Y16.946 ;extruding 
G1 X39.784 Y15.636 ;extruding 
G1 X39.912 Y15.958 ;extruding 
G1 X40.337 Y17.283 ;extruding 
G1 X36.661 Y18.446 ;extruding 
G1 X37.232 Y22.454 ;extruding 
G1 X41.091 Y22.545 ;extruding 
G1 X41.094 Y22.890 ;extruding 
G1 X41.012 Y24.280 ;extruding 
G1 X37.163 Y24.036 ;extruding 
G1 X36.248 Y27.980 ;extruding 
G1 X39.813 Y29.458 ;extruding 
G1 X39.691 Y29.782 ;extruding 
G1 X39.113 Y31.048 ;extruding 
G1 X35.612 Y29.431 ;extruding 
G1 X33.334 Y32.777 ;extruding 
G1 X36.125 Y35.444 ;extruding 
G1 X35.894 Y35.701 ;extruding 
G1 X34.897 Y36.672 ;extruding 
G1 X32.217 Y33.900 ;extruding 
G1 X28.884 Y36.197 ;extruding 
G1 X30.523 Y39.692 ;extruding 
G1 X30.215 Y39.849 ;extruding 
G1 X28.935 Y40.395 ;extruding 
G1 X27.471 Y36.921 ;extruding 
FILEWRITE $hFile"\x05\x02\x30\x34\x44\x49\x20\x20\x43\x46\x03"
G1 X27.204 Y37.300 ;not extruding 
FILEWRITE $hFile"\x05\x02\x30\x34\x44\x49\x20\x20\x43\x46\x03"
G1 X23.914 Y38.084 ;extruding 
G1 X24.183 Y41.983 ;extruding 
G1 X23.447 Y42.057 ;extruding 
G1 X21.649 Y42.108 ;extruding 
G1 X21.534 Y38.201 ;extruding 
G1 X18.183 Y37.744 ;extruding 
G1 X17.025 Y41.476 ;extruding 
G1 X16.313 Y41.280 ;extruding 
G1 X14.617 Y40.677 ;extruding 
G1 X15.922 Y36.993 ;extruding 
G1 X12.962 Y35.356 ;extruding 
G1 X10.534 Y38.418 ;extruding 
G1 X9.941 Y37.977 ;extruding 
G1 X8.577 Y36.803 ;extruding 
G1 X11.125 Y33.839 ;extruding 
G1 X8.956 Y31.243 ;extruding 
G1 X5.586 Y33.221 ;extruding 
G1 X5.192 Y32.596 ;extruding 
G1 X4.345 Y31.008 ;extruding 
G1 X7.791 Y29.165 ;extruding 
G1 X6.707 Y25.961 ;extruding 
G1 X2.849 Y26.588 ;extruding 
G1 X2.716 Y25.915 ;extruding 
G1 X2.639 Y25.376 ;extruding 
G1 X2.497 Y24.076 ;extruding 
G1 X6.371 Y23.602 ;extruding 
G1 X6.517 Y20.223 ;extruding 
G1 X2.694 Y19.414 ;extruding 
G1 X2.823 Y18.687 ;extruding 
G1 X3.267 Y16.943 ;extruding 
G1 X7.056 Y17.902 ;extruding 
G1 X8.413 Y14.804 ;extruding 
G1 X5.140 Y12.669 ;extruding 
G1 X5.524 Y12.037 ;extruding 
G1 X6.568 Y10.571 ;extruding 
G1 X9.754 Y12.834 ;extruding 
G1 X12.139 Y10.435 ;extruding 
G1 X9.858 Y7.262 ;extruding 
G1 X10.400 Y6.844 ;extruding 
G1 X11.947 Y5.822 ;extruding 
G1 X14.101 Y9.083 ;extruding 
G1 X17.191 Y7.708 ;extruding 
G1 X16.210 Y3.925 ;extruding 
G1 X16.919 Y3.717 ;extruding 
G1 X18.678 Y3.337 ;extruding 
G1 X19.509 Y7.156 ;extruding 
G1 X22.887 Y6.990 ;extruding 
G1 X23.339 Y3.108 ;extruding 
G1 X24.021 Y3.164 ;extruding 
G1 X25.853 Y3.451 ;extruding 
G1 X25.248 Y7.312 ;extruding 
G1 X28.458 Y8.378 ;extruding 
G1 X30.281 Y4.922 ;extruding 
G1 X30.946 Y5.246 ;extruding 
G1 X32.502 Y6.150 ;extruding 
G1 X30.543 Y9.531 ;extruding 
G1 X33.151 Y11.685 ;extruding 
G1 X36.100 Y9.121 ;extruding 
G1 X36.568 Y9.623 ;extruding 
G1 X36.917 Y10.040 ;extruding 
G1 X37.723 Y11.071 ;extruding 
G1 X34.679 Y13.513 ;extruding 
G1 X36.333 Y16.464 ;extruding 
G1 X40.009 Y15.138 ;extruding 
G1 X40.282 Y15.825 ;extruding 
G1 X40.823 Y17.541 ;extruding 
G1 X37.097 Y18.720 ;extruding 
G1 X37.574 Y22.069 ;extruding 
G1 X41.480 Y22.161 ;extruding 
G1 X41.487 Y22.900 ;extruding 
G1 X41.371 Y24.696 ;extruding 
G1 X37.470 Y24.449 ;extruding 
G1 X36.706 Y27.744 ;extruding 
G1 X40.315 Y29.241 ;extruding 
G1 X40.054 Y29.933 ;extruding 
G1 X39.297 Y31.565 ;extruding 
G1 X35.749 Y29.927 ;extruding 
G1 X33.846 Y32.723 ;extruding 
G1 X36.671 Y35.422 ;extruding 
G1 X36.178 Y35.973 ;extruding 
G1 X34.882 Y37.222 ;extruding 
G1 X32.166 Y34.412 ;extruding 
G1 X29.381 Y36.332 ;extruding 
G1 X31.040 Y39.870 ;extruding 
G1 X30.381 Y40.205 ;extruding 
G1 X28.722 Y40.902 ;extruding 
G1 X27.238 Y37.381 ;extruding 
FILEWRITE $hFile"\x05\x02\x30\x34\x44\x49\x20\x20\x43\x46\x03"
G1 X27.027 Y36.748 ;not extruding 
G1 D-148.000 ;not extruding 
G1 X26.501 Y35.642 ;not extruding 
FILEWRITE $hFile"\x05\x02\x30\x34\x44\x49\x20\x20\x43\x46\x03"
G1 X24.714 Y36.133 ;extruding 
G1 X22.883 Y36.379 ;extruding 
G1 X21.036 Y36.379 ;extruding 
G1 X19.206 Y36.133 ;extruding 
G1 X17.425 Y35.645 ;extruding 
G1 X15.725 Y34.924 ;extruding 
G1 X14.136 Y33.983 ;extruding 
G1 X12.686 Y32.838 ;extruding 
G1 X11.402 Y31.510 ;extruding 
G1 X10.307 Y30.024 ;extruding 
G1 X9.419 Y28.404 ;extruding 
G1 X8.756 Y26.681 ;extruding 
G1 X8.328 Y24.884 ;extruding 
G1 X8.143 Y23.047 ;extruding 
G1 X8.204 Y21.201 ;extruding 
G1 X8.512 Y19.380 ;extruding 
G1 X9.059 Y17.616 ;extruding 
G1 X9.836 Y15.941 ;extruding 
G1 X10.830 Y14.384 ;extruding 
G1 X12.022 Y12.974 ;extruding 
G1 X13.392 Y11.735 ;extruding 
G1 X14.914 Y10.690 ;extruding 
G1 X16.563 Y9.857 ;extruding 
G1 X18.307 Y9.251 ;extruding 
G1 X20.117 Y8.883 ;extruding 
G1 X21.960 Y8.760 ;extruding 
G1 X23.802 Y8.883 ;extruding 
G1 X25.612 Y9.251 ;extruding 
G1 X27.357 Y9.857 ;extruding 
G1 X29.005 Y10.690 ;extruding 
G1 X30.528 Y11.735 ;extruding 
G1 X31.897 Y12.974 ;extruding 
G1 X33.090 Y14.384 ;extruding 
G1 X34.084 Y15.941 ;extruding 
G1 X34.861 Y17.616 ;extruding 
G1 X35.408 Y19.380 ;extruding 
G1 X35.715 Y21.201 ;extruding 
G1 X35.777 Y23.047 ;extruding 
G1 X35.592 Y24.884 ;extruding 
G1 X35.164 Y26.681 ;extruding 
G1 X34.500 Y28.404 ;extruding 
G1 X33.613 Y30.024 ;extruding 
G1 X32.517 Y31.510 ;extruding 
G1 X31.233 Y32.838 ;extruding 
G1 X29.784 Y33.983 ;extruding 
G1 X28.195 Y34.924 ;extruding 
G1 X26.581 Y35.608 ;extruding 
FILEWRITE $hFile"\x05\x02\x30\x34\x44\x49\x20\x20\x43\x46\x03"
G1 X26.366 Y35.273 ;not extruding 
FILEWRITE $hFile"\x05\x02\x30\x34\x44\x49\x20\x20\x43\x46\x03"
G1 X24.635 Y35.747 ;extruding 
G1 X22.857 Y35.986 ;extruding 
G1 X21.063 Y35.986 ;extruding 
G1 X19.284 Y35.747 ;extruding 
G1 X17.554 Y35.273 ;extruding 
G1 X15.902 Y34.572 ;extruding 
G1 X14.358 Y33.658 ;extruding 
G1 X12.950 Y32.546 ;extruding 
G1 X11.703 Y31.256 ;extruding 
G1 X10.639 Y29.812 ;extruding 
G1 X9.776 Y28.238 ;extruding 
G1 X9.132 Y26.564 ;extruding 
G1 X8.716 Y24.819 ;extruding 
G1 X8.536 Y23.034 ;extruding 
G1 X8.596 Y21.240 ;extruding 
G1 X8.894 Y19.471 ;extruding 
G1 X9.426 Y17.757 ;extruding 
G1 X10.181 Y16.130 ;extruding 
G1 X11.147 Y14.618 ;extruding 
G1 X12.305 Y13.247 ;extruding 
G1 X13.636 Y12.044 ;extruding 
G1 X15.115 Y11.028 ;extruding 
G1 X16.716 Y10.219 ;extruding 
G1 X18.411 Y9.631 ;extruding 
G1 X20.170 Y9.273 ;extruding 
G1 X21.960 Y9.153 ;extruding 
G1 X23.750 Y9.273 ;extruding 
G1 X25.508 Y9.631 ;extruding 
G1 X27.203 Y10.219 ;extruding 
G1 X28.805 Y11.028 ;extruding 
G1 X30.284 Y12.044 ;extruding 
G1 X31.615 Y13.247 ;extruding 
G1 X32.773 Y14.618 ;extruding 
G1 X33.738 Y16.130 ;extruding 
G1 X34.494 Y17.757 ;extruding 
G1 X35.025 Y19.471 ;extruding 
G1 X35.324 Y21.240 ;extruding 
G1 X35.384 Y23.034 ;extruding 
G1 X35.204 Y24.819 ;extruding 
G1 X34.788 Y26.564 ;extruding 
G1 X34.143 Y28.238 ;extruding 
G1 X33.281 Y29.812 ;extruding 
G1 X32.217 Y31.256 ;extruding 
G1 X30.969 Y32.546 ;extruding 
G1 X29.561 Y33.658 ;extruding 
G1 X28.017 Y34.572 ;extruding 
G1 X26.446 Y35.239 ;extruding 
FILEWRITE $hFile"\x05\x02\x30\x34\x44\x49\x20\x20\x43\x46\x03"
G1 X26.236 Y34.901 ;not extruding 
FILEWRITE $hFile"\x05\x02\x30\x34\x44\x49\x20\x20\x43\x46\x03"
G1 X24.557 Y35.361 ;extruding 
G1 X22.831 Y35.593 ;extruding 
G1 X21.089 Y35.593 ;extruding 
G1 X19.363 Y35.361 ;extruding 
G1 X17.683 Y34.901 ;extruding 
G1 X16.080 Y34.221 ;extruding 
G1 X14.581 Y33.334 ;extruding 
G1 X13.214 Y32.254 ;extruding 
G1 X12.004 Y31.002 ;extruding 
G1 X10.970 Y29.600 ;extruding 
G1 X10.133 Y28.073 ;extruding 
G1 X9.507 Y26.447 ;extruding 
G1 X9.104 Y24.753 ;extruding 
G1 X8.929 Y23.020 ;extruding 
G1 X8.988 Y21.280 ;extruding 
G1 X9.277 Y19.562 ;extruding 
G1 X9.793 Y17.899 ;extruding 
G1 X10.526 Y16.319 ;extruding 
G1 X11.464 Y14.851 ;extruding 
G1 X12.588 Y13.521 ;extruding 
G1 X13.880 Y12.353 ;extruding 
G1 X15.316 Y11.367 ;extruding 
G1 X16.870 Y10.582 ;extruding 
G1 X18.515 Y10.010 ;extruding 
G1 X20.222 Y9.663 ;extruding 
G1 X21.960 Y9.547 ;extruding 
G1 X23.698 Y9.663 ;extruding 
G1 X25.404 Y10.010 ;extruding 
G1 X27.050 Y10.582 ;extruding 
G1 X28.604 Y11.367 ;extruding 
G1 X30.040 Y12.353 ;extruding 
G1 X31.332 Y13.521 ;extruding 
G1 X32.456 Y14.851 ;extruding 
G1 X33.393 Y16.319 ;extruding 
G1 X34.126 Y17.899 ;extruding 
G1 X34.642 Y19.562 ;extruding 
G1 X34.932 Y21.280 ;extruding 
G1 X34.990 Y23.020 ;extruding 
G1 X34.816 Y24.753 ;extruding 
G1 X34.412 Y26.447 ;extruding 
G1 X33.786 Y28.073 ;extruding 
G1 X32.949 Y29.600 ;extruding 
G1 X31.916 Y31.002 ;extruding 
G1 X30.705 Y32.254 ;extruding 
G1 X29.338 Y33.334 ;extruding 
G1 X27.840 Y34.221 ;extruding 
G1 X26.317 Y34.867 ;extruding 
FILEWRITE $hFile"\x05\x02\x30\x34\x44\x49\x20\x20\x43\x46\x03"
G1 X26.107 Y34.529 ;not extruding 
FILEWRITE $hFile"\x05\x02\x30\x34\x44\x49\x20\x20\x43\x46\x03"
G1 X24.478 Y34.975 ;extruding 
G1 X22.804 Y35.201 ;extruding 
G1 X21.115 Y35.201 ;extruding 
G1 X19.441 Y34.975 ;extruding 
G1 X17.812 Y34.529 ;extruding 
G1 X16.257 Y33.870 ;extruding 
G1 X14.804 Y33.009 ;extruding 
G1 X13.478 Y31.962 ;extruding 
G1 X12.304 Y30.748 ;extruding 
G1 X11.302 Y29.388 ;extruding 
G1 X10.490 Y27.907 ;extruding 
G1 X9.883 Y26.331 ;extruding 
G1 X9.492 Y24.688 ;extruding 
G1 X9.323 Y23.007 ;extruding 
G1 X9.379 Y21.319 ;extruding 
G1 X9.660 Y19.654 ;extruding 
G1 X10.161 Y18.040 ;extruding 
G1 X10.872 Y16.508 ;extruding 
G1 X11.780 Y15.084 ;extruding 
G1 X12.871 Y13.795 ;extruding 
G1 X14.124 Y12.662 ;extruding 
G1 X15.516 Y11.706 ;extruding 
G1 X17.024 Y10.944 ;extruding 
G1 X18.619 Y10.390 ;extruding 
G1 X20.275 Y10.053 ;extruding 
G1 X21.960 Y9.941 ;extruding 
G1 X23.645 Y10.053 ;extruding 
G1 X25.300 Y10.390 ;extruding 
G1 X26.896 Y10.944 ;extruding 
G1 X28.403 Y11.706 ;extruding 
G1 X29.796 Y12.662 ;extruding 
G1 X31.049 Y13.795 ;extruding 
G1 X32.139 Y15.084 ;extruding 
G1 X33.048 Y16.508 ;extruding 
G1 X33.759 Y18.040 ;extruding 
G1 X34.259 Y19.654 ;extruding 
G1 X34.540 Y21.319 ;extruding 
G1 X34.597 Y23.007 ;extruding 
G1 X34.428 Y24.688 ;extruding 
G1 X34.036 Y26.331 ;extruding 
G1 X33.429 Y27.907 ;extruding 
G1 X32.617 Y29.388 ;extruding 
G1 X31.616 Y30.748 ;extruding 
G1 X30.441 Y31.962 ;extruding 
G1 X29.116 Y33.009 ;extruding 
G1 X27.662 Y33.870 ;extruding 
G1 X26.187 Y34.495 ;extruding 
FILEWRITE $hFile"\x05\x02\x30\x34\x44\x49\x20\x20\x43\x46\x03"
G1 X25.978 Y34.157 ;not extruding 
FILEWRITE $hFile"\x05\x02\x30\x34\x44\x49\x20\x20\x43\x46\x03"
G1 X24.400 Y34.590 ;extruding 
G1 X22.778 Y34.808 ;extruding 
G1 X21.142 Y34.808 ;extruding 
G1 X19.520 Y34.590 ;extruding 
G1 X17.941 Y34.157 ;extruding 
G1 X16.435 Y33.519 ;extruding 
G1 X15.027 Y32.685 ;extruding 
G1 X13.742 Y31.670 ;extruding 
G1 X12.605 Y30.494 ;extruding 
G1 X11.634 Y29.177 ;extruding 
G1 X10.847 Y27.741 ;extruding 
G1 X10.259 Y26.214 ;extruding 
G1 X9.880 Y24.622 ;extruding 
G1 X9.716 Y22.994 ;extruding 
G1 X9.771 Y21.358 ;extruding 
G1 X10.043 Y19.745 ;extruding 
G1 X10.528 Y18.182 ;extruding 
G1 X11.217 Y16.697 ;extruding 
G1 X12.097 Y15.318 ;extruding 
G1 X13.154 Y14.068 ;extruding 
G1 X14.368 Y12.970 ;extruding 
G1 X15.717 Y12.044 ;extruding 
G1 X17.177 Y11.306 ;extruding 
G1 X18.723 Y10.769 ;extruding 
G1 X20.327 Y10.443 ;extruding 
G1 X21.960 Y10.334 ;extruding 
G1 X23.593 Y10.443 ;extruding 
G1 X25.196 Y10.769 ;extruding 
G1 X26.742 Y11.306 ;extruding 
G1 X28.203 Y12.044 ;extruding 
G1 X29.552 Y12.970 ;extruding 
G1 X30.766 Y14.068 ;extruding 
G1 X31.822 Y15.318 ;extruding 
G1 X32.703 Y16.697 ;extruding 
G1 X33.392 Y18.182 ;extruding 
G1 X33.877 Y19.745 ;extruding 
G1 X34.149 Y21.358 ;extruding 
G1 X34.204 Y22.994 ;extruding 
G1 X34.040 Y24.622 ;extruding 
G1 X33.660 Y26.214 ;extruding 
G1 X33.072 Y27.741 ;extruding 
G1 X32.286 Y29.177 ;extruding 
G1 X31.315 Y30.494 ;extruding 
G1 X30.177 Y31.670 ;extruding 
G1 X28.893 Y32.685 ;extruding 
G1 X27.485 Y33.519 ;extruding 
G1 X26.058 Y34.123 ;extruding 
FILEWRITE $hFile"\x05\x02\x30\x34\x44\x49\x20\x20\x43\x46\x03"
G1 X25.978 Y34.157 ;not extruding 
G1 X26.381 Y35.761 ;not extruding 
FILEWRITE $hFile"\x05\x02\x30\x34\x44\x49\x20\x20\x43\x46\x03"
G1 X24.553 Y36.220 ;extruding 
G1 X22.954 Y36.685 ;extruding 
G1 X20.943 Y36.410 ;extruding 
G1 X17.777 Y36.067 ;extruding 
G1 X14.690 Y34.408 ;extruding 
G1 X13.196 Y33.675 ;extruding 
G1 X11.894 Y32.117 ;extruding 
G1 X9.785 Y29.731 ;extruding 
G1 X8.622 Y26.424 ;extruding 
G1 X8.012 Y24.876 ;extruding 
G1 X8.100 Y22.848 ;extruding 
G1 X8.149 Y19.664 ;extruding 
G1 X9.516 Y16.437 ;extruding 
G1 X10.096 Y14.914 ;extruding 
G1 X12.577 Y12.357 ;extruding 
G1 X13.691 Y11.120 ;extruding 
G1 X15.546 Y10.295 ;extruding 
G1 X18.418 Y8.920 ;extruding 
G1 X21.917 Y8.705 ;extruding 
G1 X23.573 Y8.542 ;extruding 
G1 X25.500 Y9.182 ;extruding 
G1 X28.582 Y10.110 ;extruding 
G1 X30.103 Y11.366 ;extruding 
G1 X32.614 Y13.324 ;extruding 
G1 X34.365 Y16.360 ;extruding 
G1 X35.249 Y17.769 ;extruding 
G1 X35.536 Y19.779 ;extruding 
G1 X36.072 Y22.918 ;extruding 
G1 X35.321 Y26.342 ;extruding 
G1 X35.031 Y27.945 ;extruding 
G1 X33.062 Y30.915 ;extruding 
G1 X32.194 Y32.335 ;extruding 
G1 X30.522 Y33.487 ;extruding 
G1 X27.952 Y35.366 ;extruding 
G1 X26.465 Y35.740 ;extruding 
FILEWRITE $hFile"\x05\x02\x30\x34\x44\x49\x20\x20\x43\x46\x03"
G1 X28.099 Y35.734 ;not extruding 
FILEWRITE $hFile"\x05\x02\x30\x34\x44\x49\x20\x20\x43\x46\x03"
G1 X24.655 Y36.599 ;extruding 
G1 X22.964 Y37.091 ;extruding 
G1 X23.127 Y39.453 ;extruding 
G1 X23.221 Y40.235 ;extruding 
G1 X23.259 Y40.797 ;extruding 
G1 X23.168 Y40.800 ;extruding 
G1 X23.123 Y40.227 ;extruding 
G1 X23.089 Y39.046 ;extruding 
G1 X22.936 Y37.079 ;extruding 
G1 X20.895 Y36.800 ;extruding 
G1 X17.664 Y36.450 ;extruding 
G1 X16.955 Y38.736 ;extruding 
G1 X16.759 Y39.499 ;extruding 
G1 X16.593 Y40.037 ;extruding 
G1 X16.506 Y40.006 ;extruding 
G1 X16.671 Y39.456 ;extruding 
G1 X17.066 Y38.343 ;extruding 
G1 X17.638 Y36.438 ;extruding 
G1 X14.510 Y34.757 ;extruding 
G1 X12.929 Y33.982 ;extruding 
G1 X11.458 Y35.837 ;extruding 
G1 X11.001 Y36.478 ;extruding 
G1 X10.650 Y36.920 ;extruding 
G1 X10.580 Y36.861 ;extruding 
G1 X10.934 Y36.407 ;extruding 
G1 X11.704 Y35.511 ;extruding 
G1 X12.916 Y33.953 ;extruding 
G1 X11.596 Y32.373 ;extruding 
G1 X9.444 Y29.937 ;extruding 
G1 X7.380 Y31.149 ;extruding 
G1 X6.722 Y31.581 ;extruding 
G1 X6.236 Y31.866 ;extruding 
G1 X6.193 Y31.785 ;extruding 
G1 X6.685 Y31.490 ;extruding 
G1 X7.727 Y30.933 ;extruding 
G1 X9.433 Y29.911 ;extruding 
G1 X8.254 Y26.562 ;extruding 
G1 X7.608 Y24.923 ;extruding 
G1 X5.271 Y25.304 ;extruding 
G1 X4.501 Y25.469 ;extruding 
G1 X3.945 Y25.559 ;extruding 
G1 X3.934 Y25.468 ;extruding 
G1 X4.500 Y25.371 ;extruding 
G1 X5.672 Y25.228 ;extruding 
G1 X7.618 Y24.894 ;extruding 
G1 X7.707 Y22.836 ;extruding 
G1 X7.757 Y19.586 ;extruding 
G1 X5.416 Y19.091 ;extruding 
G1 X4.638 Y18.967 ;extruding 
G1 X4.087 Y18.851 ;extruding 
G1 X4.109 Y18.762 ;extruding 
G1 X4.672 Y18.876 ;extruding 
G1 X5.818 Y19.165 ;extruding 
G1 X7.766 Y19.560 ;extruding 
G1 X9.152 Y16.290 ;extruding 
G1 X9.778 Y14.644 ;extruding 
G1 X7.795 Y13.351 ;extruding 
G1 X7.115 Y12.954 ;extruding 
G1 X6.643 Y12.646 ;extruding 
G1 X6.696 Y12.572 ;extruding 
G1 X7.180 Y12.881 ;extruding 
G1 X8.143 Y13.565 ;extruding 
G1 X9.818 Y14.637 ;extruding 
G1 X12.290 Y12.088 ;extruding 
G1 X13.469 Y10.780 ;extruding 
G1 X12.087 Y8.857 ;extruding 
G1 X11.596 Y8.242 ;extruding 
G1 X11.267 Y7.784 ;extruding 
G1 X11.344 Y7.734 ;extruding 
G1 X11.683 Y8.197 ;extruding 
G1 X12.334 Y9.183 ;extruding 
G1 X13.500 Y10.776 ;extruding 
G1 X15.382 Y9.938 ;extruding 
G1 X18.313 Y8.535 ;extruding 
G1 X17.713 Y6.218 ;extruding 
G1 X17.477 Y5.466 ;extruding 
G1 X17.336 Y4.921 ;extruding 
G1 X17.425 Y4.902 ;extruding 
G1 X17.574 Y5.456 ;extruding 
G1 X17.825 Y6.611 ;extruding 
G1 X18.341 Y8.531 ;extruding 
G1 X21.885 Y8.314 ;extruding 
G1 X23.638 Y8.141 ;extruding 
G1 X23.912 Y5.789 ;extruding 
G1 X23.964 Y5.003 ;extruding 
G1 X24.029 Y4.444 ;extruding 
G1 X24.119 Y4.458 ;extruding 
G1 X24.058 Y5.029 ;extruding 
G1 X23.875 Y6.196 ;extruding 
G1 X23.664 Y8.158 ;extruding 
G1 X25.618 Y8.807 ;extruding 
G1 X28.730 Y9.745 ;extruding 
G1 X29.847 Y7.628 ;extruding 
G1 X30.180 Y6.914 ;extruding 
G1 X30.443 Y6.416 ;extruding 
G1 X30.522 Y6.462 ;extruding 
G1 X30.258 Y6.972 ;extruding 
G1 X29.666 Y7.994 ;extruding 
G1 X28.760 Y9.748 ;extruding 
G1 X30.348 Y11.059 ;extruding 
G1 X32.912 Y13.058 ;extruding 
G1 X34.718 Y11.488 ;extruding 
G1 X35.285 Y10.942 ;extruding 
G1 X35.711 Y10.572 ;extruding 
G1 X35.770 Y10.642 ;extruding 
G1 X35.338 Y11.024 ;extruding 
G1 X34.416 Y11.764 ;extruding 
G1 X32.927 Y13.081 ;extruding 
G1 X34.702 Y16.157 ;extruding 
G1 X35.637 Y17.649 ;extruding 
G1 X37.865 Y16.846 ;extruding 
G1 X38.591 Y16.542 ;extruding 
G1 X39.121 Y16.351 ;extruding 
G1 X39.149 Y16.438 ;extruding 
G1 X38.611 Y16.638 ;extruding 
G1 X37.484 Y16.994 ;extruding 
G1 X35.633 Y17.680 ;extruding 
G1 X35.924 Y19.719 ;extruding 
G1 X36.472 Y22.922 ;extruding 
G1 X38.864 Y22.979 ;extruding 
G1 X39.651 Y22.958 ;extruding 
G1 X40.214 Y22.971 ;extruding 
G1 X40.209 Y23.063 ;extruding 
G1 X39.635 Y23.054 ;extruding 
G1 X38.455 Y22.980 ;extruding 
G1 X36.467 Y22.950 ;extruding 
G1 X35.706 Y26.419 ;extruding 
G1 X35.393 Y28.151 ;extruding 
G1 X37.580 Y29.059 ;extruding 
G1 X38.322 Y29.324 ;extruding 
G1 X38.842 Y29.539 ;extruding 
G1 X38.804 Y29.623 ;extruding 
G1 X38.271 Y29.407 ;extruding 
G1 X37.199 Y28.912 ;extruding 
G1 X35.356 Y28.166 ;extruding 
G1 X33.393 Y31.126 ;extruding 
G1 X32.475 Y32.628 ;extruding 
G1 X34.187 Y34.264 ;extruding 
G1 X34.783 Y34.779 ;extruding 
G1 X35.190 Y35.169 ;extruding 
G1 X35.126 Y35.234 ;extruding 
G1 X34.705 Y34.839 ;extruding 
G1 X33.884 Y33.990 ;extruding 
G1 X32.445 Y32.638 ;extruding 
G1 X30.750 Y33.807 ;extruding 
G1 X28.126 Y35.726 ;extruding 
G1 X29.142 Y37.892 ;extruding 
G1 X29.512 Y38.588 ;extruding 
G1 X29.751 Y39.098 ;extruding 
G1 X29.666 Y39.133 ;extruding 
G1 X29.418 Y38.616 ;extruding 
G1 X28.959 Y37.527 ;extruding 
G1 X28.137 Y35.813 ;extruding 
FILEWRITE $hFile"\x05\x02\x30\x34\x44\x49\x20\x20\x43\x46\x03"
G1 X27.884 Y36.193 ;not extruding 
FILEWRITE $hFile"\x05\x02\x30\x34\x44\x49\x20\x20\x43\x46\x03"
G1 X24.758 Y36.978 ;extruding 
G1 X23.378 Y37.380 ;extruding 
G1 X23.518 Y39.416 ;extruding 
G1 X23.612 Y40.198 ;extruding 
G1 X23.677 Y41.151 ;extruding 
G1 X23.360 Y41.187 ;extruding 
G1 X22.797 Y41.204 ;extruding 
G1 X22.731 Y40.248 ;extruding 
G1 X22.696 Y39.067 ;extruding 
G1 X22.569 Y37.425 ;extruding 
G1 X20.847 Y37.190 ;extruding 
G1 X17.943 Y36.875 ;extruding 
G1 X17.333 Y38.843 ;extruding 
G1 X17.137 Y39.606 ;extruding 
G1 X16.855 Y40.517 ;extruding 
G1 X16.545 Y40.437 ;extruding 
G1 X16.014 Y40.249 ;extruding 
G1 X16.298 Y39.334 ;extruding 
G1 X16.692 Y38.220 ;extruding 
G1 X17.170 Y36.633 ;extruding 
G1 X14.331 Y35.107 ;extruding 
G1 X13.041 Y34.474 ;extruding 
G1 X11.772 Y36.073 ;extruding 
G1 X11.314 Y36.714 ;extruding 
G1 X10.720 Y37.464 ;extruding 
G1 X10.514 Y37.316 ;extruding 
G1 X10.028 Y36.916 ;extruding 
G1 X10.630 Y36.158 ;extruding 
G1 X11.400 Y35.262 ;extruding 
G1 X12.412 Y33.962 ;extruding 
G1 X11.298 Y32.628 ;extruding 
G1 X9.364 Y30.440 ;extruding 
G1 X7.587 Y31.482 ;extruding 
G1 X6.929 Y31.914 ;extruding 
G1 X6.106 Y32.398 ;extruding 
G1 X5.932 Y32.130 ;extruding 
G1 X5.666 Y31.633 ;extruding 
G1 X6.492 Y31.148 ;extruding 
G1 X7.533 Y30.591 ;extruding 
G1 X8.956 Y29.739 ;extruding 
G1 X7.886 Y26.699 ;extruding 
G1 X7.359 Y25.362 ;extruding 
G1 X5.344 Y25.690 ;extruding 
