; generated by Slic3r 1.3.0 on 2023-04-20 at 14:13:34

; external perimeters extrusion width = 0.50mm (2.95mm^3/s)
; perimeters extrusion width = 0.50mm (2.95mm^3/s)
; infill extrusion width = 0.50mm (2.95mm^3/s)
; solid infill extrusion width = 0.50mm (2.95mm^3/s)
; top infill extrusion width = 0.50mm (2.95mm^3/s)


; Filament gcode

G21 ; set units to millimeters
G90 ; use absolute coordinates
M82 ; use absolute distances for extrusion
G92 E0
G1 Z-149.500 F900.000
G1 X42.219 Y82.369 F900.000
G1 F900
G1 X68.372 Y82.369 E0.72647
G1 X68.372 Y97.472 E1.14600
G1 X55.296 Y105.022 E1.56543
G1 X42.219 Y97.472 E1.98485
G1 X42.219 Y82.456 E2.40197
G1 X42.612 Y82.762 F900.000
G1 F900
G1 X67.979 Y82.762 E3.10662
G1 X67.979 Y97.245 E3.50895
G1 X55.296 Y104.568 E3.91578
G1 X42.612 Y97.245 E4.32261
G1 X42.612 Y82.849 E4.72252
G1 X42.511 Y82.191 F900.000
G92 E0
G1 X41.646 Y79.654 F900.000
G1 F900
G1 X27.995 Y56.012 E0.75834
G1 X41.646 Y32.369 E1.51668
G1 X68.946 Y32.369 E2.27502
G1 X82.596 Y56.012 E3.03336
G1 X68.946 Y79.654 E3.79170
G1 X41.733 Y79.654 E4.54762
G1 X41.872 Y79.262 F900.000
G1 F900
G1 X28.449 Y56.012 E5.29337
G1 X41.872 Y32.762 E6.03911
G1 X68.719 Y32.762 E6.78486
G1 X82.142 Y56.012 E7.53060
G1 X68.719 Y79.262 E8.27634
G1 X41.959 Y79.262 E9.01967
G1 X41.370 Y79.552 F900.000
G92 E0
G1 X25.931 Y54.158 F900.000
G1 F900
G1 X12.852 Y46.606 E0.41953
G1 X12.852 Y31.507 E0.83896
G1 X25.928 Y23.957 E1.25838
G1 X39.008 Y31.509 E1.67791
G1 X25.975 Y54.082 E2.40197
G1 X25.788 Y53.621 F900.000
G1 F900
G1 X13.244 Y46.379 E2.80429
G1 X13.244 Y31.733 E3.21112
G1 X25.928 Y24.410 E3.61795
G1 X38.471 Y31.652 E4.02028
G1 X25.831 Y53.546 E4.72252
G1 X25.588 Y54.166 F900.000
G92 E0
G1 X26.312 Y54.213 F900.000
G1 X71.345 Y31.811 F900.000
G1 X71.584 Y31.509 F900.000
G1 F900
G1 X84.663 Y23.957 E0.41953
G1 X97.740 Y31.507 E0.83896
G1 X97.740 Y46.606 E1.25838
G1 X84.660 Y54.158 E1.67791
G1 X71.627 Y31.584 E2.40197
G1 X72.120 Y31.652 F900.000
G1 F900
G1 X84.663 Y24.410 E2.80429
G1 X97.347 Y31.733 E3.21112
G1 X97.347 Y46.379 E3.61795
G1 X84.804 Y53.621 E4.02028
G1 X72.163 Y31.728 E4.72251
G1 X71.748 Y31.207 F900.000
G92 E0
G1 X71.345 Y31.811 F900.000
G1 X97.954 Y31.383 F900.000
G1 F900
G1 X97.954 Y46.730 E0.42631
G1 X83.967 Y54.806 E0.87496
G1 X83.080 Y55.602 E0.90806
G1 X68.833 Y80.279 E1.69957
G1 X68.587 Y81.445 E1.73267
G1 X68.587 Y97.596 E2.18132
G1 X55.296 Y105.270 E2.60763
G1 X42.005 Y97.596 E3.03394
G1 X42.005 Y81.445 E3.48259
G1 X41.758 Y80.279 E3.51569
G1 X27.511 Y55.602 E4.30720
G1 X26.625 Y54.806 E4.34030
G1 X12.637 Y46.730 E4.78895
G1 X12.637 Y31.383 E5.21526
G1 X25.928 Y23.709 E5.64157
G1 X39.916 Y31.785 E6.09022
G1 X41.048 Y32.154 E6.12332
G1 X69.543 Y32.154 E6.91483
G1 X70.676 Y31.785 E6.94793
G1 X84.663 Y23.709 E7.39658
G1 X97.879 Y31.339 E7.82047
G1 X98.347 Y31.156 F900.000
G1 F900
G1 X98.347 Y46.957 E8.25938
G1 X84.199 Y55.125 E8.71319
G1 X83.389 Y55.852 E8.74341
G1 X69.204 Y80.421 E9.53146
G1 X68.979 Y81.486 E9.56168
G1 X68.979 Y97.823 E10.01549
G1 X55.296 Y105.723 E10.45439
G1 X41.612 Y97.823 E10.89330
G1 X41.612 Y81.486 E11.34711
G1 X41.387 Y80.421 E11.37733
G1 X27.202 Y55.852 E12.16538
G1 X26.393 Y55.125 E12.19560
G1 X12.244 Y46.957 E12.64941
G1 X12.244 Y31.156 E13.08831
G1 X25.928 Y23.256 E13.52722
G1 X40.077 Y31.424 E13.98103
G1 X41.111 Y31.762 E14.01125
G1 X69.481 Y31.762 E14.79930
G1 X70.515 Y31.424 E14.82952
G1 X84.663 Y23.256 E15.28333
G1 X98.272 Y31.113 E15.71982
G1 X97.974 Y31.600 F900.000
G92 E0
G1 X71.345 Y31.811 F900.000
G1 X70.949 Y33.124 F900.000
G1 X82.944 Y53.900 F900.000
G1 X84.231 Y54.200 F900.000
G1 F900
G1 X84.026 Y53.845 E0.01138
G1 X82.614 Y55.257 E0.06686
G1 X82.409 Y54.902 E0.07825
G1 X83.821 Y53.490 E0.13373
G1 X83.616 Y53.135 E0.14511
G1 X82.204 Y54.547 E0.20059
G1 X81.999 Y54.193 E0.21197
G1 X83.411 Y52.780 E0.26745
G1 X83.206 Y52.425 E0.27883
G1 X81.794 Y53.838 E0.33431
G1 X81.589 Y53.483 E0.34569
G1 X83.002 Y52.071 E0.40117
G1 X82.797 Y51.716 E0.41255
G1 X81.384 Y53.128 E0.46803
G1 X81.180 Y52.773 E0.47942
G1 X82.592 Y51.361 E0.53490
G1 X82.387 Y51.006 E0.54628
G1 X80.975 Y52.418 E0.60176
G1 X80.770 Y52.064 E0.61314
G1 X82.182 Y50.651 E0.66862
G1 X81.977 Y50.296 E0.68000
G1 X80.565 Y51.709 E0.73548
G1 X80.360 Y51.354 E0.74686
G1 X81.772 Y49.942 E0.80234
G1 X81.568 Y49.587 E0.81372
G1 X80.155 Y50.999 E0.86920
G1 X79.950 Y50.644 E0.88058
G1 X81.363 Y49.232 E0.93606
G1 X81.158 Y48.877 E0.94745
G1 X79.746 Y50.289 E1.00293
G1 X79.541 Y49.935 E1.01431
G1 X80.953 Y48.522 E1.06979
G1 X80.748 Y48.167 E1.08117
G1 X79.336 Y49.580 E1.13665
G1 X79.131 Y49.225 E1.14803
G1 X80.543 Y47.813 E1.20351
G1 X80.338 Y47.458 E1.21489
G1 X78.926 Y48.870 E1.27037
G1 X78.721 Y48.515 E1.28175
G1 X80.133 Y47.103 E1.33723
G1 X79.929 Y46.748 E1.34862
G1 X78.516 Y48.160 E1.40410
G1 X78.311 Y47.805 E1.41548
G1 X79.724 Y46.393 E1.47096
G1 X79.519 Y46.038 E1.48234
G1 X78.107 Y47.451 E1.53782
G1 X77.902 Y47.096 E1.54920
G1 X79.314 Y45.684 E1.60468
G1 X79.109 Y45.329 E1.61606
G1 X77.697 Y46.741 E1.67154
G1 X77.492 Y46.386 E1.68292
G1 X78.904 Y44.974 E1.73840
G1 X78.699 Y44.619 E1.74978
G1 X77.287 Y46.031 E1.80526
G1 X77.082 Y45.676 E1.81665
G1 X78.495 Y44.264 E1.87213
G1 X78.290 Y43.909 E1.88351
G1 X76.877 Y45.322 E1.93899
G1 X76.673 Y44.967 E1.95037
G1 X78.085 Y43.554 E2.00585
G1 X77.880 Y43.200 E2.01723
G1 X76.468 Y44.612 E2.07271
G1 X76.263 Y44.257 E2.08409
G1 X77.675 Y42.845 E2.13957
G1 X77.470 Y42.490 E2.15095
G1 X76.058 Y43.902 E2.20643
G1 X75.853 Y43.547 E2.21782
G1 X77.265 Y42.135 E2.27330
G1 X77.060 Y41.780 E2.28468
G1 X75.648 Y43.193 E2.34016
G1 X75.443 Y42.838 E2.35154
G1 X76.856 Y41.425 E2.40702
G1 X76.651 Y41.071 E2.41840
G1 X75.238 Y42.483 E2.47388
G1 X75.034 Y42.128 E2.48526
G1 X76.446 Y40.716 E2.54074
G1 X76.241 Y40.361 E2.55212
G1 X74.829 Y41.773 E2.60760
G1 X74.624 Y41.418 E2.61899
G1 X76.036 Y40.006 E2.67447
G1 X75.831 Y39.651 E2.68585
G1 X74.419 Y41.063 E2.74133
G1 X74.214 Y40.709 E2.75271
G1 X75.626 Y39.296 E2.80819
G1 X75.422 Y38.942 E2.81957
G1 X74.009 Y40.354 E2.87505
G1 X73.804 Y39.999 E2.88643
G1 X75.217 Y38.587 E2.94191
G1 X75.012 Y38.232 E2.95329
G1 X73.600 Y39.644 E3.00877
G1 X73.395 Y39.289 E3.02015
G1 X74.807 Y37.877 E3.07563
G1 X74.602 Y37.522 E3.08702
G1 X73.190 Y38.934 E3.14250
G1 X72.985 Y38.580 E3.15388
G1 X74.397 Y37.167 E3.20936
G1 X74.192 Y36.812 E3.22074
G1 X72.780 Y38.225 E3.27622
G1 X72.575 Y37.870 E3.28760
G1 X73.987 Y36.458 E3.34308
G1 X73.783 Y36.103 E3.35446
G1 X72.370 Y37.515 E3.40994
G1 X72.165 Y37.160 E3.42132
G1 X73.578 Y35.748 E3.47680
G1 X73.373 Y35.393 E3.48819
G1 X71.961 Y36.805 E3.54367
G1 X71.756 Y36.451 E3.55505
G1 X73.168 Y35.038 E3.61053
G1 X72.963 Y34.683 E3.62191
G1 X71.551 Y36.096 E3.67739
G1 X71.346 Y35.741 E3.68877
G1 X72.758 Y34.329 E3.74425
G1 X72.553 Y33.974 E3.75563
G1 X71.141 Y35.386 E3.81111
G1 X70.936 Y35.031 E3.82249
G1 X72.349 Y33.619 E3.87797
G1 X72.144 Y33.264 E3.88935
G1 X70.731 Y34.676 E3.94484
G1 X70.526 Y34.322 E3.95622
G1 X71.939 Y32.909 E4.01170
G1 X71.734 Y32.554 E4.02308
G1 X70.322 Y33.967 E4.07856
G1 X70.117 Y33.612 E4.08994
G1 X71.529 Y32.200 E4.14542
G1 X71.333 Y31.859 E4.15634
G1 X71.279 Y31.890 E4.15807
G1 X69.912 Y33.257 E4.21176
G1 X69.707 Y32.902 E4.22314
G1 X70.283 Y32.326 E4.24577
G1 X69.605 Y32.547 E4.26557
G1 X69.502 Y32.547 E4.26843
G92 E0
G1 X39.259 Y31.859 F900.000
G1 F900
G1 X39.627 Y32.072 E0.01181
G1 X38.465 Y33.233 E0.05744
G1 X37.672 Y34.607 E0.10151
G1 X40.041 Y32.239 E0.19455
G1 X40.479 Y32.382 E0.20735
G1 X36.879 Y35.981 E0.34875
G1 X36.086 Y37.355 E0.39282
G1 X40.916 Y32.524 E0.58258
G1 X40.986 Y32.547 E0.58462
G1 X41.089 Y32.547 E0.58749
G1 X40.563 Y33.458 E0.61671
G1 X35.293 Y38.729 E0.82376
G1 X34.499 Y40.103 E0.86783
G1 X39.770 Y34.832 E1.07489
G1 X38.977 Y36.206 E1.11895
G1 X33.706 Y41.477 E1.32601
G1 X32.913 Y42.851 E1.37008
G1 X38.184 Y37.580 E1.57713
G1 X37.390 Y38.954 E1.62120
G1 X32.120 Y44.225 E1.82825
G1 X31.326 Y45.598 E1.87232
G1 X36.597 Y40.328 E2.07937
G1 X35.804 Y41.702 E2.12344
G1 X30.533 Y46.972 E2.33050
G1 X29.740 Y48.346 E2.37456
G1 X35.011 Y43.076 E2.58162
G1 X34.218 Y44.449 E2.62569
G1 X28.947 Y49.720 E2.83274
G1 X28.154 Y51.094 E2.87681
G1 X33.424 Y45.823 E3.08386
G1 X32.631 Y47.197 E3.12793
G1 X27.360 Y52.468 E3.33498
G1 X26.567 Y53.842 E3.37905
G1 X31.838 Y48.571 E3.58611
G1 X31.045 Y49.945 E3.63017
G1 X26.633 Y54.357 E3.80349
G1 X26.857 Y54.486 E3.81067
G1 X26.976 Y54.594 E3.81515
G1 X30.251 Y51.319 E3.94380
G1 X29.458 Y52.693 E3.98787
G1 X27.282 Y54.869 E4.07334
G1 X27.588 Y55.143 E4.08476
G1 X28.665 Y54.067 E4.12706
G1 X27.871 Y55.441 E4.17114
G92 E0
G1 X42.078 Y80.047 F900.000
G1 F900
G1 X42.130 Y80.137 E0.00287
G1 X42.203 Y80.483 E0.01271
G1 X42.639 Y80.047 E0.02984
G1 X43.200 Y80.047 E0.04542
G1 X42.301 Y80.946 E0.08075
G1 X42.397 Y81.411 E0.09392
G1 X43.761 Y80.047 E0.14748
G1 X44.322 Y80.047 E0.16306
G1 X42.397 Y81.976 E0.23875
G1 X42.953 Y81.976 E0.25420
G1 X44.883 Y80.047 E0.32999
G1 X45.443 Y80.047 E0.34557
G1 X43.514 Y81.976 E0.42136
G1 X44.075 Y81.976 E0.43694
G1 X46.004 Y80.047 E0.51272
G1 X46.565 Y80.047 E0.52830
G1 X44.636 Y81.976 E0.60409
G1 X45.197 Y81.976 E0.61967
G1 X47.126 Y80.047 E0.69546
G1 X47.687 Y80.047 E0.71104
G1 X45.758 Y81.976 E0.78683
G1 X46.319 Y81.976 E0.80241
G1 X48.248 Y80.047 E0.87819
G1 X48.809 Y80.047 E0.89378
G1 X46.880 Y81.976 E0.96956
G1 X47.441 Y81.976 E0.98514
G1 X49.370 Y80.047 E1.06093
G1 X49.931 Y80.047 E1.07651
G1 X48.001 Y81.976 E1.15230
G1 X48.562 Y81.976 E1.16788
G1 X50.492 Y80.047 E1.24367
G1 X51.053 Y80.047 E1.25925
G1 X49.123 Y81.976 E1.33503
G1 X49.684 Y81.976 E1.35061
G1 X51.613 Y80.047 E1.42640
G1 X52.174 Y80.047 E1.44198
G1 X50.245 Y81.976 E1.51777
G1 X50.806 Y81.976 E1.53335
G1 X52.735 Y80.047 E1.60914
G1 X53.296 Y80.047 E1.62472
G1 X51.367 Y81.976 E1.70050
G1 X51.928 Y81.976 E1.71609
G1 X53.857 Y80.047 E1.79187
G1 X54.418 Y80.047 E1.80745
G1 X52.489 Y81.976 E1.88324
G1 X53.050 Y81.976 E1.89882
G1 X54.979 Y80.047 E1.97461
G1 X55.540 Y80.047 E1.99019
G1 X53.610 Y81.976 E2.06598
G1 X54.171 Y81.976 E2.08156
G1 X56.101 Y80.047 E2.15734
G1 X56.662 Y80.047 E2.17292
G1 X54.732 Y81.976 E2.24871
G1 X55.293 Y81.976 E2.26429
G1 X57.222 Y80.047 E2.34008
G1 X57.783 Y80.047 E2.35566
G1 X55.854 Y81.976 E2.43145
G1 X56.415 Y81.976 E2.44703
G1 X58.344 Y80.047 E2.52281
G1 X58.905 Y80.047 E2.53839
G1 X56.976 Y81.976 E2.61418
G1 X57.537 Y81.976 E2.62976
G1 X59.466 Y80.047 E2.70555
G1 X60.027 Y80.047 E2.72113
G1 X58.098 Y81.976 E2.79692
G1 X58.659 Y81.976 E2.81250
G1 X60.588 Y80.047 E2.88829
G1 X61.149 Y80.047 E2.90387
G1 X59.220 Y81.976 E2.97965
G1 X59.780 Y81.976 E2.99523
G1 X61.710 Y80.047 E3.07102
G1 X62.271 Y80.047 E3.08660
G1 X60.341 Y81.976 E3.16239
G1 X60.902 Y81.976 E3.17797
G1 X62.831 Y80.047 E3.25376
G1 X63.392 Y80.047 E3.26934
G1 X61.463 Y81.976 E3.34512
G1 X62.024 Y81.976 E3.36070
G1 X63.953 Y80.047 E3.43649
G1 X64.514 Y80.047 E3.45207
G1 X62.585 Y81.976 E3.52786
G1 X63.146 Y81.976 E3.54344
G1 X65.075 Y80.047 E3.61923
G1 X65.636 Y80.047 E3.63481
G1 X63.707 Y81.976 E3.71060
G1 X64.268 Y81.976 E3.72618
G1 X66.197 Y80.047 E3.80196
G1 X66.758 Y80.047 E3.81754
G1 X64.829 Y81.976 E3.89333
G1 X65.389 Y81.976 E3.90891
G1 X67.319 Y80.047 E3.98470
G1 X67.880 Y80.047 E4.00028
G1 X65.950 Y81.976 E4.07607
G1 X66.511 Y81.976 E4.09165
G1 X68.440 Y80.047 E4.16743
G1 X68.513 Y80.047 E4.16946
G1 X68.462 Y80.137 E4.17233
G1 X68.341 Y80.707 E4.18853
G1 X67.072 Y81.976 E4.23839
G1 X67.633 Y81.976 E4.25397
G1 X68.194 Y81.415 E4.27601
G1 X68.194 Y81.976 E4.29159
G92 E0
G1 X71.229 Y99.122 F900.000
G1 X71.087 Y83.363 F900.000
G1 F900
G1 X81.949 Y89.634 E0.34839
G1 X71.087 Y95.905 E0.69679
G1 X71.087 Y83.450 E1.04277
G1 X71.479 Y84.043 F900.000
G1 F900
G1 X81.163 Y89.634 E1.35337
G1 X71.479 Y95.225 E1.66398
G1 X71.479 Y84.130 E1.97217
G1 X71.479 Y83.463 F900.000
G92 E0
G1 X71.584 Y80.515 F900.000
G1 F900
G1 X84.660 Y57.866 E0.72647
G1 X97.740 Y65.417 E1.14600
G1 X97.740 Y80.517 E1.56543
G1 X84.663 Y88.067 E1.98485
G1 X71.659 Y80.558 E2.40197
G1 X72.120 Y80.371 F900.000
G1 F900
G1 X84.804 Y58.402 E3.10662
G1 X97.347 Y65.644 E3.50894
G1 X97.347 Y80.290 E3.91578
G1 X84.663 Y87.613 E4.32261
G1 X72.195 Y80.415 E4.72251
G1 X71.575 Y80.173 F900.000
G92 E0
G1 X71.528 Y80.896 F900.000
G1 X84.962 Y57.628 F900.000
G1 X86.663 Y57.455 F900.000
G1 X86.663 Y56.300 F900.000
G1 X86.878 Y56.012 F900.000
G1 F900
G1 X97.740 Y49.741 E0.34839
G1 X97.740 Y62.283 E0.69679
G1 X86.953 Y56.055 E1.04277
G1 X87.663 Y56.012 F900.000
G1 F900
G1 X97.347 Y50.421 E1.35337
G1 X97.347 Y61.603 E1.66398
G1 X87.739 Y56.055 E1.97217
G1 X88.166 Y55.722 F900.000
G92 E0
G1 X97.954 Y49.369 F900.000
G1 F900
G1 X97.954 Y80.641 E0.86866
G1 X70.872 Y96.277 E1.73732
G1 X70.872 Y81.933 E2.13574
G1 X71.026 Y81.051 E2.16061
G1 X84.846 Y57.115 E2.92838
G1 X85.533 Y56.541 E2.95325
G1 X97.879 Y49.412 E3.34925
G1 X98.347 Y48.689 F900.000
G1 F900
G1 X98.347 Y80.867 E4.24310
G1 X70.479 Y96.957 E5.13695
G1 X70.479 Y81.899 E5.55521
G1 X70.651 Y80.915 E5.58296
G1 X84.541 Y56.858 E6.35459
G1 X85.307 Y56.217 E6.38234
G1 X98.272 Y48.732 E6.79818
G1 X98.151 Y49.235 F900.000
G92 E0
G1 X85.152 Y57.371 F900.000
G1 F900
G1 X85.759 Y56.864 E0.02196
G1 X86.663 Y56.341 E0.05098
G1 X86.718 Y56.373 E0.05274
G1 X85.306 Y57.785 E0.10822
G1 X85.666 Y57.993 E0.11978
G1 X87.079 Y56.581 E0.17526
G1 X87.439 Y56.789 E0.18683
G1 X86.027 Y58.202 E0.24231
G1 X86.387 Y58.410 E0.25387
G1 X87.800 Y56.997 E0.30935
G1 X88.160 Y57.206 E0.32091
G1 X86.748 Y58.618 E0.37639
G1 X87.108 Y58.826 E0.38795
G1 X88.520 Y57.414 E0.44343
G1 X88.881 Y57.622 E0.45499
G1 X87.469 Y59.034 E0.51047
G1 X87.829 Y59.242 E0.52203
G1 X89.241 Y57.830 E0.57751
G1 X89.602 Y58.038 E0.58908
G1 X88.190 Y59.450 E0.64456
G1 X88.550 Y59.658 E0.65612
G1 X89.962 Y58.246 E0.71160
G1 X90.323 Y58.454 E0.72316
G1 X88.910 Y59.866 E0.77864
G1 X89.271 Y60.075 E0.79020
G1 X90.683 Y58.662 E0.84568
G1 X91.044 Y58.870 E0.85724
G1 X89.631 Y60.283 E0.91272
G1 X89.992 Y60.491 E0.92429
G1 X91.404 Y59.078 E0.97977
G1 X91.765 Y59.287 E0.99133
G1 X90.352 Y60.699 E1.04681
G1 X90.713 Y60.907 E1.05837
G1 X92.125 Y59.495 E1.11385
G1 X92.486 Y59.703 E1.12541
G1 X91.073 Y61.115 E1.18089
G1 X91.434 Y61.323 E1.19245
G1 X92.846 Y59.911 E1.24793
G1 X93.206 Y60.119 E1.25949
G1 X91.794 Y61.531 E1.31498
G1 X92.155 Y61.739 E1.32654
G1 X93.567 Y60.327 E1.38202
G1 X93.927 Y60.535 E1.39358
G1 X92.515 Y61.948 E1.44906
G1 X92.876 Y62.156 E1.46062
G1 X94.288 Y60.743 E1.51610
G1 X94.648 Y60.951 E1.52766
G1 X93.236 Y62.364 E1.58314
G1 X93.596 Y62.572 E1.59470
G1 X95.009 Y61.160 E1.65018
G1 X95.369 Y61.368 E1.66175
G1 X93.957 Y62.780 E1.71723
G1 X94.317 Y62.988 E1.72879
G1 X95.730 Y61.576 E1.78427
G1 X96.090 Y61.784 E1.79583
G1 X94.678 Y63.196 E1.85131
G1 X95.038 Y63.404 E1.86287
G1 X96.451 Y61.992 E1.91835
G1 X96.811 Y62.200 E1.92991
G1 X95.399 Y63.612 E1.98539
G1 X95.759 Y63.821 E1.99695
G1 X97.171 Y62.408 E2.05244
G1 X97.532 Y62.616 E2.06400
G1 X96.120 Y64.029 E2.11948
G1 X96.480 Y64.237 E2.13104
G1 X97.562 Y63.155 E2.17352
G1 X97.562 Y63.724 E2.18932
G1 X96.841 Y64.445 E2.21764
G1 X97.201 Y64.653 E2.22920
G1 X97.562 Y64.292 E2.24337
G1 X97.561 Y64.861 E2.25916
G92 E0
G1 X96.597 Y63.190 F900.000
G1 X86.663 Y57.455 F900.000
G1 X84.962 Y57.628 F900.000
G1 X71.528 Y80.896 F900.000
G1 X72.229 Y82.455 F900.000
G1 X82.163 Y88.190 F900.000
G1 X84.092 Y88.191 F900.000
G1 F900
G1 X83.734 Y87.983 E0.01150
G1 X82.754 Y88.963 E0.05000
G1 X82.163 Y89.304 E0.06894
G1 X81.963 Y89.189 E0.07536
G1 X83.375 Y87.776 E0.13084
G1 X83.017 Y87.569 E0.14235
G1 X81.604 Y88.982 E0.19783
G1 X81.246 Y88.775 E0.20933
G1 X82.658 Y87.362 E0.26481
G1 X82.299 Y87.155 E0.27631
G1 X80.887 Y88.567 E0.33179
G1 X80.528 Y88.360 E0.34329
G1 X81.941 Y86.948 E0.39877
G1 X81.582 Y86.741 E0.41027
G1 X80.170 Y88.153 E0.46575
G1 X79.811 Y87.946 E0.47726
G1 X81.224 Y86.534 E0.53274
G1 X80.865 Y86.327 E0.54424
G1 X79.453 Y87.739 E0.59972
G1 X79.094 Y87.532 E0.61122
G1 X80.506 Y86.120 E0.66670
G1 X80.148 Y85.913 E0.67820
G1 X78.736 Y87.325 E0.73368
G1 X78.377 Y87.118 E0.74518
G1 X79.789 Y85.706 E0.80066
G1 X79.431 Y85.499 E0.81217
G1 X78.018 Y86.911 E0.86765
G1 X77.660 Y86.704 E0.87915
G1 X79.072 Y85.292 E0.93463
G1 X78.713 Y85.085 E0.94613
G1 X77.301 Y86.497 E1.00161
G1 X76.943 Y86.290 E1.01311
G1 X78.355 Y84.878 E1.06859
G1 X77.996 Y84.671 E1.08009
G1 X76.584 Y86.083 E1.13557
G1 X76.225 Y85.876 E1.14708
G1 X77.638 Y84.464 E1.20256
G1 X77.279 Y84.257 E1.21406
G1 X75.867 Y85.669 E1.26954
G1 X75.508 Y85.462 E1.28104
G1 X76.920 Y84.050 E1.33652
G1 X76.562 Y83.843 E1.34802
G1 X75.150 Y85.255 E1.40350
G1 X74.791 Y85.048 E1.41500
G1 X76.203 Y83.636 E1.47048
G1 X75.845 Y83.429 E1.48199
G1 X74.432 Y84.841 E1.53747
G1 X74.074 Y84.634 E1.54897
G1 X75.486 Y83.222 E1.60445
G1 X75.127 Y83.014 E1.61595
G1 X73.715 Y84.427 E1.67143
G1 X73.357 Y84.220 E1.68293
G1 X74.769 Y82.807 E1.73841
G1 X74.410 Y82.600 E1.74991
G1 X72.998 Y84.013 E1.80539
G1 X72.639 Y83.806 E1.81689
G1 X74.052 Y82.393 E1.87237
G1 X73.693 Y82.186 E1.88388
G1 X72.281 Y83.599 E1.93936
G1 X71.922 Y83.392 E1.95086
G1 X73.335 Y81.979 E2.00634
G1 X72.976 Y81.772 E2.01784
G1 X71.564 Y83.185 E2.07332
G1 X71.265 Y83.012 E2.08290
G1 X71.265 Y82.918 E2.08552
G1 X72.617 Y81.565 E2.13866
G1 X72.259 Y81.358 E2.15016
G1 X71.265 Y82.352 E2.18920
G1 X71.265 Y81.967 E2.19989
G1 X71.303 Y81.748 E2.20607
G1 X71.900 Y81.151 E2.22952
G1 X71.542 Y80.944 E2.24102
G92 E0
G1 X39.362 Y99.122 F900.000
G1 X39.505 Y83.363 F900.000
G1 F900
G1 X39.505 Y95.905 E0.34839
G1 X28.643 Y89.634 E0.69679
G1 X39.429 Y83.406 E1.04277
G1 X39.112 Y84.043 F900.000
G1 F900
G1 X39.112 Y95.225 E1.35337
G1 X29.428 Y89.634 E1.66398
G1 X39.037 Y84.086 E1.97217
G1 X39.683 Y83.942 F900.000
G92 E0
G1 X39.008 Y80.515 F900.000
G1 F900
G1 X25.928 Y88.067 E0.41953
G1 X12.852 Y80.517 E0.83896
G1 X12.852 Y65.417 E1.25838
G1 X25.931 Y57.866 E1.67791
G1 X38.964 Y80.440 E2.40197
G1 X38.471 Y80.371 F900.000
G1 F900
G1 X25.928 Y87.613 E2.80429
G1 X13.244 Y80.290 E3.21112
G1 X13.244 Y65.644 E3.61795
G1 X25.788 Y58.402 E4.02028
G1 X38.428 Y80.296 E4.72252
G1 X38.837 Y80.821 F900.000
G92 E0
G1 X39.063 Y80.896 F900.000
G1 X25.629 Y57.628 F900.000
G1 X23.928 Y57.455 F900.000
G1 X23.928 Y56.300 F900.000
G1 X23.714 Y56.012 F900.000
G1 F900
G1 X12.852 Y62.283 E0.34839
G1 X12.852 Y49.741 E0.69679
G1 X23.638 Y55.968 E1.04277
G1 X22.928 Y56.012 F900.000
G1 F900
G1 X13.244 Y61.603 E1.35337
G1 X13.244 Y50.421 E1.66398
G1 X22.853 Y55.968 E1.97217
G1 X23.430 Y56.302 F900.000
G92 E0
G1 X12.637 Y49.369 F900.000
G1 F900
G1 X25.059 Y56.541 E0.39842
G1 X25.746 Y57.115 E0.42329
G1 X39.565 Y81.051 E1.19106
G1 X39.719 Y81.933 E1.21593
G1 X39.719 Y96.277 E1.61435
G1 X12.637 Y80.641 E2.48301
G1 X12.637 Y49.456 E3.34925
G1 X12.244 Y48.689 F900.000
G1 F900
G1 X25.284 Y56.217 E3.76751
G1 X26.051 Y56.858 E3.79526
G1 X39.940 Y80.915 E4.56689
G1 X40.112 Y81.899 E4.59464
G1 X40.112 Y96.957 E5.01290
G1 X12.244 Y80.867 E5.90675
G1 X12.244 Y48.776 E6.79818
G1 X12.689 Y49.062 F900.000
G92 E0
G1 X13.030 Y62.633 F900.000
G1 F900
G1 X14.401 Y61.842 E0.04397
G1 X13.030 Y63.213 E0.09784
G1 X13.030 Y63.792 E0.11393
G1 X15.772 Y61.050 E0.22165
G1 X17.143 Y60.259 E0.26562
G1 X13.030 Y64.372 E0.42719
G1 X13.030 Y64.861 E0.44078
G1 X13.243 Y64.738 E0.44761
G1 X18.514 Y59.467 E0.65467
G1 X19.884 Y58.676 E0.69864
G1 X14.614 Y63.947 E0.90569
G1 X15.985 Y63.155 E0.94966
G1 X21.255 Y57.885 E1.15672
G1 X22.626 Y57.093 E1.20069
G1 X17.355 Y62.364 E1.40774
G1 X18.726 Y61.572 E1.45171
G1 X23.947 Y56.352 E1.65679
G1 X24.314 Y56.564 E1.66857
G1 X20.097 Y60.781 E1.83422
G1 X21.468 Y59.989 E1.87819
G1 X24.681 Y56.776 E2.00443
G1 X24.833 Y56.864 E2.00929
G1 X25.018 Y57.019 E2.01600
G1 X22.839 Y59.198 E2.10161
G1 X24.210 Y58.406 E2.14558
G1 X25.334 Y57.282 E2.18974
G1 X25.440 Y57.371 E2.19360
G1 X25.580 Y57.615 E2.20141
G92 E0
G1 X39.063 Y80.896 F900.000
G1 X38.362 Y82.455 F900.000
G1 X39.326 Y83.012 F900.000
G1 F900
G1 X39.327 Y82.424 E0.01635
G1 X37.934 Y83.816 E0.07105
G1 X36.542 Y84.620 E0.11571
G1 X39.307 Y81.855 E0.22432
G1 X39.219 Y81.354 E0.23845
G1 X35.150 Y85.423 E0.39832
G1 X33.758 Y86.227 E0.44297
G1 X39.028 Y80.956 E0.65003
G1 X37.636 Y81.760 E0.69468
G1 X32.366 Y87.031 E0.90174
G1 X30.973 Y87.835 E0.94639
G1 X36.244 Y82.564 E1.15344
G1 X34.852 Y83.368 E1.19809
G1 X29.581 Y88.638 E1.40515
G1 X28.428 Y89.304 E1.44214
G1 X28.364 Y89.267 E1.44419
G1 X33.460 Y84.171 E1.64437
G1 X32.068 Y84.975 E1.68902
G1 X27.991 Y89.052 E1.84917
G1 X27.618 Y88.837 E1.86114
G1 X30.676 Y85.779 E1.98125
G1 X29.284 Y86.583 E2.02590
G1 X27.245 Y88.621 E2.10598
G1 X26.872 Y88.406 E2.11795
G1 X27.891 Y87.386 E2.15799
G1 X26.499 Y88.190 E2.20264
G92 E0
G1 X25.928 Y20.658 F900.000
G1 X42.219 Y29.654 F900.000
G1 F900
G1 X42.219 Y14.551 E0.41953
G1 X55.296 Y7.002 E0.83896
G1 X68.372 Y14.551 E1.25839
G1 X68.372 Y29.654 E1.67791
G1 X42.306 Y29.654 E2.40197
G1 X42.612 Y29.262 F900.000
G1 F900
G1 X42.612 Y14.778 E2.80429
G1 X55.296 Y7.455 E3.21112
G1 X67.979 Y14.778 E3.61796
G1 X67.979 Y29.262 E4.02028
G1 X42.699 Y29.262 E4.72252
G1 X42.041 Y29.362 F900.000
G92 E0
G1 X39.505 Y28.661 F900.000
G1 F900
G1 X28.643 Y22.390 E0.34839
G1 X39.505 Y16.119 E0.69679
G1 X39.505 Y28.574 E1.04277
G1 X39.112 Y27.981 F900.000
G1 F900
G1 X29.428 Y22.390 E1.35337
G1 X39.112 Y16.799 E1.66398
G1 X39.112 Y27.894 E1.97217
G1 X39.090 Y28.560 F900.000
G92 E0
G1 X39.862 Y28.702 F900.000
G1 X40.862 Y28.125 F900.000
G1 X41.862 Y29.512 F900.000
G1 X68.729 Y29.512 F900.000
G1 X69.729 Y28.125 F900.000
G1 X70.729 Y28.702 F900.000
G1 X71.087 Y28.661 F900.000
G1 F900
G1 X71.087 Y16.119 E0.34839
G1 X81.949 Y22.390 E0.69679
G1 X71.162 Y28.617 E1.04277
G1 X71.479 Y27.981 F900.000
G1 F900
G1 X71.479 Y16.799 E1.35337
G1 X81.163 Y22.390 E1.66398
G1 X71.555 Y27.937 E1.97217
G1 X70.977 Y28.271 F900.000
G92 E0
G1 X82.378 Y22.390 F900.000
G1 F900
G1 X69.956 Y29.561 E0.39842
G1 X69.116 Y29.869 E0.42329
G1 X41.476 Y29.869 E1.19106
G1 X40.635 Y29.561 E1.21593
G1 X28.214 Y22.390 E1.61435
G1 X55.296 Y6.754 E2.48301
G1 X82.302 Y22.346 E3.34925
G1 X83.163 Y22.390 F900.000
G1 F900
G1 X70.123 Y29.918 E3.76751
G1 X69.185 Y30.262 E3.79526
G1 X41.406 Y30.262 E4.56689
G1 X40.468 Y29.918 E4.59464
G1 X27.428 Y22.390 E5.01290
G1 X55.296 Y6.300 E5.90675
G1 X83.088 Y22.346 E6.79818
G1 X82.592 Y22.490 F900.000
G92 E0
G1 X70.694 Y28.682 F900.000
G1 F900
G1 X70.694 Y28.124 E0.01551
G1 X69.512 Y29.306 E0.06195
G1 X69.046 Y29.476 E0.07574
G1 X68.783 Y29.476 E0.08303
G1 X70.694 Y27.566 E0.15810
G1 X70.694 Y27.007 E0.17360
G1 X68.765 Y28.937 E0.24939
G1 X68.765 Y28.379 E0.26489
G1 X70.694 Y26.449 E0.34068
G1 X70.694 Y25.891 E0.35618
G1 X68.765 Y27.820 E0.43197
G1 X68.765 Y27.262 E0.44747
G1 X70.694 Y25.333 E0.52326
G1 X70.694 Y24.775 E0.53876
G1 X68.765 Y26.704 E0.61455
G1 X68.765 Y26.146 E0.63005
G1 X70.694 Y24.217 E0.70584
G1 X70.694 Y23.659 E0.72134
G1 X68.765 Y25.588 E0.79713
G1 X68.765 Y25.030 E0.81263
G1 X70.694 Y23.101 E0.88842
G1 X70.694 Y22.543 E0.90392
G1 X68.765 Y24.472 E0.97971
G1 X68.765 Y23.914 E0.99521
G1 X70.694 Y21.984 E1.07100
G1 X70.694 Y21.426 E1.08650
G1 X68.765 Y23.356 E1.16229
G1 X68.765 Y22.797 E1.17779
G1 X70.694 Y20.868 E1.25358
G1 X70.694 Y20.310 E1.26908
G1 X68.765 Y22.239 E1.34487
G1 X68.765 Y21.681 E1.36037
G1 X70.694 Y19.752 E1.43616
G1 X70.694 Y19.194 E1.45166
G1 X68.765 Y21.123 E1.52745
G1 X68.765 Y20.565 E1.54295
G1 X70.694 Y18.636 E1.61874
G1 X70.694 Y18.078 E1.63424
G1 X68.765 Y20.007 E1.71003
G1 X68.765 Y19.449 E1.72553
G1 X70.694 Y17.520 E1.80132
G1 X70.694 Y16.961 E1.81682
G1 X68.765 Y18.891 E1.89261
G1 X68.765 Y18.333 E1.90811
G1 X70.694 Y16.403 E1.98390
G1 X70.694 Y16.098 E1.99239
G1 X70.534 Y16.005 E1.99752
G1 X68.765 Y17.774 E2.06703
G1 X68.765 Y17.216 E2.08253
G1 X70.180 Y15.801 E2.13813
G1 X69.826 Y15.597 E2.14948
G1 X68.765 Y16.658 E2.19119
G1 X68.765 Y16.100 E2.20669
G1 X69.473 Y15.392 E2.23449
G1 X69.119 Y15.188 E2.24584
G1 X68.765 Y15.542 E2.25975
G1 X68.765 Y14.984 E2.27525
G92 E0
G1 X69.729 Y16.655 F900.000
G1 X69.729 Y28.125 F900.000
G1 X68.729 Y29.512 F900.000
G1 X41.862 Y29.512 F900.000
G1 X40.862 Y28.125 F900.000
G1 X40.862 Y16.655 F900.000
G1 X39.898 Y16.097 F900.000
G1 F900
G1 X41.239 Y15.323 E0.04303
G1 X39.897 Y16.665 E0.09574
G1 X39.897 Y17.232 E0.11149
G1 X41.827 Y15.302 E0.18727
G1 X41.827 Y15.869 E0.20302
G1 X39.897 Y17.799 E0.27881
G1 X39.897 Y18.366 E0.29456
G1 X41.827 Y16.436 E0.37035
G1 X41.827 Y17.003 E0.38609
G1 X39.897 Y18.933 E0.46188
G1 X39.897 Y19.499 E0.47763
G1 X41.827 Y17.570 E0.55342
G1 X41.827 Y18.137 E0.56917
G1 X39.897 Y20.066 E0.64495
G1 X39.897 Y20.633 E0.66070
G1 X41.827 Y18.704 E0.73649
G1 X41.827 Y19.271 E0.75224
G1 X39.897 Y21.200 E0.82802
G1 X39.897 Y21.767 E0.84377
G1 X41.827 Y19.838 E0.91956
G1 X41.827 Y20.405 E0.93531
G1 X39.897 Y22.334 E1.01110
G1 X39.897 Y22.901 E1.02685
G1 X41.827 Y20.972 E1.10263
G1 X41.827 Y21.539 E1.11838
G1 X39.897 Y23.468 E1.19417
G1 X39.897 Y24.035 E1.20992
G1 X41.827 Y22.106 E1.28570
G1 X41.827 Y22.673 E1.30145
G1 X39.897 Y24.602 E1.37724
G1 X39.897 Y25.169 E1.39299
G1 X41.827 Y23.240 E1.46878
G1 X41.827 Y23.807 E1.48452
G1 X39.897 Y25.736 E1.56031
G1 X39.897 Y26.303 E1.57606
G1 X41.827 Y24.374 E1.65185
G1 X41.827 Y24.941 E1.66760
G1 X39.897 Y26.870 E1.74338
G1 X39.897 Y27.437 E1.75913
G1 X41.827 Y25.508 E1.83492
G1 X41.827 Y26.075 E1.85067
G1 X39.897 Y28.004 E1.92645
G1 X39.897 Y28.571 E1.94220
G1 X41.827 Y26.641 E2.01799
G1 X41.827 Y27.208 E2.03374
G1 X40.186 Y28.849 E2.09818
G1 X40.546 Y29.056 E2.10971
G1 X41.827 Y27.775 E2.16002
G1 X41.827 Y28.342 E2.17577
G1 X40.921 Y29.248 E2.21134
G1 X41.336 Y29.400 E2.22362
G1 X41.827 Y28.909 E2.24289
G1 X41.826 Y29.476 E2.25864
G1 Z-149.000 F900.000
G92 E0
G1 X39.362 Y99.122 F900.000
G1 X68.372 Y82.369 F900.000
G1 F900
G1 X68.372 Y97.472 E0.41953
G1 X55.296 Y105.022 E0.83896
G1 X42.219 Y97.472 E1.25839
G1 X42.219 Y82.369 E1.67792
G1 X68.285 Y82.369 E2.40197
G1 X67.979 Y82.762 F900.000
G1 F900
G1 X67.979 Y97.245 E2.80429
G1 X55.296 Y104.568 E3.21112
G1 X42.612 Y97.245 E3.61796
G1 X42.612 Y82.762 E4.02028
G1 X67.892 Y82.762 E4.72252
G1 X68.551 Y82.662 F900.000
G1 X68.587 Y82.154 F900.000
G1 F900
G1 X68.587 Y97.596 E5.15145
G1 X55.296 Y105.270 E5.57776
G1 X42.005 Y97.596 E6.00407
G1 X42.005 Y82.154 E6.43300
G1 X68.500 Y82.154 E7.16898
G1 X68.979 Y81.762 F900.000
G1 F900
G1 X68.979 Y97.823 E7.61512
G1 X55.296 Y105.723 E8.05402
G1 X41.612 Y97.823 E8.49293
G1 X41.612 Y81.762 E8.93907
G1 X68.892 Y81.762 E9.69686
G1 X68.782 Y82.307 F900.000
G92 E0
G1 X39.362 Y99.122 F900.000
G1 X39.505 Y83.363 F900.000
G1 F900
G1 X39.505 Y95.905 E0.34839
G1 X28.643 Y89.634 E0.69679
G1 X39.429 Y83.406 E1.04277
G1 X39.112 Y84.043 F900.000
G1 F900
G1 X39.112 Y95.225 E1.35337
G1 X29.428 Y89.634 E1.66398
G1 X39.037 Y84.086 E1.97217
G1 X39.683 Y83.942 F900.000
G1 X39.719 Y82.991 F900.000
G1 F900
G1 X39.719 Y96.277 E2.34121
G1 X28.214 Y89.634 E2.71026
G1 X39.644 Y83.034 E3.07688
G1 X40.112 Y82.311 F900.000
G1 F900
G1 X40.112 Y96.957 E3.48372
G1 X27.428 Y89.634 E3.89055
G1 X40.037 Y82.354 E4.29496
G1 X39.610 Y82.021 F900.000
G92 E0
G1 X9.994 Y82.166 F900.000
G1 X39.008 Y80.515 F900.000
G1 F900
G1 X25.928 Y88.067 E0.41953
G1 X12.852 Y80.517 E0.83896
G1 X12.852 Y65.417 E1.25838
G1 X25.931 Y57.866 E1.67791
G1 X38.964 Y80.440 E2.40197
G1 X38.471 Y80.371 F900.000
G1 F900
G1 X25.928 Y87.613 E2.80429
G1 X13.244 Y80.290 E3.21112
G1 X13.244 Y65.644 E3.61795
G1 X25.788 Y58.402 E4.02028
G1 X38.428 Y80.296 E4.72252
G1 X38.826 Y80.830 F900.000
G1 X39.301 Y80.594 F900.000
G1 F900
G1 X25.928 Y88.314 E5.15145
G1 X12.637 Y80.641 E5.57776
G1 X12.637 Y65.294 E6.00407
G1 X26.010 Y57.573 E6.43300
G1 X39.257 Y80.518 E7.16898
G1 X39.837 Y80.737 F900.000
G1 F900
G1 X25.928 Y88.768 E7.61512
G1 X12.244 Y80.867 E8.05402
G1 X12.244 Y65.067 E8.49293
G1 X26.154 Y57.036 E8.93907
G1 X39.794 Y80.662 E9.69686
G1 X39.257 Y80.737 F900.000
G92 E0
G1 X100.597 Y29.857 F900.000
G1 X23.714 Y56.012 F900.000
G1 F900
G1 X12.852 Y62.283 E0.34839
G1 X12.852 Y49.741 E0.69679
G1 X23.638 Y55.968 E1.04277
G1 X22.928 Y56.012 F900.000
G1 F900
G1 X13.244 Y61.603 E1.35337
G1 X13.244 Y50.421 E1.66398
G1 X22.853 Y55.968 E1.97217
G1 X23.430 Y56.302 F900.000
G1 X24.143 Y56.012 F900.000
G1 F900
G1 X12.637 Y62.655 E2.34121
G1 X12.637 Y49.369 E2.71026
G1 X24.067 Y55.968 E3.07688
G1 X24.928 Y56.012 F900.000
G1 F900
G1 X12.244 Y63.335 E3.48372
G1 X12.244 Y48.689 E3.89055
G1 X24.853 Y55.968 E4.29496
G1 X24.357 Y56.112 F900.000
G92 E0
G1 X25.928 Y20.658 F900.000
G1 X25.931 Y54.158 F900.000
G1 F900
G1 X12.852 Y46.606 E0.41953
G1 X12.852 Y31.507 E0.83896
G1 X25.928 Y23.957 E1.25838
G1 X39.008 Y31.509 E1.67791
G1 X25.975 Y54.082 E2.40197
G1 X25.788 Y53.621 F900.000
G1 F900
G1 X13.244 Y46.379 E2.80429
G1 X13.244 Y31.733 E3.21112
G1 X25.928 Y24.410 E3.61795
G1 X38.471 Y31.652 E4.02028
G1 X25.831 Y53.546 E4.72252
G1 X25.588 Y54.166 F900.000
G1 X26.010 Y54.451 F900.000
G1 F900
G1 X12.637 Y46.730 E5.15145
G1 X12.637 Y31.383 E5.57776
G1 X25.928 Y23.709 E6.00407
G1 X39.301 Y31.430 E6.43300
G1 X26.053 Y54.375 E7.16898
G1 X26.154 Y54.987 F900.000
G1 F900
G1 X12.244 Y46.957 E7.61512
G1 X12.244 Y31.156 E8.05402
G1 X25.928 Y23.256 E8.49293
G1 X39.837 Y31.286 E8.93907
G1 X26.197 Y54.912 E9.69686
G1 X25.853 Y54.491 F900.000
G92 E0
G1 X25.928 Y20.658 F900.000
G1 X39.505 Y28.661 F900.000
G1 F900
G1 X28.643 Y22.390 E0.34839
G1 X39.505 Y16.119 E0.69679
G1 X39.505 Y28.574 E1.04277
G1 X39.112 Y27.981 F900.000
G1 F900
G1 X29.428 Y22.390 E1.35337
G1 X39.112 Y16.799 E1.66398
G1 X39.112 Y27.894 E1.97217
G1 X39.061 Y28.558 F900.000
G1 X39.719 Y29.033 F900.000
G1 F900
G1 X28.214 Y22.390 E2.34121
G1 X39.719 Y15.747 E2.71026
G1 X39.719 Y28.946 E3.07688
G1 X40.112 Y29.713 F900.000
G1 F900
G1 X27.428 Y22.390 E3.48372
G1 X40.112 Y15.067 E3.89055
G1 X40.112 Y29.626 E4.29496
G1 X40.614 Y29.423 F900.000
G92 E0
G1 X55.296 Y3.702 F900.000
G1 X42.219 Y29.654 F900.000
G1 F900
G1 X42.219 Y14.551 E0.41953
G1 X55.296 Y7.002 E0.83896
G1 X68.372 Y14.551 E1.25839
G1 X68.372 Y29.654 E1.67791
G1 X42.306 Y29.654 E2.40197
G1 X42.612 Y29.262 F900.000
G1 F900
G1 X42.612 Y14.778 E2.80429
G1 X55.296 Y7.455 E3.21112
G1 X67.979 Y14.778 E3.61796
G1 X67.979 Y29.262 E4.02028
G1 X42.699 Y29.262 E4.72252
G1 X42.041 Y29.362 F900.000
G1 X42.005 Y29.869 F900.000
G1 F900
G1 X42.005 Y14.427 E5.15145
G1 X55.296 Y6.754 E5.57776
G1 X68.587 Y14.427 E6.00407
G1 X68.587 Y29.869 E6.43300
G1 X42.092 Y29.869 E7.16898
G1 X41.612 Y30.262 F900.000
G1 F900
G1 X41.612 Y14.201 E7.61512
G1 X55.296 Y6.300 E8.05402
G1 X68.979 Y14.201 E8.49293
G1 X68.979 Y30.262 E8.93907
G1 X41.699 Y30.262 E9.69686
G1 X41.809 Y29.716 F900.000
G92 E0
G1 X71.229 Y12.902 F900.000
G1 X71.087 Y28.661 F900.000
G1 F900
G1 X71.087 Y16.119 E0.34839
G1 X81.949 Y22.390 E0.69679
G1 X71.162 Y28.617 E1.04277
G1 X71.479 Y27.981 F900.000
G1 F900
G1 X71.479 Y16.799 E1.35337
G1 X81.163 Y22.390 E1.66398
G1 X71.555 Y27.937 E1.97217
G1 X70.977 Y28.271 F900.000
G1 X70.872 Y29.033 F900.000
G1 F900
G1 X70.872 Y15.747 E2.34121
G1 X82.378 Y22.390 E2.71026
G1 X70.947 Y28.989 E3.07688
G1 X70.479 Y29.713 F900.000
G1 F900
G1 X70.479 Y15.067 E3.48372
G1 X83.163 Y22.390 E3.89055
G1 X70.555 Y29.669 E4.29496
G1 X70.636 Y29.154 F900.000
G92 E0
G1 X95.492 Y26.910 F900.000
G1 X71.584 Y31.509 F900.000
G1 F900
G1 X84.663 Y23.957 E0.41953
G1 X97.740 Y31.507 E0.83896
G1 X97.740 Y46.606 E1.25838
G1 X84.660 Y54.158 E1.67791
G1 X71.627 Y31.584 E2.40197
G1 X72.120 Y31.652 F900.000
G1 F900
G1 X84.663 Y24.410 E2.80429
G1 X97.347 Y31.733 E3.21112
G1 X97.347 Y46.379 E3.61795
G1 X84.804 Y53.621 E4.02028
G1 X72.163 Y31.728 E4.72251
G1 X71.748 Y31.207 F900.000
G1 X71.290 Y31.430 F900.000
G1 F900
G1 X84.663 Y23.709 E5.15145
G1 X97.954 Y31.383 E5.57776
G1 X97.954 Y46.730 E6.00407
G1 X84.581 Y54.451 E6.43300
G1 X71.334 Y31.505 E7.16898
G1 X70.754 Y31.286 F900.000
G1 F900
G1 X84.663 Y23.256 E7.61512
G1 X98.347 Y31.156 E8.05402
G1 X98.347 Y46.957 E8.49293
G1 X84.438 Y54.987 E8.93907
G1 X70.797 Y31.362 E9.69686
G1 X71.325 Y31.184 F900.000
G92 E0
G1 X100.597 Y63.768 F900.000
G1 X86.878 Y56.012 F900.000
G1 F900
G1 X97.740 Y49.741 E0.34839
G1 X97.740 Y62.283 E0.69679
G1 X86.953 Y56.055 E1.04277
G1 X87.663 Y56.012 F900.000
G1 F900
G1 X97.347 Y50.421 E1.35337
G1 X97.347 Y61.603 E1.66398
G1 X87.739 Y56.055 E1.97217
G1 X88.166 Y55.722 F900.000
G1 X86.449 Y56.012 F900.000
G1 F900
G1 X97.954 Y49.369 E2.34121
G1 X97.954 Y62.655 E2.71026
G1 X86.524 Y56.055 E3.07688
G1 X85.663 Y56.012 F900.000
G1 F900
G1 X98.347 Y48.689 E3.48372
G1 X98.347 Y63.335 E3.89055
G1 X85.739 Y56.055 E4.29496
G1 X85.663 Y56.592 F900.000
G92 E0
G1 X100.597 Y82.166 F900.000
G1 X84.660 Y57.866 F900.000
G1 F900
G1 X97.740 Y65.417 E0.41953
G1 X97.740 Y80.517 E0.83896
G1 X84.663 Y88.067 E1.25838
G1 X71.584 Y80.515 E1.67791
G1 X84.617 Y57.941 E2.40197
G1 X84.804 Y58.402 F900.000
G1 F900
G1 X97.347 Y65.644 E2.80429
G1 X97.347 Y80.290 E3.21112
G1 X84.663 Y87.613 E3.61795
G1 X72.120 Y80.371 E4.02028
G1 X84.760 Y58.478 E4.72251
G1 X85.094 Y57.900 F900.000
G1 X84.581 Y57.573 F900.000
G1 F900
G1 X97.954 Y65.294 E5.15145
G1 X97.954 Y80.641 E5.57776
G1 X84.663 Y88.314 E6.00407
G1 X71.290 Y80.594 E6.43300
G1 X84.538 Y57.648 E7.16898
G1 X84.438 Y57.036 F900.000
G1 F900
G1 X98.347 Y65.067 E7.61512
G1 X98.347 Y80.867 E8.05402
G1 X84.663 Y88.768 E8.49293
G1 X70.754 Y80.737 E8.93907
G1 X84.394 Y57.112 E9.69686
G1 X84.812 Y57.480 F900.000
G92 E0
G1 X84.663 Y91.366 F900.000
G1 X71.087 Y83.363 F900.000
G1 F900
G1 X81.949 Y89.634 E0.34839
G1 X71.087 Y95.905 E0.69679
G1 X71.087 Y83.450 E1.04277
G1 X71.479 Y84.043 F900.000
G1 F900
G1 X81.163 Y89.634 E1.35337
G1 X71.479 Y95.225 E1.66398
G1 X71.479 Y84.130 E1.97217
G1 X71.479 Y83.463 F900.000
G1 X70.872 Y82.991 F900.000
G1 F900
G1 X82.378 Y89.634 E2.34121
G1 X70.872 Y96.277 E2.71026
G1 X70.872 Y83.078 E3.07688
G1 X70.479 Y82.311 F900.000
G1 F900
G1 X83.163 Y89.634 E3.48372
G1 X70.479 Y96.957 E3.89055
G1 X70.479 Y82.398 E4.29496
G1 X69.977 Y82.601 F900.000
G92 E0
G1 X55.296 Y3.702 F900.000
G1 X68.946 Y79.654 F900.000
G1 F900
G1 X41.646 Y79.654 E0.75834
G1 X27.995 Y56.012 E1.51668
G1 X41.646 Y32.369 E2.27502
G1 X68.946 Y32.369 E3.03336
G1 X82.596 Y56.012 E3.79170
G1 X68.989 Y79.579 E4.54762
G1 X68.719 Y79.262 F900.000
G1 F900
G1 X41.872 Y79.262 E5.29337
G1 X28.449 Y56.012 E6.03911
G1 X41.872 Y32.762 E6.78486
G1 X68.719 Y32.762 E7.53060
G1 X82.142 Y56.012 E8.27634
G1 X68.763 Y79.186 E9.01967
G1 X68.719 Y79.842 F900.000
G1 X69.070 Y79.869 F900.000
G1 F900
G1 X41.522 Y79.869 E9.78489
G1 X27.748 Y56.012 E10.55012
G1 X41.522 Y32.154 E11.31534
G1 X69.070 Y32.154 E12.08056
G1 X82.844 Y56.012 E12.84579
G1 X69.113 Y79.794 E13.60859
G1 X69.296 Y80.262 F900.000
G1 F900
G1 X41.295 Y80.262 E14.38641
G1 X27.294 Y56.012 E15.16423
G1 X41.295 Y31.762 E15.94205
G1 X69.296 Y31.762 E16.71987
G1 X83.297 Y56.012 E17.49769
G1 X69.340 Y80.186 E18.27309
G1 X68.797 Y79.967 F900.000
G1 Z-148.500 F900.000
G92 E0
G1 X39.362 Y99.122 F900.000
G1 X68.372 Y82.369 F900.000
G1 F900
G1 X68.372 Y97.472 E0.41953
G1 X55.296 Y105.022 E0.83896
G1 X42.219 Y97.472 E1.25839
G1 X42.219 Y82.369 E1.67792
G1 X68.285 Y82.369 E2.40197
G1 X67.979 Y82.762 F900.000
G1 F900
G1 X67.979 Y97.245 E2.80429
G1 X55.296 Y104.568 E3.21112
G1 X42.612 Y97.245 E3.61796
G1 X42.612 Y82.762 E4.02028
G1 X67.892 Y82.762 E4.72252
G1 X68.551 Y82.662 F900.000
G1 X68.587 Y82.154 F900.000
G1 F900
G1 X68.587 Y97.596 E5.15145
G1 X55.296 Y105.270 E5.57776
G1 X42.005 Y97.596 E6.00407
G1 X42.005 Y82.154 E6.43300
G1 X68.500 Y82.154 E7.16898
G1 X68.979 Y81.762 F900.000
G1 F900
G1 X68.979 Y97.823 E7.61512
G1 X55.296 Y105.723 E8.05402
G1 X41.612 Y97.823 E8.49293
G1 X41.612 Y81.762 E8.93907
G1 X68.892 Y81.762 E9.69686
G1 X68.782 Y82.307 F900.000
G92 E0
G1 X71.229 Y99.122 F900.000
G1 X71.087 Y83.363 F900.000
G1 F900
G1 X81.949 Y89.634 E0.34839
G1 X71.087 Y95.905 E0.69679
G1 X71.087 Y83.450 E1.04277
G1 X71.479 Y84.043 F900.000
G1 F900
G1 X81.163 Y89.634 E1.35337
G1 X71.479 Y95.225 E1.66398
G1 X71.479 Y84.130 E1.97217
G1 X71.479 Y83.463 F900.000
G1 X70.872 Y82.991 F900.000
G1 F900
G1 X82.378 Y89.634 E2.34121
G1 X70.872 Y96.277 E2.71026
G1 X70.872 Y83.078 E3.07688
G1 X70.479 Y82.311 F900.000
G1 F900
G1 X83.163 Y89.634 E3.48372
G1 X70.479 Y96.957 E3.89055
G1 X70.479 Y82.398 E4.29496
G1 X70.982 Y82.601 F900.000
G92 E0
G1 X100.597 Y82.166 F900.000
G1 X71.584 Y80.515 F900.000
G1 F900
G1 X84.660 Y57.866 E0.72647
G1 X97.740 Y65.417 E1.14600
G1 X97.740 Y80.517 E1.56543
G1 X84.663 Y88.067 E1.98485
G1 X71.659 Y80.558 E2.40197
G1 X72.120 Y80.371 F900.000
G1 F900
G1 X84.804 Y58.402 E3.10662
G1 X97.347 Y65.644 E3.50894
G1 X97.347 Y80.290 E3.91578
G1 X84.663 Y87.613 E4.32261
G1 X72.195 Y80.415 E4.72251
G1 X71.575 Y80.173 F900.000
G1 X71.290 Y80.594 F900.000
G1 F900
G1 X84.581 Y57.573 E5.46091
G1 X97.954 Y65.294 E5.88984
G1 X97.954 Y80.641 E6.31615
G1 X84.663 Y88.314 E6.74246
G1 X71.366 Y80.637 E7.16898
G1 X70.754 Y80.737 F900.000
G1 F900
G1 X84.438 Y57.036 E7.92919
G1 X98.347 Y65.067 E8.37533
G1 X98.347 Y80.867 E8.81423
G1 X84.663 Y88.768 E9.25314
G1 X70.829 Y80.781 E9.69686
G1 X71.199 Y80.365 F900.000
G92 E0
G1 X9.994 Y29.857 F900.000
G1 X86.878 Y56.012 F900.000
G1 F900
G1 X97.740 Y49.741 E0.34839
G1 X97.740 Y62.283 E0.69679
G1 X86.953 Y56.055 E1.04277
G1 X87.663 Y56.012 F900.000
G1 F900
G1 X97.347 Y50.421 E1.35337
G1 X97.347 Y61.603 E1.66398
G1 X87.739 Y56.055 E1.97217
G1 X87.161 Y55.722 F900.000
G1 X86.449 Y56.012 F900.000
G1 F900
G1 X97.954 Y49.369 E2.34121
G1 X97.954 Y62.655 E2.71026
G1 X86.524 Y56.055 E3.07688
G1 X85.663 Y56.012 F900.000
G1 F900
G1 X98.347 Y48.689 E3.48372
G1 X98.347 Y63.335 E3.89055
G1 X85.739 Y56.055 E4.29496
G1 X85.663 Y56.592 F900.000
G92 E0
G1 X84.663 Y20.658 F900.000
G1 X84.660 Y54.158 F900.000
G1 F900
G1 X71.584 Y31.509 E0.72647
G1 X84.663 Y23.957 E1.14600
G1 X97.740 Y31.507 E1.56543
G1 X97.740 Y46.606 E1.98485
G1 X84.735 Y54.114 E2.40197
G1 X84.804 Y53.621 F900.000
G1 F900
G1 X72.120 Y31.652 E3.10662
G1 X84.663 Y24.410 E3.50894
G1 X97.347 Y31.733 E3.91578
G1 X97.347 Y46.379 E4.32261
G1 X84.879 Y53.578 E4.72251
G1 X84.360 Y53.995 F900.000
G1 X84.581 Y54.451 F900.000
G1 F900
G1 X71.290 Y31.430 E5.46091
G1 X84.663 Y23.709 E5.88984
G1 X97.954 Y31.383 E6.31615
G1 X97.954 Y46.730 E6.74246
G1 X84.657 Y54.407 E7.16898
G1 X84.438 Y54.987 F900.000
G1 F900
G1 X70.754 Y31.286 E7.92919
G1 X84.663 Y23.256 E8.37533
G1 X98.347 Y31.156 E8.81423
G1 X98.347 Y46.957 E9.25314
G1 X84.513 Y54.944 E9.69686
G1 X84.338 Y54.416 F900.000
G92 E0
G1 X84.663 Y20.658 F900.000
G1 X71.087 Y28.661 F900.000
G1 F900
G1 X71.087 Y16.119 E0.34839
G1 X81.949 Y22.390 E0.69679
G1 X71.162 Y28.617 E1.04277
G1 X71.479 Y27.981 F900.000
G1 F900
G1 X71.479 Y16.799 E1.35337
G1 X81.163 Y22.390 E1.66398
G1 X71.555 Y27.937 E1.97217
G1 X70.977 Y28.271 F900.000
G1 X70.872 Y29.033 F900.000
G1 F900
G1 X70.872 Y15.747 E2.34121
G1 X82.378 Y22.390 E2.71026
G1 X70.947 Y28.989 E3.07688
G1 X70.479 Y29.713 F900.000
G1 F900
G1 X70.479 Y15.067 E3.48372
G1 X83.163 Y22.390 E3.89055
G1 X70.555 Y29.669 E4.29496
G1 X70.599 Y29.145 F900.000
G92 E0
G1 X55.296 Y3.702 F900.000
G1 X68.372 Y29.654 F900.000
G1 F900
G1 X42.219 Y29.654 E0.72647
G1 X42.219 Y14.551 E1.14600
G1 X55.296 Y7.002 E1.56543
G1 X68.372 Y14.551 E1.98485
G1 X68.372 Y29.567 E2.40197
G1 X67.979 Y29.262 F900.000
G1 F900
G1 X42.612 Y29.262 E3.10662
G1 X42.612 Y14.778 E3.50894
G1 X55.296 Y7.455 E3.91578
G1 X67.979 Y14.778 E4.32261
G1 X67.979 Y29.175 E4.72252
G1 X68.081 Y29.833 F900.000
G1 X68.587 Y29.869 F900.000
G1 F900
G1 X42.005 Y29.869 E5.46091
G1 X42.005 Y14.427 E5.88984
G1 X55.296 Y6.754 E6.31615
G1 X68.587 Y14.427 E6.74246
G1 X68.587 Y29.782 E7.16898
G1 X68.979 Y30.262 F900.000
G1 F900
G1 X41.612 Y30.262 E7.92919
G1 X41.612 Y14.201 E8.37533
G1 X55.296 Y6.300 E8.81423
G1 X68.979 Y14.201 E9.25314
G1 X68.979 Y30.175 E9.69686
G1 X68.435 Y30.063 F900.000
G92 E0
G1 X39.362 Y12.902 F900.000
G1 X39.505 Y28.661 F900.000
G1 F900
G1 X28.643 Y22.390 E0.34839
G1 X39.505 Y16.119 E0.69679
G1 X39.505 Y28.574 E1.04277
G1 X39.112 Y27.981 F900.000
G1 F900
G1 X29.428 Y22.390 E1.35337
G1 X39.112 Y16.799 E1.66398
G1 X39.112 Y27.894 E1.97217
G1 X39.026 Y28.554 F900.000
G1 X39.719 Y29.033 F900.000
G1 F900
G1 X28.214 Y22.390 E2.34121
G1 X39.719 Y15.747 E2.71026
G1 X39.719 Y28.946 E3.07688
G1 X40.112 Y29.713 F900.000
G1 F900
G1 X27.428 Y22.390 E3.48372
G1 X40.112 Y15.067 E3.89055
G1 X40.112 Y29.626 E4.29496
G1 X40.614 Y29.423 F900.000
G92 E0
G1 X23.295 Y22.178 F900.000
G1 X39.008 Y31.509 F900.000
G1 F900
G1 X25.931 Y54.158 E0.72647
G1 X12.852 Y46.606 E1.14600
G1 X12.852 Y31.507 E1.56543
G1 X25.928 Y23.957 E1.98485
G1 X38.932 Y31.465 E2.40197
G1 X38.471 Y31.652 F900.000
G1 F900
G1 X25.788 Y53.621 E3.10662
G1 X13.244 Y46.379 E3.50894
G1 X13.244 Y31.733 E3.91578
G1 X25.928 Y24.410 E4.32261
G1 X38.396 Y31.609 E4.72251
G1 X39.006 Y31.877 F900.000
G1 X39.301 Y31.430 F900.000
G1 F900
G1 X26.010 Y54.451 E5.46091
G1 X12.637 Y46.730 E5.88984
G1 X12.637 Y31.383 E6.31615
G1 X25.928 Y23.709 E6.74246
G1 X39.226 Y31.387 E7.16898
G1 X39.837 Y31.286 F900.000
G1 F900
G1 X26.154 Y54.987 E7.92919
G1 X12.244 Y46.957 E8.37533
G1 X12.244 Y31.156 E8.81423
G1 X25.928 Y23.256 E9.25314
G1 X39.762 Y31.243 E9.69686
G1 X39.335 Y31.576 F900.000
G92 E0
G1 X100.597 Y82.166 F900.000
G1 X23.714 Y56.012 F900.000
G1 F900
G1 X12.852 Y62.283 E0.34839
G1 X12.852 Y49.741 E0.69679
G1 X23.638 Y55.968 E1.04277
G1 X22.928 Y56.012 F900.000
G1 F900
G1 X13.244 Y61.603 E1.35337
G1 X13.244 Y50.421 E1.66398
G1 X22.853 Y55.968 E1.97217
G1 X23.430 Y56.302 F900.000
G1 X24.143 Y56.012 F900.000
G1 F900
G1 X12.637 Y62.655 E2.34121
G1 X12.637 Y49.369 E2.71026
G1 X24.067 Y55.968 E3.07688
G1 X24.928 Y56.012 F900.000
G1 F900
G1 X12.244 Y63.335 E3.48372
G1 X12.244 Y48.689 E3.89055
G1 X24.853 Y55.968 E4.29496
G1 X24.357 Y56.112 F900.000
G92 E0
G1 X25.928 Y91.366 F900.000
G1 X25.931 Y57.866 F900.000
G1 F900
G1 X39.008 Y80.515 E0.72647
G1 X25.928 Y88.067 E1.14600
G1 X12.852 Y80.517 E1.56543
G1 X12.852 Y65.417 E1.98485
G1 X25.856 Y57.909 E2.40197
G1 X25.788 Y58.402 F900.000
G1 F900
G1 X38.471 Y80.371 E3.10662
G1 X25.928 Y87.613 E3.50894
G1 X13.244 Y80.290 E3.91578
G1 X13.244 Y65.644 E4.32261
G1 X25.712 Y58.446 E4.72252
G1 X26.290 Y58.112 F900.000
G1 X26.010 Y57.573 F900.000
G1 F900
G1 X39.301 Y80.594 E5.46091
G1 X25.928 Y88.314 E5.88984
G1 X12.637 Y80.641 E6.31615
G1 X12.637 Y65.294 E6.74246
G1 X25.935 Y57.616 E7.16898
G1 X26.154 Y57.036 F900.000
G1 F900
G1 X39.837 Y80.737 E7.92919
G1 X25.928 Y88.768 E8.37533
G1 X12.244 Y80.867 E8.81423
G1 X12.244 Y65.067 E9.25314
G1 X26.078 Y57.080 E9.69686
G1 X26.253 Y57.608 F900.000
G92 E0
G1 X25.928 Y91.366 F900.000
G1 X39.505 Y83.363 F900.000
G1 F900
G1 X39.505 Y95.905 E0.34839
G1 X28.643 Y89.634 E0.69679
G1 X39.429 Y83.406 E1.04277
G1 X39.112 Y84.043 F900.000
G1 F900
G1 X39.112 Y95.225 E1.35337
G1 X29.428 Y89.634 E1.66398
G1 X39.037 Y84.086 E1.97217
G1 X39.683 Y83.942 F900.000
G1 X39.719 Y82.991 F900.000
G1 F900
G1 X39.719 Y96.277 E2.34121
G1 X28.214 Y89.634 E2.71026
G1 X39.644 Y83.034 E3.07688
G1 X40.112 Y82.311 F900.000
G1 F900
G1 X40.112 Y96.957 E3.48372
G1 X27.428 Y89.634 E3.89055
G1 X40.037 Y82.354 E4.29496
G1 X39.610 Y82.021 F900.000
G92 E0
G1 X100.597 Y29.857 F900.000
G1 X41.646 Y79.654 F900.000
G1 F900
G1 X27.995 Y56.012 E0.75834
G1 X41.646 Y32.369 E1.51668
G1 X68.946 Y32.369 E2.27502
G1 X82.596 Y56.012 E3.03336
G1 X68.946 Y79.654 E3.79170
G1 X41.733 Y79.654 E4.54762
G1 X41.872 Y79.262 F900.000
G1 F900
G1 X28.449 Y56.012 E5.29337
G1 X41.872 Y32.762 E6.03911
G1 X68.719 Y32.762 E6.78486
G1 X82.142 Y56.012 E7.53060
G1 X68.719 Y79.262 E8.27634
G1 X41.959 Y79.262 E9.01967
G1 X41.370 Y79.552 F900.000
G1 X41.522 Y79.869 F900.000
G1 F900
G1 X27.748 Y56.012 E9.78489
G1 X41.522 Y32.154 E10.55012
G1 X69.070 Y32.154 E11.31534
G1 X82.844 Y56.012 E12.08056
G1 X69.070 Y79.869 E12.84579
G1 X41.609 Y79.869 E13.60859
G1 X41.295 Y80.262 F900.000
G1 F900
G1 X27.294 Y56.012 E14.38641
G1 X41.295 Y31.762 E15.16423
G1 X69.296 Y31.762 E15.94205
G1 X83.297 Y56.012 E16.71987
G1 X69.296 Y80.262 E17.49769
G1 X41.382 Y80.262 E18.27309
G1 X41.295 Y79.682 F900.000
G1 Z-148.000 F900.000
G92 E0
G1 X71.229 Y99.122 F900.000
G1 X42.219 Y82.369 F900.000
G1 F900
G1 X68.372 Y82.369 E0.72647
G1 X68.372 Y97.472 E1.14600
G1 X55.296 Y105.022 E1.56543
G1 X42.219 Y97.472 E1.98485
G1 X42.219 Y82.456 E2.40197
G1 X42.612 Y82.762 F900.000
G1 F900
G1 X67.979 Y82.762 E3.10662
G1 X67.979 Y97.245 E3.50895
G1 X55.296 Y104.568 E3.91578
G1 X42.612 Y97.245 E4.32261
G1 X42.612 Y82.849 E4.72252
G1 X42.511 Y82.191 F900.000
G1 X42.005 Y82.154 F900.000
G1 F900
G1 X68.587 Y82.154 E5.46091
G1 X68.587 Y97.596 E5.88984
G1 X55.296 Y105.270 E6.31615
G1 X42.005 Y97.596 E6.74246
G1 X42.005 Y82.241 E7.16898
G1 X41.612 Y81.762 F900.000
G1 F900
G1 X68.979 Y81.762 E7.92919
G1 X68.979 Y97.823 E8.37533
G1 X55.296 Y105.723 E8.81423
G1 X41.612 Y97.823 E9.25314
G1 X41.612 Y81.849 E9.69686
G1 X42.157 Y81.961 F900.000
G92 E0
G1 X71.229 Y99.122 F900.000
G1 X71.087 Y83.363 F900.000
G1 F900
G1 X81.949 Y89.634 E0.34839
G1 X71.087 Y95.905 E0.69679
G1 X71.087 Y83.450 E1.04277
G1 X71.479 Y84.043 F900.000
G1 F900
G1 X81.163 Y89.634 E1.35337
G1 X71.479 Y95.225 E1.66398
G1 X71.479 Y84.130 E1.97217
G1 X71.479 Y83.463 F900.000
G1 X70.872 Y82.991 F900.000
G1 F900
G1 X82.378 Y89.634 E2.34121
G1 X70.872 Y96.277 E2.71026
G1 X70.872 Y83.078 E3.07688
G1 X70.479 Y82.311 F900.000
G1 F900
G1 X83.163 Y89.634 E3.48372
G1 X70.479 Y96.957 E3.89055
G1 X70.479 Y82.398 E4.29496
G1 X69.977 Y82.601 F900.000
G92 E0
G1 X100.597 Y82.166 F900.000
G1 X71.584 Y80.515 F900.000
G1 F900
G1 X84.660 Y57.866 E0.72647
G1 X97.740 Y65.417 E1.14600
G1 X97.740 Y80.517 E1.56543
G1 X84.663 Y88.067 E1.98485
G1 X71.659 Y80.558 E2.40197
G1 X72.120 Y80.371 F900.000
G1 F900
G1 X84.804 Y58.402 E3.10662
G1 X97.347 Y65.644 E3.50894
G1 X97.347 Y80.290 E3.91578
G1 X84.663 Y87.613 E4.32261
G1 X72.195 Y80.415 E4.72251
G1 X71.575 Y80.173 F900.000
G1 X71.290 Y80.594 F900.000
G1 F900
G1 X84.581 Y57.573 E5.46091
G1 X97.954 Y65.294 E5.88984
G1 X97.954 Y80.641 E6.31615
G1 X84.663 Y88.314 E6.74246
G1 X71.366 Y80.637 E7.16898
G1 X70.754 Y80.737 F900.000
G1 F900
G1 X84.438 Y57.036 E7.92919
G1 X98.347 Y65.067 E8.37533
G1 X98.347 Y80.867 E8.81423
G1 X84.663 Y88.768 E9.25314
G1 X70.829 Y80.781 E9.69686
G1 X71.199 Y80.365 F900.000
G92 E0
G1 X9.994 Y29.857 F900.000
G1 X86.878 Y56.012 F900.000
G1 F900
G1 X97.740 Y49.741 E0.34839
G1 X97.740 Y62.283 E0.69679
G1 X86.953 Y56.055 E1.04277
G1 X87.663 Y56.012 F900.000
G1 F900
G1 X97.347 Y50.421 E1.35337
G1 X97.347 Y61.603 E1.66398
G1 X87.739 Y56.055 E1.97217
G1 X87.161 Y55.722 F900.000
G1 X86.449 Y56.012 F900.000
G1 F900
G1 X97.954 Y49.369 E2.34121
G1 X97.954 Y62.655 E2.71026
G1 X86.524 Y56.055 E3.07688
G1 X85.663 Y56.012 F900.000
G1 F900
G1 X98.347 Y48.689 E3.48372
G1 X98.347 Y63.335 E3.89055
G1 X85.739 Y56.055 E4.29496
G1 X85.663 Y56.592 F900.000
G92 E0
G1 X84.663 Y20.658 F900.000
G1 X84.660 Y54.158 F900.000
G1 F900
G1 X71.584 Y31.509 E0.72647
G1 X84.663 Y23.957 E1.14600
G1 X97.740 Y31.507 E1.56543
G1 X97.740 Y46.606 E1.98485
G1 X84.735 Y54.114 E2.40197
G1 X84.804 Y53.621 F900.000
G1 F900
G1 X72.120 Y31.652 E3.10662
G1 X84.663 Y24.410 E3.50894
G1 X97.347 Y31.733 E3.91578
G1 X97.347 Y46.379 E4.32261
G1 X84.879 Y53.578 E4.72251
G1 X84.360 Y53.995 F900.000
G1 X84.581 Y54.451 F900.000
G1 F900
G1 X71.290 Y31.430 E5.46091
G1 X84.663 Y23.709 E5.88984
G1 X97.954 Y31.383 E6.31615
G1 X97.954 Y46.730 E6.74246
G1 X84.657 Y54.407 E7.16898
G1 X84.438 Y54.987 F900.000
G1 F900
G1 X70.754 Y31.286 E7.92919
G1 X84.663 Y23.256 E8.37533
G1 X98.347 Y31.156 E8.81423
G1 X98.347 Y46.957 E9.25314
G1 X84.513 Y54.944 E9.69686
G1 X84.338 Y54.416 F900.000
G92 E0
G1 X84.663 Y20.658 F900.000
G1 X71.087 Y28.661 F900.000
G1 F900
G1 X71.087 Y16.119 E0.34839
G1 X81.949 Y22.390 E0.69679
G1 X71.162 Y28.617 E1.04277
G1 X71.479 Y27.981 F900.000
G1 F900
G1 X71.479 Y16.799 E1.35337
G1 X81.163 Y22.390 E1.66398
G1 X71.555 Y27.937 E1.97217
G1 X70.977 Y28.271 F900.000
G1 X70.872 Y29.033 F900.000
G1 F900
G1 X70.872 Y15.747 E2.34121
G1 X82.378 Y22.390 E2.71026
G1 X70.947 Y28.989 E3.07688
G1 X70.479 Y29.713 F900.000
G1 F900
G1 X70.479 Y15.067 E3.48372
G1 X83.163 Y22.390 E3.89055
G1 X70.555 Y29.669 E4.29496
G1 X70.562 Y29.139 F900.000
G92 E0
G1 X55.296 Y3.702 F900.000
G1 X68.372 Y29.654 F900.000
G1 F900
G1 X42.219 Y29.654 E0.72647
G1 X42.219 Y14.551 E1.14600
G1 X55.296 Y7.002 E1.56543
G1 X68.372 Y14.551 E1.98485
G1 X68.372 Y29.567 E2.40197
G1 X67.979 Y29.262 F900.000
G1 F900
G1 X42.612 Y29.262 E3.10662
G1 X42.612 Y14.778 E3.50895
G1 X55.296 Y7.455 E3.91578
G1 X67.979 Y14.778 E4.32261
G1 X67.979 Y29.175 E4.72252
G1 X68.081 Y29.833 F900.000
G1 X68.587 Y29.869 F900.000
G1 F900
G1 X42.005 Y29.869 E5.46091
G1 X42.005 Y14.427 E5.88984
G1 X55.296 Y6.754 E6.31615
G1 X68.587 Y14.427 E6.74246
G1 X68.587 Y29.782 E7.16898
G1 X68.979 Y30.262 F900.000
G1 F900
G1 X41.612 Y30.262 E7.92919
G1 X41.612 Y14.201 E8.37533
G1 X55.296 Y6.300 E8.81423
G1 X68.979 Y14.201 E9.25314
G1 X68.979 Y30.175 E9.69686
G1 X68.435 Y30.063 F900.000
G92 E0
G1 X39.362 Y12.902 F900.000
G1 X39.505 Y28.661 F900.000
G1 F900
G1 X28.643 Y22.390 E0.34839
G1 X39.505 Y16.119 E0.69679
G1 X39.505 Y28.574 E1.04277
G1 X39.112 Y27.981 F900.000
G1 F900
G1 X29.428 Y22.390 E1.35337
G1 X39.112 Y16.799 E1.66398
G1 X39.112 Y27.894 E1.97217
G1 X38.994 Y28.549 F900.000
G1 X39.719 Y29.033 F900.000
G1 F900
G1 X28.214 Y22.390 E2.34121
G1 X39.719 Y15.747 E2.71026
G1 X39.719 Y28.946 E3.07688
G1 X40.112 Y29.713 F900.000
G1 F900
G1 X27.428 Y22.390 E3.48372
G1 X40.112 Y15.067 E3.89055
G1 X40.112 Y29.626 E4.29496
G1 X40.614 Y29.423 F900.000
G92 E0
G1 X23.694 Y21.947 F900.000
G1 X39.008 Y31.509 F900.000
G1 F900
G1 X25.931 Y54.158 E0.72647
G1 X12.852 Y46.606 E1.14600
G1 X12.852 Y31.507 E1.56543
G1 X25.928 Y23.957 E1.98485
G1 X38.932 Y31.465 E2.40197
G1 X38.471 Y31.652 F900.000
G1 F900
G1 X25.788 Y53.621 E3.10662
G1 X13.244 Y46.379 E3.50894
G1 X13.244 Y31.733 E3.91578
G1 X25.928 Y24.410 E4.32261
G1 X38.396 Y31.609 E4.72252
G1 X39.000 Y31.892 F900.000
G1 X39.301 Y31.430 F900.000
G1 F900
G1 X26.010 Y54.451 E5.46091
G1 X12.637 Y46.730 E5.88984
G1 X12.637 Y31.383 E6.31615
G1 X25.928 Y23.709 E6.74246
G1 X39.226 Y31.387 E7.16898
G1 X39.837 Y31.286 F900.000
G1 F900
G1 X26.154 Y54.987 E7.92919
G1 X12.244 Y46.957 E8.37533
G1 X12.244 Y31.156 E8.81423
G1 X25.928 Y23.256 E9.25314
G1 X39.762 Y31.243 E9.69686
G1 X39.335 Y31.576 F900.000
G92 E0
G1 X9.994 Y48.256 F900.000
G1 X23.714 Y56.012 F900.000
G1 F900
G1 X12.852 Y62.283 E0.34839
G1 X12.852 Y49.741 E0.69679
G1 X23.638 Y55.968 E1.04277
G1 X22.928 Y56.012 F900.000
G1 F900
G1 X13.244 Y61.603 E1.35337
G1 X13.244 Y50.421 E1.66398
G1 X22.853 Y55.968 E1.97217
G1 X23.430 Y56.302 F900.000
G1 X24.143 Y56.012 F900.000
G1 F900
G1 X12.637 Y62.655 E2.34121
G1 X12.637 Y49.369 E2.71026
G1 X24.067 Y55.968 E3.07688
G1 X24.928 Y56.012 F900.000
G1 F900
G1 X12.244 Y63.335 E3.48372
G1 X12.244 Y48.689 E3.89055
G1 X24.853 Y55.968 E4.29496
G1 X24.357 Y56.112 F900.000
G92 E0
G1 X9.994 Y82.166 F900.000
G1 X25.931 Y57.866 F900.000
G1 F900
G1 X39.008 Y80.515 E0.72647
G1 X25.928 Y88.067 E1.14600
G1 X12.852 Y80.517 E1.56543
G1 X12.852 Y65.417 E1.98485
G1 X25.856 Y57.909 E2.40197
G1 X25.788 Y58.402 F900.000
G1 F900
G1 X38.471 Y80.371 E3.10662
G1 X25.928 Y87.613 E3.50894
G1 X13.244 Y80.290 E3.91578
G1 X13.244 Y65.644 E4.32261
G1 X25.712 Y58.446 E4.72252
G1 X26.290 Y58.112 F900.000
G1 X26.010 Y57.573 F900.000
G1 F900
G1 X39.301 Y80.594 E5.46091
G1 X25.928 Y88.314 E5.88984
G1 X12.637 Y80.641 E6.31615
G1 X12.637 Y65.294 E6.74246
G1 X25.935 Y57.616 E7.16898
G1 X26.154 Y57.036 F900.000
G1 F900
G1 X39.837 Y80.737 E7.92919
G1 X25.928 Y88.768 E8.37533
G1 X12.244 Y80.867 E8.81423
G1 X12.244 Y65.067 E9.25314
G1 X26.078 Y57.080 E9.69686
G1 X26.154 Y57.616 F900.000
G92 E0
G1 X25.928 Y91.366 F900.000
G1 X39.505 Y83.363 F900.000
G1 F900
G1 X39.505 Y95.905 E0.34839
G1 X28.643 Y89.634 E0.69679
G1 X39.429 Y83.406 E1.04277
G1 X39.112 Y84.043 F900.000
G1 F900
G1 X39.112 Y95.225 E1.35337
G1 X29.428 Y89.634 E1.66398
G1 X39.037 Y84.086 E1.97217
G1 X39.683 Y83.942 F900.000
G1 X39.719 Y82.991 F900.000
G1 F900
G1 X39.719 Y96.277 E2.34121
G1 X28.214 Y89.634 E2.71026
G1 X39.644 Y83.034 E3.07688
G1 X40.112 Y82.311 F900.000
G1 F900
G1 X40.112 Y96.957 E3.48372
G1 X27.428 Y89.634 E3.89055
G1 X40.037 Y82.354 E4.29496
G1 X39.610 Y82.021 F900.000
G92 E0
G1 X100.597 Y29.857 F900.000
G1 X41.646 Y79.654 F900.000
G1 F900
G1 X27.995 Y56.012 E0.75834
G1 X41.646 Y32.369 E1.51668
G1 X68.946 Y32.369 E2.27502
G1 X82.596 Y56.012 E3.03336
G1 X68.946 Y79.654 E3.79170
G1 X41.733 Y79.654 E4.54762
G1 X41.872 Y79.262 F900.000
G1 F900
G1 X28.449 Y56.012 E5.29337
G1 X41.872 Y32.762 E6.03911
G1 X68.719 Y32.762 E6.78486
G1 X82.142 Y56.012 E7.53060
G1 X68.719 Y79.262 E8.27634
G1 X41.959 Y79.262 E9.01967
G1 X41.370 Y79.552 F900.000
G1 X41.522 Y79.869 F900.000
G1 F900
G1 X27.748 Y56.012 E9.78489
G1 X41.522 Y32.154 E10.55012
G1 X69.070 Y32.154 E11.31534
G1 X82.844 Y56.012 E12.08056
G1 X69.070 Y79.869 E12.84579
G1 X41.609 Y79.869 E13.60859
G1 X41.295 Y80.262 F900.000
G1 F900
G1 X27.294 Y56.012 E14.38641
G1 X41.295 Y31.762 E15.16423
G1 X69.296 Y31.762 E15.94205
G1 X83.297 Y56.012 E16.71987
G1 X69.296 Y80.262 E17.49769
G1 X41.382 Y80.262 E18.27309
G1 X41.295 Y79.682 F900.000
G1 Z-147.500 F900.000
G92 E0
G1 X71.229 Y99.122 F900.000
G1 X42.219 Y82.369 F900.000
G1 F900
G1 X68.372 Y82.369 E0.72647
G1 X68.372 Y97.472 E1.14600
G1 X55.296 Y105.022 E1.56543
G1 X42.219 Y97.472 E1.98485
G1 X42.219 Y82.456 E2.40197
G1 X42.612 Y82.762 F900.000
G1 F900
G1 X67.979 Y82.762 E3.10662
G1 X67.979 Y97.245 E3.50895
G1 X55.296 Y104.568 E3.91578
G1 X42.612 Y97.245 E4.32261
G1 X42.612 Y82.849 E4.72252
G1 X42.511 Y82.191 F900.000
G1 X42.005 Y82.154 F900.000
G1 F900
G1 X68.587 Y82.154 E5.46091
G1 X68.587 Y97.596 E5.88984
G1 X55.296 Y105.270 E6.31615
G1 X42.005 Y97.596 E6.74246
G1 X42.005 Y82.241 E7.16898
G1 X41.612 Y81.762 F900.000
G1 F900
G1 X68.979 Y81.762 E7.92919
G1 X68.979 Y97.823 E8.37533
G1 X55.296 Y105.723 E8.81423
G1 X41.612 Y97.823 E9.25314
G1 X41.612 Y81.849 E9.69686
G1 X42.157 Y81.961 F900.000
G92 E0
G1 X39.362 Y99.122 F900.000
G1 X39.505 Y83.363 F900.000
G1 F900
G1 X39.505 Y95.905 E0.34839
G1 X28.643 Y89.634 E0.69679
G1 X39.429 Y83.406 E1.04277
G1 X39.112 Y84.043 F900.000
G1 F900
G1 X39.112 Y95.225 E1.35337
G1 X29.428 Y89.634 E1.66398
G1 X39.037 Y84.086 E1.97217
G1 X39.683 Y83.942 F900.000
G1 X39.719 Y82.991 F900.000
G1 F900
G1 X39.719 Y96.277 E2.34121
G1 X28.214 Y89.634 E2.71026
G1 X39.644 Y83.034 E3.07688
G1 X40.112 Y82.311 F900.000
G1 F900
G1 X40.112 Y96.957 E3.48372
G1 X27.428 Y89.634 E3.89055
G1 X40.037 Y82.354 E4.29496
G1 X39.610 Y82.021 F900.000
G92 E0
G1 X9.994 Y82.166 F900.000
G1 X39.008 Y80.515 F900.000
G1 F900
G1 X25.928 Y88.067 E0.41953
G1 X12.852 Y80.517 E0.83896
G1 X12.852 Y65.417 E1.25838
G1 X25.931 Y57.866 E1.67791
G1 X38.964 Y80.440 E2.40197
G1 X38.471 Y80.371 F900.000
G1 F900
G1 X25.928 Y87.613 E2.80429
G1 X13.244 Y80.290 E3.21112
G1 X13.244 Y65.644 E3.61795
G1 X25.788 Y58.402 E4.02028
G1 X38.428 Y80.296 E4.72252
G1 X38.786 Y80.859 F900.000
G1 X39.301 Y80.594 F900.000
G1 F900
G1 X25.928 Y88.314 E5.15145
G1 X12.637 Y80.641 E5.57776
G1 X12.637 Y65.294 E6.00407
G1 X26.010 Y57.573 E6.43300
G1 X39.257 Y80.518 E7.16898
G1 X39.837 Y80.737 F900.000
G1 F900
G1 X25.928 Y88.768 E7.61512
G1 X12.244 Y80.867 E8.05402
G1 X12.244 Y65.067 E8.49293
G1 X26.154 Y57.036 E8.93907
G1 X39.794 Y80.662 E9.69686
G1 X39.257 Y80.737 F900.000
G92 E0
G1 X100.597 Y29.857 F900.000
G1 X23.714 Y56.012 F900.000
G1 F900
G1 X12.852 Y62.283 E0.34839
G1 X12.852 Y49.741 E0.69679
G1 X23.638 Y55.968 E1.04277
G1 X22.928 Y56.012 F900.000
G1 F900
G1 X13.244 Y61.603 E1.35337
G1 X13.244 Y50.421 E1.66398
G1 X22.853 Y55.968 E1.97217
G1 X23.430 Y56.302 F900.000
G1 X24.143 Y56.012 F900.000
G1 F900
G1 X12.637 Y62.655 E2.34121
G1 X12.637 Y49.369 E2.71026
G1 X24.067 Y55.968 E3.07688
G1 X24.928 Y56.012 F900.000
G1 F900
G1 X12.244 Y63.335 E3.48372
G1 X12.244 Y48.689 E3.89055
G1 X24.853 Y55.968 E4.29496
G1 X24.357 Y56.112 F900.000
G92 E0
G1 X25.928 Y20.658 F900.000
G1 X25.931 Y54.158 F900.000
G1 F900
G1 X12.852 Y46.606 E0.41953
G1 X12.852 Y31.507 E0.83896
G1 X25.928 Y23.957 E1.25838
G1 X39.008 Y31.509 E1.67791
G1 X25.975 Y54.082 E2.40197
G1 X25.788 Y53.621 F900.000
G1 F900
G1 X13.244 Y46.379 E2.80429
G1 X13.244 Y31.733 E3.21112
G1 X25.928 Y24.410 E3.61795
G1 X38.471 Y31.652 E4.02028
G1 X25.831 Y53.546 E4.72251
G1 X25.588 Y54.166 F900.000
G1 X26.010 Y54.451 F900.000
G1 F900
G1 X12.637 Y46.730 E5.15145
G1 X12.637 Y31.383 E5.57776
G1 X25.928 Y23.709 E6.00407
G1 X39.301 Y31.430 E6.43300
G1 X26.053 Y54.375 E7.16898
G1 X26.154 Y54.987 F900.000
G1 F900
G1 X12.244 Y46.957 E7.61512
G1 X12.244 Y31.156 E8.05402
G1 X25.928 Y23.256 E8.49293
G1 X39.837 Y31.286 E8.93907
G1 X26.197 Y54.912 E9.69686
G1 X25.788 Y54.537 F900.000
G92 E0
G1 X25.928 Y20.658 F900.000
G1 X39.505 Y28.661 F900.000
G1 F900
G1 X28.643 Y22.390 E0.34839
G1 X39.505 Y16.119 E0.69679
G1 X39.505 Y28.574 E1.04277
G1 X39.112 Y27.981 F900.000
G1 F900
G1 X29.428 Y22.390 E1.35337
G1 X39.112 Y16.799 E1.66398
G1 X39.112 Y27.894 E1.97217
G1 X38.962 Y28.541 F900.000
G1 X39.719 Y29.033 F900.000
G1 F900
G1 X28.214 Y22.390 E2.34121
G1 X39.719 Y15.747 E2.71026
G1 X39.719 Y28.946 E3.07688
G1 X40.112 Y29.713 F900.000
G1 F900
G1 X27.428 Y22.390 E3.48372
G1 X40.112 Y15.067 E3.89055
G1 X40.112 Y29.626 E4.29496
G1 X40.614 Y29.423 F900.000
G92 E0
G1 X55.296 Y3.702 F900.000
G1 X42.219 Y29.654 F900.000
G1 F900
G1 X42.219 Y14.551 E0.41953
G1 X55.296 Y7.002 E0.83896
G1 X68.372 Y14.551 E1.25839
G1 X68.372 Y29.654 E1.67791
G1 X42.306 Y29.654 E2.40197
G1 X42.612 Y29.262 F900.000
G1 F900
G1 X42.612 Y14.778 E2.80429
G1 X55.296 Y7.455 E3.21112
G1 X67.979 Y14.778 E3.61796
G1 X67.979 Y29.262 E4.02028
G1 X42.699 Y29.262 E4.72252
G1 X42.041 Y29.362 F900.000
G1 X42.005 Y29.869 F900.000
G1 F900
G1 X42.005 Y14.427 E5.15145
G1 X55.296 Y6.754 E5.57776
G1 X68.587 Y14.427 E6.00407
G1 X68.587 Y29.869 E6.43300
G1 X42.092 Y29.869 E7.16898
G1 X41.612 Y30.262 F900.000
G1 F900
G1 X41.612 Y14.201 E7.61512
G1 X55.296 Y6.300 E8.05402
G1 X68.979 Y14.201 E8.49293
G1 X68.979 Y30.262 E8.93907
G1 X41.699 Y30.262 E9.69686
G1 X41.809 Y29.716 F900.000
G92 E0
G1 X74.588 Y14.841 F900.000
G1 X71.087 Y28.661 F900.000
G1 F900
G1 X71.087 Y16.119 E0.34839
G1 X81.949 Y22.390 E0.69679
G1 X71.162 Y28.617 E1.04277
G1 X71.479 Y27.981 F900.000
G1 F900
G1 X71.479 Y16.799 E1.35337
G1 X81.163 Y22.390 E1.66398
G1 X71.555 Y27.937 E1.97217
G1 X70.977 Y28.271 F900.000
G1 X70.872 Y29.033 F900.000
G1 F900
G1 X70.872 Y15.747 E2.34121
G1 X82.378 Y22.390 E2.71026
G1 X70.947 Y28.989 E3.07688
G1 X70.479 Y29.713 F900.000
G1 F900
G1 X70.479 Y15.067 E3.48372
G1 X83.163 Y22.390 E3.89055
G1 X70.555 Y29.669 E4.29496
G1 X70.523 Y29.134 F900.000
G92 E0
G1 X87.057 Y22.040 F900.000
G1 X71.584 Y31.509 F900.000
G1 F900
G1 X84.663 Y23.957 E0.41953
G1 X97.740 Y31.507 E0.83896
G1 X97.740 Y46.606 E1.25838
G1 X84.660 Y54.158 E1.67791
G1 X71.627 Y31.584 E2.40197
G1 X72.120 Y31.652 F900.000
G1 F900
G1 X84.663 Y24.410 E2.80429
G1 X97.347 Y31.733 E3.21112
G1 X97.347 Y46.379 E3.61795
G1 X84.804 Y53.621 E4.02028
G1 X72.163 Y31.728 E4.72251
G1 X71.748 Y31.207 F900.000
G1 X71.290 Y31.430 F900.000
G1 F900
G1 X84.663 Y23.709 E5.15145
G1 X97.954 Y31.383 E5.57776
G1 X97.954 Y46.730 E6.00407
G1 X84.581 Y54.451 E6.43300
G1 X71.334 Y31.505 E7.16898
G1 X70.754 Y31.286 F900.000
G1 F900
G1 X84.663 Y23.256 E7.61512
G1 X98.347 Y31.156 E8.05402
G1 X98.347 Y46.957 E8.49293
G1 X84.438 Y54.987 E8.93907
G1 X70.797 Y31.362 E9.69686
G1 X71.325 Y31.184 F900.000
G92 E0
G1 X9.994 Y82.166 F900.000
G1 X86.878 Y56.012 F900.000
G1 F900
G1 X97.740 Y49.741 E0.34839
G1 X97.740 Y62.283 E0.69679
G1 X86.953 Y56.055 E1.04277
G1 X87.663 Y56.012 F900.000
G1 F900
G1 X97.347 Y50.421 E1.35337
G1 X97.347 Y61.603 E1.66398
G1 X87.739 Y56.055 E1.97217
G1 X87.161 Y55.722 F900.000
G1 X86.449 Y56.012 F900.000
G1 F900
G1 X97.954 Y49.369 E2.34121
G1 X97.954 Y62.655 E2.71026
G1 X86.524 Y56.055 E3.07688
G1 X85.663 Y56.012 F900.000
G1 F900
G1 X98.347 Y48.689 E3.48372
G1 X98.347 Y63.335 E3.89055
G1 X85.739 Y56.055 E4.29496
G1 X85.663 Y56.592 F900.000
G92 E0
G1 X84.663 Y91.366 F900.000
G1 X84.660 Y57.866 F900.000
G1 F900
G1 X97.740 Y65.417 E0.41953
G1 X97.740 Y80.517 E0.83896
G1 X84.663 Y88.067 E1.25838
G1 X71.584 Y80.515 E1.67791
G1 X84.617 Y57.941 E2.40197
G1 X84.804 Y58.402 F900.000
G1 F900
G1 X97.347 Y65.644 E2.80429
G1 X97.347 Y80.290 E3.21112
G1 X84.663 Y87.613 E3.61795
G1 X72.120 Y80.371 E4.02028
G1 X84.760 Y58.478 E4.72251
G1 X85.094 Y57.900 F900.000
G1 X84.581 Y57.573 F900.000
G1 F900
G1 X97.954 Y65.294 E5.15145
G1 X97.954 Y80.641 E5.57776
G1 X84.663 Y88.314 E6.00407
G1 X71.290 Y80.594 E6.43300
G1 X84.538 Y57.648 E7.16898
G1 X84.438 Y57.036 F900.000
G1 F900
G1 X98.347 Y65.067 E7.61512
G1 X98.347 Y80.867 E8.05402
G1 X84.663 Y88.768 E8.49293
G1 X70.754 Y80.737 E8.93907
G1 X84.394 Y57.112 E9.69686
G1 X84.812 Y57.480 F900.000
G92 E0
G1 X84.663 Y91.366 F900.000
G1 X71.087 Y83.363 F900.000
G1 F900
G1 X81.949 Y89.634 E0.34839
G1 X71.087 Y95.905 E0.69679
G1 X71.087 Y83.450 E1.04277
G1 X71.479 Y84.043 F900.000
G1 F900
G1 X81.163 Y89.634 E1.35337
G1 X71.479 Y95.225 E1.66398
G1 X71.479 Y84.130 E1.97217
G1 X71.479 Y83.463 F900.000
G1 X70.872 Y82.991 F900.000
G1 F900
G1 X82.378 Y89.634 E2.34121
G1 X70.872 Y96.277 E2.71026
G1 X70.872 Y83.078 E3.07688
G1 X70.479 Y82.311 F900.000
G1 F900
G1 X83.163 Y89.634 E3.48372
G1 X70.479 Y96.957 E3.89055
G1 X70.479 Y82.398 E4.29496
G1 X70.982 Y82.601 F900.000
G92 E0
G1 X55.296 Y3.702 F900.000
G1 X68.946 Y79.654 F900.000
G1 F900
G1 X41.646 Y79.654 E0.75834
G1 X27.995 Y56.012 E1.51668
G1 X41.646 Y32.369 E2.27502
G1 X68.946 Y32.369 E3.03336
G1 X82.596 Y56.012 E3.79170
G1 X68.989 Y79.579 E4.54762
G1 X68.719 Y79.262 F900.000
G1 F900
G1 X41.872 Y79.262 E5.29337
G1 X28.449 Y56.012 E6.03911
G1 X41.872 Y32.762 E6.78486
G1 X68.719 Y32.762 E7.53060
G1 X82.142 Y56.012 E8.27634
G1 X68.763 Y79.186 E9.01967
G1 X68.719 Y79.842 F900.000
G1 X69.070 Y79.869 F900.000
G1 F900
G1 X41.522 Y79.869 E9.78489
G1 X27.748 Y56.012 E10.55012
G1 X41.522 Y32.154 E11.31534
G1 X69.070 Y32.154 E12.08056
G1 X82.844 Y56.012 E12.84579
G1 X69.113 Y79.794 E13.60859
G1 X69.296 Y80.262 F900.000
G1 F900
G1 X41.295 Y80.262 E14.38641
G1 X27.294 Y56.012 E15.16423
G1 X41.295 Y31.762 E15.94205
G1 X69.296 Y31.762 E16.71987
G1 X83.297 Y56.012 E17.49769
G1 X69.340 Y80.186 E18.27309
G1 X68.826 Y79.923 F900.000
G1 Z-147.000 F900.000
G92 E0
G1 X84.663 Y91.366 F900.000
G1 X68.372 Y82.369 F900.000
G1 F900
G1 X68.372 Y97.472 E0.41953
G1 X55.296 Y105.022 E0.83896
G1 X42.219 Y97.472 E1.25839
G1 X42.219 Y82.369 E1.67792
G1 X68.285 Y82.369 E2.40197
G1 X67.979 Y82.762 F900.000
G1 F900
G1 X67.979 Y97.245 E2.80429
G1 X55.296 Y104.568 E3.21112
G1 X42.612 Y97.245 E3.61796
G1 X42.612 Y82.762 E4.02028
G1 X67.892 Y82.762 E4.72252
G1 X68.551 Y82.662 F900.000
G92 E0
G1 X68.729 Y82.512 F900.000
G1 X41.862 Y82.512 F900.000
G1 X40.862 Y83.899 F900.000
G1 X39.862 Y83.321 F900.000
G1 X39.505 Y83.363 F900.000
G1 F900
G1 X39.505 Y95.905 E0.34839
G1 X28.643 Y89.634 E0.69679
G1 X39.429 Y83.406 E1.04277
G1 X39.112 Y84.043 F900.000
G1 F900
G1 X39.112 Y95.225 E1.35337
G1 X29.428 Y89.634 E1.66398
G1 X39.037 Y84.086 E1.97217
G1 X39.683 Y83.942 F900.000
G92 E0
G1 X39.862 Y83.321 F900.000
G1 X40.862 Y83.899 F900.000
G1 X41.862 Y82.512 F900.000
G1 X68.729 Y82.512 F900.000
G1 X69.729 Y83.997 F900.000
G1 X70.729 Y83.415 F900.000
G1 X71.087 Y83.363 F900.000
G1 F900
G1 X81.949 Y89.634 E0.34839
G1 X71.087 Y95.905 E0.69679
G1 X71.087 Y83.450 E1.04277
G1 X71.479 Y84.043 F900.000
G1 F900
G1 X81.163 Y89.634 E1.35337
G1 X71.479 Y95.225 E1.66398
G1 X71.479 Y84.130 E1.97217
G1 X71.479 Y83.463 F900.000
G92 E0
G1 X82.378 Y89.634 F900.000
G1 F900
G1 X55.296 Y105.270 E0.86866
G1 X28.214 Y89.634 E1.73732
G1 X40.635 Y82.462 E2.13574
G1 X41.476 Y82.154 E2.16061
G1 X69.116 Y82.154 E2.92838
G1 X69.956 Y82.462 E2.95325
G1 X82.302 Y89.590 E3.34925
G1 X83.163 Y89.634 F900.000
G1 F900
G1 X55.296 Y105.723 E4.24310
G1 X27.428 Y89.634 E5.13695
G1 X40.468 Y82.105 E5.55521
G1 X41.406 Y81.762 E5.58296
G1 X69.185 Y81.762 E6.35460
G1 X70.123 Y82.105 E6.38234
G1 X83.088 Y89.590 E6.79818
G1 X82.592 Y89.736 F900.000
G92 E0
G1 X70.694 Y83.342 F900.000
G1 F900
G1 X69.789 Y82.819 E0.02902
G1 X69.512 Y82.718 E0.03723
G1 X70.694 Y83.900 E0.08366
G1 X70.694 Y84.458 E0.09917
G1 X68.783 Y82.547 E0.17423
G1 X68.765 Y82.547 E0.17474
G1 X68.765 Y83.087 E0.18973
G1 X70.694 Y85.016 E0.26552
G1 X70.694 Y85.574 E0.28102
G1 X68.765 Y83.645 E0.35681
G1 X68.765 Y84.203 E0.37232
G1 X70.694 Y86.132 E0.44810
G1 X70.694 Y86.690 E0.46361
G1 X68.765 Y84.761 E0.53939
G1 X68.765 Y85.319 E0.55490
G1 X70.694 Y87.249 E0.63068
G1 X70.694 Y87.807 E0.64619
G1 X68.765 Y85.877 E0.72197
G1 X68.765 Y86.436 E0.73748
G1 X70.694 Y88.365 E0.81326
G1 X70.694 Y88.923 E0.82877
G1 X68.765 Y86.994 E0.90455
G1 X68.765 Y87.552 E0.92006
G1 X70.694 Y89.481 E0.99584
G1 X70.694 Y90.039 E1.01135
G1 X68.765 Y88.110 E1.08713
G1 X68.765 Y88.668 E1.10264
G1 X70.694 Y90.597 E1.17842
G1 X70.694 Y91.155 E1.19393
G1 X68.765 Y89.226 E1.26971
G1 X68.765 Y89.784 E1.28522
G1 X70.694 Y91.713 E1.36101
G1 X70.694 Y92.272 E1.37651
G1 X68.765 Y90.342 E1.45230
G1 X68.765 Y90.900 E1.46780
G1 X70.694 Y92.830 E1.54359
G1 X70.694 Y93.388 E1.55909
G1 X68.765 Y91.459 E1.63488
G1 X68.765 Y92.017 E1.65038
G1 X70.694 Y93.946 E1.72617
G1 X70.694 Y94.504 E1.74167
G1 X68.765 Y92.575 E1.81746
G1 X68.765 Y93.133 E1.83296
G1 X70.694 Y95.062 E1.90875
G1 X70.694 Y95.620 E1.92425
G1 X68.765 Y93.691 E2.00004
G1 X68.765 Y94.249 E2.01554
G1 X70.534 Y96.018 E2.08504
G1 X70.180 Y96.223 E2.09639
G1 X68.765 Y94.807 E2.15200
G1 X68.765 Y95.365 E2.16750
G1 X69.826 Y96.427 E2.20920
G1 X69.473 Y96.631 E2.22055
G1 X68.765 Y95.923 E2.24835
G1 X68.765 Y96.482 E2.26386
G1 X69.119 Y96.835 E2.27776
G1 X68.765 Y97.040 E2.28911
G92 E0
G1 X69.729 Y95.369 F900.000
G1 X69.729 Y83.997 F900.000
G1 X68.729 Y82.512 F900.000
G1 X41.862 Y82.512 F900.000
G1 X40.862 Y83.899 F900.000
G1 X40.862 Y95.369 F900.000
G1 X39.897 Y95.926 F900.000
G1 F900
G1 X39.897 Y95.359 E0.01575
G1 X41.239 Y96.701 E0.06846
G1 X41.827 Y97.040 E0.08730
G1 X41.827 Y96.721 E0.09615
G1 X39.897 Y94.792 E0.17194
G1 X39.897 Y94.225 E0.18769
G1 X41.827 Y96.154 E0.26348
G1 X41.827 Y95.587 E0.27923
G1 X39.897 Y93.658 E0.35501
G1 X39.897 Y93.091 E0.37076
G1 X41.827 Y95.020 E0.44655
G1 X41.827 Y94.453 E0.46230
G1 X39.897 Y92.524 E0.53808
G1 X39.897 Y91.957 E0.55383
G1 X41.827 Y93.886 E0.62962
G1 X41.827 Y93.319 E0.64537
G1 X39.897 Y91.390 E0.72116
G1 X39.897 Y90.823 E0.73690
G1 X41.827 Y92.752 E0.81269
G1 X41.827 Y92.185 E0.82844
G1 X39.897 Y90.256 E0.90423
G1 X39.897 Y89.689 E0.91998
G1 X41.827 Y91.619 E0.99576
G1 X41.827 Y91.052 E1.01151
G1 X39.897 Y89.122 E1.08730
G1 X39.897 Y88.555 E1.10305
G1 X41.827 Y90.485 E1.17883
G1 X41.827 Y89.918 E1.19458
G1 X39.897 Y87.988 E1.27037
G1 X39.897 Y87.422 E1.28612
G1 X41.827 Y89.351 E1.36191
G1 X41.827 Y88.784 E1.37765
G1 X39.897 Y86.855 E1.45344
G1 X39.897 Y86.288 E1.46919
G1 X41.827 Y88.217 E1.54498
G1 X41.827 Y87.650 E1.56073
G1 X39.897 Y85.721 E1.63651
G1 X39.897 Y85.154 E1.65226
G1 X41.827 Y87.083 E1.72805
G1 X41.827 Y86.516 E1.74380
G1 X39.897 Y84.587 E1.81959
G1 X39.897 Y84.020 E1.83533
G1 X41.827 Y85.949 E1.91112
G1 X41.827 Y85.382 E1.92687
G1 X39.897 Y83.453 E2.00266
G1 X39.897 Y83.342 E2.00575
G1 X40.186 Y83.175 E2.01501
G1 X41.827 Y84.815 E2.07945
G1 X41.827 Y84.248 E2.09520
G1 X40.546 Y82.967 E2.14552
G1 X40.802 Y82.819 E2.15374
G1 X40.921 Y82.776 E2.15726
G1 X41.827 Y83.681 E2.19283
G1 X41.827 Y83.114 E2.20858
G1 X41.336 Y82.624 E2.22785
G1 X41.545 Y82.547 E2.23404
G1 X41.827 Y82.547 E2.24185
G92 E0
G1 X55.296 Y3.702 F900.000
G1 X68.946 Y79.654 F900.000
G1 F900
G1 X41.646 Y79.654 E0.75834
G1 X27.995 Y56.012 E1.51668
G1 X41.646 Y32.369 E2.27502
G1 X68.946 Y32.369 E3.03336
G1 X82.596 Y56.012 E3.79170
G1 X68.989 Y79.579 E4.54762
G1 X68.719 Y79.262 F900.000
G1 F900
G1 X41.872 Y79.262 E5.29337
G1 X28.449 Y56.012 E6.03911
G1 X41.872 Y32.762 E6.78486
G1 X68.719 Y32.762 E7.53060
G1 X82.142 Y56.012 E8.27634
G1 X68.763 Y79.186 E9.01967
G1 X68.632 Y79.835 F900.000
G1 X69.070 Y79.869 F900.000
G1 F900
G1 X41.522 Y79.869 E9.78489
G1 X27.748 Y56.012 E10.55012
G1 X41.522 Y32.154 E11.31534
G1 X69.070 Y32.154 E12.08056
G1 X82.844 Y56.012 E12.84579
G1 X69.113 Y79.794 E13.60859
G1 X69.296 Y80.262 F900.000
G1 F900
G1 X41.295 Y80.262 E14.38641
G1 X27.294 Y56.012 E15.16423
G1 X41.295 Y31.762 E15.94205
G1 X69.296 Y31.762 E16.71987
G1 X83.297 Y56.012 E17.49769
G1 X69.340 Y80.186 E18.27309
G1 X68.842 Y79.901 F900.000
G92 E0
G1 X68.229 Y11.170 F900.000
G1 X86.878 Y56.012 F900.000
G1 F900
G1 X97.740 Y49.741 E0.34839
G1 X97.740 Y62.283 E0.69679
G1 X86.953 Y56.055 E1.04277
G1 X87.663 Y56.012 F900.000
G1 F900
G1 X97.347 Y50.421 E1.35337
G1 X97.347 Y61.603 E1.66398
G1 X87.739 Y56.055 E1.97217
G1 X87.161 Y55.722 F900.000
G92 E0
G1 X84.660 Y54.158 F900.000
G1 F900
G1 X71.584 Y31.509 E0.72647
G1 X84.663 Y23.957 E1.14600
G1 X97.740 Y31.507 E1.56543
G1 X97.740 Y46.606 E1.98485
G1 X84.735 Y54.114 E2.40197
G1 X84.804 Y53.621 F900.000
G1 F900
G1 X72.120 Y31.652 E3.10662
G1 X84.663 Y24.410 E3.50894
G1 X97.347 Y31.733 E3.91578
G1 X97.347 Y46.379 E4.32261
G1 X84.879 Y53.578 E4.72251
G1 X84.360 Y53.995 F900.000
G92 E0
G1 X84.962 Y54.396 F900.000
G1 X71.528 Y31.128 F900.000
G1 X72.229 Y29.568 F900.000
G1 X71.229 Y28.991 F900.000
G1 X71.087 Y28.661 F900.000
G1 F900
G1 X71.087 Y16.119 E0.34839
G1 X81.949 Y22.390 E0.69679
G1 X71.162 Y28.617 E1.04277
G1 X71.479 Y27.981 F900.000
G1 F900
G1 X71.479 Y16.799 E1.35337
G1 X81.163 Y22.390 E1.66398
G1 X71.555 Y27.937 E1.97217
G1 X70.977 Y28.271 F900.000
G92 E0
G1 X71.028 Y15.837 F900.000
G1 F900
G1 X97.954 Y31.383 E0.86367
G1 X97.954 Y62.655 E1.73233
G1 X85.533 Y55.483 E2.13075
G1 X84.846 Y54.909 E2.15562
G1 X71.026 Y30.972 E2.92339
G1 X70.872 Y30.090 E2.94826
G1 X70.872 Y15.747 E3.34668
G1 X70.952 Y15.793 E3.34925
G1 X70.479 Y15.067 F900.000
G1 F900
G1 X98.347 Y31.156 E4.24310
G1 X98.347 Y63.335 E5.13695
G1 X85.307 Y55.806 E5.55521
G1 X84.541 Y55.165 E5.58296
G1 X70.651 Y31.108 E6.35459
G1 X70.479 Y30.124 E6.38234
G1 X70.479 Y15.154 E6.79818
G1 X70.854 Y15.510 F900.000
G92 E0
G1 X71.541 Y31.079 F900.000
G1 F900
G1 X71.401 Y30.836 E0.00780
G1 X71.303 Y30.275 E0.02361
G1 X71.900 Y30.872 E0.04706
G1 X72.259 Y30.665 E0.05856
G1 X71.265 Y29.671 E0.09761
G1 X71.265 Y29.106 E0.11332
G1 X72.617 Y30.458 E0.16645
G1 X72.976 Y30.251 E0.17795
G1 X71.564 Y28.839 E0.23343
G1 X71.922 Y28.632 E0.24493
G1 X73.335 Y30.044 E0.30041
G1 X73.693 Y29.837 E0.31191
G1 X72.281 Y28.425 E0.36739
G1 X72.639 Y28.218 E0.37890
G1 X74.052 Y29.630 E0.43438
G1 X74.410 Y29.423 E0.44588
G1 X72.998 Y28.011 E0.50136
G1 X73.357 Y27.804 E0.51286
G1 X74.769 Y29.216 E0.56834
G1 X75.127 Y29.009 E0.57984
G1 X73.715 Y27.597 E0.63532
G1 X74.074 Y27.390 E0.64682
G1 X75.486 Y28.802 E0.70230
G1 X75.845 Y28.595 E0.71381
G1 X74.432 Y27.183 E0.76929
G1 X74.791 Y26.976 E0.78079
G1 X76.203 Y28.388 E0.83627
G1 X76.562 Y28.181 E0.84777
G1 X75.150 Y26.769 E0.90325
G1 X75.508 Y26.562 E0.91475
G1 X76.920 Y27.974 E0.97023
G1 X77.279 Y27.767 E0.98173
G1 X75.867 Y26.355 E1.03721
G1 X76.225 Y26.148 E1.04872
G1 X77.638 Y27.560 E1.10420
G1 X77.996 Y27.353 E1.11570
G1 X76.584 Y25.940 E1.17118
G1 X76.943 Y25.733 E1.18268
G1 X78.355 Y27.146 E1.23816
G1 X78.713 Y26.939 E1.24966
G1 X77.301 Y25.526 E1.30514
G1 X77.660 Y25.319 E1.31664
G1 X79.072 Y26.732 E1.37212
G1 X79.431 Y26.525 E1.38363
G1 X78.018 Y25.112 E1.43911
G1 X78.377 Y24.905 E1.45061
G1 X79.789 Y26.318 E1.50609
G1 X80.148 Y26.111 E1.51759
G1 X78.736 Y24.698 E1.57307
G1 X79.094 Y24.491 E1.58457
G1 X80.506 Y25.904 E1.64005
G1 X80.865 Y25.696 E1.65155
G1 X79.453 Y24.284 E1.70703
G1 X79.811 Y24.077 E1.71854
G1 X81.224 Y25.489 E1.77401
G1 X81.582 Y25.282 E1.78552
G1 X80.170 Y23.870 E1.84100
G1 X80.528 Y23.663 E1.85250
G1 X81.941 Y25.075 E1.90798
G1 X82.299 Y24.868 E1.91948
G1 X80.887 Y23.456 E1.97496
G1 X81.246 Y23.249 E1.98646
G1 X82.658 Y24.661 E2.04194
G1 X83.017 Y24.454 E2.05344
G1 X81.604 Y23.042 E2.10892
G1 X81.963 Y22.835 E2.12043
G1 X83.375 Y24.247 E2.17591
G1 X83.734 Y24.040 E2.18741
G1 X82.835 Y23.141 E2.22272
G1 X82.856 Y23.120 E2.22358
G1 X84.092 Y23.833 E2.26322
G92 E0
G1 X82.163 Y23.833 F900.000
G1 X72.229 Y29.568 F900.000
G1 X71.528 Y31.128 F900.000
G1 X84.962 Y54.396 F900.000
G1 X86.663 Y54.568 F900.000
G1 X96.597 Y48.833 F900.000
G1 X97.562 Y47.163 F900.000
G1 F900
G1 X97.201 Y47.371 E0.01156
G1 X97.448 Y47.618 E0.02127
G1 X97.284 Y47.782 E0.02772
G1 X97.562 Y47.782 E0.03543
G1 X97.562 Y48.300 E0.04982
G1 X96.841 Y47.579 E0.07814
G1 X96.480 Y47.787 E0.08970
G1 X97.562 Y48.868 E0.13219
G1 X97.562 Y49.390 E0.14668
G1 X97.532 Y49.407 E0.14763
G1 X96.120 Y47.995 E0.20311
G1 X95.759 Y48.203 E0.21467
G1 X97.171 Y49.615 E0.27015
G1 X96.811 Y49.823 E0.28172
G1 X95.399 Y48.411 E0.33720
G1 X95.038 Y48.619 E0.34876
G1 X96.451 Y50.031 E0.40424
G1 X96.090 Y50.240 E0.41580
G1 X94.678 Y48.827 E0.47128
G1 X94.317 Y49.035 E0.48284
G1 X95.730 Y50.448 E0.53832
G1 X95.369 Y50.656 E0.54988
G1 X93.957 Y49.244 E0.60536
G1 X93.596 Y49.452 E0.61692
G1 X95.009 Y50.864 E0.67241
G1 X94.648 Y51.072 E0.68397
G1 X93.236 Y49.660 E0.73945
G1 X92.876 Y49.868 E0.75101
G1 X94.288 Y51.280 E0.80649
G1 X93.927 Y51.488 E0.81805
G1 X92.515 Y50.076 E0.87353
G1 X92.155 Y50.284 E0.88509
G1 X93.567 Y51.696 E0.94057
G1 X93.206 Y51.904 E0.95213
G1 X91.794 Y50.492 E1.00761
G1 X91.434 Y50.700 E1.01918
G1 X92.846 Y52.113 E1.07466
G1 X92.486 Y52.321 E1.08622
G1 X91.073 Y50.908 E1.14170
G1 X90.713 Y51.117 E1.15326
G1 X92.125 Y52.529 E1.20874
G1 X91.765 Y52.737 E1.22030
G1 X90.352 Y51.325 E1.27578
G1 X89.992 Y51.533 E1.28734
G1 X91.404 Y52.945 E1.34282
G1 X91.044 Y53.153 E1.35438
G1 X89.631 Y51.741 E1.40986
G1 X89.271 Y51.949 E1.42143
G1 X90.683 Y53.361 E1.47691
G1 X90.323 Y53.569 E1.48847
G1 X88.911 Y52.157 E1.54395
G1 X88.550 Y52.365 E1.55551
G1 X89.962 Y53.777 E1.61099
G1 X89.602 Y53.986 E1.62255
G1 X88.190 Y52.573 E1.67803
G1 X87.829 Y52.781 E1.68959
G1 X89.241 Y54.194 E1.74507
G1 X88.881 Y54.402 E1.75663
G1 X87.469 Y52.990 E1.81211
G1 X87.108 Y53.198 E1.82368
G1 X88.521 Y54.610 E1.87916
G1 X88.160 Y54.818 E1.89072
G1 X86.748 Y53.406 E1.94620
G1 X86.387 Y53.614 E1.95776
G1 X87.800 Y55.026 E2.01324
G1 X87.439 Y55.234 E2.02480
G1 X86.027 Y53.822 E2.08028
G1 X85.666 Y54.030 E2.09184
G1 X87.079 Y55.442 E2.14732
G1 X86.718 Y55.650 E2.15889
G1 X85.306 Y54.238 E2.21437
G1 X85.011 Y54.409 E2.22384
G1 X85.151 Y54.652 E2.23163
G92 E0
G1 X72.349 Y13.548 F900.000
G1 X68.372 Y14.551 F900.000
G1 F900
G1 X68.372 Y29.654 E0.41953
G1 X42.219 Y29.654 E1.14600
G1 X42.219 Y14.551 E1.56553
G1 X55.296 Y7.002 E1.98496
G1 X68.297 Y14.508 E2.40197
G1 X67.979 Y14.778 F900.000
G1 F900
G1 X67.979 Y29.262 E2.80429
G1 X42.612 Y29.262 E3.50894
G1 X42.612 Y14.778 E3.91127
G1 X55.296 Y7.455 E4.31810
G1 X67.904 Y14.735 E4.72252
G1 X68.553 Y14.864 F900.000
G1 X68.587 Y14.427 F900.000
G1 F900
G1 X68.587 Y29.869 E5.15145
G1 X42.005 Y29.869 E5.88984
G1 X42.005 Y14.427 E6.31877
G1 X55.296 Y6.754 E6.74508
G1 X68.511 Y14.384 E7.16898
G1 X68.979 Y14.201 F900.000
G1 F900
G1 X68.979 Y30.262 E7.61512
G1 X41.612 Y30.262 E8.37533
G1 X41.612 Y14.201 E8.82147
G1 X55.296 Y6.300 E9.26037
G1 X68.904 Y14.157 E9.69686
G1 X68.689 Y14.703 F900.000
G92 E0
G1 X9.994 Y29.857 F900.000
G1 X23.714 Y56.012 F900.000
G1 F900
G1 X12.852 Y62.283 E0.34839
G1 X12.852 Y49.741 E0.69679
G1 X23.638 Y55.968 E1.04277
G1 X22.928 Y56.012 F900.000
G1 F900
G1 X13.244 Y61.603 E1.35337
G1 X13.244 Y50.421 E1.66398
G1 X22.853 Y55.968 E1.97217
G1 X23.430 Y56.302 F900.000
G92 E0
G1 X25.931 Y54.158 F900.000
G1 F900
G1 X12.852 Y46.606 E0.41953
G1 X12.852 Y31.507 E0.83896
G1 X25.928 Y23.957 E1.25838
G1 X39.008 Y31.509 E1.67791
G1 X25.975 Y54.082 E2.40197
G1 X25.788 Y53.621 F900.000
G1 F900
G1 X13.244 Y46.379 E2.80429
G1 X13.244 Y31.733 E3.21112
G1 X25.928 Y24.410 E3.61795
G1 X38.471 Y31.652 E4.02028
G1 X25.831 Y53.546 E4.72252
G1 X25.588 Y54.166 F900.000
G92 E0
G1 X25.629 Y54.396 F900.000
G1 X39.063 Y31.128 F900.000
G1 X38.362 Y29.568 F900.000
G1 X39.362 Y28.991 F900.000
G1 X39.505 Y28.661 F900.000
G1 F900
G1 X28.643 Y22.390 E0.34839
G1 X39.505 Y16.119 E0.69679
G1 X39.505 Y28.574 E1.04277
G1 X39.112 Y27.981 F900.000
G1 F900
G1 X29.428 Y22.390 E1.35337
G1 X39.112 Y16.799 E1.66398
G1 X39.112 Y27.894 E1.97217
G1 X38.933 Y28.532 F900.000
G92 E0
G1 X39.719 Y15.747 F900.000
G1 F900
G1 X39.719 Y30.090 E0.39842
G1 X39.565 Y30.972 E0.42329
G1 X25.746 Y54.909 E1.19106
G1 X25.059 Y55.483 E1.21593
G1 X12.637 Y62.655 E1.61435
G1 X12.637 Y31.383 E2.48301
G1 X39.644 Y15.790 E3.34925
G1 X40.112 Y15.067 F900.000
G1 F900
G1 X40.112 Y30.124 E3.76751
G1 X39.940 Y31.108 E3.79526
G1 X26.051 Y55.165 E4.56689
G1 X25.284 Y55.806 E4.59464
G1 X12.244 Y63.335 E5.01290
G1 X12.244 Y31.156 E5.90675
G1 X40.037 Y15.110 E6.79818
G1 X40.011 Y15.638 F900.000
G92 E0
G1 X39.327 Y29.012 F900.000
G1 F900
G1 X37.934 Y28.208 E0.04467
G1 X39.327 Y29.600 E0.09937
G1 X39.327 Y30.056 E0.11204
G1 X39.307 Y30.169 E0.11521
G1 X36.542 Y27.404 E0.22383
G1 X35.150 Y26.600 E0.26848
G1 X39.219 Y30.670 E0.42835
G1 X39.190 Y30.836 E0.43304
G1 X39.050 Y31.079 E0.44085
G1 X33.758 Y25.796 E0.64857
G1 X32.366 Y24.993 E0.69322
G1 X37.636 Y30.263 E0.90028
G1 X36.244 Y29.460 E0.94493
G1 X30.973 Y24.189 E1.15198
G1 X29.581 Y23.385 E1.19664
G1 X34.852 Y28.656 E1.40369
G1 X33.460 Y27.852 E1.44834
G1 X28.364 Y22.756 E1.64853
G1 X27.991 Y22.972 E1.66049
G1 X32.068 Y27.048 E1.82064
G1 X30.676 Y26.245 E1.86529
G1 X27.618 Y23.187 E1.98540
G1 X27.245 Y23.402 E1.99737
G1 X29.284 Y25.441 E2.07745
G1 X27.891 Y24.637 E2.12210
G1 X26.872 Y23.618 E2.16214
G1 X26.499 Y23.833 E2.17411
G92 E0
G1 X28.428 Y23.833 F900.000
G1 X38.362 Y29.568 F900.000
G1 X39.063 Y31.128 F900.000
G1 X25.629 Y54.396 F900.000
G1 X23.928 Y54.568 F900.000
G1 X13.994 Y48.833 F900.000
G1 X13.030 Y49.390 F900.000
G1 F900
G1 X13.030 Y48.811 E0.01609
G1 X14.401 Y50.182 E0.06996
G1 X15.772 Y50.973 E0.11393
G1 X13.030 Y48.231 E0.22165
G1 X13.030 Y47.652 E0.23774
G1 X17.143 Y51.765 E0.39931
G1 X18.514 Y52.556 E0.44328
G1 X13.243 Y47.285 E0.65034
G1 X14.614 Y48.077 E0.69431
G1 X19.884 Y53.348 E0.90136
G1 X21.255 Y54.139 E0.94533
G1 X15.985 Y48.868 E1.15239
G1 X17.355 Y49.660 E1.19636
G1 X22.626 Y54.930 E1.40341
G1 X23.928 Y55.682 E1.44517
G1 X23.947 Y55.672 E1.44577
G1 X18.726 Y50.451 E1.65084
G1 X20.097 Y51.243 E1.69481
G1 X24.314 Y55.460 E1.86047
G1 X24.681 Y55.247 E1.87225
G1 X21.468 Y52.034 E1.99848
G1 X22.839 Y52.826 E2.04245
G1 X25.018 Y55.005 E2.12806
G1 X25.334 Y54.741 E2.13949
G1 X24.210 Y53.617 E2.18365
G1 X25.581 Y54.409 E2.22763
G92 E0
G1 X9.994 Y82.166 F900.000
G1 X25.931 Y57.866 F900.000
G1 F900
G1 X39.008 Y80.515 E0.72647
G1 X25.928 Y88.067 E1.14600
G1 X12.852 Y80.517 E1.56543
G1 X12.852 Y65.417 E1.98485
G1 X25.856 Y57.909 E2.40197
G1 X25.788 Y58.402 F900.000
G1 F900
G1 X38.471 Y80.371 E3.10662
G1 X25.928 Y87.613 E3.50894
G1 X13.244 Y80.290 E3.91578
G1 X13.244 Y65.644 E4.32261
G1 X25.712 Y58.446 E4.72252
G1 X26.290 Y58.112 F900.000
G1 X26.010 Y57.573 F900.000
G1 F900
G1 X39.301 Y80.594 E5.46091
G1 X25.928 Y88.314 E5.88984
G1 X12.637 Y80.641 E6.31615
G1 X12.637 Y65.294 E6.74246
G1 X25.935 Y57.616 E7.16898
G1 X26.154 Y57.036 F900.000
G1 F900
G1 X39.837 Y80.737 E7.92919
G1 X25.928 Y88.768 E8.37533
G1 X12.244 Y80.867 E8.81423
G1 X12.244 Y65.067 E9.25314
G1 X26.078 Y57.080 E9.69686
G1 X26.253 Y57.608 F900.000
G92 E0
G1 X100.597 Y82.166 F900.000
G1 X71.584 Y80.515 F900.000
G1 F900
G1 X84.660 Y57.866 E0.72647
G1 X97.740 Y65.417 E1.14600
G1 X97.740 Y80.517 E1.56543
G1 X84.663 Y88.067 E1.98485
G1 X71.659 Y80.558 E2.40197
G1 X72.120 Y80.371 F900.000
G1 F900
G1 X84.804 Y58.402 E3.10662
G1 X97.347 Y65.644 E3.50894
G1 X97.347 Y80.290 E3.91578
G1 X84.663 Y87.613 E4.32261
G1 X72.195 Y80.415 E4.72251
G1 X71.575 Y80.173 F900.000
G1 X71.290 Y80.594 F900.000
G1 F900
G1 X84.581 Y57.573 E5.46091
G1 X97.954 Y65.294 E5.88984
G1 X97.954 Y80.641 E6.31615
G1 X84.663 Y88.314 E6.74246
G1 X71.366 Y80.637 E7.16898
G1 X70.754 Y80.737 F900.000
G1 F900
G1 X84.438 Y57.036 E7.92919
G1 X98.347 Y65.067 E8.37533
G1 X98.347 Y80.867 E8.81423
G1 X84.663 Y88.768 E9.25314
G1 X70.829 Y80.781 E9.69686
G1 X71.199 Y80.365 F900.000
G92 E0
; Filament-specific end gcode 
;END gcode for filament


M104 S0 ; set temperature
; filament used = 627.6mm (4.4cm3)
; total filament cost = 0.0

; avoid_crossing_perimeters = 1
; bed_shape = 0x0,250x0,250x250,0x250
; bed_temperature = 0
; before_layer_gcode = 
; between_objects_gcode = 
; bridge_acceleration = 0
; bridge_fan_speed = 0
; brim_connections_width = 0
; brim_width = 0
; complete_objects = 1
; cooling = 0
; default_acceleration = 0
; disable_fan_first_layers = 3
; duplicate_distance = 6
; end_filament_gcode = "; Filament-specific end gcode \n;END gcode for filament\n"
; end_gcode = 
; extruder_clearance_height = 20
; extruder_clearance_radius = 20
; extruder_offset = 0x0
; extrusion_axis = E
; extrusion_multiplier = 1
; fan_always_on = 0
; fan_below_layer_time = 60
; filament_colour = #FFFFFF
; filament_cost = 0
; filament_density = 0
; filament_diameter = 3
; filament_max_volumetric_speed = 0
; filament_notes = ""
; first_layer_acceleration = 0
; first_layer_bed_temperature = 0
; first_layer_extrusion_width = 100%
; first_layer_speed = 15
; first_layer_temperature = 0
; gcode_arcs = 0
; gcode_comments = 0
; gcode_flavor = reprap
; has_heatbed = 0
; infill_acceleration = 0
; infill_first = 0
; interior_brim_width = 0
; layer_gcode = 
; max_fan_speed = 100
; max_layer_height = 10
; max_print_speed = 80
; max_volumetric_speed = 0
; min_fan_speed = 35
; min_layer_height = 0
; min_print_speed = 10
; min_skirt_length = 0
; notes = 
; nozzle_diameter = 0.58
; only_retract_when_crossing_perimeters = 0
; ooze_prevention = 0
; output_filename_format = [input_filename_base].gcode
; perimeter_acceleration = 0
; post_process = 
; pressure_advance = 0
; printer_notes = 
; resolution = 0
; retract_before_travel = 2
; retract_layer_change = 0
; retract_length = 0
; retract_length_toolchange = 10
; retract_lift = 0
; retract_lift_above = 0
; retract_lift_below = 0
; retract_restart_extra = 0
; retract_restart_extra_toolchange = 0
; retract_speed = 40
; skirt_distance = 6
; skirt_height = 1
; skirts = 0
; slowdown_below_layer_time = 5
; spiral_vase = 0
; standby_temperature_delta = -5
; start_filament_gcode = "; Filament gcode\n"
; start_gcode = 
; temperature = 0
; threads = 16
; toolchange_gcode = 
; travel_speed = 15
; use_firmware_retraction = 0
; use_relative_e_distances = 0
; use_set_and_wait_bed = 0
; use_set_and_wait_extruder = 0
; use_volumetric_e = 0
; vibration_limit = 0
; wipe = 0
; z_offset = -150
; z_steps_per_mm = 0
; adaptive_slicing = 0
; adaptive_slicing_quality = 75%
; dont_support_bridges = 1
; extrusion_width = 100%
; first_layer_height = 0.5
; infill_only_where_needed = 0
; interface_shells = 0
; layer_height = 0.5
; match_horizontal_surfaces = 0
; raft_layers = 0
; regions_overlap = 0
; seam_position = aligned
; sequential_print_priority = 0
; support_material = 0
; support_material_angle = 0
; support_material_buildplate_only = 0
; support_material_contact_distance = 0.2
; support_material_enforce_layers = 0
; support_material_extruder = 1
; support_material_extrusion_width = 0
; support_material_interface_extruder = 1
; support_material_interface_extrusion_width = 0
; support_material_interface_layers = 3
; support_material_interface_spacing = 0
; support_material_interface_speed = 100%
; support_material_max_layers = 0
; support_material_pattern = pillars
; support_material_spacing = 2.5
; support_material_speed = 15
; support_material_threshold = 60%
; xy_size_compensation = 0
; bottom_infill_pattern = rectilinear
; bottom_solid_layers = 0
; bridge_flow_ratio = 1
; bridge_speed = 15
; external_perimeter_extrusion_width = 100%
; external_perimeter_speed = 15
; external_perimeters_first = 0
; extra_perimeters = 0
; fill_angle = 45
; fill_density = 100%
; fill_gaps = 0
; fill_pattern = rectilinear
; gap_fill_speed = 15
; infill_every_layers = 1
; infill_extruder = 1
; infill_extrusion_width = 100%
; infill_overlap = 0
; infill_speed = 15
; overhangs = 0
; perimeter_extruder = 1
; perimeter_extrusion_width = 100%
; perimeter_speed = 15
; perimeters = 2
; small_perimeter_speed = 15
; solid_infill_below_area = 50
; solid_infill_every_layers = 0
; solid_infill_extruder = 1
; solid_infill_extrusion_width = 100%
; solid_infill_speed = 15
; thin_walls = 0
; top_infill_extrusion_width = 100%
; top_infill_pattern = rectilinear
; top_solid_infill_speed = 15
; top_solid_layers = 0
