; generated by Slic3r 1.3.0 on 2023-07-04 at 12:35:58

; external perimeters extrusion width = 0.49mm (2.83mm^3/s)
; perimeters extrusion width = 0.49mm (2.83mm^3/s)
; infill extrusion width = 0.49mm (2.83mm^3/s)
; solid infill extrusion width = 0.49mm (2.83mm^3/s)
; top infill extrusion width = 0.49mm (2.83mm^3/s)


; Filament gcode

G21 ; set units to millimeters
G90 ; use absolute coordinates
G1 Z-149.510 F900.000
G1 X5.550 Y20.419 F900.000
G1 F900
G1 X6.000 Y20.833 0.00000
G1 X6.135 Y21.005 0.00000
G1 X6.230 Y21.175 0.00000
G1 X6.294 Y21.356 0.00000
G1 X6.324 Y21.681 0.00000
G1 X6.290 Y21.927 0.00000
G1 X6.009 Y22.876 0.00000
G1 X5.978 Y23.164 0.00000
G1 X5.998 Y23.550 0.00000
G1 X6.073 Y23.921 0.00000
G1 X6.231 Y24.367 0.00000
G1 X6.489 Y24.857 0.00000
G1 X6.823 Y25.315 0.00000
G1 X7.239 Y25.752 0.00000
G1 X7.076 Y26.375 0.00000
G1 X7.025 Y26.878 0.00000
G1 X7.059 Y27.461 0.00000
G1 X7.180 Y28.004 0.00000
G1 X7.409 Y28.583 0.00000
G1 X7.748 Y29.142 0.00000
G1 X8.141 Y29.600 0.00000
G1 X8.582 Y29.968 0.00000
G1 X9.090 Y30.267 0.00000
G1 X9.558 Y30.446 0.00000
G1 X9.890 Y30.535 0.00000
G1 X9.937 Y31.011 0.00000
G1 X9.999 Y31.242 0.00000
G1 X10.095 Y31.453 0.00000
G1 X10.223 Y31.645 0.00000
G1 X10.425 Y31.865 0.00000
G1 X10.817 Y32.173 0.00000
G1 X11.827 Y32.803 0.00000
G1 X12.203 Y33.080 0.00000
G1 X12.497 Y33.365 0.00000
G1 X12.713 Y33.664 0.00000
G1 X12.827 Y33.881 0.00000
G1 X12.927 Y34.174 0.00000
G1 X12.983 Y34.521 0.00000
G1 X12.993 Y35.061 0.00000
G1 X11.364 Y35.076 0.00000
G1 X10.002 Y34.880 0.00000
G1 X8.610 Y34.469 0.00000
G1 X8.224 Y34.314 0.00000
G1 X7.026 Y33.726 0.00000
G1 X5.764 Y32.841 0.00000
G1 X4.841 Y31.941 0.00000
G1 X4.120 Y30.966 0.00000
G1 X3.623 Y30.002 0.00000
G1 X3.276 Y28.924 0.00000
G1 X3.102 Y27.783 0.00000
G1 X3.127 Y26.527 0.00000
G1 X3.315 Y25.463 0.00000
G1 X3.716 Y24.191 0.00000
G1 X4.461 Y22.516 0.00000
G1 X5.509 Y20.496 0.00000
G1 X7.258 Y22.229 F900.000
G1 F900
G1 X7.491 Y22.177 0.00000
G1 X16.865 Y27.171 0.00000
G1 X18.355 Y30.093 0.00000
G1 X7.322 Y25.708 0.00000
G1 X7.349 Y25.399 0.00000
G1 X7.281 Y25.178 0.00000
G1 X6.852 Y24.129 0.00000
G1 X6.714 Y23.713 0.00000
G1 X6.628 Y23.288 0.00000
G1 X6.632 Y22.900 0.00000
G1 X6.720 Y22.635 0.00000
G1 X6.861 Y22.446 0.00000
G1 X6.979 Y22.350 0.00000
G1 X7.178 Y22.264 0.00000
G1 X18.739 Y28.045 F900.000
G1 F900
G1 X7.630 Y22.126 0.00000
G1 X7.407 Y22.046 0.00000
G1 X7.198 Y21.929 0.00000
G1 X7.014 Y21.782 0.00000
G1 X6.862 Y21.608 0.00000
G1 X6.756 Y21.438 0.00000
G1 X6.669 Y21.231 0.00000
G1 X6.616 Y21.012 0.00000
G1 X6.595 Y20.772 0.00000
G1 X6.612 Y20.512 0.00000
G1 X6.676 Y20.235 0.00000
G1 X6.778 Y19.980 0.00000
G1 X6.932 Y19.723 0.00000
G1 X7.117 Y19.507 0.00000
G1 X7.346 Y19.313 0.00000
G1 X7.603 Y19.156 0.00000
G1 X7.911 Y19.028 0.00000
G1 X8.211 Y18.955 0.00000
G1 X8.460 Y18.935 0.00000
G1 X8.908 Y18.962 0.00000
G1 X9.466 Y19.103 0.00000
G1 X10.488 Y19.484 0.00000
G1 X12.001 Y19.893 0.00000
G1 X12.354 Y20.050 0.00000
G1 X12.678 Y20.261 0.00000
G1 X19.960 Y26.667 0.00000
G1 X18.797 Y27.980 0.00000
G1 X25.790 Y25.121 F900.000
G1 F900
G1 X19.859 Y26.432 0.00000
G1 X12.620 Y20.063 0.00000
G1 X12.569 Y19.555 0.00000
G1 X12.595 Y19.243 0.00000
G1 X12.689 Y18.835 0.00000
G1 X12.924 Y18.250 0.00000
G1 X13.186 Y17.816 0.00000
G1 X13.570 Y17.352 0.00000
G1 X13.860 Y17.101 0.00000
G1 X14.253 Y16.867 0.00000
G1 X14.495 Y16.778 0.00000
G1 X14.777 Y16.725 0.00000
G1 X14.987 Y16.718 0.00000
G1 X15.250 Y16.748 0.00000
G1 X15.591 Y16.839 0.00000
G1 X16.027 Y17.030 0.00000
G1 X16.616 Y17.393 0.00000
G1 X17.252 Y17.910 0.00000
G1 X17.837 Y18.497 0.00000
G1 X19.727 Y20.542 0.00000
G1 X21.228 Y21.930 0.00000
G1 X22.759 Y23.095 0.00000
G1 X24.136 Y23.929 0.00000
G1 X25.833 Y24.698 0.00000
G1 X25.798 Y25.035 0.00000
G1 X28.685 Y23.294 F900.000
G1 F900
G1 X26.783 Y22.759 0.00000
G1 X25.182 Y22.186 0.00000
G1 X23.690 Y21.470 0.00000
G1 X23.467 Y21.343 0.00000
G1 X22.212 Y20.508 0.00000
G1 X21.205 Y19.613 0.00000
G1 X20.787 Y19.098 0.00000
G1 X20.537 Y18.662 0.00000
G1 X20.397 Y18.291 0.00000
G1 X20.320 Y17.920 0.00000
G1 X20.284 Y17.358 0.00000
G1 X20.344 Y16.051 0.00000
G1 X20.313 Y15.379 0.00000
G1 X19.932 Y13.333 0.00000
G1 X28.685 Y18.662 0.00000
G1 X28.685 Y23.207 0.00000
G1 X33.323 Y18.579 F900.000
G1 F900
G1 X28.761 Y18.579 0.00000
G1 X19.955 Y13.219 0.00000
G1 X19.997 Y12.146 0.00000
G1 X20.161 Y11.342 0.00000
G1 X20.353 Y10.826 0.00000
G1 X20.603 Y10.377 0.00000
G1 X20.979 Y9.898 0.00000
G1 X21.454 Y9.463 0.00000
G1 X22.179 Y8.987 0.00000
G1 X23.355 Y8.449 0.00000
G1 X25.101 Y7.906 0.00000
G1 X33.270 Y18.510 0.00000
G1 X38.548 Y20.444 F900.000
G1 F900
G1 X33.443 Y18.555 0.00000
G1 X25.216 Y7.874 0.00000
G1 X27.225 Y7.381 0.00000
G1 X29.320 Y6.970 0.00000
G1 X30.912 Y6.823 0.00000
G1 X32.535 Y6.894 0.00000
G1 X38.513 Y20.365 0.00000
G1 X43.632 Y25.024 F900.000
G1 F900
G1 X38.558 Y20.194 0.00000
G1 X32.644 Y6.869 0.00000
G1 X34.419 Y7.370 0.00000
G1 X35.892 Y8.027 0.00000
G1 X37.306 Y8.935 0.00000
G1 X38.658 Y10.113 0.00000
G1 X43.632 Y23.346 0.00000
G1 X43.632 Y24.937 0.00000
G1 X43.147 Y21.745 F900.000
G1 F900
G1 X39.348 Y11.636 0.00000
G1 X39.790 Y11.388 0.00000
G1 X40.255 Y11.986 0.00000
G1 X41.429 Y13.728 0.00000
G1 X42.536 Y15.705 0.00000
G1 X43.632 Y18.039 0.00000
G1 X43.632 Y21.657 0.00000
G1 X43.233 Y21.729 0.00000
G1 X43.127 Y24.695 F900.000
G1 F900
G1 X42.946 Y25.080 0.00000
G1 X41.421 Y24.899 0.00000
G1 X34.762 Y24.290 0.00000
G1 X31.887 Y23.919 0.00000
G1 X28.770 Y23.313 0.00000
G1 X28.770 Y18.689 0.00000
G1 X33.299 Y18.689 0.00000
G1 X39.054 Y20.819 0.00000
G1 X43.064 Y24.635 0.00000
G1 X41.780 Y27.115 F900.000
G1 F900
G1 X41.858 Y27.543 0.00000
G1 X38.426 Y29.335 0.00000
G1 X35.899 Y30.435 0.00000
G1 X33.231 Y31.367 0.00000
G1 X29.560 Y32.382 0.00000
G1 X27.873 Y32.813 0.00000
G1 X26.252 Y33.257 0.00000
G1 X25.256 Y33.453 0.00000
G1 X24.472 Y33.511 0.00000
G1 X23.860 Y33.469 0.00000
G1 X23.396 Y33.367 0.00000
G1 X22.967 Y33.204 0.00000
G1 X22.554 Y32.964 0.00000
G1 X22.277 Y32.742 0.00000
G1 X22.056 Y32.502 0.00000
G1 X21.902 Y32.272 0.00000
G1 X21.792 Y32.030 0.00000
G1 X21.739 Y31.837 0.00000
G1 X21.715 Y31.631 0.00000
G1 X21.725 Y31.412 0.00000
G1 X21.767 Y31.210 0.00000
G1 X21.849 Y30.995 0.00000
G1 X21.981 Y30.762 0.00000
G1 X22.084 Y30.643 0.00000
G1 X21.563 Y30.319 0.00000
G1 X20.736 Y29.611 0.00000
G1 X20.268 Y29.072 0.00000
G1 X19.989 Y28.657 0.00000
G1 X19.818 Y28.302 0.00000
G1 X19.732 Y28.024 0.00000
G1 X19.696 Y27.791 0.00000
G1 X19.697 Y27.582 0.00000
G1 X19.726 Y27.400 0.00000
G1 X19.820 Y27.149 0.00000
G1 X19.932 Y26.973 0.00000
G1 X20.070 Y26.820 0.00000
G1 X20.264 Y26.663 0.00000
G1 X20.496 Y26.527 0.00000
G1 X20.919 Y26.358 0.00000
G1 X25.970 Y25.230 0.00000
G1 X41.694 Y27.105 0.00000
G1 X20.137 Y33.586 F900.000
G1 F900
G1 X13.704 Y33.586 0.00000
G1 X13.470 Y33.325 0.00000
G1 X13.180 Y33.092 0.00000
G1 X12.022 Y32.412 0.00000
G1 X11.421 Y32.013 0.00000
G1 X11.156 Y31.773 0.00000
G1 X10.960 Y31.534 0.00000
G1 X10.827 Y31.308 0.00000
G1 X10.736 Y31.076 0.00000
G1 X10.679 Y30.786 0.00000
G1 X10.655 Y30.220 0.00000
G1 X19.820 Y32.965 0.00000
G1 X20.097 Y33.509 0.00000
G1 X19.751 Y32.830 F900.000
G1 F900
G1 X9.496 Y29.758 0.00000
G1 X9.366 Y29.520 0.00000
G1 X9.188 Y29.290 0.00000
G1 X8.344 Y28.484 0.00000
G1 X7.842 Y27.967 0.00000
G1 X7.595 Y27.633 0.00000
G1 X7.443 Y27.344 0.00000
G1 X7.335 Y26.967 0.00000
G1 X7.320 Y26.742 0.00000
G1 X7.343 Y26.514 0.00000
G1 X7.408 Y26.278 0.00000
G1 X7.557 Y25.920 0.00000
G1 X18.431 Y30.241 0.00000
G1 X19.711 Y32.752 0.00000
G1 X17.742 Y16.562 F900.000
G1 F900
G1 X18.128 Y16.262 0.00000
G1 X17.816 Y15.707 0.00000
G1 X17.659 Y15.270 0.00000
G1 X17.543 Y14.686 0.00000
G1 X17.536 Y14.081 0.00000
G1 X17.637 Y13.409 0.00000
G1 X17.911 Y12.540 0.00000
G1 X18.480 Y11.380 0.00000
G1 X19.545 Y9.793 0.00000
G1 X20.005 Y9.212 0.00000
G1 X20.711 Y8.423 0.00000
G1 X21.843 Y7.386 0.00000
G1 X23.039 Y6.555 0.00000
G1 X24.533 Y5.822 0.00000
G1 X26.116 Y5.327 0.00000
G1 X27.803 Y5.050 0.00000
G1 X29.419 Y5.002 0.00000
G1 X31.189 Y5.189 0.00000
G1 X32.899 Y5.627 0.00000
G1 X34.552 Y6.301 0.00000
G1 X36.013 Y7.117 0.00000
G1 X37.768 Y8.387 0.00000
G1 X39.369 Y9.874 0.00000
G1 X40.838 Y11.580 0.00000
G1 X42.101 Y13.408 0.00000
G1 X43.187 Y15.400 0.00000
G1 X43.632 Y15.287 0.00000
G1 X43.632 Y1.860 0.00000
G1 X44.892 Y1.860 0.00000
G1 X44.892 Y31.370 0.00000
G1 X43.632 Y31.370 0.00000
G1 X43.632 Y27.920 0.00000
G1 X39.760 Y29.876 0.00000
G1 X36.184 Y31.418 0.00000
G1 X32.570 Y32.718 0.00000
G1 X28.776 Y33.814 0.00000
G1 X25.453 Y34.559 0.00000
G1 X24.774 Y34.690 0.00000
G1 X20.963 Y35.262 0.00000
G1 X17.114 Y35.593 0.00000
G1 X14.650 Y35.661 0.00000
G1 X12.426 Y35.556 0.00000
G1 X10.473 Y35.269 0.00000
G1 X8.931 Y34.873 0.00000
G1 X7.406 Y34.281 0.00000
G1 X6.034 Y33.534 0.00000
G1 X4.924 Y32.727 0.00000
G1 X3.975 Y31.802 0.00000
G1 X3.378 Y31.001 0.00000
G1 X2.991 Y30.269 0.00000
G1 X2.740 Y29.531 0.00000
G1 X2.596 Y28.715 0.00000
G1 X2.558 Y27.954 0.00000
G1 X2.643 Y26.740 0.00000
G1 X2.918 Y25.296 0.00000
G1 X3.418 Y23.658 0.00000
G1 X4.034 Y22.238 0.00000
G1 X4.957 Y20.680 0.00000
G1 X5.990 Y19.387 0.00000
G1 X7.126 Y18.305 0.00000
G1 X7.286 Y18.174 0.00000
G1 X8.566 Y17.261 0.00000
G1 X10.032 Y16.464 0.00000
G1 X11.738 Y15.789 0.00000
G1 X13.127 Y15.431 0.00000
G1 X14.318 Y15.302 0.00000
G1 X15.123 Y15.332 0.00000
G1 X15.772 Y15.451 0.00000
G1 X16.475 Y15.692 0.00000
G1 X17.012 Y15.985 0.00000
G1 X17.673 Y16.508 0.00000
G1 X7.812 Y28.489 F900.000
G1 F900
G1 X8.052 Y28.902 0.00000
G1 X8.136 Y28.818 0.00000
G1 X8.471 Y29.137 0.00000
G1 X8.352 Y29.255 0.00000
G1 X8.412 Y29.325 0.00000
G1 X8.697 Y29.563 0.00000
G1 X8.805 Y29.456 0.00000
G1 X8.902 Y29.549 0.00000
G1 X9.092 Y29.822 0.00000
G1 X13.100 Y33.521 F900.000
G1 F900
G1 X13.082 Y33.539 0.00000
G1 X13.182 Y33.728 0.00000
G1 X13.247 Y33.919 0.00000
G1 X13.373 Y33.793 0.00000
G1 X13.532 Y33.971 0.00000
G1 X13.740 Y33.971 0.00000
G1 X13.348 Y34.363 0.00000
G1 X13.368 Y34.487 0.00000
G1 X13.375 Y34.881 0.00000
G1 X14.284 Y33.971 0.00000
G1 X14.829 Y33.971 0.00000
G1 X13.576 Y35.225 0.00000
G1 X14.096 Y35.249 0.00000
G1 X15.374 Y33.971 0.00000
G1 X15.919 Y33.971 0.00000
G1 X14.616 Y35.274 0.00000
G1 X15.173 Y35.261 0.00000
G1 X16.463 Y33.971 0.00000
G1 X17.008 Y33.971 0.00000
G1 X15.734 Y35.246 0.00000
G1 X16.294 Y35.230 0.00000
G1 X17.553 Y33.971 0.00000
G1 X18.098 Y33.971 0.00000
G1 X16.854 Y35.215 0.00000
G1 X17.434 Y35.179 0.00000
G1 X18.642 Y33.971 0.00000
G1 X19.187 Y33.971 0.00000
G1 X18.030 Y35.128 0.00000
G1 X18.626 Y35.077 0.00000
G1 X19.732 Y33.971 0.00000
G1 X20.276 Y33.971 0.00000
G1 X19.222 Y35.026 0.00000
G1 X19.818 Y34.974 0.00000
G1 X21.896 Y32.896 0.00000
G1 X22.014 Y33.024 0.00000
G1 X22.180 Y33.157 0.00000
G1 X20.414 Y34.923 0.00000
G1 X21.017 Y34.865 0.00000
G1 X22.503 Y33.379 0.00000
G1 X22.854 Y33.573 0.00000
G1 X21.658 Y34.769 0.00000
G1 X22.299 Y34.672 0.00000
G1 X23.248 Y33.723 0.00000
G1 X23.690 Y33.826 0.00000
G1 X22.940 Y34.576 0.00000
G1 X23.581 Y34.480 0.00000
G1 X24.184 Y33.877 0.00000
G1 X24.474 Y33.897 0.00000
G1 X24.727 Y33.878 0.00000
G1 X24.222 Y34.384 0.00000
G1 X24.709 Y34.310 0.00000
G1 X24.871 Y34.279 0.00000
G1 X25.317 Y33.833 0.00000
G1 X25.995 Y33.700 0.00000
G1 X25.553 Y34.142 0.00000
G1 X26.255 Y33.985 0.00000
G1 X26.709 Y33.531 0.00000
G1 X27.459 Y33.325 0.00000
G1 X26.957 Y33.828 0.00000
G1 X27.659 Y33.670 0.00000
G1 X28.203 Y33.126 0.00000
G1 X28.935 Y32.939 0.00000
G1 X28.361 Y33.513 0.00000
G1 X28.681 Y33.441 0.00000
G1 X29.097 Y33.321 0.00000
G1 X29.666 Y32.752 0.00000
G1 X30.419 Y32.544 0.00000
G1 X29.864 Y33.100 0.00000
G1 X30.630 Y32.878 0.00000
G1 X31.173 Y32.335 0.00000
G1 X31.926 Y32.127 0.00000
G1 X31.396 Y32.657 0.00000
G1 X32.162 Y32.435 0.00000
G1 X32.679 Y31.919 0.00000
G1 X33.441 Y31.701 0.00000
G1 X32.981 Y32.161 0.00000
G1 X33.832 Y31.855 0.00000
G1 X34.278 Y31.409 0.00000
G1 X35.115 Y31.116 0.00000
G1 X34.682 Y31.549 0.00000
G1 X35.533 Y31.243 0.00000
G1 X35.953 Y30.824 0.00000
G1 X36.904 Y30.417 0.00000
G1 X36.427 Y30.894 0.00000
G1 X37.385 Y30.481 0.00000
G1 X37.868 Y29.997 0.00000
G1 X38.592 Y29.682 0.00000
G1 X38.877 Y29.534 0.00000
G1 X38.343 Y30.068 0.00000
G1 X39.301 Y29.655 0.00000
G1 X40.017 Y28.938 0.00000
G1 X41.157 Y28.343 0.00000
G1 X40.357 Y29.143 0.00000
G1 X42.204 Y27.296 F900.000
G1 F900
G1 X43.792 Y25.708 0.00000
G1 X43.513 Y25.442 0.00000
G1 X42.121 Y26.834 0.00000
G1 X42.108 Y26.766 0.00000
G1 X41.694 Y26.717 0.00000
G1 X42.943 Y25.467 0.00000
G1 X42.456 Y25.409 0.00000
G1 X41.207 Y26.659 0.00000
G1 X40.720 Y26.601 0.00000
G1 X41.969 Y25.352 0.00000
G1 X41.482 Y25.294 0.00000
G1 X40.233 Y26.543 0.00000
G1 X39.747 Y26.485 0.00000
G1 X40.986 Y25.246 0.00000
G1 X40.487 Y25.200 0.00000
G1 X39.260 Y26.427 0.00000
G1 X38.773 Y26.369 0.00000
G1 X39.988 Y25.155 0.00000
G1 X39.489 Y25.109 0.00000
G1 X38.287 Y26.311 0.00000
G1 X37.800 Y26.253 0.00000
G1 X38.989 Y25.063 0.00000
G1 X38.490 Y25.018 0.00000
G1 X37.313 Y26.195 0.00000
G1 X36.827 Y26.137 0.00000
G1 X37.991 Y24.972 0.00000
G1 X37.492 Y24.926 0.00000
G1 X36.340 Y26.079 0.00000
G1 X35.853 Y26.021 0.00000
G1 X36.993 Y24.881 0.00000
G1 X36.494 Y24.835 0.00000
G1 X35.367 Y25.963 0.00000
G1 X34.880 Y25.904 0.00000
G1 X35.995 Y24.789 0.00000
G1 X35.496 Y24.744 0.00000
G1 X34.393 Y25.846 0.00000
G1 X33.907 Y25.788 0.00000
G1 X34.997 Y24.698 0.00000
G1 X34.505 Y24.645 0.00000
G1 X33.420 Y25.730 0.00000
G1 X32.933 Y25.672 0.00000
G1 X34.023 Y24.583 0.00000
G1 X33.540 Y24.521 0.00000
G1 X32.446 Y25.614 0.00000
G1 X31.960 Y25.556 0.00000
G1 X33.058 Y24.458 0.00000
G1 X32.575 Y24.396 0.00000
G1 X31.473 Y25.498 0.00000
G1 X30.986 Y25.440 0.00000
G1 X32.093 Y24.334 0.00000
G1 X31.622 Y24.260 0.00000
G1 X30.500 Y25.382 0.00000
G1 X30.013 Y25.324 0.00000
G1 X31.166 Y24.171 0.00000
G1 X30.710 Y24.082 0.00000
G1 X29.526 Y25.266 0.00000
G1 X29.040 Y25.208 0.00000
G1 X30.254 Y23.994 0.00000
G1 X29.798 Y23.905 0.00000
G1 X28.553 Y25.150 0.00000
G1 X28.066 Y25.092 0.00000
G1 X29.342 Y23.816 0.00000
G1 X29.070 Y23.763 0.00000
G1 X29.070 Y23.802 0.00000
G1 X28.868 Y23.745 0.00000
G1 X27.580 Y25.034 0.00000
G1 X27.093 Y24.976 0.00000
G1 X28.430 Y23.639 0.00000
G1 X28.385 Y23.630 0.00000
G1 X28.385 Y23.609 0.00000
G1 X28.018 Y23.506 0.00000
G1 X26.606 Y24.918 0.00000
G1 X26.202 Y24.870 0.00000
G1 X26.213 Y24.766 0.00000
G1 X27.593 Y23.386 0.00000
G1 X27.168 Y23.267 0.00000
G1 X26.057 Y24.377 0.00000
G1 X25.683 Y24.207 0.00000
G1 X26.743 Y23.147 0.00000
G1 X26.337 Y23.008 0.00000
G1 X25.308 Y24.037 0.00000
G1 X24.933 Y23.868 0.00000
G1 X25.936 Y22.864 0.00000
G1 X25.535 Y22.721 0.00000
G1 X24.558 Y23.698 0.00000
G1 X24.316 Y23.588 0.00000
G1 X24.196 Y23.515 0.00000
G1 X25.134 Y22.577 0.00000
G1 X24.757 Y22.409 0.00000
G1 X23.857 Y23.310 0.00000
G1 X23.517 Y23.104 0.00000
G1 X24.389 Y22.232 0.00000
G1 X24.021 Y22.056 0.00000
G1 X23.178 Y22.899 0.00000
G1 X22.851 Y22.681 0.00000
G1 X23.653 Y21.879 0.00000
G1 X23.298 Y21.689 0.00000
G1 X22.541 Y22.446 0.00000
G1 X22.232 Y22.211 0.00000
G1 X22.969 Y21.473 0.00000
G1 X22.642 Y21.256 0.00000
G1 X21.923 Y21.975 0.00000
G1 X21.613 Y21.740 0.00000
G1 X22.315 Y21.038 0.00000
G1 X21.988 Y20.821 0.00000
G1 X21.319 Y21.490 0.00000
G1 X21.036 Y21.228 0.00000
G1 X21.698 Y20.566 0.00000
G1 X21.410 Y20.309 0.00000
G1 X20.753 Y20.966 0.00000
G1 X20.470 Y20.705 0.00000
G1 X21.121 Y20.053 0.00000
G1 X20.926 Y19.880 0.00000
G1 X20.847 Y19.782 0.00000
G1 X20.187 Y20.443 0.00000
G1 X19.911 Y20.174 0.00000
G1 X20.603 Y19.482 0.00000
G1 X20.469 Y19.316 0.00000
G1 X20.380 Y19.161 0.00000
G1 X19.649 Y19.891 0.00000
G1 X19.388 Y19.608 0.00000
G1 X20.182 Y18.813 0.00000
G1 X20.033 Y18.417 0.00000
G1 X19.126 Y19.325 0.00000
G1 X18.864 Y19.042 0.00000
G1 X19.937 Y17.969 0.00000
G1 X19.905 Y17.457 0.00000
G1 X18.603 Y18.759 0.00000
G1 X18.341 Y18.476 0.00000
G1 X19.920 Y16.897 0.00000
G1 X19.946 Y16.325 0.00000
G1 X18.078 Y18.194 0.00000
G1 X17.806 Y17.921 0.00000
G1 X19.947 Y15.781 0.00000
G1 X19.930 Y15.423 0.00000
G1 X19.904 Y15.279 0.00000
G1 X17.534 Y17.648 0.00000
G1 X17.236 Y17.401 0.00000
G1 X17.654 Y16.984 0.00000
G1 X17.350 Y16.743 0.00000
G1 X16.936 Y17.157 0.00000
G1 X16.611 Y16.938 0.00000
G1 X17.046 Y16.503 0.00000
G1 X16.732 Y16.271 0.00000
G1 X16.274 Y16.730 0.00000
G1 X15.903 Y16.556 0.00000
G1 X16.380 Y16.079 0.00000
G1 X15.984 Y15.930 0.00000
G1 X15.498 Y16.416 0.00000
G1 X15.322 Y16.369 0.00000
G1 X15.033 Y16.336 0.00000
G1 X15.565 Y15.804 0.00000
G1 X15.105 Y15.720 0.00000
G1 X14.425 Y16.400 0.00000
G1 X14.087 Y16.518 0.00000
G1 X13.634 Y16.788 0.00000
G1 X13.294 Y17.082 0.00000
G1 X12.872 Y17.592 0.00000
G1 X12.579 Y18.077 0.00000
G1 X12.465 Y18.359 0.00000
G1 X11.473 Y19.351 0.00000
G1 X11.044 Y19.236 0.00000
G1 X14.583 Y15.697 0.00000
G1 X14.331 Y15.688 0.00000
G1 X14.013 Y15.722 0.00000
G1 X10.615 Y19.120 0.00000
G1 X10.218 Y18.972 0.00000
G1 X13.402 Y15.788 0.00000
G1 X13.196 Y15.811 0.00000
G1 X12.710 Y15.936 0.00000
G1 X9.821 Y18.824 0.00000
G1 X9.409 Y18.692 0.00000
G1 X11.976 Y16.125 0.00000
G1 X11.858 Y16.155 0.00000
G1 X11.102 Y16.455 0.00000
G1 X8.974 Y18.582 0.00000
G1 X8.462 Y18.550 0.00000
G1 X10.200 Y16.811 0.00000
G1 X9.008 Y17.459 0.00000
G1 X7.811 Y18.656 0.00000
G1 X7.427 Y18.812 0.00000
G1 X7.120 Y19.001 0.00000
G1 X6.845 Y19.233 0.00000
G1 X6.618 Y19.498 0.00000
G1 X6.432 Y19.808 0.00000
G1 X6.296 Y20.171 0.00000
G1 X6.081 Y20.385 0.00000
G1 X5.853 Y20.175 0.00000
G1 X6.278 Y19.644 0.00000
G1 X11.902 Y19.467 F900.000
G1 F900
G1 X12.222 Y19.147 0.00000
G1 X12.320 Y18.719 0.00000
G1 X12.465 Y18.359 0.00000
G1 X18.499 Y16.138 F900.000
G1 F900
G1 X19.819 Y14.819 0.00000
G1 X19.735 Y14.358 0.00000
G1 X18.304 Y15.789 0.00000
G1 X18.167 Y15.546 0.00000
G1 X18.124 Y15.425 0.00000
G1 X19.649 Y13.899 0.00000
G1 X19.561 Y13.443 0.00000
G1 X17.999 Y15.005 0.00000
G1 X17.927 Y14.646 0.00000
G1 X17.926 Y14.533 0.00000
G1 X19.473 Y12.986 0.00000
G1 X19.390 Y12.553 0.00000
G1 X19.591 Y12.675 0.00000
G1 X19.605 Y12.309 0.00000
G1 X17.941 Y13.973 0.00000
G1 X18.013 Y13.496 0.00000
G1 X18.077 Y13.292 0.00000
G1 X19.702 Y11.667 0.00000
G1 X19.790 Y11.236 0.00000
G1 X19.909 Y10.915 0.00000
G1 X21.652 Y8.083 F900.000
G1 F900
G1 X20.985 Y8.694 0.00000
G1 X20.508 Y9.227 0.00000
G1 X21.652 Y8.083 0.00000
G1 X22.084 Y7.687 0.00000
G1 X23.235 Y6.887 0.00000
G1 X23.544 Y6.736 0.00000
G1 X19.032 Y11.248 0.00000
G1 X18.814 Y11.573 0.00000
G1 X18.392 Y12.432 0.00000
G1 X19.909 Y10.915 0.00000
G1 X20.003 Y10.664 0.00000
G1 X20.282 Y10.163 0.00000
G1 X20.696 Y9.635 0.00000
G1 X21.217 Y9.158 0.00000
G1 X21.992 Y8.649 0.00000
G1 X22.330 Y8.495 0.00000
G1 X24.613 Y6.211 0.00000
G1 X25.422 Y5.947 0.00000
G1 X23.309 Y8.060 0.00000
G1 X24.105 Y7.809 0.00000
G1 X26.213 Y5.701 0.00000
G1 X26.865 Y5.594 0.00000
G1 X24.905 Y7.554 0.00000
G1 X25.626 Y7.377 0.00000
G1 X27.517 Y5.487 0.00000
G1 X27.840 Y5.434 0.00000
G1 X28.123 Y5.425 0.00000
G1 X26.348 Y7.200 0.00000
G1 X27.070 Y7.023 0.00000
G1 X28.684 Y5.409 0.00000
G1 X29.245 Y5.392 0.00000
G1 X27.752 Y6.885 0.00000
G1 X28.430 Y6.752 0.00000
G1 X29.758 Y5.425 0.00000
G1 X30.250 Y5.477 0.00000
G1 X29.108 Y6.620 0.00000
G1 X29.726 Y6.546 0.00000
G1 X30.743 Y5.529 0.00000
G1 X31.120 Y5.568 0.00000
G1 X31.222 Y5.594 0.00000
G1 X30.326 Y6.491 0.00000
G1 X30.923 Y6.438 0.00000
G1 X31.656 Y5.706 0.00000
G1 X32.089 Y5.817 0.00000
G1 X31.445 Y6.461 0.00000
G1 X31.966 Y6.484 0.00000
G1 X32.026 Y6.425 0.00000
G1 X31.960 Y6.276 0.00000
G1 X32.127 Y6.324 0.00000
G1 X32.523 Y5.928 0.00000
G1 X32.778 Y5.993 0.00000
G1 X32.937 Y6.058 0.00000
G1 X32.552 Y6.443 0.00000
G1 X32.977 Y6.563 0.00000
G1 X33.324 Y6.216 0.00000
G1 X33.711 Y6.374 0.00000
G1 X33.402 Y6.683 0.00000
G1 X33.827 Y6.803 0.00000
G1 X34.098 Y6.532 0.00000
G1 X34.385 Y6.649 0.00000
G1 X34.475 Y6.699 0.00000
G1 X34.251 Y6.923 0.00000
G1 X34.550 Y7.007 0.00000
G1 X34.662 Y7.057 0.00000
G1 X34.825 Y6.894 0.00000
G1 X35.174 Y7.090 0.00000
G1 X35.039 Y7.225 0.00000
G1 X35.415 Y7.393 0.00000
G1 X35.524 Y7.285 0.00000
G1 X35.867 Y7.487 0.00000
G1 X35.792 Y7.561 0.00000
G1 X36.158 Y7.740 0.00000
G1 X36.183 Y7.715 0.00000
G1 X36.499 Y7.944 0.00000
G1 X36.489 Y7.953 0.00000
G1 X39.182 Y10.247 F900.000
G1 F900
G1 X39.137 Y10.293 0.00000
G1 X39.315 Y10.768 0.00000
G1 X39.485 Y10.598 0.00000
G1 X39.786 Y10.949 0.00000
G1 X44.377 Y2.245 F900.000
G1 F900
G1 X44.016 Y2.245 0.00000
G1 X44.016 Y2.605 0.00000
G1 X44.377 Y2.245 0.00000
G1 X44.507 Y2.245 0.00000
G1 X44.507 Y2.660 0.00000
G1 X44.016 Y3.150 0.00000
G1 X44.016 Y3.695 0.00000
G1 X44.507 Y3.204 0.00000
G1 X44.507 Y3.749 0.00000
G1 X44.016 Y4.239 0.00000
G1 X44.016 Y4.784 0.00000
G1 X44.507 Y4.294 0.00000
G1 X44.507 Y4.838 0.00000
G1 X44.016 Y5.329 0.00000
G1 X44.016 Y5.874 0.00000
G1 X44.507 Y5.383 0.00000
G1 X44.507 Y5.928 0.00000
G1 X44.016 Y6.418 0.00000
G1 X44.016 Y6.963 0.00000
G1 X44.507 Y6.473 0.00000
G1 X44.507 Y7.017 0.00000
G1 X44.016 Y7.508 0.00000
G1 X44.016 Y8.052 0.00000
G1 X44.507 Y7.562 0.00000
G1 X44.507 Y8.107 0.00000
G1 X44.016 Y8.597 0.00000
G1 X44.016 Y9.142 0.00000
G1 X44.507 Y8.652 0.00000
G1 X44.507 Y9.196 0.00000
G1 X44.016 Y9.687 0.00000
G1 X44.016 Y10.231 0.00000
G1 X44.507 Y9.741 0.00000
G1 X44.507 Y10.286 0.00000
G1 X44.016 Y10.776 0.00000
G1 X44.016 Y11.321 0.00000
G1 X44.507 Y10.830 0.00000
G1 X44.507 Y11.375 0.00000
G1 X44.016 Y11.865 0.00000
G1 X44.016 Y12.410 0.00000
G1 X44.507 Y11.920 0.00000
G1 X44.507 Y12.465 0.00000
G1 X44.016 Y12.955 0.00000
G1 X44.016 Y13.500 0.00000
G1 X44.507 Y13.009 0.00000
G1 X44.507 Y13.554 0.00000
G1 X44.016 Y14.044 0.00000
G1 X44.016 Y14.589 0.00000
G1 X44.507 Y14.099 0.00000
G1 X44.507 Y14.643 0.00000
G1 X44.016 Y15.134 0.00000
G1 X44.016 Y15.586 0.00000
G1 X43.410 Y15.740 0.00000
G1 X43.116 Y16.034 0.00000
G1 X43.290 Y16.405 0.00000
G1 X44.507 Y15.188 0.00000
G1 X44.507 Y15.733 0.00000
G1 X43.464 Y16.776 0.00000
G1 X43.638 Y17.146 0.00000
G1 X44.507 Y16.278 0.00000
G1 X44.507 Y16.822 0.00000
G1 X43.812 Y17.517 0.00000
G1 X43.986 Y17.888 0.00000
G1 X44.507 Y17.367 0.00000
G1 X44.507 Y17.912 0.00000
G1 X44.016 Y18.402 0.00000
G1 X44.016 Y18.947 0.00000
G1 X44.507 Y18.457 0.00000
G1 X44.507 Y19.001 0.00000
G1 X44.016 Y19.492 0.00000
G1 X44.016 Y20.036 0.00000
G1 X44.507 Y19.546 0.00000
G1 X44.507 Y20.091 0.00000
G1 X44.016 Y20.581 0.00000
G1 X44.016 Y21.126 0.00000
G1 X44.507 Y20.635 0.00000
G1 X44.507 Y21.180 0.00000
G1 X44.016 Y21.671 0.00000
G1 X44.016 Y21.978 0.00000
G1 X43.640 Y22.047 0.00000
G1 X43.578 Y22.109 0.00000
G1 X43.726 Y22.505 0.00000
G1 X44.507 Y21.725 0.00000
G1 X44.507 Y22.270 0.00000
G1 X43.875 Y22.901 0.00000
G1 X44.016 Y23.305 0.00000
G1 X44.507 Y22.814 0.00000
G1 X44.507 Y23.359 0.00000
G1 X44.016 Y23.849 0.00000
G1 X44.016 Y24.394 0.00000
G1 X44.507 Y23.904 0.00000
G1 X44.507 Y24.449 0.00000
G1 X44.016 Y24.939 0.00000
G1 X44.016 Y25.484 0.00000
G1 X44.507 Y24.993 0.00000
G1 X44.507 Y25.538 0.00000
G1 X41.458 Y28.587 0.00000
G1 X42.559 Y28.031 0.00000
G1 X44.507 Y26.083 0.00000
G1 X44.507 Y26.627 0.00000
G1 X43.660 Y27.475 0.00000
G1 X44.016 Y27.294 0.00000
G1 X44.016 Y27.662 0.00000
G1 X44.507 Y27.172 0.00000
G1 X44.507 Y27.717 0.00000
G1 X44.016 Y28.207 0.00000
G1 X44.016 Y28.752 0.00000
G1 X44.507 Y28.262 0.00000
G1 X44.507 Y28.806 0.00000
G1 X44.016 Y29.297 0.00000
G1 X44.016 Y29.841 0.00000
G1 X44.507 Y29.351 0.00000
G1 X44.507 Y29.896 0.00000
G1 X44.016 Y30.386 0.00000
G1 X44.016 Y30.931 0.00000
G1 X44.507 Y30.440 0.00000
G1 X44.507 Y30.985 0.00000
G1 X20.600 Y33.648 F900.000
G1 F900
G1 X21.654 Y32.594 0.00000
G1 X21.564 Y32.459 0.00000
G1 X21.464 Y32.239 0.00000
G1 X20.416 Y33.287 0.00000
G1 X20.232 Y32.926 0.00000
G1 X21.348 Y31.810 0.00000
G1 X21.329 Y31.645 0.00000
G1 X21.342 Y31.363 0.00000
G1 X21.366 Y31.247 0.00000
G1 X20.048 Y32.565 0.00000
G1 X19.864 Y32.205 0.00000
G1 X21.399 Y30.670 0.00000
G1 X21.097 Y30.427 0.00000
G1 X19.680 Y31.844 0.00000
G1 X19.496 Y31.483 0.00000
G1 X20.804 Y30.176 0.00000
G1 X20.510 Y29.925 0.00000
G1 X19.312 Y31.122 0.00000
G1 X19.128 Y30.762 0.00000
G1 X20.251 Y29.639 0.00000
G1 X19.998 Y29.347 0.00000
G1 X18.944 Y30.401 0.00000
G1 X18.760 Y30.040 0.00000
G1 X19.774 Y29.027 0.00000
G1 X19.654 Y28.849 0.00000
G1 X19.574 Y28.682 0.00000
G1 X18.576 Y29.679 0.00000
G1 X18.392 Y29.319 0.00000
G1 X19.413 Y28.298 0.00000
G1 X19.356 Y28.111 0.00000
G1 X19.332 Y27.956 0.00000
G1 X18.826 Y28.527 0.00000
G1 X18.704 Y28.462 0.00000
G1 X18.208 Y28.958 0.00000
G1 X18.024 Y28.597 0.00000
G1 X18.349 Y28.273 0.00000
G1 X17.993 Y28.084 0.00000
G1 X17.840 Y28.236 0.00000
G1 X17.676 Y27.915 0.00000
G1 X17.993 Y28.084 0.00000
G1 X78.030 Y35.061 F900.000
G1 F900
G1 X78.040 Y34.521 0.00000
G1 X78.096 Y34.174 0.00000
G1 X78.196 Y33.881 0.00000
G1 X78.310 Y33.664 0.00000
G1 X78.526 Y33.365 0.00000
G1 X78.820 Y33.080 0.00000
G1 X79.196 Y32.803 0.00000
G1 X80.206 Y32.173 0.00000
G1 X80.598 Y31.865 0.00000
G1 X80.800 Y31.645 0.00000
G1 X80.928 Y31.453 0.00000
G1 X81.024 Y31.242 0.00000
G1 X81.086 Y31.011 0.00000
G1 X81.133 Y30.535 0.00000
G1 X81.465 Y30.446 0.00000
G1 X81.933 Y30.267 0.00000
G1 X82.441 Y29.968 0.00000
G1 X82.882 Y29.600 0.00000
G1 X83.276 Y29.142 0.00000
G1 X83.614 Y28.583 0.00000
G1 X83.843 Y28.004 0.00000
G1 X83.974 Y27.352 0.00000
G1 X83.999 Y26.902 0.00000
G1 X83.947 Y26.374 0.00000
G1 X83.784 Y25.752 0.00000
G1 X84.199 Y25.316 0.00000
G1 X84.574 Y24.786 0.00000
G1 X84.816 Y24.304 0.00000
G1 X84.950 Y23.921 0.00000
G1 X85.025 Y23.550 0.00000
G1 X85.045 Y23.150 0.00000
G1 X85.007 Y22.829 0.00000
G1 X84.733 Y21.928 0.00000
G1 X84.700 Y21.690 0.00000
G1 X84.704 Y21.502 0.00000
G1 X84.779 Y21.208 0.00000
G1 X84.880 Y21.016 0.00000
G1 X85.023 Y20.834 0.00000
G1 X85.474 Y20.418 0.00000
G1 X86.562 Y22.516 0.00000
G1 X87.307 Y24.191 0.00000
G1 X87.712 Y25.479 0.00000
G1 X87.906 Y26.605 0.00000
G1 X87.921 Y27.784 0.00000
G1 X87.746 Y28.929 0.00000
G1 X87.381 Y30.046 0.00000
G1 X86.873 Y31.016 0.00000
G1 X86.181 Y31.942 0.00000
G1 X85.259 Y32.841 0.00000
G1 X83.997 Y33.726 0.00000
G1 X82.590 Y34.408 0.00000
G1 X81.109 Y34.862 0.00000
G1 X79.659 Y35.076 0.00000
G1 X78.117 Y35.062 0.00000
G1 X72.668 Y30.093 F900.000
G1 F900
G1 X74.158 Y27.171 0.00000
G1 X83.532 Y22.177 0.00000
G1 X83.809 Y22.239 0.00000
G1 X84.057 Y22.357 0.00000
G1 X84.237 Y22.529 0.00000
G1 X84.356 Y22.756 0.00000
G1 X84.406 Y23.107 0.00000
G1 X84.386 Y23.361 0.00000
G1 X84.308 Y23.715 0.00000
G1 X84.171 Y24.129 0.00000
G1 X83.742 Y25.178 0.00000
G1 X83.674 Y25.399 0.00000
G1 X83.701 Y25.708 0.00000
G1 X72.749 Y30.061 0.00000
G1 X72.284 Y28.045 F900.000
G1 F900
G1 X71.063 Y26.667 0.00000
G1 X78.345 Y20.261 0.00000
G1 X78.669 Y20.050 0.00000
G1 X79.022 Y19.893 0.00000
G1 X80.535 Y19.484 0.00000
G1 X81.557 Y19.103 0.00000
G1 X82.086 Y18.968 0.00000
G1 X82.491 Y18.931 0.00000
G1 X82.812 Y18.955 0.00000
G1 X83.112 Y19.028 0.00000
G1 X83.421 Y19.156 0.00000
G1 X83.686 Y19.320 0.00000
G1 X83.907 Y19.508 0.00000
G1 X84.096 Y19.730 0.00000
G1 X84.245 Y19.980 0.00000
G1 X84.347 Y20.235 0.00000
G1 X84.411 Y20.512 0.00000
G1 X84.428 Y20.772 0.00000
G1 X84.407 Y21.014 0.00000
G1 X84.338 Y21.273 0.00000
G1 X84.167 Y21.601 0.00000
G1 X84.009 Y21.782 0.00000
G1 X83.825 Y21.929 0.00000
G1 X83.616 Y22.046 0.00000
G1 X83.393 Y22.126 0.00000
G1 X72.361 Y28.004 0.00000
G1 X65.237 Y25.122 F900.000
G1 F900
G1 X65.199 Y24.698 0.00000
G1 X66.886 Y23.930 0.00000
G1 X68.427 Y22.981 0.00000
G1 X69.796 Y21.929 0.00000
G1 X70.830 Y20.999 0.00000
G1 X71.434 Y20.399 0.00000
G1 X73.224 Y18.458 0.00000
G1 X73.876 Y17.821 0.00000
G1 X74.458 Y17.356 0.00000
G1 X74.997 Y17.029 0.00000
G1 X75.457 Y16.831 0.00000
G1 X75.763 Y16.750 0.00000
G1 X76.037 Y16.718 0.00000
G1 X76.280 Y16.728 0.00000
G1 X76.517 Y16.775 0.00000
G1 X76.911 Y16.939 0.00000
G1 X77.167 Y17.104 0.00000
G1 X77.451 Y17.350 0.00000
G1 X77.766 Y17.715 0.00000
G1 X78.098 Y18.247 0.00000
G1 X78.325 Y18.802 0.00000
G1 X78.428 Y19.243 0.00000
G1 X78.456 Y19.594 0.00000
G1 X78.401 Y20.064 0.00000
G1 X71.165 Y26.432 0.00000
G1 X65.322 Y25.141 0.00000
G1 X62.338 Y23.294 F900.000
G1 F900
G1 X62.338 Y18.662 0.00000
G1 X71.087 Y13.336 0.00000
G1 X70.710 Y15.379 0.00000
G1 X70.679 Y16.051 0.00000
G1 X70.739 Y17.357 0.00000
G1 X70.709 Y17.886 0.00000
G1 X70.626 Y18.291 0.00000
G1 X70.486 Y18.662 0.00000
G1 X70.236 Y19.098 0.00000
G1 X69.818 Y19.613 0.00000
G1 X68.812 Y20.507 0.00000
G1 X67.556 Y21.343 0.00000
G1 X67.333 Y21.470 0.00000
G1 X65.841 Y22.186 0.00000
G1 X64.240 Y22.759 0.00000
G1 X62.421 Y23.270 0.00000
G1 X57.700 Y18.579 F900.000
G1 F900
G1 X65.925 Y7.902 0.00000
G1 X67.787 Y8.498 0.00000
G1 X68.899 Y9.015 0.00000
G1 X69.600 Y9.488 0.00000
G1 X70.081 Y9.941 0.00000
G1 X70.395 Y10.337 0.00000
G1 X70.670 Y10.826 0.00000
G1 X70.870 Y11.368 0.00000
G1 X71.018 Y12.090 0.00000
G1 X71.069 Y13.218 0.00000
G1 X62.262 Y18.579 0.00000
G1 X57.787 Y18.579 0.00000
G1 X52.475 Y20.444 F900.000
G1 F900
G1 X58.488 Y6.894 0.00000
G1 X60.111 Y6.823 0.00000
G1 X61.641 Y6.960 0.00000
G1 X63.761 Y7.373 0.00000
G1 X65.807 Y7.874 0.00000
G1 X57.580 Y18.555 0.00000
G1 X52.556 Y20.414 0.00000
G1 X47.392 Y25.024 F900.000
G1 F900
G1 X47.392 Y23.346 0.00000
G1 X52.365 Y10.113 0.00000
G1 X53.717 Y8.935 0.00000
G1 X55.131 Y8.027 0.00000
G1 X56.605 Y7.370 0.00000
G1 X58.378 Y6.873 0.00000
G1 X52.465 Y20.194 0.00000
G1 X47.455 Y24.964 0.00000
G1 X47.876 Y21.745 F900.000
G1 F900
G1 X47.392 Y21.657 0.00000
G1 X47.392 Y18.039 0.00000
G1 X48.513 Y15.657 0.00000
G1 X49.608 Y13.706 0.00000
G1 X50.804 Y11.939 0.00000
G1 X51.233 Y11.389 0.00000
G1 X51.675 Y11.637 0.00000
G1 X47.906 Y21.664 0.00000
G1 X47.897 Y24.695 F900.000
G1 F900
G1 X51.969 Y20.819 0.00000
G1 X57.724 Y18.689 0.00000
G1 X62.253 Y18.689 0.00000
G1 X62.253 Y23.313 0.00000
G1 X59.136 Y23.919 0.00000
G1 X56.262 Y24.290 0.00000
G1 X49.602 Y24.899 0.00000
G1 X48.078 Y25.080 0.00000
G1 X47.934 Y24.774 0.00000
G1 X49.243 Y27.115 F900.000
G1 F900
G1 X65.053 Y25.230 0.00000
G1 X69.909 Y26.302 0.00000
G1 X70.109 Y26.360 0.00000
G1 X70.528 Y26.527 0.00000
G1 X70.772 Y26.672 0.00000
G1 X70.954 Y26.820 0.00000
G1 X71.091 Y26.973 0.00000
G1 X71.203 Y27.149 0.00000
G1 X71.301 Y27.410 0.00000
G1 X71.328 Y27.782 0.00000
G1 X71.291 Y28.024 0.00000
G1 X71.205 Y28.302 0.00000
G1 X71.034 Y28.658 0.00000
G1 X70.706 Y29.139 0.00000
G1 X70.287 Y29.612 0.00000
G1 X69.536 Y30.259 0.00000
G1 X68.939 Y30.642 0.00000
G1 X69.042 Y30.762 0.00000
G1 X69.174 Y30.995 0.00000
G1 X69.256 Y31.210 0.00000
G1 X69.298 Y31.411 0.00000
G1 X69.308 Y31.614 0.00000
G1 X69.284 Y31.836 0.00000
G1 X69.231 Y32.030 0.00000
G1 X69.122 Y32.272 0.00000
G1 X68.966 Y32.503 0.00000
G1 X68.723 Y32.762 0.00000
G1 X68.440 Y32.985 0.00000
G1 X68.083 Y33.190 0.00000
G1 X67.628 Y33.367 0.00000
G1 X67.163 Y33.470 0.00000
G1 X66.523 Y33.512 0.00000
G1 X65.766 Y33.452 0.00000
G1 X64.771 Y33.257 0.00000
G1 X63.150 Y32.813 0.00000
G1 X61.260 Y32.327 0.00000
G1 X57.831 Y31.379 0.00000
G1 X55.124 Y30.435 0.00000
G1 X52.516 Y29.298 0.00000
G1 X49.165 Y27.543 0.00000
G1 X49.227 Y27.200 0.00000
G1 X70.886 Y33.586 F900.000
G1 F900
G1 X71.203 Y32.965 0.00000
G1 X80.376 Y30.218 0.00000
G1 X80.332 Y30.862 0.00000
G1 X80.286 Y31.077 0.00000
G1 X80.200 Y31.299 0.00000
G1 X80.062 Y31.535 0.00000
G1 X79.834 Y31.806 0.00000
G1 X79.521 Y32.076 0.00000
G1 X78.872 Y32.490 0.00000
G1 X77.842 Y33.092 0.00000
G1 X77.553 Y33.325 0.00000
G1 X77.319 Y33.586 0.00000
G1 X70.973 Y33.586 0.00000
G1 X71.272 Y32.830 F900.000
G1 F900
G1 X72.592 Y30.241 0.00000
G1 X83.484 Y25.913 0.00000
G1 X83.680 Y26.508 0.00000
G1 X83.703 Y26.742 0.00000
G1 X83.689 Y26.959 0.00000
G1 X83.644 Y27.161 0.00000
G1 X83.577 Y27.351 0.00000
G1 X83.420 Y27.645 0.00000
G1 X83.181 Y27.967 0.00000
G1 X82.789 Y28.373 0.00000
G1 X81.835 Y29.290 0.00000
G1 X81.657 Y29.520 0.00000
G1 X81.527 Y29.758 0.00000
G1 X71.356 Y32.805 0.00000
G1 X73.281 Y16.557 F900.000
G1 F900
G1 X74.010 Y15.986 0.00000
G1 X74.557 Y15.688 0.00000
G1 X75.166 Y15.470 0.00000
G1 X75.900 Y15.332 0.00000
G1 X76.791 Y15.303 0.00000
G1 X77.895 Y15.431 0.00000
G1 X79.348 Y15.810 0.00000
G1 X80.991 Y16.464 0.00000
G1 X82.457 Y17.261 0.00000
G1 X83.827 Y18.246 0.00000
G1 X84.953 Y19.303 0.00000
G1 X85.105 Y19.467 0.00000
G1 X86.097 Y20.724 0.00000
G1 X86.988 Y22.235 0.00000
G1 X87.606 Y23.658 0.00000
G1 X88.105 Y25.296 0.00000
G1 X88.380 Y26.740 0.00000
G1 X88.465 Y27.954 0.00000
G1 X88.427 Y28.715 0.00000
G1 X88.283 Y29.531 0.00000
G1 X88.032 Y30.269 0.00000
G1 X87.645 Y31.001 0.00000
G1 X87.085 Y31.757 0.00000
G1 X86.144 Y32.689 0.00000
G1 X84.989 Y33.534 0.00000
G1 X83.612 Y34.283 0.00000
G1 X82.091 Y34.873 0.00000
G1 X80.420 Y35.297 0.00000
G1 X78.535 Y35.562 0.00000
G1 X76.563 Y35.657 0.00000
G1 X73.785 Y35.587 0.00000
G1 X71.648 Y35.429 0.00000
G1 X69.946 Y35.249 0.00000
G1 X66.488 Y34.731 0.00000
G1 X65.782 Y34.602 0.00000
G1 X62.099 Y33.778 0.00000
G1 X58.453 Y32.718 0.00000
G1 X54.839 Y31.418 0.00000
G1 X51.263 Y29.876 0.00000
G1 X47.392 Y27.919 0.00000
G1 X47.392 Y31.370 0.00000
G1 X46.132 Y31.370 0.00000
G1 X46.132 Y1.860 0.00000
G1 X47.392 Y1.860 0.00000
G1 X47.392 Y15.286 0.00000
G1 X47.836 Y15.399 0.00000
G1 X48.915 Y13.419 0.00000
G1 X50.177 Y11.591 0.00000
G1 X51.654 Y9.874 0.00000
G1 X53.290 Y8.360 0.00000
G1 X54.936 Y7.161 0.00000
G1 X56.461 Y6.306 0.00000
G1 X58.049 Y5.655 0.00000
G1 X58.230 Y5.597 0.00000
G1 X59.835 Y5.189 0.00000
G1 X61.528 Y5.003 0.00000
G1 X63.221 Y5.049 0.00000
G1 X64.768 Y5.298 0.00000
G1 X65.038 Y5.363 0.00000
G1 X66.490 Y5.822 0.00000
G1 X67.927 Y6.520 0.00000
G1 X69.266 Y7.459 0.00000
G1 X70.311 Y8.423 0.00000
G1 X71.028 Y9.224 0.00000
G1 X71.486 Y9.804 0.00000
G1 X72.462 Y11.240 0.00000
G1 X73.133 Y12.591 0.00000
G1 X73.387 Y13.409 0.00000
G1 X73.476 Y13.982 0.00000
G1 X73.481 Y14.677 0.00000
G1 X73.396 Y15.169 0.00000
G1 X73.206 Y15.708 0.00000
G1 X72.907 Y16.250 0.00000
G1 X73.213 Y16.502 0.00000
G1 X70.579 Y19.272 F900.000
G1 F900
G1 X73.015 Y16.837 0.00000
G1 X72.714 Y16.590 0.00000
G1 X71.021 Y18.283 0.00000
G1 X71.091 Y17.936 0.00000
G1 X71.108 Y17.648 0.00000
G1 X72.418 Y16.338 0.00000
G1 X72.854 Y15.550 0.00000
G1 X72.961 Y15.247 0.00000
G1 X71.112 Y17.096 0.00000
G1 X71.088 Y16.572 0.00000
G1 X73.095 Y14.565 0.00000
G1 X73.091 Y14.021 0.00000
G1 X71.064 Y16.048 0.00000
G1 X71.091 Y15.474 0.00000
G1 X73.018 Y13.546 0.00000
G1 X73.011 Y13.496 0.00000
G1 X72.895 Y13.122 0.00000
G1 X71.206 Y14.810 0.00000
G1 X71.330 Y14.139 0.00000
G1 X72.761 Y12.707 0.00000
G1 X72.579 Y12.341 0.00000
G1 X71.454 Y13.467 0.00000
G1 X71.578 Y12.795 0.00000
G1 X72.397 Y11.975 0.00000
G1 X72.216 Y11.609 0.00000
G1 X71.417 Y12.407 0.00000
G1 X71.401 Y12.043 0.00000
G1 X71.373 Y11.904 0.00000
G1 X72.013 Y11.264 0.00000
G1 X71.791 Y10.938 0.00000
G1 X71.280 Y11.450 0.00000
G1 X71.241 Y11.262 0.00000
G1 X71.154 Y11.027 0.00000
G1 X71.570 Y10.612 0.00000
G1 X71.348 Y10.286 0.00000
G1 X71.002 Y10.631 0.00000
G1 X70.805 Y10.281 0.00000
G1 X71.122 Y9.964 0.00000
G1 X70.880 Y9.658 0.00000
G1 X70.583 Y9.955 0.00000
G1 X70.337 Y9.653 0.00000
G1 X70.632 Y9.358 0.00000
G1 X70.373 Y9.069 0.00000
G1 X70.055 Y9.387 0.00000
G1 X69.761 Y9.133 0.00000
G1 X70.115 Y8.780 0.00000
G1 X69.837 Y8.509 0.00000
G1 X69.434 Y8.912 0.00000
G1 X69.107 Y8.691 0.00000
G1 X69.552 Y8.246 0.00000
G1 X69.267 Y7.983 0.00000
G1 X68.736 Y8.515 0.00000
G1 X68.362 Y8.341 0.00000
G1 X68.977 Y7.726 0.00000
G1 X68.655 Y7.500 0.00000
G1 X67.987 Y8.167 0.00000
G1 X67.579 Y8.028 0.00000
G1 X68.333 Y7.274 0.00000
G1 X68.011 Y7.049 0.00000
G1 X67.164 Y7.895 0.00000
G1 X66.749 Y7.762 0.00000
G1 X67.682 Y6.829 0.00000
G1 X67.314 Y6.650 0.00000
G1 X66.352 Y7.611 0.00000
G1 X65.920 Y7.496 0.00000
G1 X66.945 Y6.471 0.00000
G1 X66.576 Y6.292 0.00000
G1 X65.472 Y7.396 0.00000
G1 X65.032 Y7.288 0.00000
G1 X66.189 Y6.130 0.00000
G1 X65.773 Y5.999 0.00000
G1 X64.592 Y7.180 0.00000
G1 X64.152 Y7.072 0.00000
G1 X65.357 Y5.868 0.00000
G1 X64.940 Y5.736 0.00000
G1 X63.706 Y6.970 0.00000
G1 X63.247 Y6.881 0.00000
G1 X64.486 Y5.643 0.00000
G1 X64.014 Y5.567 0.00000
G1 X62.789 Y6.792 0.00000
G1 X62.330 Y6.702 0.00000
G1 X63.542 Y5.491 0.00000
G1 X63.185 Y5.433 0.00000
G1 X63.055 Y5.430 0.00000
G1 X61.872 Y6.613 0.00000
G1 X61.386 Y6.551 0.00000
G1 X62.521 Y5.415 0.00000
G1 X61.988 Y5.401 0.00000
G1 X60.883 Y6.506 0.00000
G1 X60.380 Y6.461 0.00000
G1 X61.441 Y5.400 0.00000
G1 X60.826 Y5.467 0.00000
G1 X59.844 Y6.450 0.00000
G1 X59.271 Y6.475 0.00000
G1 X60.211 Y5.535 0.00000
G1 X59.903 Y5.568 0.00000
G1 X59.536 Y5.662 0.00000
G1 X58.860 Y6.338 0.00000
G1 X58.098 Y6.551 0.00000
G1 X58.801 Y5.848 0.00000
G1 X58.181 Y6.016 0.00000
G1 X58.019 Y6.083 0.00000
G1 X57.337 Y6.765 0.00000
G1 X56.576 Y6.978 0.00000
G1 X57.090 Y6.464 0.00000
G1 X56.629 Y6.653 0.00000
G1 X56.000 Y7.006 0.00000
G1 X55.617 Y7.389 0.00000
G1 X54.947 Y7.688 0.00000
G1 X54.454 Y8.005 0.00000
G1 X54.513 Y7.945 0.00000
G1 X51.933 Y10.140 F900.000
G1 F900
G1 X51.950 Y10.125 0.00000
G1 X51.569 Y11.136 0.00000
G1 X46.517 Y2.245 F900.000
G1 F900
G1 X47.007 Y2.245 0.00000
G1 X47.007 Y2.303 0.00000
G1 X46.516 Y2.793 0.00000
G1 X46.516 Y3.341 0.00000
G1 X47.007 Y2.851 0.00000
G1 X47.007 Y3.399 0.00000
G1 X46.516 Y3.889 0.00000
G1 X46.516 Y4.437 0.00000
G1 X47.007 Y3.946 0.00000
G1 X47.007 Y4.494 0.00000
G1 X46.516 Y4.985 0.00000
G1 X46.516 Y5.532 0.00000
G1 X47.007 Y5.042 0.00000
G1 X47.007 Y5.590 0.00000
G1 X46.516 Y6.080 0.00000
G1 X46.516 Y6.628 0.00000
G1 X47.007 Y6.138 0.00000
G1 X47.007 Y6.686 0.00000
G1 X46.516 Y7.176 0.00000
G1 X46.516 Y7.724 0.00000
G1 X47.007 Y7.234 0.00000
G1 X47.007 Y7.781 0.00000
G1 X46.516 Y8.272 0.00000
G1 X46.516 Y8.820 0.00000
G1 X47.007 Y8.329 0.00000
G1 X47.007 Y8.877 0.00000
G1 X46.516 Y9.367 0.00000
G1 X46.516 Y9.915 0.00000
G1 X47.007 Y9.425 0.00000
G1 X47.007 Y9.973 0.00000
G1 X46.516 Y10.463 0.00000
G1 X46.516 Y11.011 0.00000
G1 X47.007 Y10.521 0.00000
G1 X47.007 Y11.069 0.00000
G1 X46.516 Y11.559 0.00000
G1 X46.516 Y12.107 0.00000
G1 X47.007 Y11.616 0.00000
G1 X47.007 Y12.164 0.00000
G1 X46.516 Y12.655 0.00000
G1 X46.516 Y13.203 0.00000
G1 X47.007 Y12.712 0.00000
G1 X47.007 Y13.260 0.00000
G1 X46.516 Y13.750 0.00000
G1 X46.516 Y14.298 0.00000
G1 X47.007 Y13.808 0.00000
G1 X47.007 Y14.356 0.00000
G1 X46.516 Y14.846 0.00000
G1 X46.516 Y15.394 0.00000
G1 X47.007 Y14.904 0.00000
G1 X47.007 Y15.452 0.00000
G1 X46.516 Y15.942 0.00000
G1 X46.516 Y16.490 0.00000
G1 X47.337 Y15.669 0.00000
G1 X47.774 Y15.780 0.00000
G1 X46.516 Y17.038 0.00000
G1 X46.516 Y17.585 0.00000
G1 X47.769 Y16.333 0.00000
G1 X47.282 Y17.368 0.00000
G1 X46.516 Y18.133 0.00000
G1 X46.516 Y18.681 0.00000
G1 X47.007 Y18.191 0.00000
G1 X47.007 Y18.739 0.00000
G1 X46.516 Y19.229 0.00000
G1 X46.516 Y19.777 0.00000
G1 X47.007 Y19.287 0.00000
G1 X47.007 Y19.834 0.00000
G1 X46.516 Y20.325 0.00000
G1 X46.516 Y20.873 0.00000
G1 X47.007 Y20.382 0.00000
G1 X47.007 Y20.930 0.00000
G1 X46.516 Y21.421 0.00000
G1 X46.516 Y21.968 0.00000
G1 X47.007 Y21.478 0.00000
G1 X47.007 Y21.978 0.00000
G1 X47.047 Y21.986 0.00000
G1 X46.516 Y22.516 0.00000
G1 X46.516 Y23.064 0.00000
G1 X47.430 Y22.151 0.00000
G1 X47.100 Y23.028 0.00000
G1 X46.516 Y23.612 0.00000
G1 X46.516 Y24.160 0.00000
G1 X47.007 Y23.670 0.00000
G1 X47.007 Y24.217 0.00000
G1 X46.516 Y24.708 0.00000
G1 X46.516 Y25.256 0.00000
G1 X47.007 Y24.765 0.00000
G1 X47.007 Y25.313 0.00000
G1 X46.516 Y25.803 0.00000
G1 X46.516 Y26.351 0.00000
G1 X47.007 Y25.861 0.00000
G1 X47.007 Y25.921 0.00000
G1 X47.726 Y25.237 0.00000
G1 X47.847 Y25.494 0.00000
G1 X47.931 Y25.485 0.00000
G1 X46.516 Y26.899 0.00000
G1 X46.516 Y27.447 0.00000
G1 X48.552 Y25.411 0.00000
G1 X49.174 Y25.337 0.00000
G1 X47.147 Y27.365 0.00000
G1 X47.511 Y27.548 0.00000
G1 X49.791 Y25.268 0.00000
G1 X50.394 Y25.213 0.00000
G1 X47.875 Y27.732 0.00000
G1 X48.239 Y27.916 0.00000
G1 X48.810 Y27.345 0.00000
G1 X48.736 Y27.752 0.00000
G1 X48.877 Y27.826 0.00000
G1 X48.603 Y28.100 0.00000
G1 X48.966 Y28.284 0.00000
G1 X49.236 Y28.014 0.00000
G1 X49.596 Y28.203 0.00000
G1 X49.330 Y28.468 0.00000
G1 X49.694 Y28.652 0.00000
G1 X49.955 Y28.391 0.00000
G1 X50.315 Y28.579 0.00000
G1 X50.058 Y28.836 0.00000
G1 X50.422 Y29.020 0.00000
G1 X50.674 Y28.768 0.00000
G1 X51.034 Y28.956 0.00000
G1 X50.786 Y29.204 0.00000
G1 X51.150 Y29.388 0.00000
G1 X51.394 Y29.144 0.00000
G1 X51.753 Y29.332 0.00000
G1 X51.519 Y29.567 0.00000
G1 X51.902 Y29.732 0.00000
G1 X52.113 Y29.521 0.00000
G1 X52.480 Y29.702 0.00000
G1 X52.284 Y29.897 0.00000
G1 X52.667 Y30.062 0.00000
G1 X52.861 Y29.868 0.00000
G1 X53.243 Y30.034 0.00000
G1 X53.050 Y30.227 0.00000
G1 X53.433 Y30.392 0.00000
G1 X53.624 Y30.201 0.00000
G1 X54.006 Y30.367 0.00000
G1 X53.815 Y30.557 0.00000
G1 X54.198 Y30.723 0.00000
G1 X54.387 Y30.533 0.00000
G1 X54.769 Y30.700 0.00000
G1 X54.581 Y30.888 0.00000
G1 X54.964 Y31.053 0.00000
G1 X55.161 Y30.855 0.00000
G1 X55.567 Y30.997 0.00000
G1 X55.366 Y31.199 0.00000
G1 X55.769 Y31.344 0.00000
G1 X55.973 Y31.139 0.00000
G1 X56.380 Y31.280 0.00000
G1 X56.172 Y31.488 0.00000
G1 X56.574 Y31.633 0.00000
G1 X56.786 Y31.422 0.00000
G1 X57.192 Y31.564 0.00000
G1 X56.977 Y31.778 0.00000
G1 X57.380 Y31.923 0.00000
G1 X57.598 Y31.705 0.00000
G1 X58.021 Y31.831 0.00000
G1 X57.783 Y32.068 0.00000
G1 X58.186 Y32.213 0.00000
G1 X58.450 Y31.949 0.00000
G1 X58.879 Y32.068 0.00000
G1 X58.590 Y32.357 0.00000
G1 X59.014 Y32.481 0.00000
G1 X59.308 Y32.187 0.00000
G1 X59.737 Y32.306 0.00000
G1 X59.439 Y32.604 0.00000
G1 X59.863 Y32.727 0.00000
G1 X60.167 Y32.424 0.00000
G1 X60.596 Y32.543 0.00000
G1 X60.288 Y32.851 0.00000
G1 X60.713 Y32.974 0.00000
G1 X61.025 Y32.662 0.00000
G1 X61.459 Y32.776 0.00000
G1 X61.137 Y33.097 0.00000
G1 X61.562 Y33.221 0.00000
G1 X61.895 Y32.888 0.00000
G1 X62.330 Y33.000 0.00000
G1 X61.986 Y33.344 0.00000
G1 X62.195 Y33.405 0.00000
G1 X62.422 Y33.456 0.00000
G1 X62.766 Y33.112 0.00000
G1 X63.200 Y33.226 0.00000
G1 X62.870 Y33.556 0.00000
G1 X63.318 Y33.656 0.00000
G1 X63.630 Y33.344 0.00000
G1 X64.060 Y33.461 0.00000
G1 X63.765 Y33.756 0.00000
G1 X64.213 Y33.857 0.00000
G1 X64.490 Y33.579 0.00000
G1 X64.936 Y33.682 0.00000
G1 X64.660 Y33.957 0.00000
G1 X65.108 Y34.057 0.00000
G1 X65.394 Y33.771 0.00000
G1 X65.867 Y33.846 0.00000
G1 X65.556 Y34.157 0.00000
G1 X66.009 Y34.252 0.00000
G1 X66.375 Y33.886 0.00000
G1 X66.521 Y33.897 0.00000
G1 X66.939 Y33.870 0.00000
G1 X66.472 Y34.337 0.00000
G1 X66.946 Y34.410 0.00000
G1 X67.586 Y33.771 0.00000
G1 X67.740 Y33.737 0.00000
G1 X68.250 Y33.538 0.00000
G1 X68.524 Y33.381 0.00000
G1 X67.423 Y34.482 0.00000
G1 X67.899 Y34.553 0.00000
G1 X72.107 Y30.345 0.00000
G1 X71.537 Y31.463 0.00000
G1 X68.376 Y34.624 0.00000
G1 X68.852 Y34.696 0.00000
G1 X70.967 Y32.581 0.00000
G1 X70.397 Y33.699 0.00000
G1 X69.329 Y34.767 0.00000
G1 X69.805 Y34.838 0.00000
G1 X70.673 Y33.971 0.00000
G1 X71.220 Y33.971 0.00000
G1 X70.293 Y34.898 0.00000
G1 X70.789 Y34.951 0.00000
G1 X71.768 Y33.971 0.00000
G1 X72.316 Y33.971 0.00000
G1 X71.284 Y35.003 0.00000
G1 X71.783 Y35.053 0.00000
G1 X72.864 Y33.971 0.00000
G1 X73.412 Y33.971 0.00000
G1 X72.293 Y35.090 0.00000
G1 X72.803 Y35.128 0.00000
G1 X73.960 Y33.971 0.00000
G1 X74.508 Y33.971 0.00000
G1 X73.313 Y35.166 0.00000
G1 X73.824 Y35.203 0.00000
G1 X75.055 Y33.971 0.00000
G1 X75.603 Y33.971 0.00000
G1 X74.358 Y35.216 0.00000
G1 X74.893 Y35.230 0.00000
G1 X76.151 Y33.971 0.00000
G1 X76.699 Y33.971 0.00000
G1 X75.427 Y35.243 0.00000
G1 X75.962 Y35.257 0.00000
G1 X77.247 Y33.971 0.00000
G1 X77.491 Y33.971 0.00000
G1 X77.819 Y33.605 0.00000
G1 X77.970 Y33.483 0.00000
G1 X77.841 Y33.728 0.00000
G1 X77.740 Y34.026 0.00000
G1 X76.496 Y35.270 0.00000
G1 X77.067 Y35.247 0.00000
G1 X77.652 Y34.662 0.00000
G1 X77.642 Y35.219 0.00000
G1 X69.470 Y32.434 F900.000
G1 F900
G1 X72.678 Y29.227 0.00000
G1 X73.248 Y28.109 0.00000
G1 X69.690 Y31.667 0.00000
G1 X69.681 Y31.362 0.00000
G1 X69.640 Y31.169 0.00000
G1 X72.378 Y28.431 0.00000
G1 X72.197 Y28.527 0.00000
G1 X71.980 Y28.281 0.00000
G1 X71.278 Y28.983 0.00000
G1 X71.368 Y28.851 0.00000
G1 X71.564 Y28.443 0.00000
G1 X71.679 Y28.034 0.00000
G1 X71.722 Y27.991 0.00000
G1 X71.278 Y28.983 F900.000
G1 F900
G1 X71.010 Y29.376 0.00000
G1 X70.557 Y29.887 0.00000
G1 X69.767 Y30.569 0.00000
G1 X69.559 Y30.702 0.00000
G1 X69.490 Y30.771 0.00000
G1 X84.782 Y20.410 F900.000
G1 F900
G1 X85.104 Y20.088 0.00000
G1 X84.862 Y19.781 0.00000
G1 X84.661 Y19.983 0.00000
G1 X84.591 Y19.809 0.00000
G1 X84.478 Y19.618 0.00000
G1 X84.598 Y19.498 0.00000
G1 X84.316 Y19.232 0.00000
G1 X84.241 Y19.307 0.00000
G1 X83.956 Y19.044 0.00000
G1 X84.033 Y18.967 0.00000
G1 X83.750 Y18.702 0.00000
G1 X83.623 Y18.829 0.00000
G1 X83.240 Y18.664 0.00000
G1 X83.453 Y18.451 0.00000
G1 X83.135 Y18.222 0.00000
G1 X82.789 Y18.568 0.00000
G1 X82.488 Y18.545 0.00000
G1 X82.242 Y18.567 0.00000
G1 X82.816 Y17.993 0.00000
G1 X82.497 Y17.764 0.00000
G1 X81.555 Y18.706 0.00000
G1 X80.702 Y19.011 0.00000
G1 X82.170 Y17.543 0.00000
G1 X81.815 Y17.350 0.00000
G1 X79.911 Y19.254 0.00000
G1 X79.161 Y19.457 0.00000
G1 X81.460 Y17.157 0.00000
G1 X81.105 Y16.964 0.00000
G1 X78.815 Y19.254 0.00000
G1 X78.720 Y18.801 0.00000
G1 X80.742 Y16.779 0.00000
G1 X80.351 Y16.623 0.00000
G1 X78.576 Y18.398 0.00000
G1 X78.408 Y18.018 0.00000
G1 X79.959 Y16.467 0.00000
G1 X79.567 Y16.311 0.00000
G1 X78.198 Y17.680 0.00000
G1 X78.077 Y17.486 0.00000
G1 X77.969 Y17.361 0.00000
G1 X79.169 Y16.161 0.00000
G1 X78.735 Y16.047 0.00000
G1 X77.714 Y17.068 0.00000
G1 X77.420 Y16.814 0.00000
G1 X78.300 Y15.934 0.00000
G1 X77.866 Y15.821 0.00000
G1 X77.090 Y16.596 0.00000
G1 X76.703 Y16.436 0.00000
G1 X77.380 Y15.758 0.00000
G1 X76.889 Y15.702 0.00000
G1 X76.250 Y16.341 0.00000
G1 X76.022 Y16.332 0.00000
G1 X75.666 Y16.377 0.00000
G1 X76.340 Y15.702 0.00000
G1 X75.942 Y15.715 0.00000
G1 X75.742 Y15.753 0.00000
G1 X74.790 Y16.705 0.00000
G1 X74.237 Y17.040 0.00000
G1 X73.621 Y17.532 0.00000
G1 X72.948 Y18.189 0.00000
G1 X71.156 Y20.132 0.00000
G1 X70.565 Y20.719 0.00000
G1 X69.550 Y21.633 0.00000
G1 X68.533 Y22.414 0.00000
G1 X75.014 Y15.933 0.00000
G1 X74.715 Y16.040 0.00000
G1 X74.223 Y16.308 0.00000
G1 X73.617 Y16.782 0.00000
G1 X66.979 Y23.420 0.00000
G1 X66.704 Y23.589 0.00000
G1 X65.892 Y23.959 0.00000
G1 X69.023 Y20.828 0.00000
G1 X67.758 Y21.670 0.00000
G1 X67.475 Y21.829 0.00000
G1 X64.886 Y24.417 0.00000
G1 X64.792 Y24.460 0.00000
G1 X64.796 Y24.508 0.00000
G1 X64.381 Y24.922 0.00000
G1 X63.759 Y24.996 0.00000
G1 X66.422 Y22.334 0.00000
G1 X65.989 Y22.542 0.00000
G1 X65.486 Y22.722 0.00000
G1 X63.137 Y25.070 0.00000
G1 X62.515 Y25.145 0.00000
G1 X64.633 Y23.027 0.00000
G1 X64.357 Y23.125 0.00000
G1 X63.842 Y23.271 0.00000
G1 X61.893 Y25.219 0.00000
G1 X61.271 Y25.293 0.00000
G1 X63.079 Y23.485 0.00000
G1 X62.638 Y23.609 0.00000
G1 X62.638 Y23.630 0.00000
G1 X62.317 Y23.700 0.00000
G1 X60.649 Y25.367 0.00000
G1 X60.027 Y25.441 0.00000
G1 X61.646 Y23.823 0.00000
G1 X60.965 Y23.955 0.00000
G1 X59.405 Y25.516 0.00000
G1 X58.783 Y25.590 0.00000
G1 X60.285 Y24.088 0.00000
G1 X59.605 Y24.220 0.00000
G1 X58.161 Y25.664 0.00000
G1 X57.539 Y25.738 0.00000
G1 X58.945 Y24.332 0.00000
G1 X58.316 Y24.413 0.00000
G1 X56.917 Y25.812 0.00000
G1 X56.295 Y25.886 0.00000
G1 X57.687 Y24.494 0.00000
G1 X57.058 Y24.575 0.00000
G1 X55.673 Y25.961 0.00000
G1 X55.051 Y26.035 0.00000
G1 X56.429 Y24.656 0.00000
G1 X55.821 Y24.717 0.00000
G1 X54.429 Y26.109 0.00000
G1 X53.807 Y26.183 0.00000
G1 X55.218 Y24.772 0.00000
G1 X54.615 Y24.827 0.00000
G1 X53.185 Y26.257 0.00000
G1 X52.563 Y26.331 0.00000
G1 X54.012 Y24.882 0.00000
G1 X53.409 Y24.937 0.00000
G1 X51.941 Y26.406 0.00000
G1 X51.319 Y26.480 0.00000
G1 X52.806 Y24.993 0.00000
G1 X52.203 Y25.048 0.00000
G1 X50.697 Y26.554 0.00000
G1 X50.075 Y26.628 0.00000
G1 X51.600 Y25.103 0.00000
G1 X50.997 Y25.158 0.00000
G1 X49.453 Y26.702 0.00000
G1 X48.915 Y26.766 0.00000
G1 X48.810 Y27.345 0.00000
G1 X47.007 Y27.505 F900.000
G1 F900
G1 X46.516 Y27.995 0.00000
G1 X46.516 Y28.543 0.00000
G1 X47.007 Y28.052 0.00000
G1 X47.007 Y28.600 0.00000
G1 X46.516 Y29.091 0.00000
G1 X46.516 Y29.638 0.00000
G1 X47.007 Y29.148 0.00000
G1 X47.007 Y29.696 0.00000
G1 X46.516 Y30.186 0.00000
G1 X46.516 Y30.734 0.00000
G1 X47.007 Y30.244 0.00000
G1 X47.007 Y30.792 0.00000
G1 X46.813 Y30.985 0.00000
G1 Z-149.020 F900.000
G1 X12.991 Y35.056 F900.000
G1 F900
G1 X11.774 Y35.091 0.00000
G1 X11.359 Y35.075 0.00000
G1 X10.183 Y34.917 0.00000
G1 X9.587 Y34.780 0.00000
G1 X8.948 Y34.587 0.00000
G1 X8.374 Y34.384 0.00000
G1 X7.822 Y34.135 0.00000
G1 X7.436 Y33.948 0.00000
G1 X6.907 Y33.654 0.00000
G1 X6.188 Y33.167 0.00000
G1 X5.743 Y32.823 0.00000
G1 X5.096 Y32.214 0.00000
G1 X4.840 Y31.939 0.00000
G1 X4.349 Y31.309 0.00000
G1 X4.057 Y30.862 0.00000
G1 X3.626 Y30.006 0.00000
G1 X3.492 Y29.648 0.00000
G1 X3.276 Y28.924 0.00000
G1 X3.143 Y28.157 0.00000
G1 X3.102 Y27.779 0.00000
G1 X3.117 Y26.605 0.00000
G1 X3.315 Y25.465 0.00000
G1 X3.595 Y24.529 0.00000
G1 X3.718 Y24.187 0.00000
G1 X4.350 Y22.742 0.00000
G1 X5.548 Y20.423 0.00000
G1 X5.979 Y20.811 0.00000
G1 X6.122 Y20.985 0.00000
G1 X6.230 Y21.174 0.00000
G1 X6.294 Y21.356 0.00000
G1 X6.324 Y21.677 0.00000
G1 X6.290 Y21.926 0.00000
G1 X6.039 Y22.731 0.00000
G1 X5.996 Y22.960 0.00000
G1 X5.977 Y23.189 0.00000
G1 X6.004 Y23.589 0.00000
G1 X6.096 Y23.999 0.00000
G1 X6.302 Y24.517 0.00000
G1 X6.489 Y24.857 0.00000
G1 X6.761 Y25.239 0.00000
G1 X7.239 Y25.754 0.00000
G1 X7.079 Y26.357 0.00000
G1 X7.026 Y26.830 0.00000
G1 X7.064 Y27.492 0.00000
G1 X7.176 Y27.991 0.00000
G1 X7.416 Y28.597 0.00000
G1 X7.781 Y29.188 0.00000
G1 X8.125 Y29.584 0.00000
G1 X8.521 Y29.925 0.00000
G1 X8.701 Y30.050 0.00000
G1 X9.068 Y30.256 0.00000
G1 X9.577 Y30.451 0.00000
G1 X9.891 Y30.534 0.00000
G1 X9.934 Y30.994 0.00000
G1 X9.999 Y31.240 0.00000
G1 X10.095 Y31.453 0.00000
G1 X10.227 Y31.651 0.00000
G1 X10.424 Y31.864 0.00000
G1 X10.844 Y32.191 0.00000
G1 X11.904 Y32.856 0.00000
G1 X12.175 Y33.057 0.00000
G1 X12.494 Y33.361 0.00000
G1 X12.663 Y33.581 0.00000
G1 X12.772 Y33.771 0.00000
G1 X12.917 Y34.135 0.00000
G1 X12.984 Y34.521 0.00000
G1 X12.990 Y34.969 0.00000
G1 X18.355 Y30.093 F900.000
G1 F900
G1 X7.320 Y25.707 0.00000
G1 X7.354 Y25.440 0.00000
G1 X7.343 Y25.373 0.00000
G1 X7.291 Y25.204 0.00000
G1 X6.820 Y24.032 0.00000
G1 X6.705 Y23.680 0.00000
G1 X6.647 Y23.422 0.00000
G1 X6.618 Y23.155 0.00000
G1 X6.632 Y22.911 0.00000
G1 X6.673 Y22.745 0.00000
G1 X6.790 Y22.524 0.00000
G1 X6.959 Y22.364 0.00000
G1 X7.091 Y22.287 0.00000
G1 X7.491 Y22.177 0.00000
G1 X16.865 Y27.171 0.00000
G1 X18.316 Y30.015 0.00000
G1 X18.739 Y28.045 F900.000
G1 F900
G1 X7.631 Y22.126 0.00000
G1 X7.420 Y22.052 0.00000
G1 X7.198 Y21.929 0.00000
G1 X7.015 Y21.783 0.00000
G1 X6.870 Y21.619 0.00000
G1 X6.755 Y21.436 0.00000
G1 X6.654 Y21.183 0.00000
G1 X6.607 Y20.947 0.00000
G1 X6.595 Y20.732 0.00000
G1 X6.621 Y20.460 0.00000
G1 X6.704 Y20.161 0.00000
G1 X6.785 Y19.965 0.00000
G1 X6.942 Y19.710 0.00000
G1 X7.117 Y19.507 0.00000
G1 X7.337 Y19.320 0.00000
G1 X7.603 Y19.156 0.00000
G1 X7.923 Y19.023 0.00000
G1 X8.312 Y18.946 0.00000
G1 X8.583 Y18.932 0.00000
G1 X8.913 Y18.963 0.00000
G1 X9.504 Y19.115 0.00000
G1 X10.673 Y19.547 0.00000
G1 X11.976 Y19.884 0.00000
G1 X12.344 Y20.044 0.00000
G1 X12.664 Y20.250 0.00000
G1 X19.960 Y26.667 0.00000
G1 X18.797 Y27.980 0.00000
G1 X25.790 Y25.121 F900.000
G1 F900
G1 X19.859 Y26.432 0.00000
G1 X12.627 Y20.069 0.00000
G1 X12.577 Y19.762 0.00000
G1 X12.573 Y19.467 0.00000
G1 X12.595 Y19.243 0.00000
G1 X12.669 Y18.902 0.00000
G1 X12.849 Y18.410 0.00000
G1 X13.101 Y17.945 0.00000
G1 X13.426 Y17.510 0.00000
G1 X13.574 Y17.348 0.00000
G1 X13.860 Y17.100 0.00000
G1 X14.279 Y16.856 0.00000
G1 X14.556 Y16.762 0.00000
G1 X14.857 Y16.719 0.00000
G1 X15.221 Y16.742 0.00000
G1 X15.533 Y16.820 0.00000
G1 X16.041 Y17.037 0.00000
G1 X16.564 Y17.355 0.00000
G1 X17.281 Y17.937 0.00000
G1 X17.728 Y18.382 0.00000
G1 X19.309 Y20.108 0.00000
G1 X19.952 Y20.763 0.00000
G1 X21.221 Y21.924 0.00000
G1 X22.383 Y22.829 0.00000
G1 X22.864 Y23.165 0.00000
G1 X24.048 Y23.881 0.00000
G1 X24.496 Y24.110 0.00000
G1 X25.833 Y24.696 0.00000
G1 X25.798 Y25.035 0.00000
G1 X28.685 Y23.295 F900.000
G1 F900
G1 X26.629 Y22.709 0.00000
G1 X25.193 Y22.191 0.00000
G1 X23.887 Y21.575 0.00000
G1 X23.248 Y21.209 0.00000
G1 X22.374 Y20.627 0.00000
G1 X21.842 Y20.198 0.00000
G1 X21.230 Y19.640 0.00000
G1 X20.781 Y19.088 0.00000
G1 X20.532 Y18.652 0.00000
G1 X20.397 Y18.292 0.00000
G1 X20.331 Y17.987 0.00000
G1 X20.284 Y17.366 0.00000
G1 X20.345 Y15.989 0.00000
G1 X20.327 Y15.526 0.00000
G1 X20.294 Y15.218 0.00000
G1 X19.932 Y13.333 0.00000
G1 X28.685 Y18.662 0.00000
G1 X28.685 Y23.208 0.00000
G1 X33.323 Y18.579 F900.000
G1 F900
G1 X28.761 Y18.579 0.00000
G1 X19.955 Y13.219 0.00000
G1 X19.997 Y12.145 0.00000
G1 X20.177 Y11.289 0.00000
G1 X20.353 Y10.827 0.00000
G1 X20.549 Y10.464 0.00000
G1 X20.712 Y10.222 0.00000
G1 X20.980 Y9.897 0.00000
G1 X21.361 Y9.540 0.00000
G1 X21.905 Y9.150 0.00000
G1 X22.343 Y8.900 0.00000
G1 X23.355 Y8.449 0.00000
G1 X25.101 Y7.906 0.00000
G1 X33.270 Y18.510 0.00000
G1 X38.548 Y20.444 F900.000
G1 F900
G1 X33.443 Y18.555 0.00000
G1 X25.216 Y7.874 0.00000
G1 X27.365 Y7.349 0.00000
G1 X29.474 Y6.948 0.00000
G1 X30.912 Y6.823 0.00000
G1 X32.535 Y6.894 0.00000
G1 X38.513 Y20.365 0.00000
G1 X43.632 Y25.024 F900.000
G1 F900
G1 X38.558 Y20.194 0.00000
G1 X32.645 Y6.873 0.00000
G1 X34.419 Y7.370 0.00000
G1 X35.892 Y8.027 0.00000
G1 X37.307 Y8.936 0.00000
G1 X38.658 Y10.113 0.00000
G1 X43.632 Y23.346 0.00000
G1 X43.632 Y24.937 0.00000
G1 X43.147 Y21.745 F900.000
G1 F900
G1 X39.347 Y11.635 0.00000
G1 X39.790 Y11.387 0.00000
G1 X40.269 Y12.006 0.00000
G1 X41.455 Y13.773 0.00000
G1 X42.538 Y15.708 0.00000
G1 X43.632 Y18.039 0.00000
G1 X43.632 Y21.657 0.00000
G1 X43.233 Y21.729 0.00000
G1 X43.126 Y24.694 F900.000
G1 F900
G1 X42.946 Y25.079 0.00000
G1 X41.345 Y24.892 0.00000
G1 X34.448 Y24.254 0.00000
G1 X31.887 Y23.919 0.00000
G1 X28.770 Y23.313 0.00000
G1 X28.770 Y18.689 0.00000
G1 X33.299 Y18.689 0.00000
G1 X39.054 Y20.819 0.00000
G1 X43.063 Y24.634 0.00000
G1 X41.782 Y27.115 F900.000
G1 F900
G1 X41.863 Y27.542 0.00000
G1 X38.267 Y29.408 0.00000
G1 X35.899 Y30.435 0.00000
G1 X33.308 Y31.343 0.00000
G1 X29.714 Y32.343 0.00000
G1 X27.924 Y32.799 0.00000
G1 X26.237 Y33.261 0.00000
G1 X25.191 Y33.461 0.00000
G1 X24.409 Y33.510 0.00000
G1 X23.842 Y33.467 0.00000
G1 X23.373 Y33.361 0.00000
G1 X22.965 Y33.203 0.00000
G1 X22.497 Y32.921 0.00000
G1 X22.276 Y32.741 0.00000
G1 X22.056 Y32.502 0.00000
G1 X21.900 Y32.270 0.00000
G1 X21.777 Y31.985 0.00000
G1 X21.714 Y31.639 0.00000
G1 X21.724 Y31.416 0.00000
G1 X21.769 Y31.206 0.00000
G1 X21.848 Y30.997 0.00000
G1 X21.982 Y30.760 0.00000
G1 X22.083 Y30.643 0.00000
G1 X21.580 Y30.330 0.00000
G1 X21.340 Y30.144 0.00000
G1 X20.736 Y29.611 0.00000
G1 X20.332 Y29.158 0.00000
G1 X19.988 Y28.656 0.00000
G1 X19.788 Y28.220 0.00000
G1 X19.695 Y27.800 0.00000
G1 X19.719 Y27.426 0.00000
G1 X19.808 Y27.172 0.00000
G1 X19.911 Y27.001 0.00000
G1 X20.067 Y26.822 0.00000
G1 X20.226 Y26.691 0.00000
G1 X20.507 Y26.521 0.00000
G1 X20.883 Y26.370 0.00000
G1 X21.114 Y26.303 0.00000
G1 X25.970 Y25.230 0.00000
G1 X41.695 Y27.105 0.00000
G1 X20.137 Y33.586 F900.000
G1 F900
G1 X13.704 Y33.586 0.00000
G1 X13.463 Y33.319 0.00000
G1 X13.156 Y33.075 0.00000
G1 X11.799 Y32.274 0.00000
G1 X11.458 Y32.043 0.00000
G1 X11.246 Y31.861 0.00000
G1 X10.965 Y31.542 0.00000
G1 X10.828 Y31.311 0.00000
G1 X10.726 Y31.040 0.00000
G1 X10.671 Y30.651 0.00000
G1 X10.670 Y30.225 0.00000
G1 X19.820 Y32.965 0.00000
G1 X20.097 Y33.509 0.00000
G1 X19.751 Y32.830 F900.000
G1 F900
G1 X9.496 Y29.758 0.00000
G1 X9.366 Y29.519 0.00000
G1 X9.173 Y29.273 0.00000
G1 X8.362 Y28.501 0.00000
G1 X7.883 Y28.014 0.00000
G1 X7.596 Y27.634 0.00000
G1 X7.438 Y27.334 0.00000
G1 X7.335 Y26.972 0.00000
G1 X7.320 Y26.747 0.00000
G1 X7.341 Y26.523 0.00000
G1 X7.426 Y26.234 0.00000
G1 X7.558 Y25.920 0.00000
G1 X18.431 Y30.241 0.00000
G1 X19.711 Y32.752 0.00000
G1 X17.718 Y16.570 F900.000
G1 F900
G1 X18.119 Y16.266 0.00000
G1 X17.816 Y15.707 0.00000
G1 X17.711 Y15.428 0.00000
G1 X17.619 Y15.136 0.00000
G1 X17.543 Y14.690 0.00000
G1 X17.534 Y14.097 0.00000
G1 X17.637 Y13.409 0.00000
G1 X17.891 Y12.589 0.00000
G1 X18.399 Y11.523 0.00000
G1 X18.665 Y11.070 0.00000
G1 X19.431 Y9.946 0.00000
G1 X20.010 Y9.206 0.00000
G1 X20.712 Y8.422 0.00000
G1 X21.570 Y7.617 0.00000
G1 X21.840 Y7.388 0.00000
G1 X22.933 Y6.619 0.00000
G1 X23.316 Y6.398 0.00000
G1 X24.537 Y5.820 0.00000
G1 X24.803 Y5.723 0.00000
G1 X26.093 Y5.332 0.00000
G1 X27.462 Y5.092 0.00000
G1 X27.799 Y5.050 0.00000
G1 X29.274 Y4.999 0.00000
G1 X29.639 Y5.011 0.00000
G1 X31.188 Y5.188 0.00000
G1 X32.899 Y5.627 0.00000
G1 X34.500 Y6.276 0.00000
G1 X36.091 Y7.164 0.00000
G1 X37.767 Y8.387 0.00000
G1 X39.369 Y9.874 0.00000
G1 X40.838 Y11.580 0.00000
G1 X42.069 Y13.358 0.00000
G1 X43.191 Y15.399 0.00000
G1 X43.632 Y15.279 0.00000
G1 X43.632 Y1.860 0.00000
G1 X44.892 Y1.860 0.00000
G1 X44.892 Y31.370 0.00000
G1 X43.632 Y31.370 0.00000
G1 X43.632 Y27.919 0.00000
G1 X39.760 Y29.876 0.00000
G1 X36.151 Y31.431 0.00000
G1 X32.570 Y32.718 0.00000
G1 X29.604 Y33.591 0.00000
G1 X28.496 Y33.884 0.00000
G1 X25.918 Y34.464 0.00000
G1 X24.769 Y34.691 0.00000
G1 X21.909 Y35.138 0.00000
G1 X20.834 Y35.277 0.00000
G1 X18.096 Y35.528 0.00000
G1 X16.872 Y35.605 0.00000
G1 X14.645 Y35.661 0.00000
G1 X13.221 Y35.611 0.00000
G1 X12.303 Y35.544 0.00000
G1 X10.949 Y35.359 0.00000
G1 X10.217 Y35.215 0.00000
G1 X9.045 Y34.908 0.00000
G1 X7.970 Y34.521 0.00000
G1 X7.355 Y34.257 0.00000
G1 X6.382 Y33.743 0.00000
G1 X6.037 Y33.537 0.00000
G1 X5.025 Y32.810 0.00000
G1 X4.594 Y32.434 0.00000
G1 X3.980 Y31.808 0.00000
G1 X3.537 Y31.237 0.00000
G1 X3.381 Y31.006 0.00000
G1 X2.991 Y30.269 0.00000
G1 X2.740 Y29.531 0.00000
G1 X2.596 Y28.715 0.00000
G1 X2.558 Y27.954 0.00000
G1 X2.643 Y26.740 0.00000
G1 X2.918 Y25.296 0.00000
G1 X3.418 Y23.656 0.00000
G1 X3.732 Y22.895 0.00000
G1 X4.046 Y22.213 0.00000
G1 X4.635 Y21.175 0.00000
G1 X5.018 Y20.593 0.00000
G1 X5.724 Y19.690 0.00000
G1 X5.986 Y19.390 0.00000
G1 X6.974 Y18.435 0.00000
G1 X7.480 Y18.021 0.00000
G1 X8.401 Y17.366 0.00000
G1 X8.963 Y17.025 0.00000
G1 X10.032 Y16.464 0.00000
G1 X11.237 Y15.966 0.00000
G1 X11.734 Y15.790 0.00000
G1 X13.128 Y15.431 0.00000
G1 X13.830 Y15.336 0.00000
G1 X14.314 Y15.300 0.00000
G1 X15.021 Y15.322 0.00000
G1 X15.629 Y15.417 0.00000
G1 X15.959 Y15.500 0.00000
G1 X16.490 Y15.698 0.00000
G1 X17.014 Y15.986 0.00000
G1 X17.463 Y16.327 0.00000
G1 X17.655 Y16.510 0.00000
G1 X24.044 Y23.429 F900.000
G1 F900
G1 X24.661 Y23.762 0.00000
G1 X25.131 Y23.968 0.00000
G1 X21.909 Y20.747 0.00000
G1 X22.145 Y20.937 0.00000
G1 X23.045 Y21.537 0.00000
G1 X23.518 Y21.807 0.00000
G1 X26.105 Y24.395 0.00000
G1 X26.245 Y24.456 0.00000
G1 X26.238 Y24.527 0.00000
G1 X26.632 Y24.921 0.00000
G1 X27.254 Y24.995 0.00000
G1 X24.591 Y22.332 0.00000
G1 X25.046 Y22.546 0.00000
G1 X25.527 Y22.720 0.00000
G1 X27.876 Y25.069 0.00000
G1 X28.498 Y25.144 0.00000
G1 X26.385 Y23.030 0.00000
G1 X27.164 Y23.262 0.00000
G1 X29.120 Y25.218 0.00000
G1 X29.743 Y25.292 0.00000
G1 X27.931 Y23.480 0.00000
G1 X28.385 Y23.610 0.00000
G1 X28.385 Y23.630 0.00000
G1 X28.697 Y23.699 0.00000
G1 X30.365 Y25.366 0.00000
G1 X30.987 Y25.440 0.00000
G1 X29.368 Y23.821 0.00000
G1 X30.048 Y23.954 0.00000
G1 X31.609 Y25.514 0.00000
G1 X32.231 Y25.589 0.00000
G1 X30.729 Y24.086 0.00000
G1 X31.409 Y24.218 0.00000
G1 X32.853 Y25.663 0.00000
G1 X33.476 Y25.737 0.00000
G1 X32.070 Y24.331 0.00000
G1 X32.700 Y24.414 0.00000
G1 X34.098 Y25.811 0.00000
G1 X34.720 Y25.885 0.00000
G1 X33.331 Y24.496 0.00000
G1 X33.961 Y24.578 0.00000
G1 X35.342 Y25.960 0.00000
G1 X35.964 Y26.034 0.00000
G1 X34.584 Y24.653 0.00000
G1 X35.187 Y24.709 0.00000
G1 X36.586 Y26.108 0.00000
G1 X37.209 Y26.182 0.00000
G1 X35.791 Y24.765 0.00000
G1 X36.395 Y24.820 0.00000
G1 X37.831 Y26.256 0.00000
G1 X38.453 Y26.331 0.00000
G1 X36.999 Y24.876 0.00000
G1 X37.602 Y24.932 0.00000
G1 X39.075 Y26.405 0.00000
G1 X39.697 Y26.479 0.00000
G1 X38.206 Y24.988 0.00000
G1 X38.810 Y25.044 0.00000
G1 X40.319 Y26.553 0.00000
G1 X40.942 Y26.627 0.00000
G1 X39.414 Y25.100 0.00000
G1 X40.018 Y25.155 0.00000
G1 X41.564 Y26.701 0.00000
G1 X44.507 Y28.000 F900.000
G1 F900
G1 X44.016 Y27.510 0.00000
G1 X44.016 Y28.058 0.00000
G1 X44.507 Y28.548 0.00000
G1 X44.507 Y29.096 0.00000
G1 X44.016 Y28.606 0.00000
G1 X44.016 Y29.154 0.00000
G1 X44.507 Y29.644 0.00000
G1 X44.507 Y30.192 0.00000
G1 X44.016 Y29.702 0.00000
G1 X44.016 Y30.250 0.00000
G1 X44.507 Y30.740 0.00000
G1 X44.507 Y30.985 0.00000
G1 X44.204 Y30.985 0.00000
G1 X44.016 Y30.798 0.00000
G1 X39.453 Y11.134 F900.000
G1 F900
G1 X39.073 Y10.125 0.00000
G1 X39.092 Y10.142 0.00000
G1 X36.561 Y8.000 F900.000
G1 F900
G1 X35.879 Y7.485 0.00000
G1 X35.013 Y6.999 0.00000
G1 X35.400 Y7.386 0.00000
G1 X34.550 Y7.007 0.00000
G1 X34.443 Y6.977 0.00000
G1 X33.924 Y6.458 0.00000
G1 X33.002 Y6.084 0.00000
G1 X33.681 Y6.763 0.00000
G1 X32.920 Y6.550 0.00000
G1 X32.220 Y5.850 0.00000
G1 X31.483 Y5.661 0.00000
G1 X32.159 Y6.336 0.00000
G1 X31.962 Y6.281 0.00000
G1 X32.054 Y6.488 0.00000
G1 X31.749 Y6.475 0.00000
G1 X30.806 Y5.532 0.00000
G1 X30.187 Y5.461 0.00000
G1 X31.176 Y6.449 0.00000
G1 X30.904 Y6.438 0.00000
G1 X30.639 Y6.461 0.00000
G1 X29.572 Y5.394 0.00000
G1 X29.023 Y5.393 0.00000
G1 X30.134 Y6.504 0.00000
G1 X29.630 Y6.548 0.00000
G1 X28.493 Y5.411 0.00000
G1 X27.963 Y5.429 0.00000
G1 X29.152 Y6.618 0.00000
G1 X28.691 Y6.705 0.00000
G1 X27.468 Y5.482 0.00000
G1 X27.002 Y5.564 0.00000
G1 X28.231 Y6.793 0.00000
G1 X27.770 Y6.880 0.00000
G1 X26.535 Y5.645 0.00000
G1 X26.182 Y5.707 0.00000
G1 X26.080 Y5.738 0.00000
G1 X27.310 Y6.968 0.00000
G1 X26.868 Y7.074 0.00000
G1 X25.660 Y5.865 0.00000
G1 X25.239 Y5.993 0.00000
G1 X26.428 Y7.182 0.00000
G1 X25.988 Y7.289 0.00000
G1 X24.823 Y6.125 0.00000
G1 X24.441 Y6.291 0.00000
G1 X25.547 Y7.397 0.00000
G1 X25.106 Y7.504 0.00000
G1 X24.069 Y6.467 0.00000
G1 X23.697 Y6.643 0.00000
G1 X24.666 Y7.612 0.00000
G1 X24.260 Y7.754 0.00000
G1 X23.337 Y6.830 0.00000
G1 X23.000 Y7.042 0.00000
G1 X23.845 Y7.887 0.00000
G1 X23.431 Y8.021 0.00000
G1 X22.679 Y7.269 0.00000
G1 X22.357 Y7.495 0.00000
G1 X23.034 Y8.171 0.00000
G1 X22.655 Y8.340 0.00000
G1 X22.039 Y7.724 0.00000
G1 X21.746 Y7.980 0.00000
G1 X22.276 Y8.509 0.00000
G1 X21.918 Y8.700 0.00000
G1 X21.464 Y8.245 0.00000
G1 X21.181 Y8.510 0.00000
G1 X21.578 Y8.907 0.00000
G1 X21.257 Y9.135 0.00000
G1 X20.905 Y8.783 0.00000
G1 X20.647 Y9.072 0.00000
G1 X20.961 Y9.387 0.00000
G1 X20.681 Y9.655 0.00000
G1 X20.388 Y9.361 0.00000
G1 X20.305 Y9.453 0.00000
G1 X20.141 Y9.663 0.00000
G1 X20.434 Y9.955 0.00000
G1 X20.211 Y10.281 0.00000
G1 X19.901 Y9.970 0.00000
G1 X19.666 Y10.284 0.00000
G1 X20.019 Y10.636 0.00000
G1 X19.864 Y11.030 0.00000
G1 X19.444 Y10.610 0.00000
G1 X19.294 Y10.831 0.00000
G1 X19.274 Y10.988 0.00000
G1 X19.748 Y11.461 0.00000
G1 X19.652 Y11.914 0.00000
G1 X19.000 Y11.262 0.00000
G1 X18.797 Y11.606 0.00000
G1 X19.601 Y12.411 0.00000
G1 X19.591 Y12.675 0.00000
G1 X19.390 Y12.553 0.00000
G1 X19.436 Y12.793 0.00000
G1 X18.612 Y11.970 0.00000
G1 X18.435 Y12.341 0.00000
G1 X19.566 Y13.472 0.00000
G1 X19.697 Y14.150 0.00000
G1 X18.258 Y12.712 0.00000
G1 X18.127 Y13.128 0.00000
G1 X19.827 Y14.829 0.00000
G1 X19.936 Y15.485 0.00000
G1 X18.004 Y13.554 0.00000
G1 X17.933 Y14.031 0.00000
G1 X19.957 Y16.055 0.00000
G1 X19.934 Y16.579 0.00000
G1 X17.926 Y14.571 0.00000
G1 X17.927 Y14.654 0.00000
G1 X17.994 Y15.046 0.00000
G1 X18.059 Y15.252 0.00000
G1 X19.910 Y17.104 0.00000
G1 X19.898 Y17.372 0.00000
G1 X19.920 Y17.661 0.00000
G1 X18.595 Y16.336 0.00000
G1 X18.615 Y16.374 0.00000
G1 X18.313 Y16.602 0.00000
G1 X20.004 Y18.293 0.00000
G1 X20.027 Y18.401 0.00000
G1 X20.183 Y18.816 0.00000
G1 X20.453 Y19.290 0.00000
G1 X18.001 Y16.838 0.00000
G1 X17.689 Y17.073 0.00000
G1 X17.675 Y17.061 0.00000
G1 X24.044 Y23.429 0.00000
G1 X23.074 Y22.842 0.00000
G1 X22.494 Y22.428 0.00000
G1 X15.989 Y15.922 0.00000
G1 X15.552 Y15.795 0.00000
G1 X15.269 Y15.750 0.00000
G1 X16.209 Y16.691 0.00000
G1 X15.656 Y16.454 0.00000
G1 X15.348 Y16.377 0.00000
G1 X14.667 Y15.696 0.00000
G1 X14.323 Y15.685 0.00000
G1 X14.123 Y15.700 0.00000
G1 X14.766 Y16.344 0.00000
G1 X14.467 Y16.386 0.00000
G1 X14.313 Y16.438 0.00000
G1 X13.626 Y15.752 0.00000
G1 X13.149 Y15.823 0.00000
G1 X13.937 Y16.610 0.00000
G1 X13.598 Y16.819 0.00000
G1 X12.714 Y15.935 0.00000
G1 X12.278 Y16.047 0.00000
G1 X13.304 Y17.073 0.00000
G1 X13.051 Y17.368 0.00000
G1 X11.843 Y16.160 0.00000
G1 X11.438 Y16.303 0.00000
G1 X12.817 Y17.682 0.00000
G1 X12.617 Y18.030 0.00000
G1 X11.048 Y16.461 0.00000
G1 X10.660 Y16.621 0.00000
G1 X12.442 Y18.403 0.00000
G1 X12.297 Y18.806 0.00000
G1 X10.272 Y16.781 0.00000
G1 X9.907 Y16.964 0.00000
G1 X12.206 Y19.263 0.00000
G1 X12.189 Y19.557 0.00000
G1 X11.848 Y19.453 0.00000
G1 X9.548 Y17.153 0.00000
G1 X9.189 Y17.342 0.00000
G1 X11.109 Y19.262 0.00000
G1 X10.788 Y19.179 0.00000
G1 X10.297 Y18.998 0.00000
G1 X8.846 Y17.547 0.00000
G1 X8.511 Y17.760 0.00000
G1 X9.457 Y18.706 0.00000
G1 X8.979 Y18.583 0.00000
G1 X8.766 Y18.563 0.00000
G1 X8.191 Y17.988 0.00000
G1 X7.870 Y18.215 0.00000
G1 X8.226 Y18.571 0.00000
G1 X7.775 Y18.668 0.00000
G1 X7.560 Y18.453 0.00000
G1 X7.258 Y18.699 0.00000
G1 X7.393 Y18.833 0.00000
G1 X7.061 Y19.050 0.00000
G1 X6.978 Y18.967 0.00000
G1 X6.699 Y19.236 0.00000
G1 X6.776 Y19.313 0.00000
G1 X6.630 Y19.482 0.00000
G1 X6.541 Y19.626 0.00000
G1 X6.421 Y19.506 0.00000
G1 X6.152 Y19.785 0.00000
G1 X6.358 Y19.991 0.00000
G1 X6.238 Y20.419 0.00000
G1 X5.904 Y20.084 0.00000
G1 X19.358 Y28.059 F900.000
G1 F900
G1 X19.296 Y27.997 0.00000
G1 X19.229 Y28.072 0.00000
G1 X19.196 Y28.274 0.00000
G1 X19.095 Y28.224 0.00000
G1 X19.038 Y28.287 0.00000
G1 X19.770 Y29.019 0.00000
G1 X20.028 Y29.396 0.00000
G1 X20.464 Y29.884 0.00000
G1 X21.095 Y30.441 0.00000
G1 X21.530 Y30.778 0.00000
G1 X21.381 Y31.178 0.00000
G1 X18.621 Y28.418 0.00000
G1 X17.676 Y27.915 0.00000
G1 X17.787 Y28.132 0.00000
G1 X21.330 Y31.675 0.00000
G1 X21.406 Y32.097 0.00000
G1 X21.561 Y32.453 0.00000
G1 X18.357 Y29.250 0.00000
G1 X18.928 Y30.368 0.00000
G1 X18.993 Y30.434 0.00000
G1 X18.964 Y30.439 0.00000
G1 X18.928 Y30.368 0.00000
G1 X13.379 Y35.231 F900.000
G1 F900
G1 X13.371 Y34.675 0.00000
G1 X13.947 Y35.251 0.00000
G1 X14.514 Y35.271 0.00000
G1 X13.293 Y34.050 0.00000
G1 X13.119 Y33.603 0.00000
G1 X13.050 Y33.482 0.00000
G1 X13.199 Y33.600 0.00000
G1 X13.533 Y33.971 0.00000
G1 X13.763 Y33.971 0.00000
G1 X15.057 Y35.265 0.00000
G1 X15.592 Y35.252 0.00000
G1 X14.311 Y33.971 0.00000
G1 X14.859 Y33.971 0.00000
G1 X16.126 Y35.239 0.00000
G1 X16.661 Y35.226 0.00000
G1 X15.407 Y33.971 0.00000
G1 X15.955 Y33.971 0.00000
G1 X17.183 Y35.200 0.00000
G1 X17.699 Y35.168 0.00000
G1 X16.503 Y33.971 0.00000
G1 X17.051 Y33.971 0.00000
G1 X18.211 Y35.131 0.00000
G1 X18.713 Y35.085 0.00000
G1 X17.599 Y33.971 0.00000
G1 X18.146 Y33.971 0.00000
G1 X19.214 Y35.039 0.00000
G1 X19.716 Y34.993 0.00000
G1 X18.694 Y33.971 0.00000
G1 X19.242 Y33.971 0.00000
G1 X20.218 Y34.947 0.00000
G1 X20.720 Y34.901 0.00000
G1 X19.790 Y33.971 0.00000
G1 X20.338 Y33.971 0.00000
G1 X21.208 Y34.841 0.00000
G1 X21.693 Y34.778 0.00000
G1 X20.639 Y33.723 0.00000
G1 X20.068 Y32.605 0.00000
G1 X22.170 Y34.707 0.00000
G1 X22.644 Y34.633 0.00000
G1 X19.498 Y31.487 0.00000
G1 X19.056 Y30.621 0.00000
G1 X19.069 Y30.509 0.00000
G1 X23.118 Y34.559 0.00000
G1 X23.592 Y34.485 0.00000
G1 X22.449 Y33.342 0.00000
G1 X22.796 Y33.550 0.00000
G1 X23.261 Y33.730 0.00000
G1 X23.421 Y33.766 0.00000
G1 X24.066 Y34.411 0.00000
G1 X24.540 Y34.337 0.00000
G1 X24.074 Y33.870 0.00000
G1 X24.406 Y33.896 0.00000
G1 X24.633 Y33.882 0.00000
G1 X25.003 Y34.252 0.00000
G1 X25.461 Y34.162 0.00000
G1 X25.148 Y33.849 0.00000
G1 X25.618 Y33.771 0.00000
G1 X25.916 Y34.069 0.00000
G1 X26.364 Y33.969 0.00000
G1 X26.078 Y33.683 0.00000
G1 X26.524 Y33.581 0.00000
G1 X26.811 Y33.868 0.00000
G1 X27.259 Y33.768 0.00000
G1 X26.954 Y33.463 0.00000
G1 X27.385 Y33.346 0.00000
G1 X27.706 Y33.667 0.00000
G1 X28.153 Y33.567 0.00000
G1 X27.815 Y33.228 0.00000
G1 X28.249 Y33.114 0.00000
G1 X28.595 Y33.460 0.00000
G1 X29.028 Y33.345 0.00000
G1 X28.685 Y33.002 0.00000
G1 X29.122 Y32.891 0.00000
G1 X29.462 Y33.231 0.00000
G1 X29.500 Y33.220 0.00000
G1 X29.886 Y33.107 0.00000
G1 X29.559 Y32.780 0.00000
G1 X29.992 Y32.665 0.00000
G1 X30.309 Y32.982 0.00000
G1 X30.733 Y32.858 0.00000
G1 X30.421 Y32.546 0.00000
G1 X30.849 Y32.426 0.00000
G1 X31.156 Y32.733 0.00000
G1 X31.579 Y32.609 0.00000
G1 X31.278 Y32.307 0.00000
G1 X31.707 Y32.188 0.00000
G1 X32.003 Y32.484 0.00000
G1 X32.426 Y32.359 0.00000
G1 X32.135 Y32.068 0.00000
G1 X32.564 Y31.949 0.00000
G1 X32.830 Y32.216 0.00000
G1 X33.233 Y32.071 0.00000
G1 X32.993 Y31.830 0.00000
G1 X33.421 Y31.710 0.00000
G1 X33.637 Y31.926 0.00000
G1 X34.040 Y31.781 0.00000
G1 X33.827 Y31.568 0.00000
G1 X34.233 Y31.426 0.00000
G1 X34.443 Y31.636 0.00000
G1 X34.846 Y31.491 0.00000
G1 X34.639 Y31.284 0.00000
G1 X35.045 Y31.142 0.00000
G1 X35.249 Y31.346 0.00000
G1 X35.652 Y31.201 0.00000
G1 X35.450 Y31.000 0.00000
G1 X35.856 Y30.858 0.00000
G1 X36.053 Y31.054 0.00000
G1 X36.436 Y30.889 0.00000
G1 X36.249 Y30.702 0.00000
G1 X36.631 Y30.537 0.00000
G1 X36.819 Y30.724 0.00000
G1 X37.202 Y30.559 0.00000
G1 X37.014 Y30.371 0.00000
G1 X37.396 Y30.205 0.00000
G1 X37.585 Y30.394 0.00000
G1 X37.968 Y30.229 0.00000
G1 X37.778 Y30.040 0.00000
G1 X38.160 Y29.874 0.00000
G1 X38.351 Y30.064 0.00000
G1 X38.733 Y29.899 0.00000
G1 X38.537 Y29.702 0.00000
G1 X38.897 Y29.515 0.00000
G1 X39.116 Y29.734 0.00000
G1 X39.499 Y29.569 0.00000
G1 X39.258 Y29.328 0.00000
G1 X39.619 Y29.140 0.00000
G1 X39.868 Y29.390 0.00000
G1 X40.232 Y29.206 0.00000
G1 X39.980 Y28.953 0.00000
G1 X40.340 Y28.766 0.00000
G1 X40.596 Y29.022 0.00000
G1 X40.960 Y28.838 0.00000
G1 X40.701 Y28.579 0.00000
G1 X41.062 Y28.392 0.00000
G1 X41.324 Y28.654 0.00000
G1 X41.688 Y28.470 0.00000
G1 X41.423 Y28.204 0.00000
G1 X41.783 Y28.017 0.00000
G1 X42.052 Y28.286 0.00000
G1 X42.416 Y28.102 0.00000
G1 X42.144 Y27.830 0.00000
G1 X42.295 Y27.751 0.00000
G1 X42.220 Y27.358 0.00000
G1 X42.780 Y27.918 0.00000
G1 X43.144 Y27.734 0.00000
G1 X40.621 Y25.211 0.00000
G1 X41.225 Y25.267 0.00000
G1 X43.508 Y27.550 0.00000
G1 X43.872 Y27.366 0.00000
G1 X41.844 Y25.337 0.00000
G1 X42.464 Y25.410 0.00000
G1 X44.507 Y27.452 0.00000
G1 X44.507 Y26.904 0.00000
G1 X43.085 Y25.483 0.00000
G1 X43.177 Y25.494 0.00000
G1 X43.297 Y25.237 0.00000
G1 X44.016 Y25.921 0.00000
G1 X44.016 Y25.866 0.00000
G1 X44.507 Y26.356 0.00000
G1 X44.507 Y25.808 0.00000
G1 X44.016 Y25.318 0.00000
G1 X44.016 Y24.770 0.00000
G1 X44.507 Y25.260 0.00000
G1 X44.507 Y24.712 0.00000
G1 X44.016 Y24.222 0.00000
G1 X44.016 Y23.674 0.00000
G1 X44.507 Y24.165 0.00000
G1 X44.507 Y23.617 0.00000
G1 X43.926 Y23.036 0.00000
G1 X43.596 Y22.158 0.00000
G1 X44.507 Y23.069 0.00000
G1 X44.507 Y22.521 0.00000
G1 X43.972 Y21.986 0.00000
G1 X44.016 Y21.978 0.00000
G1 X44.016 Y21.482 0.00000
G1 X44.507 Y21.973 0.00000
G1 X44.507 Y21.425 0.00000
G1 X44.016 Y20.934 0.00000
G1 X44.016 Y20.386 0.00000
G1 X44.507 Y20.877 0.00000
G1 X44.507 Y20.329 0.00000
G1 X44.016 Y19.838 0.00000
G1 X44.016 Y19.290 0.00000
G1 X44.507 Y19.781 0.00000
G1 X44.507 Y19.233 0.00000
G1 X44.016 Y18.742 0.00000
G1 X44.016 Y18.194 0.00000
G1 X44.507 Y18.685 0.00000
G1 X44.507 Y18.137 0.00000
G1 X43.745 Y17.375 0.00000
G1 X43.261 Y16.343 0.00000
G1 X44.507 Y17.589 0.00000
G1 X44.507 Y17.041 0.00000
G1 X43.248 Y15.782 0.00000
G1 X43.679 Y15.665 0.00000
G1 X44.507 Y16.493 0.00000
G1 X44.507 Y15.945 0.00000
G1 X44.016 Y15.454 0.00000
G1 X44.016 Y14.906 0.00000
G1 X44.507 Y15.397 0.00000
G1 X44.507 Y14.849 0.00000
G1 X44.016 Y14.358 0.00000
G1 X44.016 Y13.810 0.00000
G1 X44.507 Y14.301 0.00000
G1 X44.507 Y13.753 0.00000
G1 X44.016 Y13.262 0.00000
G1 X44.016 Y12.715 0.00000
G1 X44.507 Y13.205 0.00000
G1 X44.507 Y12.657 0.00000
G1 X44.016 Y12.167 0.00000
G1 X44.016 Y11.619 0.00000
G1 X44.507 Y12.109 0.00000
G1 X44.507 Y11.561 0.00000
G1 X44.016 Y11.071 0.00000
G1 X44.016 Y10.523 0.00000
G1 X44.507 Y11.013 0.00000
G1 X44.507 Y10.465 0.00000
G1 X44.016 Y9.975 0.00000
G1 X44.016 Y9.427 0.00000
G1 X44.507 Y9.917 0.00000
G1 X44.507 Y9.369 0.00000
G1 X44.016 Y8.879 0.00000
G1 X44.016 Y8.331 0.00000
G1 X44.507 Y8.821 0.00000
G1 X44.507 Y8.273 0.00000
G1 X44.016 Y7.783 0.00000
G1 X44.016 Y7.235 0.00000
G1 X44.507 Y7.725 0.00000
G1 X44.507 Y7.177 0.00000
G1 X44.016 Y6.687 0.00000
G1 X44.016 Y6.139 0.00000
G1 X44.507 Y6.629 0.00000
G1 X44.507 Y6.081 0.00000
G1 X44.016 Y5.591 0.00000
G1 X44.016 Y5.043 0.00000
G1 X44.507 Y5.533 0.00000
G1 X44.507 Y4.985 0.00000
G1 X44.016 Y4.495 0.00000
G1 X44.016 Y3.947 0.00000
G1 X44.507 Y4.437 0.00000
G1 X44.507 Y3.889 0.00000
G1 X44.016 Y3.399 0.00000
G1 X44.016 Y2.851 0.00000
G1 X44.507 Y3.341 0.00000
G1 X44.507 Y2.793 0.00000
G1 X44.016 Y2.303 0.00000
G1 X44.016 Y2.245 0.00000
G1 X44.507 Y2.245 0.00000
G1 X78.032 Y35.056 F900.000
G1 F900
G1 X78.040 Y34.521 0.00000
G1 X78.106 Y34.135 0.00000
G1 X78.251 Y33.771 0.00000
G1 X78.360 Y33.581 0.00000
G1 X78.529 Y33.361 0.00000
G1 X78.848 Y33.057 0.00000
G1 X79.119 Y32.856 0.00000
G1 X80.179 Y32.191 0.00000
G1 X80.599 Y31.864 0.00000
G1 X80.796 Y31.651 0.00000
G1 X80.928 Y31.453 0.00000
G1 X81.024 Y31.240 0.00000
G1 X81.089 Y30.994 0.00000
G1 X81.133 Y30.534 0.00000
G1 X81.446 Y30.451 0.00000
G1 X81.955 Y30.256 0.00000
G1 X82.322 Y30.050 0.00000
G1 X82.502 Y29.925 0.00000
G1 X82.898 Y29.584 0.00000
G1 X83.242 Y29.188 0.00000
G1 X83.607 Y28.597 0.00000
G1 X83.847 Y27.991 0.00000
G1 X83.960 Y27.489 0.00000
G1 X83.990 Y27.135 0.00000
G1 X83.997 Y26.835 0.00000
G1 X83.944 Y26.357 0.00000
G1 X83.784 Y25.754 0.00000
G1 X84.264 Y25.238 0.00000
G1 X84.464 Y24.965 0.00000
G1 X84.654 Y24.644 0.00000
G1 X84.792 Y24.368 0.00000
G1 X84.905 Y24.066 0.00000
G1 X85.019 Y23.587 0.00000
G1 X85.046 Y23.192 0.00000
G1 X85.006 Y22.828 0.00000
G1 X84.733 Y21.925 0.00000
G1 X84.699 Y21.682 0.00000
G1 X84.713 Y21.444 0.00000
G1 X84.790 Y21.179 0.00000
G1 X84.903 Y20.981 0.00000
G1 X85.105 Y20.756 0.00000
G1 X85.478 Y20.423 0.00000
G1 X86.673 Y22.742 0.00000
G1 X87.305 Y24.187 0.00000
G1 X87.428 Y24.529 0.00000
G1 X87.720 Y25.512 0.00000
G1 X87.906 Y26.605 0.00000
G1 X87.921 Y27.779 0.00000
G1 X87.880 Y28.158 0.00000
G1 X87.744 Y28.938 0.00000
G1 X87.530 Y29.650 0.00000
G1 X87.341 Y30.137 0.00000
G1 X86.965 Y30.863 0.00000
G1 X86.674 Y31.308 0.00000
G1 X86.296 Y31.806 0.00000
G1 X85.928 Y32.213 0.00000
G1 X85.280 Y32.823 0.00000
G1 X84.835 Y33.167 0.00000
G1 X84.116 Y33.654 0.00000
G1 X83.585 Y33.949 0.00000
G1 X82.592 Y34.406 0.00000
G1 X82.073 Y34.588 0.00000
G1 X81.113 Y34.860 0.00000
G1 X80.838 Y34.917 0.00000
G1 X79.664 Y35.075 0.00000
G1 X79.249 Y35.091 0.00000
G1 X78.119 Y35.059 0.00000
G1 X72.284 Y28.045 F900.000
G1 F900
G1 X71.063 Y26.667 0.00000
G1 X78.359 Y20.250 0.00000
G1 X78.679 Y20.044 0.00000
G1 X79.047 Y19.884 0.00000
G1 X80.350 Y19.547 0.00000
G1 X81.518 Y19.116 0.00000
G1 X82.034 Y18.977 0.00000
G1 X82.472 Y18.931 0.00000
G1 X82.795 Y18.953 0.00000
G1 X83.104 Y19.025 0.00000
G1 X83.420 Y19.156 0.00000
G1 X83.686 Y19.320 0.00000
G1 X83.907 Y19.508 0.00000
G1 X84.096 Y19.730 0.00000
G1 X84.238 Y19.966 0.00000
G1 X84.344 Y20.225 0.00000
G1 X84.411 Y20.511 0.00000
G1 X84.428 Y20.772 0.00000
G1 X84.407 Y21.018 0.00000
G1 X84.313 Y21.338 0.00000
G1 X84.180 Y21.582 0.00000
G1 X84.010 Y21.781 0.00000
G1 X83.825 Y21.929 0.00000
G1 X83.603 Y22.052 0.00000
G1 X83.393 Y22.126 0.00000
G1 X72.361 Y28.004 0.00000
G1 X72.668 Y30.093 F900.000
G1 F900
G1 X74.158 Y27.171 0.00000
G1 X83.532 Y22.177 0.00000
G1 X83.809 Y22.239 0.00000
G1 X84.057 Y22.357 0.00000
G1 X84.239 Y22.532 0.00000
G1 X84.350 Y22.746 0.00000
G1 X84.391 Y22.911 0.00000
G1 X84.405 Y23.155 0.00000
G1 X84.376 Y23.422 0.00000
G1 X84.318 Y23.680 0.00000
G1 X84.169 Y24.134 0.00000
G1 X83.733 Y25.203 0.00000
G1 X83.675 Y25.397 0.00000
G1 X83.709 Y25.705 0.00000
G1 X72.749 Y30.061 0.00000
G1 X71.272 Y32.830 F900.000
G1 F900
G1 X72.592 Y30.241 0.00000
G1 X83.465 Y25.920 0.00000
G1 X83.613 Y26.270 0.00000
G1 X83.682 Y26.525 0.00000
G1 X83.703 Y26.747 0.00000
G1 X83.688 Y26.972 0.00000
G1 X83.585 Y27.334 0.00000
G1 X83.427 Y27.634 0.00000
G1 X83.141 Y28.013 0.00000
G1 X81.851 Y29.272 0.00000
G1 X81.657 Y29.519 0.00000
G1 X81.527 Y29.758 0.00000
G1 X71.356 Y32.805 0.00000
G1 X70.886 Y33.586 F900.000
G1 F900
G1 X71.203 Y32.965 0.00000
G1 X80.364 Y30.221 0.00000
G1 X80.344 Y30.791 0.00000
G1 X80.310 Y30.974 0.00000
G1 X80.210 Y31.279 0.00000
G1 X80.059 Y31.541 0.00000
G1 X79.774 Y31.864 0.00000
G1 X79.432 Y32.141 0.00000
G1 X77.868 Y33.075 0.00000
G1 X77.560 Y33.319 0.00000
G1 X77.319 Y33.586 0.00000
G1 X70.973 Y33.586 0.00000
G1 X65.237 Y25.122 F900.000
G1 F900
G1 X65.199 Y24.695 0.00000
G1 X66.527 Y24.110 0.00000
G1 X66.975 Y23.881 0.00000
G1 X68.159 Y23.165 0.00000
G1 X68.640 Y22.829 0.00000
G1 X69.795 Y21.930 0.00000
G1 X70.869 Y20.961 0.00000
G1 X71.714 Y20.107 0.00000
G1 X73.295 Y18.382 0.00000
G1 X73.742 Y17.937 0.00000
G1 X74.459 Y17.355 0.00000
G1 X74.982 Y17.037 0.00000
G1 X75.489 Y16.821 0.00000
G1 X75.764 Y16.749 0.00000
G1 X76.037 Y16.718 0.00000
G1 X76.281 Y16.728 0.00000
G1 X76.530 Y16.779 0.00000
G1 X76.740 Y16.855 0.00000
G1 X76.965 Y16.971 0.00000
G1 X77.168 Y17.105 0.00000
G1 X77.450 Y17.349 0.00000
G1 X77.703 Y17.634 0.00000
G1 X77.921 Y17.945 0.00000
G1 X78.099 Y18.251 0.00000
G1 X78.326 Y18.805 0.00000
G1 X78.441 Y19.352 0.00000
G1 X78.452 Y19.682 0.00000
G1 X78.398 Y20.067 0.00000
G1 X71.165 Y26.432 0.00000
G1 X65.322 Y25.141 0.00000
G1 X62.338 Y23.295 F900.000
G1 F900
G1 X62.338 Y18.662 0.00000
G1 X71.091 Y13.333 0.00000
G1 X70.729 Y15.218 0.00000
G1 X70.696 Y15.526 0.00000
G1 X70.678 Y15.989 0.00000
G1 X70.739 Y17.366 0.00000
G1 X70.692 Y17.987 0.00000
G1 X70.626 Y18.292 0.00000
G1 X70.491 Y18.652 0.00000
G1 X70.243 Y19.087 0.00000
G1 X69.874 Y19.551 0.00000
G1 X69.615 Y19.814 0.00000
G1 X68.652 Y20.626 0.00000
G1 X67.776 Y21.209 0.00000
G1 X67.137 Y21.575 0.00000
G1 X65.847 Y22.183 0.00000
G1 X65.310 Y22.383 0.00000
G1 X64.394 Y22.709 0.00000
G1 X62.421 Y23.271 0.00000
G1 X57.700 Y18.579 F900.000
G1 F900
G1 X65.924 Y7.903 0.00000
G1 X67.652 Y8.443 0.00000
G1 X68.031 Y8.600 0.00000
G1 X68.846 Y8.985 0.00000
G1 X69.568 Y9.462 0.00000
G1 X69.968 Y9.820 0.00000
G1 X70.393 Y10.334 0.00000
G1 X70.642 Y10.767 0.00000
G1 X70.869 Y11.366 0.00000
G1 X71.000 Y11.971 0.00000
G1 X71.044 Y12.349 0.00000
G1 X71.066 Y13.220 0.00000
G1 X62.262 Y18.579 0.00000
G1 X57.787 Y18.579 0.00000
G1 X52.475 Y20.444 F900.000
G1 F900
G1 X58.488 Y6.894 0.00000
G1 X60.111 Y6.823 0.00000
G1 X61.640 Y6.960 0.00000
G1 X63.547 Y7.325 0.00000
G1 X65.808 Y7.874 0.00000
G1 X57.580 Y18.555 0.00000
G1 X52.556 Y20.414 0.00000
G1 X47.392 Y25.024 F900.000
G1 F900
G1 X47.392 Y23.346 0.00000
G1 X52.365 Y10.113 0.00000
G1 X53.716 Y8.936 0.00000
G1 X55.131 Y8.027 0.00000
G1 X56.604 Y7.370 0.00000
G1 X58.378 Y6.873 0.00000
G1 X52.465 Y20.194 0.00000
G1 X47.455 Y24.964 0.00000
G1 X47.876 Y21.745 F900.000
G1 F900
G1 X47.392 Y21.657 0.00000
G1 X47.392 Y18.039 0.00000
G1 X48.487 Y15.703 0.00000
G1 X49.608 Y13.706 0.00000
G1 X50.862 Y11.865 0.00000
G1 X51.233 Y11.389 0.00000
G1 X51.675 Y11.637 0.00000
G1 X47.906 Y21.664 0.00000
G1 X47.897 Y24.694 F900.000
G1 F900
G1 X51.969 Y20.819 0.00000
G1 X57.724 Y18.689 0.00000
G1 X62.253 Y18.689 0.00000
G1 X62.253 Y23.313 0.00000
G1 X59.136 Y23.919 0.00000
G1 X56.575 Y24.254 0.00000
G1 X49.678 Y24.892 0.00000
G1 X48.077 Y25.079 0.00000
G1 X47.934 Y24.773 0.00000
G1 X49.241 Y27.115 F900.000
G1 F900
G1 X65.053 Y25.230 0.00000
G1 X69.992 Y26.325 0.00000
G1 X70.554 Y26.541 0.00000
G1 X70.798 Y26.692 0.00000
G1 X70.956 Y26.822 0.00000
G1 X71.112 Y27.001 0.00000
G1 X71.215 Y27.172 0.00000
G1 X71.304 Y27.426 0.00000
G1 X71.328 Y27.792 0.00000
G1 X71.290 Y28.030 0.00000
G1 X71.204 Y28.305 0.00000
G1 X70.979 Y28.749 0.00000
G1 X70.690 Y29.159 0.00000
G1 X70.289 Y29.609 0.00000
G1 X70.038 Y29.841 0.00000
G1 X69.446 Y30.328 0.00000
G1 X68.940 Y30.643 0.00000
G1 X69.041 Y30.760 0.00000
G1 X69.175 Y30.997 0.00000
G1 X69.254 Y31.206 0.00000
G1 X69.299 Y31.419 0.00000
G1 X69.305 Y31.691 0.00000
G1 X69.228 Y32.041 0.00000
G1 X69.122 Y32.271 0.00000
G1 X69.008 Y32.446 0.00000
G1 X68.748 Y32.740 0.00000
G1 X68.442 Y32.984 0.00000
G1 X68.145 Y33.158 0.00000
G1 X67.930 Y33.257 0.00000
G1 X67.648 Y33.361 0.00000
G1 X67.180 Y33.467 0.00000
G1 X66.531 Y33.512 0.00000
G1 X65.831 Y33.461 0.00000
G1 X64.786 Y33.261 0.00000
G1 X63.099 Y32.799 0.00000
G1 X61.309 Y32.343 0.00000
G1 X57.713 Y31.342 0.00000
G1 X55.384 Y30.533 0.00000
G1 X54.788 Y30.294 0.00000
G1 X52.513 Y29.296 0.00000
G1 X49.160 Y27.541 0.00000
G1 X49.225 Y27.200 0.00000
G1 X47.392 Y27.919 F900.000
G1 F900
G1 X47.392 Y31.370 0.00000
G1 X46.132 Y31.370 0.00000
G1 X46.132 Y1.860 0.00000
G1 X47.392 Y1.860 0.00000
G1 X47.392 Y15.280 0.00000
G1 X47.833 Y15.398 0.00000
G1 X48.933 Y13.392 0.00000
G1 X50.160 Y11.613 0.00000
G1 X51.654 Y9.875 0.00000
G1 X53.358 Y8.305 0.00000
G1 X54.936 Y7.161 0.00000
G1 X56.441 Y6.316 0.00000
G1 X57.886 Y5.715 0.00000
G1 X58.460 Y5.531 0.00000
G1 X59.834 Y5.189 0.00000
G1 X61.528 Y5.003 0.00000
G1 X63.146 Y5.042 0.00000
G1 X63.559 Y5.091 0.00000
G1 X64.502 Y5.246 0.00000
G1 X64.913 Y5.327 0.00000
G1 X65.337 Y5.446 0.00000
G1 X66.490 Y5.822 0.00000
G1 X67.703 Y6.395 0.00000
G1 X67.922 Y6.517 0.00000
G1 X69.080 Y7.307 0.00000
G1 X69.454 Y7.619 0.00000
G1 X70.311 Y8.422 0.00000
G1 X71.043 Y9.242 0.00000
G1 X71.614 Y9.976 0.00000
G1 X72.386 Y11.114 0.00000
G1 X72.665 Y11.601 0.00000
G1 X73.133 Y12.590 0.00000
G1 X73.386 Y13.406 0.00000
G1 X73.490 Y14.109 0.00000
G1 X73.484 Y14.648 0.00000
G1 X73.404 Y15.137 0.00000
G1 X73.243 Y15.623 0.00000
G1 X72.921 Y16.244 0.00000
G1 X73.291 Y16.548 0.00000
G1 X74.010 Y15.985 0.00000
G1 X74.557 Y15.687 0.00000
G1 X75.151 Y15.474 0.00000
G1 X75.787 Y15.346 0.00000
G1 X76.524 Y15.300 0.00000
G1 X76.965 Y15.313 0.00000
G1 X77.898 Y15.431 0.00000
G1 X78.869 Y15.665 0.00000
G1 X79.487 Y15.856 0.00000
G1 X80.686 Y16.326 0.00000
G1 X81.349 Y16.640 0.00000
G1 X82.457 Y17.261 0.00000
G1 X83.374 Y17.895 0.00000
G1 X83.926 Y18.328 0.00000
G1 X84.780 Y19.123 0.00000
G1 X85.258 Y19.641 0.00000
G1 X86.098 Y20.725 0.00000
G1 X86.615 Y21.559 0.00000
G1 X86.995 Y22.248 0.00000
G1 X87.454 Y23.272 0.00000
G1 X87.604 Y23.654 0.00000
G1 X88.105 Y25.296 0.00000
G1 X88.380 Y26.740 0.00000
G1 X88.465 Y27.954 0.00000
G1 X88.427 Y28.715 0.00000
G1 X88.283 Y29.531 0.00000
G1 X88.032 Y30.269 0.00000
G1 X87.644 Y31.002 0.00000
G1 X87.151 Y31.680 0.00000
G1 X86.766 Y32.105 0.00000
G1 X86.146 Y32.689 0.00000
G1 X85.249 Y33.363 0.00000
G1 X84.989 Y33.535 0.00000
G1 X84.665 Y33.730 0.00000
G1 X83.645 Y34.268 0.00000
G1 X82.531 Y34.722 0.00000
G1 X82.095 Y34.872 0.00000
G1 X80.621 Y35.256 0.00000
G1 X79.883 Y35.389 0.00000
G1 X78.535 Y35.562 0.00000
G1 X76.942 Y35.649 0.00000
G1 X75.987 Y35.658 0.00000
G1 X73.785 Y35.587 0.00000
G1 X71.743 Y35.437 0.00000
G1 X69.843 Y35.236 0.00000
G1 X66.961 Y34.811 0.00000
G1 X65.742 Y34.595 0.00000
G1 X62.870 Y33.963 0.00000
G1 X62.087 Y33.774 0.00000
G1 X58.453 Y32.718 0.00000
G1 X54.839 Y31.418 0.00000
G1 X51.263 Y29.876 0.00000
G1 X47.469 Y27.958 0.00000
G1 X48.731 Y27.751 F900.000
G1 F900
G1 X49.567 Y28.587 0.00000
G1 X50.669 Y29.144 0.00000
G1 X49.874 Y28.349 0.00000
G1 X51.017 Y28.947 0.00000
G1 X51.726 Y29.656 0.00000
G1 X52.684 Y30.069 0.00000
G1 X52.160 Y29.546 0.00000
G1 X53.159 Y30.000 0.00000
G1 X53.642 Y30.483 0.00000
G1 X54.600 Y30.896 0.00000
G1 X54.130 Y30.426 0.00000
G1 X55.070 Y30.822 0.00000
G1 X55.493 Y31.244 0.00000
G1 X56.344 Y31.551 0.00000
G1 X55.920 Y31.126 0.00000
G1 X56.755 Y31.416 0.00000
G1 X57.195 Y31.857 0.00000
G1 X58.046 Y32.163 0.00000
G1 X57.590 Y31.706 0.00000
G1 X58.360 Y31.932 0.00000
G1 X58.866 Y32.438 0.00000
G1 X59.634 Y32.661 0.00000
G1 X59.111 Y32.138 0.00000
G1 X59.863 Y32.345 0.00000
G1 X60.402 Y32.884 0.00000
G1 X61.170 Y33.107 0.00000
G1 X60.614 Y32.551 0.00000
G1 X61.361 Y32.753 0.00000
G1 X61.938 Y33.330 0.00000
G1 X62.672 Y33.520 0.00000
G1 X62.092 Y32.940 0.00000
G1 X62.823 Y33.126 0.00000
G1 X63.378 Y33.681 0.00000
G1 X64.077 Y33.834 0.00000
G1 X63.569 Y33.327 0.00000
G1 X64.319 Y33.532 0.00000
G1 X64.775 Y33.988 0.00000
G1 X65.473 Y34.142 0.00000
G1 X65.031 Y33.699 0.00000
G1 X65.705 Y33.829 0.00000
G1 X66.154 Y34.277 0.00000
G1 X66.816 Y34.395 0.00000
G1 X66.302 Y33.881 0.00000
G1 X66.530 Y33.897 0.00000
G1 X66.842 Y33.876 0.00000
G1 X67.463 Y34.496 0.00000
G1 X68.102 Y34.591 0.00000
G1 X67.337 Y33.826 0.00000
G1 X67.779 Y33.723 0.00000
G1 X68.741 Y34.685 0.00000
G1 X69.380 Y34.779 0.00000
G1 X68.171 Y33.570 0.00000
G1 X68.526 Y33.380 0.00000
G1 X70.013 Y34.867 0.00000
G1 X70.622 Y34.932 0.00000
G1 X68.845 Y33.155 0.00000
G1 X69.014 Y33.021 0.00000
G1 X69.127 Y32.892 0.00000
G1 X71.231 Y34.996 0.00000
G1 X71.839 Y35.058 0.00000
G1 X70.752 Y33.971 0.00000
G1 X70.258 Y33.971 0.00000
G1 X70.425 Y33.644 0.00000
G1 X69.372 Y32.592 0.00000
G1 X69.459 Y32.458 0.00000
G1 X69.562 Y32.236 0.00000
G1 X70.609 Y33.284 0.00000
G1 X70.793 Y32.923 0.00000
G1 X69.674 Y31.804 0.00000
G1 X69.691 Y31.729 0.00000
G1 X69.683 Y31.374 0.00000
G1 X69.655 Y31.240 0.00000
G1 X70.977 Y32.562 0.00000
G1 X71.161 Y32.201 0.00000
G1 X69.628 Y30.668 0.00000
G1 X69.931 Y30.427 0.00000
G1 X71.345 Y31.840 0.00000
G1 X71.529 Y31.479 0.00000
G1 X70.230 Y30.181 0.00000
G1 X70.517 Y29.923 0.00000
G1 X71.713 Y31.119 0.00000
G1 X71.897 Y30.758 0.00000
G1 X70.778 Y29.639 0.00000
G1 X71.030 Y29.346 0.00000
G1 X72.081 Y30.397 0.00000
G1 X72.265 Y30.036 0.00000
G1 X71.254 Y29.026 0.00000
G1 X71.448 Y28.674 0.00000
G1 X72.449 Y29.675 0.00000
G1 X72.633 Y29.314 0.00000
G1 X71.611 Y28.293 0.00000
G1 X71.666 Y28.118 0.00000
G1 X71.691 Y27.956 0.00000
G1 X71.791 Y28.068 0.00000
G1 X71.817 Y28.279 0.00000
G1 X71.928 Y28.224 0.00000
G1 X72.197 Y28.527 0.00000
G1 X72.323 Y28.460 0.00000
G1 X72.817 Y28.954 0.00000
G1 X73.001 Y28.593 0.00000
G1 X72.679 Y28.271 0.00000
G1 X73.034 Y28.081 0.00000
G1 X73.185 Y28.232 0.00000
G1 X71.839 Y35.058 F900.000
G1 F900
G1 X72.427 Y35.101 0.00000
G1 X71.296 Y33.971 0.00000
G1 X71.841 Y33.971 0.00000
G1 X73.014 Y35.144 0.00000
G1 X73.602 Y35.188 0.00000
G1 X72.386 Y33.971 0.00000
G1 X72.931 Y33.971 0.00000
G1 X74.174 Y35.214 0.00000
G1 X74.737 Y35.233 0.00000
G1 X73.476 Y33.971 0.00000
G1 X74.021 Y33.971 0.00000
G1 X75.300 Y35.251 0.00000
G1 X75.864 Y35.269 0.00000
G1 X74.565 Y33.971 0.00000
G1 X75.110 Y33.971 0.00000
G1 X76.409 Y35.270 0.00000
G1 X76.947 Y35.263 0.00000
G1 X75.655 Y33.971 0.00000
G1 X76.200 Y33.971 0.00000
G1 X77.464 Y35.235 0.00000
G1 X77.645 Y35.225 0.00000
G1 X77.650 Y34.876 0.00000
G1 X76.745 Y33.971 0.00000
G1 X77.290 Y33.971 0.00000
G1 X77.677 Y34.358 0.00000
G1 X77.733 Y34.029 0.00000
G1 X77.779 Y33.916 0.00000
G1 X77.653 Y33.790 0.00000
G1 X77.824 Y33.600 0.00000
G1 X77.927 Y33.519 0.00000
G1 X77.943 Y33.535 0.00000
G1 X79.562 Y19.353 F900.000
G1 F900
G1 X78.554 Y18.345 0.00000
G1 X78.695 Y18.691 0.00000
G1 X78.786 Y19.122 0.00000
G1 X79.129 Y19.465 0.00000
G1 X78.833 Y19.557 0.00000
G1 X78.825 Y19.306 0.00000
G1 X78.786 Y19.122 0.00000
G1 X83.227 Y18.659 F900.000
G1 F900
G1 X83.596 Y18.812 0.00000
G1 X83.913 Y19.008 0.00000
G1 X84.180 Y19.235 0.00000
G1 X84.409 Y19.504 0.00000
G1 X84.583 Y19.793 0.00000
G1 X84.723 Y20.156 0.00000
G1 X84.948 Y20.380 0.00000
G1 X84.509 Y19.396 F900.000
G1 F900
G1 X83.675 Y18.621 0.00000
G1 X83.146 Y18.205 0.00000
G1 X82.253 Y17.588 0.00000
G1 X82.030 Y17.463 0.00000
G1 X83.227 Y18.659 0.00000
G1 X82.852 Y18.571 0.00000
G1 X82.575 Y18.552 0.00000
G1 X80.854 Y16.832 0.00000
G1 X80.534 Y16.680 0.00000
G1 X79.915 Y16.437 0.00000
G1 X82.065 Y18.587 0.00000
G1 X81.622 Y18.689 0.00000
G1 X79.060 Y16.127 0.00000
G1 X78.316 Y15.927 0.00000
G1 X81.208 Y18.820 0.00000
G1 X80.810 Y18.967 0.00000
G1 X77.628 Y15.785 0.00000
G1 X77.004 Y15.706 0.00000
G1 X80.412 Y19.114 0.00000
G1 X79.995 Y19.241 0.00000
G1 X76.444 Y15.691 0.00000
G1 X75.931 Y15.722 0.00000
G1 X76.611 Y16.403 0.00000
G1 X76.327 Y16.344 0.00000
G1 X75.999 Y16.335 0.00000
G1 X75.467 Y15.803 0.00000
G1 X75.254 Y15.846 0.00000
G1 X75.042 Y15.922 0.00000
G1 X75.531 Y16.412 0.00000
G1 X75.364 Y16.455 0.00000
G1 X75.130 Y16.556 0.00000
G1 X74.650 Y16.075 0.00000
G1 X74.297 Y16.267 0.00000
G1 X74.755 Y16.725 0.00000
G1 X74.416 Y16.931 0.00000
G1 X73.981 Y16.497 0.00000
G1 X73.675 Y16.736 0.00000
G1 X74.092 Y17.153 0.00000
G1 X73.787 Y17.392 0.00000
G1 X73.370 Y16.975 0.00000
G1 F900
G1 X73.285 Y17.041 0.00000
G1 X72.437 Y16.344 0.00000
G1 X72.540 Y16.145 0.00000
G1 X71.200 Y14.806 0.00000
G1 X71.288 Y14.348 0.00000
G1 X72.725 Y15.786 0.00000
G1 X72.887 Y15.473 0.00000
G1 X72.905 Y15.420 0.00000
G1 X71.376 Y13.891 0.00000
G1 X71.464 Y13.434 0.00000
G1 X73.036 Y15.006 0.00000
G1 X73.100 Y14.526 0.00000
G1 X71.551 Y12.977 0.00000
G1 X71.633 Y12.553 0.00000
G1 X71.437 Y12.672 0.00000
G1 X71.426 Y12.307 0.00000
G1 X73.086 Y13.967 0.00000
G1 X72.958 Y13.294 0.00000
G1 X71.327 Y11.663 0.00000
G1 X71.239 Y11.256 0.00000
G1 X71.101 Y10.892 0.00000
G1 X72.625 Y12.416 0.00000
G1 X72.324 Y11.780 0.00000
G1 X72.059 Y11.318 0.00000
G1 X71.846 Y11.093 0.00000
G1 X71.817 Y11.097 0.00000
G1 X71.814 Y11.060 0.00000
G1 X67.459 Y6.706 0.00000
G1 X67.720 Y6.845 0.00000
G1 X68.848 Y7.615 0.00000
G1 X69.306 Y8.007 0.00000
G1 X70.414 Y9.115 0.00000
G1 X68.699 Y8.491 F900.000
G1 F900
G1 X66.426 Y6.217 0.00000
G1 X65.601 Y5.937 0.00000
G1 X67.728 Y8.064 0.00000
G1 X66.935 Y7.816 0.00000
G1 X64.820 Y5.701 0.00000
G1 X64.153 Y5.578 0.00000
G1 X66.130 Y7.556 0.00000
G1 X65.783 Y7.455 0.00000
G1 X65.772 Y7.469 0.00000
G1 X65.411 Y7.381 0.00000
G1 X63.501 Y5.472 0.00000
G1 X63.118 Y5.426 0.00000
G1 X62.906 Y5.421 0.00000
G1 X64.691 Y7.207 0.00000
G1 X63.972 Y7.032 0.00000
G1 X62.348 Y5.408 0.00000
G1 X61.789 Y5.394 0.00000
G1 X63.276 Y6.881 0.00000
G1 X62.602 Y6.752 0.00000
G1 X61.269 Y5.419 0.00000
G1 X60.778 Y5.473 0.00000
G1 X61.929 Y6.624 0.00000
G1 X61.694 Y6.579 0.00000
G1 X61.304 Y6.544 0.00000
G1 X60.287 Y5.526 0.00000
G1 X59.902 Y5.569 0.00000
G1 X59.808 Y5.592 0.00000
G1 X60.705 Y6.490 0.00000
G1 X60.109 Y6.438 0.00000
G1 X59.371 Y5.701 0.00000
G1 X58.935 Y5.809 0.00000
G1 X59.587 Y6.461 0.00000
G1 X59.065 Y6.484 0.00000
G1 X59.000 Y6.419 0.00000
G1 X59.061 Y6.281 0.00000
G1 X58.906 Y6.325 0.00000
G1 X58.502 Y5.922 0.00000
G1 X58.090 Y6.054 0.00000
G1 X58.480 Y6.444 0.00000
G1 X58.055 Y6.564 0.00000
G1 X57.700 Y6.209 0.00000
G1 X57.315 Y6.369 0.00000
G1 X57.629 Y6.683 0.00000
G1 X57.204 Y6.802 0.00000
G1 X56.931 Y6.529 0.00000
G1 X56.552 Y6.695 0.00000
G1 X56.778 Y6.921 0.00000
G1 X56.366 Y7.055 0.00000
G1 X56.203 Y6.891 0.00000
G1 X55.854 Y7.087 0.00000
G1 X55.990 Y7.223 0.00000
G1 X55.613 Y7.391 0.00000
G1 X55.505 Y7.283 0.00000
G1 X55.156 Y7.479 0.00000
G1 X55.236 Y7.559 0.00000
G1 X54.870 Y7.737 0.00000
G1 X54.839 Y7.707 0.00000
G1 X54.523 Y7.936 0.00000
G1 X54.538 Y7.950 0.00000
G1 X54.227 Y8.150 0.00000
G1 X54.523 Y7.936 0.00000
G1 X51.949 Y10.126 F900.000
G1 F900
G1 X51.645 Y10.475 0.00000
G1 X51.771 Y10.601 0.00000
G1 X51.592 Y11.075 0.00000
G1 X51.343 Y10.826 0.00000
G1 X47.007 Y2.599 F900.000
G1 F900
G1 X46.653 Y2.245 0.00000
G1 X46.516 Y2.245 0.00000
G1 X46.516 Y2.653 0.00000
G1 X47.007 Y3.143 0.00000
G1 X47.007 Y3.688 0.00000
G1 X46.516 Y3.198 0.00000
G1 X46.516 Y3.743 0.00000
G1 X47.007 Y4.233 0.00000
G1 X47.007 Y4.778 0.00000
G1 X46.516 Y4.288 0.00000
G1 X46.516 Y4.832 0.00000
G1 X47.007 Y5.323 0.00000
G1 X47.007 Y5.868 0.00000
G1 X46.516 Y5.377 0.00000
G1 X46.516 Y5.922 0.00000
G1 X47.007 Y6.412 0.00000
G1 X47.007 Y6.957 0.00000
G1 X46.516 Y6.467 0.00000
G1 X46.516 Y7.012 0.00000
G1 X47.007 Y7.502 0.00000
G1 X47.007 Y8.047 0.00000
G1 X46.516 Y7.557 0.00000
G1 X46.516 Y8.102 0.00000
G1 X47.007 Y8.592 0.00000
G1 X47.007 Y9.137 0.00000
G1 X46.516 Y8.646 0.00000
G1 X46.516 Y9.191 0.00000
G1 X47.007 Y9.682 0.00000
G1 X47.007 Y10.226 0.00000
G1 X46.516 Y9.736 0.00000
G1 X46.516 Y10.281 0.00000
G1 X47.007 Y10.771 0.00000
G1 X47.007 Y11.316 0.00000
G1 X46.516 Y10.826 0.00000
G1 X46.516 Y11.371 0.00000
G1 X47.007 Y11.861 0.00000
G1 X47.007 Y12.406 0.00000
G1 X46.516 Y11.915 0.00000
G1 X46.516 Y12.460 0.00000
G1 X47.007 Y12.951 0.00000
G1 X47.007 Y13.495 0.00000
G1 X46.516 Y13.005 0.00000
G1 X46.516 Y13.550 0.00000
G1 X47.007 Y14.040 0.00000
G1 X47.007 Y14.585 0.00000
G1 X46.516 Y14.095 0.00000
G1 X46.516 Y14.640 0.00000
G1 X47.007 Y15.130 0.00000
G1 X47.007 Y15.576 0.00000
G1 X47.615 Y15.738 0.00000
G1 X47.908 Y16.032 0.00000
G1 X47.734 Y16.402 0.00000
G1 X46.516 Y15.185 0.00000
G1 X46.516 Y15.729 0.00000
G1 X47.560 Y16.773 0.00000
G1 X47.386 Y17.144 0.00000
G1 X46.516 Y16.274 0.00000
G1 X46.516 Y16.819 0.00000
G1 X47.212 Y17.515 0.00000
G1 X47.038 Y17.886 0.00000
G1 X46.516 Y17.364 0.00000
G1 X46.516 Y17.909 0.00000
G1 X47.007 Y18.399 0.00000
G1 X47.007 Y18.944 0.00000
G1 X46.516 Y18.454 0.00000
G1 X46.516 Y18.998 0.00000
G1 X47.007 Y19.489 0.00000
G1 X47.007 Y20.034 0.00000
G1 X46.516 Y19.543 0.00000
G1 X46.516 Y20.088 0.00000
G1 X47.007 Y20.579 0.00000
G1 X47.007 Y21.123 0.00000
G1 X46.516 Y20.633 0.00000
G1 X46.516 Y21.178 0.00000
G1 X47.007 Y21.668 0.00000
G1 X47.007 Y21.978 0.00000
G1 X47.386 Y22.047 0.00000
G1 X47.446 Y22.108 0.00000
G1 X47.297 Y22.504 0.00000
G1 X46.516 Y21.723 0.00000
G1 X46.516 Y22.268 0.00000
G1 X47.148 Y22.900 0.00000
G1 X47.007 Y23.303 0.00000
G1 X46.516 Y22.812 0.00000
G1 X46.516 Y23.357 0.00000
G1 X47.007 Y23.848 0.00000
G1 X47.007 Y24.392 0.00000
G1 X46.516 Y23.902 0.00000
G1 X46.516 Y24.447 0.00000
G1 X47.007 Y24.937 0.00000
G1 X47.007 Y25.482 0.00000
G1 X46.516 Y24.992 0.00000
G1 X46.516 Y25.537 0.00000
G1 X46.516 Y30.985 F900.000
G1 F900
G1 X47.007 Y30.985 0.00000
G1 X47.007 Y30.931 0.00000
G1 X46.516 Y30.440 0.00000
G1 X46.516 Y29.895 0.00000
G1 X47.007 Y30.386 0.00000
G1 X47.007 Y29.841 0.00000
G1 X46.516 Y29.351 0.00000
G1 X46.516 Y28.806 0.00000
G1 X47.007 Y29.296 0.00000
G1 X47.007 Y28.751 0.00000
G1 X46.516 Y28.261 0.00000
G1 X46.516 Y27.716 0.00000
G1 X47.007 Y28.206 0.00000
G1 X47.007 Y27.662 0.00000
G1 X46.516 Y27.171 0.00000
G1 X46.516 Y26.626 0.00000
G1 X47.364 Y27.474 0.00000
G1 X48.465 Y28.031 0.00000
G1 X46.516 Y26.082 0.00000
G1 X46.516 Y25.537 0.00000
G1 X48.728 Y27.749 0.00000
G1 X48.816 Y27.291 0.00000
G1 X47.232 Y25.707 0.00000
G1 X47.511 Y25.441 0.00000
G1 X48.903 Y26.834 0.00000
G1 X48.916 Y26.766 0.00000
G1 X49.331 Y26.717 0.00000
G1 X48.080 Y25.466 0.00000
G1 X48.568 Y25.409 0.00000
G1 X49.818 Y26.659 0.00000
G1 X50.305 Y26.601 0.00000
G1 X49.056 Y25.352 0.00000
G1 X49.544 Y25.295 0.00000
G1 X50.791 Y26.543 0.00000
G1 X51.278 Y26.485 0.00000
G1 X50.038 Y25.245 0.00000
G1 X50.537 Y25.199 0.00000
G1 X51.765 Y26.427 0.00000
G1 X52.252 Y26.368 0.00000
G1 X51.036 Y25.152 0.00000
G1 X51.535 Y25.106 0.00000
G1 X52.739 Y26.310 0.00000
G1 X53.225 Y26.252 0.00000
G1 X52.033 Y25.060 0.00000
G1 X52.532 Y25.014 0.00000
G1 X53.712 Y26.194 0.00000
G1 X54.199 Y26.136 0.00000
G1 X53.031 Y24.968 0.00000
G1 X53.530 Y24.922 0.00000
G1 X54.686 Y26.078 0.00000
G1 X55.173 Y26.020 0.00000
G1 X54.028 Y24.876 0.00000
G1 X54.527 Y24.830 0.00000
G1 X55.659 Y25.962 0.00000
G1 X56.146 Y25.904 0.00000
G1 X55.026 Y24.784 0.00000
G1 X55.525 Y24.738 0.00000
G1 X56.633 Y25.846 0.00000
G1 X57.120 Y25.788 0.00000
G1 X56.023 Y24.691 0.00000
G1 X56.522 Y24.645 0.00000
G1 X57.607 Y25.730 0.00000
G1 X58.093 Y25.672 0.00000
G1 X57.007 Y24.586 0.00000
G1 X57.489 Y24.523 0.00000
G1 X58.580 Y25.614 0.00000
G1 X59.067 Y25.556 0.00000
G1 X57.971 Y24.460 0.00000
G1 X58.453 Y24.397 0.00000
G1 X59.554 Y25.498 0.00000
G1 X60.041 Y25.440 0.00000
G1 X58.935 Y24.334 0.00000
G1 X59.405 Y24.259 0.00000
G1 X60.527 Y25.382 0.00000
G1 X61.014 Y25.324 0.00000
G1 X59.861 Y24.170 0.00000
G1 X60.317 Y24.082 0.00000
G1 X61.501 Y25.266 0.00000
G1 X61.988 Y25.208 0.00000
G1 X60.773 Y23.993 0.00000
G1 X61.229 Y23.904 0.00000
G1 X62.475 Y25.149 0.00000
G1 X62.961 Y25.091 0.00000
G1 X61.685 Y23.815 0.00000
G1 X61.953 Y23.763 0.00000
G1 X61.953 Y23.805 0.00000
G1 X62.161 Y23.746 0.00000
G1 X63.448 Y25.033 0.00000
G1 X63.935 Y24.975 0.00000
G1 X62.597 Y23.638 0.00000
G1 X62.638 Y23.630 0.00000
G1 X62.638 Y23.610 0.00000
G1 X63.009 Y23.504 0.00000
G1 X64.422 Y24.917 0.00000
G1 X64.828 Y24.869 0.00000
G1 X64.819 Y24.770 0.00000
G1 X63.433 Y23.383 0.00000
G1 X63.857 Y23.262 0.00000
G1 X64.970 Y24.376 0.00000
G1 X65.348 Y24.209 0.00000
G1 X64.281 Y23.142 0.00000
G1 X64.694 Y23.011 0.00000
G1 X65.726 Y24.042 0.00000
G1 X66.105 Y23.876 0.00000
G1 X65.096 Y22.867 0.00000
G1 X65.497 Y22.724 0.00000
G1 X66.477 Y23.703 0.00000
G1 X66.788 Y23.545 0.00000
G1 X66.835 Y23.516 0.00000
G1 X65.895 Y22.576 0.00000
G1 X66.272 Y22.408 0.00000
G1 X67.174 Y23.311 0.00000
G1 X67.514 Y23.106 0.00000
G1 X66.642 Y22.234 0.00000
G1 X67.012 Y22.059 0.00000
G1 X67.853 Y22.900 0.00000
G1 X68.179 Y22.681 0.00000
G1 X67.378 Y21.880 0.00000
G1 X67.724 Y21.682 0.00000
G1 X68.496 Y22.453 0.00000
G1 X68.802 Y22.215 0.00000
G1 X68.066 Y21.478 0.00000
G1 X68.393 Y21.260 0.00000
G1 X69.109 Y21.976 0.00000
G1 X69.415 Y21.738 0.00000
G1 X68.720 Y21.042 0.00000
G1 X69.031 Y20.809 0.00000
G1 X69.710 Y21.488 0.00000
G1 X69.997 Y21.230 0.00000
G1 X69.327 Y20.560 0.00000
G1 X69.623 Y20.311 0.00000
G1 X70.283 Y20.971 0.00000
G1 X70.570 Y20.713 0.00000
G1 X69.915 Y20.058 0.00000
G1 X70.183 Y19.781 0.00000
G1 X70.842 Y20.441 0.00000
G1 X71.114 Y20.167 0.00000
G1 X70.424 Y19.478 0.00000
G1 X70.563 Y19.303 0.00000
G1 X70.647 Y19.156 0.00000
G1 X71.385 Y19.893 0.00000
G1 X71.647 Y19.611 0.00000
G1 X70.844 Y18.808 0.00000
G1 X70.992 Y18.411 0.00000
G1 X71.865 Y19.284 0.00000
G1 X71.921 Y19.312 0.00000
G1 X72.168 Y19.042 0.00000
G1 X71.081 Y17.955 0.00000
G1 X71.119 Y17.448 0.00000
G1 X72.429 Y18.758 0.00000
G1 X72.689 Y18.474 0.00000
G1 X71.103 Y16.888 0.00000
G1 X71.078 Y16.317 0.00000
G1 X72.950 Y18.189 0.00000
G1 X73.219 Y17.914 0.00000
G1 X71.072 Y15.766 0.00000
G1 X71.113 Y15.263 0.00000
G1 X73.493 Y17.643 0.00000
G1 X83.246 Y28.448 F900.000
G1 F900
G1 X82.916 Y28.771 0.00000
G1 X82.997 Y28.852 0.00000
G1 X82.931 Y28.959 0.00000
G1 X82.708 Y29.216 0.00000
G1 X82.585 Y29.093 0.00000
G1 X82.255 Y29.416 0.00000
G1 X82.370 Y29.531 0.00000
G1 X82.117 Y29.724 0.00000
G1 X81.984 Y29.798 0.00000
G1 X81.958 Y29.772 0.00000
G1 Z-148.530 F900.000
G1 X49.159 Y27.541 F900.000
G1 F900
G1 X49.241 Y27.115 0.00000
G1 X65.053 Y25.230 0.00000
G1 X69.910 Y26.303 0.00000
G1 X70.171 Y26.380 0.00000
G1 X70.515 Y26.521 0.00000
G1 X70.761 Y26.664 0.00000
G1 X71.001 Y26.867 0.00000
G1 X71.127 Y27.023 0.00000
G1 X71.226 Y27.194 0.00000
G1 X71.305 Y27.433 0.00000
G1 X71.329 Y27.621 0.00000
G1 X71.325 Y27.815 0.00000
G1 X71.255 Y28.163 0.00000
G1 X71.036 Y28.655 0.00000
G1 X70.676 Y29.177 0.00000
G1 X70.288 Y29.610 0.00000
G1 X69.822 Y30.036 0.00000
G1 X69.431 Y30.339 0.00000
G1 X68.941 Y30.644 0.00000
G1 X69.040 Y30.759 0.00000
G1 X69.176 Y30.999 0.00000
G1 X69.255 Y31.206 0.00000
G1 X69.310 Y31.539 0.00000
G1 X69.264 Y31.928 0.00000
G1 X69.121 Y32.274 0.00000
G1 X68.846 Y32.642 0.00000
G1 X68.502 Y32.942 0.00000
G1 X68.057 Y33.204 0.00000
G1 X67.672 Y33.354 0.00000
G1 X67.200 Y33.464 0.00000
G1 X66.535 Y33.511 0.00000
G1 X65.899 Y33.469 0.00000
G1 X65.402 Y33.392 0.00000
G1 X64.799 Y33.264 0.00000
G1 X63.047 Y32.785 0.00000
G1 X61.155 Y32.304 0.00000
G1 X57.830 Y31.379 0.00000
G1 X55.124 Y30.435 0.00000
G1 X52.918 Y29.483 0.00000
G1 X52.243 Y29.163 0.00000
G1 X49.236 Y27.581 0.00000
G1 X48.078 Y25.078 F900.000
G1 F900
G1 X47.898 Y24.694 0.00000
G1 X51.969 Y20.819 0.00000
G1 X57.724 Y18.689 0.00000
G1 X62.253 Y18.689 0.00000
G1 X62.253 Y23.311 0.00000
G1 X59.978 Y23.773 0.00000
G1 X59.134 Y23.920 0.00000
G1 X56.890 Y24.218 0.00000
G1 X55.726 Y24.346 0.00000
G1 X49.753 Y24.884 0.00000
G1 X48.165 Y25.068 0.00000
G1 X47.876 Y21.745 F900.000
G1 F900
G1 X47.392 Y21.657 0.00000
G1 X47.392 Y18.039 0.00000
G1 X48.487 Y15.703 0.00000
G1 X49.607 Y13.706 0.00000
G1 X50.739 Y12.025 0.00000
G1 X51.233 Y11.389 0.00000
G1 X51.675 Y11.637 0.00000
G1 X47.906 Y21.664 0.00000
G1 X47.392 Y25.024 F900.000
G1 F900
G1 X47.392 Y23.346 0.00000
G1 X52.365 Y10.113 0.00000
G1 X53.716 Y8.936 0.00000
G1 X55.127 Y8.030 0.00000
G1 X55.459 Y7.866 0.00000
G1 X56.605 Y7.370 0.00000
G1 X58.378 Y6.873 0.00000
G1 X52.465 Y20.194 0.00000
G1 X47.455 Y24.964 0.00000
G1 X52.475 Y20.444 F900.000
G1 F900
G1 X58.486 Y6.899 0.00000
G1 X59.131 Y6.851 0.00000
G1 X60.298 Y6.831 0.00000
G1 X61.492 Y6.940 0.00000
G1 X61.956 Y7.010 0.00000
G1 X63.518 Y7.317 0.00000
G1 X65.808 Y7.874 0.00000
G1 X57.580 Y18.555 0.00000
G1 X52.556 Y20.414 0.00000
