; generated by Slic3r 1.3.0 on 2023-07-04 at 12:24:30

; external perimeters extrusion width = 0.50mm (2.95mm^3/s)
; perimeters extrusion width = 0.50mm (2.95mm^3/s)
; infill extrusion width = 0.50mm (2.95mm^3/s)
; solid infill extrusion width = 0.50mm (2.95mm^3/s)
; top infill extrusion width = 0.50mm (2.95mm^3/s)


; Filament gcode

G21 ; set units to millimeters
G90 ; use absolute coordinates
G1 Z-149.500 F900.000
G1 -2.00000 F1200.00000
G1 X4.485 Y19.932 F900.000
G1 2.00000 F1200.00000
G1 F900
G1 X4.940 Y20.352 2.00000
G1 X5.077 Y20.524 2.00000
G1 X5.172 Y20.695 2.00000
G1 X5.236 Y20.877 2.00000
G1 X5.267 Y21.203 2.00000
G1 X5.232 Y21.450 2.00000
G1 X4.951 Y22.400 2.00000
G1 X4.920 Y22.686 2.00000
G1 X4.941 Y23.072 2.00000
G1 X5.015 Y23.441 2.00000
G1 X5.173 Y23.887 2.00000
G1 X5.431 Y24.377 2.00000
G1 X5.764 Y24.833 2.00000
G1 X6.182 Y25.272 2.00000
G1 X6.018 Y25.898 2.00000
G1 X5.967 Y26.399 2.00000
G1 X6.002 Y26.983 2.00000
G1 X6.122 Y27.524 2.00000
G1 X6.351 Y28.103 2.00000
G1 X6.689 Y28.661 2.00000
G1 X7.082 Y29.118 2.00000
G1 X7.521 Y29.486 2.00000
G1 X8.030 Y29.784 2.00000
G1 X8.497 Y29.963 2.00000
G1 X8.832 Y30.053 2.00000
G1 X8.879 Y30.532 2.00000
G1 X8.941 Y30.763 2.00000
G1 X9.037 Y30.973 2.00000
G1 X9.165 Y31.165 2.00000
G1 X9.366 Y31.383 2.00000
G1 X9.757 Y31.691 2.00000
G1 X10.768 Y32.322 2.00000
G1 X11.143 Y32.598 2.00000
G1 X11.438 Y32.883 2.00000
G1 X11.655 Y33.184 2.00000
G1 X11.769 Y33.401 2.00000
G1 X11.869 Y33.695 2.00000
G1 X11.926 Y34.043 2.00000
G1 X11.935 Y34.588 2.00000
G1 X10.301 Y34.603 2.00000
G1 X8.946 Y34.408 2.00000
G1 X8.656 Y34.337 2.00000
G1 X7.548 Y33.997 2.00000
G1 X7.155 Y33.839 2.00000
G1 X5.921 Y33.229 2.00000
G1 X4.698 Y32.367 2.00000
G1 X3.775 Y31.466 2.00000
G1 X3.053 Y30.491 2.00000
G1 X2.556 Y29.526 2.00000
G1 X2.208 Y28.447 2.00000
G1 X2.035 Y27.307 2.00000
G1 X2.050 Y26.126 2.00000
G1 X2.247 Y24.984 2.00000
G1 X2.649 Y23.711 2.00000
G1 X3.431 Y21.960 2.00000
G1 X4.444 Y20.009 2.00000
G1 0.00000 F1200.00000
G1 X6.194 Y21.746 F900.000
G1 2.00000 F1200.00000
G1 F900
G1 X6.429 Y21.694 2.00000
G1 X15.806 Y26.689 2.00000
G1 X17.303 Y29.625 2.00000
G1 X6.254 Y25.233 2.00000
G1 X6.281 Y24.922 2.00000
G1 X6.214 Y24.702 2.00000
G1 X5.785 Y23.653 2.00000
G1 X5.647 Y23.236 2.00000
G1 X5.560 Y22.810 2.00000
G1 X5.564 Y22.421 2.00000
G1 X5.653 Y22.155 2.00000
G1 X5.795 Y21.964 2.00000
G1 X5.914 Y21.867 2.00000
G1 X6.115 Y21.781 2.00000
G1 0.00000 F1200.00000
G1 X17.677 Y27.573 F900.000
G1 2.00000 F1200.00000
G1 F900
G1 X6.565 Y21.653 2.00000
G1 X6.343 Y21.572 2.00000
G1 X6.133 Y21.456 2.00000
G1 X5.948 Y21.308 2.00000
G1 X5.796 Y21.133 2.00000
G1 X5.689 Y20.962 2.00000
G1 X5.602 Y20.755 2.00000
G1 X5.548 Y20.535 2.00000
G1 X5.527 Y20.294 2.00000
G1 X5.545 Y20.033 2.00000
G1 X5.608 Y19.755 2.00000
G1 X5.711 Y19.499 2.00000
G1 X5.865 Y19.242 2.00000
G1 X6.051 Y19.026 2.00000
G1 X6.281 Y18.831 2.00000
G1 X6.538 Y18.674 2.00000
G1 X6.847 Y18.545 2.00000
G1 X7.147 Y18.473 2.00000
G1 X7.396 Y18.453 2.00000
G1 X7.846 Y18.480 2.00000
G1 X8.405 Y18.620 2.00000
G1 X9.429 Y19.002 2.00000
G1 X10.940 Y19.410 2.00000
G1 X11.294 Y19.567 2.00000
G1 X11.618 Y19.779 2.00000
G1 X18.904 Y26.189 2.00000
G1 X17.735 Y27.508 2.00000
G1 0.00000 F1200.00000
G1 X24.731 Y24.647 F900.000
G1 2.00000 F1200.00000
G1 F900
G1 X18.794 Y25.959 2.00000
G1 X11.553 Y19.587 2.00000
G1 X11.501 Y19.075 2.00000
G1 X11.527 Y18.764 2.00000
G1 X11.621 Y18.355 2.00000
G1 X11.857 Y17.769 2.00000
G1 X12.119 Y17.335 2.00000
G1 X12.503 Y16.870 2.00000
G1 X12.794 Y16.619 2.00000
G1 X13.189 Y16.385 2.00000
G1 X13.431 Y16.295 2.00000
G1 X13.714 Y16.242 2.00000
G1 X13.924 Y16.235 2.00000
G1 X14.188 Y16.265 2.00000
G1 X14.530 Y16.357 2.00000
G1 X14.967 Y16.548 2.00000
G1 X15.557 Y16.912 2.00000
G1 X16.193 Y17.429 2.00000
G1 X16.777 Y18.016 2.00000
G1 X18.668 Y20.060 2.00000
G1 X20.168 Y21.448 2.00000
G1 X21.700 Y22.614 2.00000
G1 X23.075 Y23.446 2.00000
G1 X24.776 Y24.217 2.00000
G1 X24.740 Y24.561 2.00000
G1 0.00000 F1200.00000
G1 X27.628 Y22.823 F900.000
G1 2.00000 F1200.00000
G1 F900
G1 X25.716 Y22.285 2.00000
G1 X24.118 Y21.714 2.00000
G1 X22.629 Y20.999 2.00000
G1 X22.400 Y20.868 2.00000
G1 X21.147 Y20.034 2.00000
G1 X20.139 Y19.138 2.00000
G1 X19.721 Y18.623 2.00000
G1 X19.469 Y18.186 2.00000
G1 X19.329 Y17.814 2.00000
G1 X19.252 Y17.443 2.00000
G1 X19.216 Y16.880 2.00000
G1 X19.277 Y15.573 2.00000
G1 X19.246 Y14.904 2.00000
G1 X18.862 Y12.845 2.00000
G1 X27.628 Y18.181 2.00000
G1 X27.628 Y22.736 2.00000
G1 0.00000 F1200.00000
G1 X32.270 Y18.106 F900.000
G1 2.00000 F1200.00000
G1 F900
G1 X27.697 Y18.106 2.00000
G1 X18.887 Y12.743 2.00000
G1 X18.929 Y11.667 2.00000
G1 X19.094 Y10.862 2.00000
G1 X19.286 Y10.346 2.00000
G1 X19.536 Y9.897 2.00000
G1 X19.912 Y9.416 2.00000
G1 X20.387 Y8.982 2.00000
G1 X20.962 Y8.592 2.00000
G1 X21.145 Y8.490 2.00000
G1 X22.290 Y7.967 2.00000
G1 X24.041 Y7.422 2.00000
G1 X32.217 Y18.037 2.00000
G1 0.00000 F1200.00000
G1 X37.495 Y19.975 F900.000
G1 2.00000 F1200.00000
G1 F900
G1 X32.377 Y18.081 2.00000
G1 X24.144 Y7.393 2.00000
G1 X26.163 Y6.898 2.00000
G1 X28.255 Y6.487 2.00000
G1 X29.849 Y6.340 2.00000
G1 X31.475 Y6.410 2.00000
G1 X37.460 Y19.896 2.00000
G1 0.00000 F1200.00000
G1 X42.749 Y24.704 F900.000
G1 2.00000 F1200.00000
G1 F900
G1 X37.493 Y19.724 2.00000
G1 X31.573 Y6.385 2.00000
G1 X33.317 Y6.873 2.00000
G1 X34.793 Y7.524 2.00000
G1 X36.209 Y8.425 2.00000
G1 X37.560 Y9.593 2.00000
G1 X42.749 Y22.801 2.00000
G1 X42.749 Y24.617 2.00000
G1 0.00000 F1200.00000
G1 X42.261 Y21.285 F900.000
G1 2.00000 F1200.00000
G1 F900
G1 X38.282 Y11.156 2.00000
G1 X38.743 Y10.898 2.00000
G1 X40.118 Y12.819 2.00000
G1 X41.311 Y14.805 2.00000
G1 X42.749 Y17.554 2.00000
G1 X42.749 Y21.192 2.00000
G1 X42.346 Y21.269 2.00000
G1 0.00000 F1200.00000
G1 X42.072 Y24.201 F900.000
G1 2.00000 F1200.00000
G1 F900
G1 X41.895 Y24.591 2.00000
G1 X39.230 Y24.317 2.00000
G1 X33.828 Y23.835 2.00000
G1 X30.837 Y23.448 2.00000
G1 X27.702 Y22.838 2.00000
G1 X27.702 Y18.206 2.00000
G1 X32.238 Y18.206 2.00000
G1 X37.994 Y20.336 2.00000
G1 X42.009 Y24.141 2.00000
G1 0.00000 F1200.00000
G1 X40.722 Y26.632 F900.000
G1 2.00000 F1200.00000
G1 F900
G1 X40.801 Y27.068 2.00000
G1 X37.342 Y28.872 2.00000
G1 X34.838 Y29.962 2.00000
G1 X32.144 Y30.902 2.00000
G1 X28.500 Y31.909 2.00000
G1 X26.837 Y32.333 2.00000
G1 X25.246 Y32.770 2.00000
G1 X24.227 Y32.975 2.00000
G1 X23.430 Y33.039 2.00000
G1 X22.765 Y32.990 2.00000
G1 X22.342 Y32.898 2.00000
G1 X21.903 Y32.731 2.00000
G1 X21.486 Y32.488 2.00000
G1 X21.211 Y32.268 2.00000
G1 X21.001 Y32.042 2.00000
G1 X20.835 Y31.797 2.00000
G1 X20.720 Y31.542 2.00000
G1 X20.648 Y31.178 2.00000
G1 X20.657 Y30.933 2.00000
G1 X20.699 Y30.735 2.00000
G1 X20.783 Y30.512 2.00000
G1 X20.916 Y30.280 2.00000
G1 X21.014 Y30.166 2.00000
G1 X20.498 Y29.845 2.00000
G1 X19.669 Y29.137 2.00000
G1 X19.200 Y28.595 2.00000
G1 X18.922 Y28.182 2.00000
G1 X18.750 Y27.826 2.00000
G1 X18.664 Y27.548 2.00000
G1 X18.628 Y27.313 2.00000
G1 X18.629 Y27.104 2.00000
G1 X18.658 Y26.921 2.00000
G1 X18.752 Y26.669 2.00000
G1 X18.865 Y26.492 2.00000
G1 X19.004 Y26.338 2.00000
G1 X19.199 Y26.181 2.00000
G1 X19.430 Y26.045 2.00000
G1 X19.855 Y25.875 2.00000
G1 X24.907 Y24.747 2.00000
G1 X40.636 Y26.622 2.00000
G1 0.00000 F1200.00000
G1 X19.082 Y33.113 F900.000
G1 2.00000 F1200.00000
G1 F900
G1 X12.639 Y33.113 2.00000
G1 X12.403 Y32.851 2.00000
G1 X12.115 Y32.618 2.00000
G1 X10.956 Y31.938 2.00000
G1 X10.437 Y31.602 2.00000
G1 X10.124 Y31.332 2.00000
G1 X9.894 Y31.061 2.00000
G1 X9.760 Y30.832 2.00000
G1 X9.666 Y30.589 2.00000
G1 X9.612 Y30.308 2.00000
G1 X9.587 Y29.735 2.00000
G1 X18.761 Y32.483 2.00000
G1 X19.043 Y33.036 2.00000
G1 0.00000 F1200.00000
G1 X18.698 Y32.360 F900.000
G1 2.00000 F1200.00000
G1 F900
G1 X8.430 Y29.284 2.00000
G1 X8.299 Y29.045 2.00000
G1 X8.122 Y28.815 2.00000
G1 X7.278 Y28.010 2.00000
G1 X6.776 Y27.493 2.00000
G1 X6.528 Y27.158 2.00000
G1 X6.375 Y26.867 2.00000
G1 X6.267 Y26.490 2.00000
G1 X6.252 Y26.264 2.00000
G1 X6.275 Y26.035 2.00000
G1 X6.340 Y25.798 2.00000
G1 X6.491 Y25.435 2.00000
G1 X17.372 Y29.759 2.00000
G1 X18.658 Y32.282 2.00000
G1 0.00000 F1200.00000
G1 X16.692 Y16.136 F900.000
G1 2.00000 F1200.00000
G1 F900
G1 X17.096 Y15.785 2.00000
G1 X16.882 Y15.472 2.00000
G1 X16.655 Y14.973 2.00000
G1 X16.526 Y14.494 2.00000
G1 X16.472 Y14.011 2.00000
G1 X16.494 Y13.430 2.00000
G1 X16.628 Y12.732 2.00000
G1 X16.944 Y11.843 2.00000
G1 X17.464 Y10.833 2.00000
G1 X18.477 Y9.329 2.00000
G1 X18.944 Y8.740 2.00000
G1 X19.632 Y7.969 2.00000
G1 X20.838 Y6.869 2.00000
G1 X22.027 Y6.053 2.00000
G1 X23.543 Y5.321 2.00000
G1 X25.117 Y4.839 2.00000
G1 X26.819 Y4.569 2.00000
G1 X28.417 Y4.531 2.00000
G1 X30.197 Y4.729 2.00000
G1 X31.908 Y5.181 2.00000
G1 X33.563 Y5.871 2.00000
G1 X35.021 Y6.698 2.00000
G1 X36.636 Y7.861 2.00000
G1 X38.091 Y9.170 2.00000
G1 X39.666 Y10.910 2.00000
G1 X41.093 Y12.863 2.00000
G1 X42.306 Y14.940 2.00000
G1 X42.749 Y14.820 2.00000
G1 X42.749 Y1.387 2.00000
G1 X43.949 Y1.387 2.00000
G1 X43.949 Y30.887 2.00000
G1 X42.749 Y30.887 2.00000
G1 X42.749 Y27.437 2.00000
G1 X38.734 Y29.421 2.00000
G1 X35.026 Y30.988 2.00000
G1 X31.309 Y32.299 2.00000
G1 X27.499 Y33.381 2.00000
G1 X24.130 Y34.123 2.00000
G1 X20.293 Y34.729 2.00000
G1 X16.434 Y35.088 2.00000
G1 X13.905 Y35.179 2.00000
G1 X11.658 Y35.099 2.00000
G1 X9.666 Y34.837 2.00000
G1 X8.086 Y34.457 2.00000
G1 X6.555 Y33.894 2.00000
G1 X5.034 Y33.090 2.00000
G1 X3.950 Y32.314 2.00000
G1 X3.807 Y32.196 2.00000
G1 X2.888 Y31.285 2.00000
G1 X2.343 Y30.558 2.00000
G1 X1.948 Y29.823 2.00000
G1 X1.693 Y29.090 2.00000
G1 X1.543 Y28.278 2.00000
G1 X1.501 Y27.566 2.00000
G1 X1.602 Y26.140 2.00000
G1 X1.962 Y24.425 2.00000
G1 X2.519 Y22.770 2.00000
G1 X3.157 Y21.435 2.00000
G1 X3.391 Y21.007 2.00000
G1 X4.252 Y19.720 2.00000
G1 X5.398 Y18.433 2.00000
G1 X6.647 Y17.373 2.00000
G1 X8.085 Y16.445 2.00000
G1 X9.728 Y15.661 2.00000
G1 X11.252 Y15.144 2.00000
G1 X12.603 Y14.876 2.00000
G1 X13.617 Y14.828 2.00000
G1 X14.419 Y14.912 2.00000
G1 X15.086 Y15.089 2.00000
G1 X15.640 Y15.331 2.00000
G1 X16.244 Y15.725 2.00000
G1 X16.628 Y16.077 2.00000
G1 0.00000 F1200.00000
G1 X6.792 Y28.073 F900.000
G1 2.00000 F1200.00000
G1 F900
G1 X7.025 Y28.450 2.00000
G1 X7.096 Y28.379 2.00000
G1 X7.408 Y28.677 2.00000
G1 X7.307 Y28.778 2.00000
G1 X7.359 Y28.838 2.00000
G1 X7.630 Y29.065 2.00000
G1 X7.720 Y28.975 2.00000
G1 X7.829 Y29.079 2.00000
G1 X7.996 Y29.309 2.00000
G1 0.00000 F1200.00000
G1 X12.285 Y33.307 F900.000
G1 2.00000 F1200.00000
G1 F900
G1 X12.132 Y33.137 2.00000
G1 X12.030 Y33.055 2.00000
G1 X12.131 Y33.245 2.00000
G1 X12.186 Y33.406 2.00000
G1 X12.285 Y33.307 2.00000
G1 X12.464 Y33.506 2.00000
G1 X12.644 Y33.506 2.00000
G1 X12.293 Y33.857 2.00000
G1 X12.318 Y34.008 2.00000
G1 X12.325 Y34.384 2.00000
G1 X13.202 Y33.506 2.00000
G1 X13.760 Y33.506 2.00000
G1 X12.529 Y34.737 2.00000
G1 X13.068 Y34.756 2.00000
G1 X14.318 Y33.506 2.00000
G1 X14.876 Y33.506 2.00000
G1 X13.607 Y34.775 2.00000
G1 X13.905 Y34.786 2.00000
G1 X14.164 Y34.776 2.00000
G1 X15.434 Y33.506 2.00000
G1 X15.992 Y33.506 2.00000
G1 X14.743 Y34.756 2.00000
G1 X15.322 Y34.735 2.00000
G1 X16.550 Y33.506 2.00000
G1 X17.108 Y33.506 2.00000
G1 X15.900 Y34.714 2.00000
G1 X16.484 Y34.688 2.00000
G1 X17.666 Y33.506 2.00000
G1 X18.224 Y33.506 2.00000
G1 X17.099 Y34.631 2.00000
G1 X17.714 Y34.574 2.00000
G1 X18.782 Y33.506 2.00000
G1 X19.340 Y33.506 2.00000
G1 X18.329 Y34.517 2.00000
G1 X18.945 Y34.460 2.00000
G1 X20.897 Y32.507 2.00000
G1 X21.200 Y32.762 2.00000
G1 X19.560 Y34.402 2.00000
G1 X20.175 Y34.345 2.00000
G1 X21.544 Y32.976 2.00000
G1 X21.733 Y33.087 2.00000
G1 X21.921 Y33.158 2.00000
G1 X20.833 Y34.246 2.00000
G1 X21.495 Y34.141 2.00000
G1 X22.338 Y33.299 2.00000
G1 X22.807 Y33.387 2.00000
G1 X22.158 Y34.037 2.00000
G1 X22.820 Y33.932 2.00000
G1 X23.327 Y33.425 2.00000
G1 X23.431 Y33.433 2.00000
G1 X23.916 Y33.394 2.00000
G1 X23.483 Y33.827 2.00000
G1 X24.153 Y33.716 2.00000
G1 X24.559 Y33.309 2.00000
G1 X25.258 Y33.168 2.00000
G1 X24.868 Y33.558 2.00000
G1 X25.584 Y33.400 2.00000
G1 X26.020 Y32.965 2.00000
G1 X26.789 Y32.754 2.00000
G1 X26.300 Y33.243 2.00000
G1 X27.015 Y33.085 2.00000
G1 X27.542 Y32.559 2.00000
G1 X28.291 Y32.367 2.00000
G1 X27.760 Y32.898 2.00000
G1 X28.539 Y32.677 2.00000
G1 X29.053 Y32.163 2.00000
G1 X29.824 Y31.950 2.00000
G1 X29.318 Y32.456 2.00000
G1 X30.098 Y32.235 2.00000
G1 X30.595 Y31.737 2.00000
G1 X31.366 Y31.524 2.00000
G1 X30.877 Y32.014 2.00000
G1 X31.190 Y31.925 2.00000
G1 X31.705 Y31.743 2.00000
G1 X32.137 Y31.311 2.00000
G1 X32.981 Y31.026 2.00000
G1 X32.567 Y31.439 2.00000
G1 X33.429 Y31.135 2.00000
G1 X33.838 Y30.727 2.00000
G1 X34.695 Y30.427 2.00000
G1 X34.291 Y30.831 2.00000
G1 X34.885 Y30.622 2.00000
G1 X35.186 Y30.494 2.00000
G1 X35.639 Y30.041 2.00000
G1 X36.627 Y29.611 2.00000
G1 X36.153 Y30.086 2.00000
G1 X37.119 Y29.677 2.00000
G1 X37.634 Y29.163 2.00000
G1 X38.800 Y28.554 2.00000
G1 X38.086 Y29.269 2.00000
G1 X38.570 Y29.064 2.00000
G1 X39.120 Y28.792 2.00000
G1 X39.966 Y27.946 2.00000
G1 X41.133 Y27.338 2.00000
G1 X40.223 Y28.247 2.00000
G1 X41.327 Y27.702 2.00000
G1 X43.556 Y25.472 2.00000
G1 X43.556 Y26.030 2.00000
G1 X42.430 Y27.157 2.00000
G1 X43.142 Y26.805 2.00000
G1 X43.142 Y27.003 2.00000
G1 X43.556 Y26.588 2.00000
G1 X43.556 Y27.146 2.00000
G1 X43.142 Y27.561 2.00000
G1 X43.142 Y28.119 2.00000
G1 X43.556 Y27.704 2.00000
G1 X43.556 Y28.262 2.00000
G1 X43.142 Y28.677 2.00000
G1 X43.142 Y29.235 2.00000
G1 X43.556 Y28.820 2.00000
G1 X43.556 Y29.378 2.00000
G1 X43.142 Y29.793 2.00000
G1 X43.142 Y30.351 2.00000
G1 X43.556 Y29.936 2.00000
G1 X43.556 Y30.495 2.00000
G1 0.00000 F1200.00000
G1 X41.231 Y27.240 F900.000
G1 2.00000 F1200.00000
G1 F900
G1 X42.994 Y25.477 2.00000
G1 X42.707 Y25.205 2.00000
G1 X41.146 Y26.767 2.00000
G1 X41.060 Y26.294 2.00000
G1 X42.421 Y24.934 2.00000
G1 X42.246 Y24.768 2.00000
G1 X42.136 Y25.011 2.00000
G1 X41.818 Y24.978 2.00000
G1 X40.577 Y26.220 2.00000
G1 X40.078 Y26.160 2.00000
G1 X41.312 Y24.926 2.00000
G1 X40.807 Y24.874 2.00000
G1 X39.580 Y26.101 2.00000
G1 X39.081 Y26.041 2.00000
G1 X40.301 Y24.822 2.00000
G1 X39.795 Y24.770 2.00000
G1 X38.583 Y25.982 2.00000
G1 X38.084 Y25.922 2.00000
G1 X39.289 Y24.717 2.00000
G1 X38.778 Y24.670 2.00000
G1 X37.586 Y25.863 2.00000
G1 X37.087 Y25.803 2.00000
G1 X38.266 Y24.625 2.00000
G1 X37.753 Y24.579 2.00000
G1 X36.588 Y25.744 2.00000
G1 X36.090 Y25.685 2.00000
G1 X37.241 Y24.533 2.00000
G1 X36.729 Y24.488 2.00000
G1 X35.591 Y25.625 2.00000
G1 X35.093 Y25.566 2.00000
G1 X36.216 Y24.442 2.00000
G1 X35.704 Y24.396 2.00000
G1 X34.594 Y25.506 2.00000
G1 X34.096 Y25.447 2.00000
G1 X35.192 Y24.351 2.00000
G1 X34.680 Y24.305 2.00000
G1 X33.597 Y25.387 2.00000
G1 X33.098 Y25.328 2.00000
G1 X34.167 Y24.259 2.00000
G1 X33.660 Y24.209 2.00000
G1 X32.600 Y25.268 2.00000
G1 X32.101 Y25.209 2.00000
G1 X33.166 Y24.145 2.00000
G1 X32.671 Y24.081 2.00000
G1 X31.603 Y25.150 2.00000
G1 X31.104 Y25.090 2.00000
G1 X32.177 Y24.017 2.00000
G1 X31.683 Y23.953 2.00000
G1 X30.606 Y25.031 2.00000
G1 X30.107 Y24.971 2.00000
G1 X31.189 Y23.889 2.00000
G1 X30.700 Y23.821 2.00000
G1 X29.609 Y24.912 2.00000
G1 X29.110 Y24.852 2.00000
G1 X30.232 Y23.730 2.00000
G1 X29.765 Y23.639 2.00000
G1 X28.611 Y24.793 2.00000
G1 X28.113 Y24.733 2.00000
G1 X29.298 Y23.548 2.00000
G1 X28.831 Y23.457 2.00000
G1 X27.614 Y24.674 2.00000
G1 X27.116 Y24.615 2.00000
G1 X28.364 Y23.367 2.00000
G1 X28.021 Y23.300 2.00000
G1 X28.021 Y23.341 2.00000
G1 X27.873 Y23.299 2.00000
G1 X26.617 Y24.555 2.00000
G1 X26.119 Y24.496 2.00000
G1 X27.429 Y23.185 2.00000
G1 X27.309 Y23.162 2.00000
G1 X27.309 Y23.141 2.00000
G1 X27.002 Y23.055 2.00000
G1 X25.620 Y24.436 2.00000
G1 X25.154 Y24.381 2.00000
G1 X25.158 Y24.340 2.00000
G1 X26.566 Y22.932 2.00000
G1 X26.131 Y22.810 2.00000
G1 X25.036 Y23.904 2.00000
G1 X24.652 Y23.730 2.00000
G1 X25.695 Y22.687 2.00000
G1 X25.278 Y22.546 2.00000
G1 X24.268 Y23.556 2.00000
G1 X23.884 Y23.382 2.00000
G1 X24.867 Y22.399 2.00000
G1 X24.456 Y22.252 2.00000
G1 X23.500 Y23.208 2.00000
G1 X23.130 Y23.020 2.00000
G1 X24.045 Y22.105 2.00000
G1 X23.662 Y21.930 2.00000
G1 X22.782 Y22.810 2.00000
G1 X22.435 Y22.599 2.00000
G1 X23.285 Y21.750 2.00000
G1 X22.908 Y21.569 2.00000
G1 X22.087 Y22.389 2.00000
G1 X21.922 Y22.289 2.00000
G1 X21.756 Y22.162 2.00000
G1 X22.530 Y21.388 2.00000
G1 X22.172 Y21.188 2.00000
G1 X21.439 Y21.921 2.00000
G1 X21.122 Y21.680 2.00000
G1 X21.837 Y20.965 2.00000
G1 X21.502 Y20.742 2.00000
G1 X20.805 Y21.439 2.00000
G1 X20.488 Y21.198 2.00000
G1 X21.167 Y20.519 2.00000
G1 X20.841 Y20.287 2.00000
G1 X20.192 Y20.936 2.00000
G1 X19.903 Y20.667 2.00000
G1 X20.545 Y20.025 2.00000
G1 X20.250 Y19.762 2.00000
G1 X19.613 Y20.399 2.00000
G1 X19.323 Y20.131 2.00000
G1 X19.954 Y19.500 2.00000
G1 X19.854 Y19.410 2.00000
G1 X19.689 Y19.207 2.00000
G1 X19.033 Y19.863 2.00000
G1 X18.758 Y19.580 2.00000
G1 X19.439 Y18.899 2.00000
G1 X19.227 Y18.553 2.00000
G1 X18.490 Y19.290 2.00000
G1 X18.222 Y19.000 2.00000
G1 X19.046 Y18.176 2.00000
G1 X18.951 Y17.924 2.00000
G1 X18.915 Y17.749 2.00000
G1 X17.954 Y18.710 2.00000
G1 X17.686 Y18.420 2.00000
G1 X18.847 Y17.259 2.00000
G1 X18.823 Y16.884 2.00000
G1 X18.831 Y16.717 2.00000
G1 X17.418 Y18.130 2.00000
G1 X17.150 Y17.840 2.00000
G1 X18.858 Y16.132 2.00000
G1 X18.882 Y15.550 2.00000
G1 X16.875 Y17.557 2.00000
G1 X16.597 Y17.277 2.00000
G1 X18.858 Y15.016 2.00000
G1 X18.779 Y14.537 2.00000
G1 X17.555 Y15.761 2.00000
G1 X17.329 Y15.429 2.00000
G1 X18.693 Y14.065 2.00000
G1 X18.606 Y13.594 2.00000
G1 X17.131 Y15.069 2.00000
G1 X17.026 Y14.840 2.00000
G1 X16.978 Y14.664 2.00000
G1 X18.516 Y13.126 2.00000
G1 X18.426 Y12.658 2.00000
G1 X16.888 Y14.196 2.00000
G1 X16.866 Y13.997 2.00000
G1 X16.878 Y13.647 2.00000
G1 X18.336 Y12.190 2.00000
G1 0.00000 F1200.00000
G1 X18.413 Y12.112 F900.000
G1 2.00000 F1200.00000
G1 F900
G1 X18.523 Y12.003 2.00000
G1 X18.538 Y11.620 2.00000
G1 X18.587 Y11.381 2.00000
G1 X16.979 Y12.989 2.00000
G1 X17.008 Y12.836 2.00000
G1 X17.247 Y12.163 2.00000
G1 X18.750 Y10.660 2.00000
G1 X18.928 Y10.181 2.00000
G1 X19.207 Y9.680 2.00000
G1 X19.335 Y9.517 2.00000
G1 X17.785 Y11.067 2.00000
G1 X18.794 Y9.561 2.00000
G1 X19.029 Y9.265 2.00000
G1 0.00000 F1200.00000
G1 X21.191 Y7.103 F900.000
G1 2.00000 F1200.00000
G1 F900
G1 X21.081 Y7.178 2.00000
G1 X20.072 Y8.087 2.00000
G1 X19.243 Y8.995 2.00000
G1 X19.029 Y9.265 2.00000
G1 X21.191 Y7.103 2.00000
G1 X22.225 Y6.394 2.00000
G1 X22.676 Y6.176 2.00000
G1 X20.255 Y8.597 2.00000
G1 X20.756 Y8.257 2.00000
G1 X20.968 Y8.139 2.00000
G1 X21.526 Y7.884 2.00000
G1 X23.738 Y5.672 2.00000
G1 X24.543 Y5.425 2.00000
G1 X22.470 Y7.498 2.00000
G1 X23.285 Y7.241 2.00000
G1 X25.322 Y5.204 2.00000
G1 X25.985 Y5.099 2.00000
G1 X24.082 Y7.002 2.00000
G1 X24.819 Y6.823 2.00000
G1 X26.648 Y4.993 2.00000
G1 X26.855 Y4.961 2.00000
G1 X27.248 Y4.951 2.00000
G1 X25.558 Y6.642 2.00000
G1 X26.284 Y6.474 2.00000
G1 X27.820 Y4.938 2.00000
G1 X28.391 Y4.925 2.00000
G1 X26.978 Y6.338 2.00000
G1 X27.673 Y6.201 2.00000
G1 X28.895 Y4.979 2.00000
G1 X29.397 Y5.035 2.00000
G1 X28.347 Y6.084 2.00000
G1 X28.962 Y6.028 2.00000
G1 X29.899 Y5.091 2.00000
G1 X30.125 Y5.116 2.00000
G1 X30.368 Y5.180 2.00000
G1 X29.577 Y5.971 2.00000
G1 X29.839 Y5.947 2.00000
G1 X30.146 Y5.960 2.00000
G1 X30.809 Y5.297 2.00000
G1 X31.250 Y5.414 2.00000
G1 X30.880 Y5.784 2.00000
G1 X31.316 Y5.906 2.00000
G1 X31.692 Y5.530 2.00000
G1 X31.782 Y5.554 2.00000
G1 X32.095 Y5.685 2.00000
G1 X31.752 Y6.028 2.00000
G1 X32.189 Y6.150 2.00000
G1 X32.489 Y5.849 2.00000
G1 X32.883 Y6.013 2.00000
G1 X32.625 Y6.271 2.00000
G1 X33.061 Y6.393 2.00000
G1 X33.277 Y6.177 2.00000
G1 X33.644 Y6.368 2.00000
G1 X33.491 Y6.521 2.00000
G1 X33.879 Y6.691 2.00000
G1 X34.000 Y6.570 2.00000
G1 X34.356 Y6.772 2.00000
G1 X34.266 Y6.862 2.00000
G1 X34.653 Y7.033 2.00000
G1 X34.712 Y6.974 2.00000
G1 X35.045 Y7.199 2.00000
G1 X35.033 Y7.211 2.00000
G1 0.00000 F1200.00000
G1 X38.093 Y9.758 F900.000
G1 2.00000 F1200.00000
G1 F900
G1 X38.060 Y9.791 2.00000
G1 X38.248 Y10.269 2.00000
G1 X38.409 Y10.107 2.00000
G1 X38.726 Y10.458 2.00000
G1 0.00000 F1200.00000
G1 X40.808 Y13.154 F900.000
G1 2.00000 F1200.00000
G1 F900
G1 X40.588 Y12.838 2.00000
G1 X40.789 Y13.173 2.00000
G1 X40.808 Y13.154 2.00000
G1 X41.014 Y13.507 2.00000
G1 X40.998 Y13.522 2.00000
G1 X41.208 Y13.871 2.00000
G1 X41.219 Y13.859 2.00000
G1 X41.837 Y14.916 2.00000
G1 X41.820 Y14.932 2.00000
G1 X42.012 Y15.298 2.00000
G1 X42.042 Y15.268 2.00000
G1 X42.118 Y15.398 2.00000
G1 X42.601 Y15.267 2.00000
G1 X42.204 Y15.665 2.00000
G1 0.00000 F1200.00000
G1 X43.142 Y21.423 F900.000
G1 2.00000 F1200.00000
G1 F900
G1 X43.142 Y21.518 2.00000
G1 X43.025 Y21.540 2.00000
G1 X42.774 Y21.791 2.00000
G1 0.00000 F1200.00000
G1 X43.142 Y25.329 F900.000
G1 2.00000 F1200.00000
G1 F900
G1 X43.556 Y24.914 2.00000
G1 X43.556 Y24.356 2.00000
G1 X43.142 Y24.771 2.00000
G1 X43.142 Y24.213 2.00000
G1 X43.556 Y23.798 2.00000
G1 X43.556 Y23.240 2.00000
G1 X43.142 Y23.655 2.00000
G1 X43.142 Y23.097 2.00000
G1 X43.556 Y22.682 2.00000
G1 X43.556 Y22.124 2.00000
G1 X43.089 Y22.592 2.00000
G1 X42.931 Y22.191 2.00000
G1 X43.556 Y21.566 2.00000
G1 X43.556 Y21.008 2.00000
G1 X43.142 Y21.423 2.00000
G1 X43.142 Y20.865 2.00000
G1 X43.556 Y20.450 2.00000
G1 X43.556 Y19.892 2.00000
G1 X43.142 Y20.307 2.00000
G1 X43.142 Y19.749 2.00000
G1 X43.556 Y19.334 2.00000
G1 X43.556 Y18.776 2.00000
G1 X43.142 Y19.191 2.00000
G1 X43.142 Y18.633 2.00000
G1 X43.556 Y18.218 2.00000
G1 X43.556 Y17.660 2.00000
G1 X43.142 Y18.075 2.00000
G1 X43.142 Y17.517 2.00000
G1 X43.556 Y17.102 2.00000
G1 X43.556 Y16.544 2.00000
G1 X42.970 Y17.130 2.00000
G1 X42.779 Y16.764 2.00000
G1 X43.556 Y15.986 2.00000
G1 X43.556 Y15.428 2.00000
G1 X42.587 Y16.397 2.00000
G1 X42.395 Y16.031 2.00000
G1 X43.556 Y14.870 2.00000
G1 X43.556 Y14.312 2.00000
G1 X43.142 Y14.727 2.00000
G1 X43.142 Y14.169 2.00000
G1 X43.556 Y13.754 2.00000
G1 X43.556 Y13.196 2.00000
G1 X43.142 Y13.611 2.00000
G1 X43.142 Y13.053 2.00000
G1 X43.556 Y12.638 2.00000
G1 X43.556 Y12.080 2.00000
G1 X43.142 Y12.495 2.00000
G1 X43.142 Y11.937 2.00000
G1 X43.556 Y11.522 2.00000
G1 X43.556 Y10.964 2.00000
G1 X43.142 Y11.379 2.00000
G1 X43.142 Y10.821 2.00000
G1 X43.556 Y10.406 2.00000
G1 X43.556 Y9.848 2.00000
G1 X43.142 Y10.263 2.00000
G1 X43.142 Y9.705 2.00000
G1 X43.556 Y9.290 2.00000
G1 X43.556 Y8.732 2.00000
G1 X43.142 Y9.147 2.00000
G1 X43.142 Y8.589 2.00000
G1 X43.556 Y8.174 2.00000
G1 X43.556 Y7.616 2.00000
G1 X43.142 Y8.031 2.00000
G1 X43.142 Y7.473 2.00000
G1 X43.556 Y7.058 2.00000
G1 X43.556 Y6.500 2.00000
G1 X43.142 Y6.915 2.00000
G1 X43.142 Y6.357 2.00000
G1 X43.556 Y5.942 2.00000
G1 X43.556 Y5.384 2.00000
G1 X43.142 Y5.799 2.00000
G1 X43.142 Y5.241 2.00000
G1 X43.556 Y4.826 2.00000
G1 X43.556 Y4.268 2.00000
G1 X43.142 Y4.683 2.00000
G1 X43.142 Y4.125 2.00000
G1 X43.556 Y3.710 2.00000
G1 X43.556 Y3.152 2.00000
G1 X43.142 Y3.567 2.00000
G1 X43.142 Y3.009 2.00000
G1 X43.556 Y2.594 2.00000
G1 X43.556 Y2.036 2.00000
G1 X43.142 Y2.451 2.00000
G1 X43.142 Y1.893 2.00000
G1 X43.254 Y1.780 2.00000
G1 0.00000 F1200.00000
G1 X30.681 Y5.983 F900.000
G1 2.00000 F1200.00000
G1 F900
G1 X30.970 Y5.995 2.00000
G1 X30.878 Y5.786 2.00000
G1 X30.681 Y5.983 2.00000
G1 0.00000 F1200.00000
G1 X16.304 Y17.012 F900.000
G1 2.00000 F1200.00000
G1 F900
G1 X16.669 Y16.647 2.00000
G1 X16.377 Y16.380 2.00000
G1 X15.996 Y16.762 2.00000
G1 X15.676 Y16.524 2.00000
G1 X16.086 Y16.114 2.00000
G1 X16.002 Y16.037 2.00000
G1 X15.762 Y15.880 2.00000
G1 X15.331 Y16.311 2.00000
G1 X15.150 Y16.199 2.00000
G1 X14.965 Y16.119 2.00000
G1 X15.420 Y15.664 2.00000
G1 X15.032 Y15.494 2.00000
G1 X14.566 Y15.960 2.00000
G1 X14.262 Y15.878 2.00000
G1 X14.107 Y15.861 2.00000
G1 X14.601 Y15.366 2.00000
G1 X14.348 Y15.299 2.00000
G1 X14.133 Y15.277 2.00000
G1 X13.533 Y15.877 2.00000
G1 X13.326 Y15.915 2.00000
G1 X13.019 Y16.029 2.00000
G1 X12.564 Y16.299 2.00000
G1 X12.483 Y16.369 2.00000
G1 X13.628 Y15.224 2.00000
G1 X13.046 Y15.248 2.00000
G1 X9.641 Y18.653 2.00000
G1 X9.228 Y18.508 2.00000
G1 X12.424 Y15.312 2.00000
G1 X11.728 Y15.450 2.00000
G1 X8.822 Y18.356 2.00000
G1 X8.405 Y18.215 2.00000
G1 X10.963 Y15.657 2.00000
G1 X10.119 Y15.943 2.00000
G1 X7.959 Y18.103 2.00000
G1 X7.442 Y18.062 2.00000
G1 X9.115 Y16.389 2.00000
G1 X8.277 Y16.789 2.00000
G1 X7.940 Y17.006 2.00000
G1 X6.791 Y18.154 2.00000
G1 X6.359 Y18.323 2.00000
G1 X6.050 Y18.512 2.00000
G1 X5.773 Y18.746 2.00000
G1 X5.545 Y19.012 2.00000
G1 X5.358 Y19.324 2.00000
G1 X5.210 Y19.736 2.00000
G1 X5.038 Y19.908 2.00000
G1 X4.803 Y19.691 2.00000
G1 X5.674 Y18.714 2.00000
G1 0.00000 F1200.00000
G1 X10.959 Y19.009 F900.000
G1 2.00000 F1200.00000
G1 F900
G1 X11.127 Y18.841 2.00000
G1 X11.138 Y18.703 2.00000
G1 X11.245 Y18.237 2.00000
G1 X11.294 Y18.116 2.00000
G1 X10.520 Y18.890 2.00000
G1 X10.081 Y18.771 2.00000
G1 X12.053 Y16.799 2.00000
G1 0.00000 F1200.00000
G1 X16.882 Y27.594 F900.000
G1 2.00000 F1200.00000
G1 F900
G1 X16.644 Y27.467 2.00000
G1 X16.767 Y27.709 2.00000
G1 X16.882 Y27.594 2.00000
G1 X17.246 Y27.788 2.00000
G1 X16.955 Y28.079 2.00000
G1 X17.144 Y28.448 2.00000
G1 X17.610 Y27.982 2.00000
G1 X17.766 Y28.065 2.00000
G1 X18.261 Y27.507 2.00000
G1 X18.336 Y27.814 2.00000
G1 X17.332 Y28.818 2.00000
G1 X17.521 Y29.187 2.00000
G1 X18.499 Y28.209 2.00000
G1 X18.580 Y28.378 2.00000
G1 X18.704 Y28.562 2.00000
G1 X17.709 Y29.557 2.00000
G1 X17.898 Y29.926 2.00000
G1 X18.935 Y28.889 2.00000
G1 X19.194 Y29.188 2.00000
G1 X18.086 Y30.296 2.00000
G1 X18.275 Y30.666 2.00000
G1 X19.463 Y29.477 2.00000
G1 X19.764 Y29.734 2.00000
G1 X18.463 Y31.035 2.00000
G1 X18.652 Y31.405 2.00000
G1 X20.065 Y29.991 2.00000
G1 X20.265 Y30.163 2.00000
G1 X20.380 Y30.234 2.00000
G1 X18.840 Y31.774 2.00000
G1 X19.028 Y32.144 2.00000
G1 X20.265 Y30.907 2.00000
G1 X20.253 Y31.209 2.00000
G1 X20.298 Y31.432 2.00000
G1 X19.217 Y32.513 2.00000
G1 X19.405 Y32.883 2.00000
G1 X20.431 Y31.857 2.00000
G1 X20.491 Y31.989 2.00000
G1 X20.639 Y32.207 2.00000
G1 X19.594 Y33.252 2.00000
G1 0.00000 F1200.00000
G1 X76.962 Y34.588 F900.000
G1 2.00000 F1200.00000
G1 F900
G1 X76.972 Y34.043 2.00000
G1 X77.028 Y33.695 2.00000
G1 X77.128 Y33.401 2.00000
G1 X77.243 Y33.184 2.00000
G1 X77.460 Y32.883 2.00000
G1 X77.754 Y32.598 2.00000
G1 X78.129 Y32.322 2.00000
G1 X79.141 Y31.691 2.00000
G1 X79.532 Y31.383 2.00000
G1 X79.733 Y31.165 2.00000
G1 X79.861 Y30.973 2.00000
G1 X79.956 Y30.763 2.00000
G1 X80.018 Y30.532 2.00000
G1 X80.066 Y30.053 2.00000
G1 X80.400 Y29.963 2.00000
G1 X80.868 Y29.784 2.00000
G1 X81.377 Y29.486 2.00000
G1 X81.816 Y29.118 2.00000
G1 X82.208 Y28.661 2.00000
G1 X82.546 Y28.103 2.00000
G1 X82.776 Y27.524 2.00000
G1 X82.906 Y26.871 2.00000
G1 X82.931 Y26.424 2.00000
G1 X82.879 Y25.897 2.00000
G1 X82.716 Y25.272 2.00000
G1 X83.133 Y24.835 2.00000
G1 X83.508 Y24.304 2.00000
G1 X83.750 Y23.822 2.00000
G1 X83.882 Y23.442 2.00000
G1 X83.957 Y23.072 2.00000
G1 X83.977 Y22.673 2.00000
G1 X83.939 Y22.352 2.00000
G1 X83.666 Y21.451 2.00000
G1 X83.632 Y21.212 2.00000
G1 X83.636 Y21.023 2.00000
G1 X83.711 Y20.729 2.00000
G1 X83.813 Y20.535 2.00000
G1 X83.957 Y20.352 2.00000
G1 X84.413 Y19.932 2.00000
G1 X85.467 Y21.960 2.00000
G1 X86.249 Y23.711 2.00000
G1 X86.650 Y24.984 2.00000
G1 X86.848 Y26.126 2.00000
G1 X86.863 Y27.307 2.00000
G1 X86.690 Y28.447 2.00000
G1 X86.322 Y29.572 2.00000
G1 X85.815 Y30.540 2.00000
G1 X85.122 Y31.467 2.00000
G1 X84.200 Y32.367 2.00000
G1 X82.937 Y33.253 2.00000
G1 X81.529 Y33.934 2.00000
G1 X80.048 Y34.389 2.00000
G1 X78.597 Y34.603 2.00000
G1 X77.049 Y34.589 2.00000
G1 0.00000 F1200.00000
G1 X71.595 Y29.625 F900.000
G1 2.00000 F1200.00000
G1 F900
G1 X73.092 Y26.689 2.00000
G1 X82.468 Y21.694 2.00000
G1 X82.748 Y21.756 2.00000
G1 X82.997 Y21.875 2.00000
G1 X83.178 Y22.048 2.00000
G1 X83.298 Y22.277 2.00000
G1 X83.349 Y22.630 2.00000
G1 X83.328 Y22.884 2.00000
G1 X83.251 Y23.238 2.00000
G1 X83.113 Y23.653 2.00000
G1 X82.684 Y24.702 2.00000
G1 X82.617 Y24.922 2.00000
G1 X82.644 Y25.233 2.00000
G1 X71.676 Y29.592 2.00000
G1 0.00000 F1200.00000
G1 X71.220 Y27.573 F900.000
G1 2.00000 F1200.00000
G1 F900
G1 X69.994 Y26.189 2.00000
G1 X77.279 Y19.779 2.00000
G1 X77.604 Y19.567 2.00000
G1 X77.957 Y19.410 2.00000
G1 X79.469 Y19.002 2.00000
G1 X80.492 Y18.620 2.00000
G1 X81.022 Y18.485 2.00000
G1 X81.428 Y18.448 2.00000
G1 X81.750 Y18.472 2.00000
G1 X82.051 Y18.545 2.00000
G1 X82.360 Y18.674 2.00000
G1 X82.627 Y18.838 2.00000
G1 X82.848 Y19.026 2.00000
G1 X83.038 Y19.249 2.00000
G1 X83.187 Y19.500 2.00000
G1 X83.289 Y19.755 2.00000
G1 X83.353 Y20.033 2.00000
G1 X83.371 Y20.294 2.00000
G1 X83.349 Y20.537 2.00000
G1 X83.280 Y20.798 2.00000
G1 X83.108 Y21.126 2.00000
G1 X82.949 Y21.308 2.00000
G1 X82.765 Y21.456 2.00000
G1 X82.555 Y21.572 2.00000
G1 X82.332 Y21.653 2.00000
G1 X71.297 Y27.532 2.00000
G1 0.00000 F1200.00000
G1 X64.170 Y24.648 F900.000
G1 2.00000 F1200.00000
G1 F900
G1 X64.131 Y24.217 2.00000
G1 X65.822 Y23.446 2.00000
G1 X67.365 Y22.497 2.00000
G1 X68.730 Y21.448 2.00000
G1 X69.765 Y20.516 2.00000
G1 X70.371 Y19.914 2.00000
G1 X72.158 Y17.975 2.00000
G1 X72.812 Y17.337 2.00000
G1 X73.393 Y16.874 2.00000
G1 X73.932 Y16.547 2.00000
G1 X74.393 Y16.348 2.00000
G1 X74.699 Y16.267 2.00000
G1 X74.974 Y16.235 2.00000
G1 X75.218 Y16.245 2.00000
G1 X75.475 Y16.297 2.00000
G1 X75.852 Y16.457 2.00000
G1 X76.107 Y16.622 2.00000
G1 X76.392 Y16.869 2.00000
G1 X76.706 Y17.233 2.00000
G1 X77.039 Y17.766 2.00000
G1 X77.267 Y18.322 2.00000
G1 X77.370 Y18.764 2.00000
G1 X77.398 Y19.116 2.00000
G1 X77.343 Y19.589 2.00000
G1 X70.103 Y25.959 2.00000
G1 X64.255 Y24.667 2.00000
G1 0.00000 F1200.00000
G1 X61.270 Y22.823 F900.000
G1 2.00000 F1200.00000
G1 F900
G1 X61.270 Y18.181 2.00000
G1 X70.031 Y12.848 2.00000
G1 X69.652 Y14.904 2.00000
G1 X69.621 Y15.573 2.00000
G1 X69.682 Y16.879 2.00000
G1 X69.651 Y17.409 2.00000
G1 X69.569 Y17.814 2.00000
G1 X69.428 Y18.186 2.00000
G1 X69.177 Y18.623 2.00000
G1 X68.759 Y19.138 2.00000
G1 X67.752 Y20.033 2.00000
G1 X66.498 Y20.868 2.00000
G1 X66.269 Y20.999 2.00000
G1 X64.780 Y21.714 2.00000
G1 X63.181 Y22.285 2.00000
G1 X61.354 Y22.799 2.00000
G1 0.00000 F1200.00000
G1 X56.627 Y18.106 F900.000
G1 2.00000 F1200.00000
G1 F900
G1 X64.860 Y7.418 2.00000
G1 X66.719 Y8.012 2.00000
G1 X67.837 Y8.532 2.00000
G1 X68.511 Y8.982 2.00000
G1 X69.023 Y9.460 2.00000
G1 X69.336 Y9.856 2.00000
G1 X69.612 Y10.346 2.00000
G1 X69.812 Y10.889 2.00000
G1 X69.960 Y11.610 2.00000
G1 X70.011 Y12.743 2.00000
G1 X61.201 Y18.106 2.00000
G1 X56.714 Y18.106 2.00000
G1 0.00000 F1200.00000
G1 X51.403 Y19.975 F900.000
G1 2.00000 F1200.00000
G1 F900
G1 X57.424 Y6.409 2.00000
G1 X59.048 Y6.340 2.00000
G1 X60.579 Y6.477 2.00000
G1 X62.735 Y6.898 2.00000
G1 X64.753 Y7.393 2.00000
G1 X56.520 Y18.081 2.00000
G1 X51.484 Y19.945 2.00000
G1 0.00000 F1200.00000
G1 X46.149 Y24.704 F900.000
G1 2.00000 F1200.00000
G1 F900
G1 X46.149 Y22.801 2.00000
G1 X51.337 Y9.593 2.00000
G1 X52.689 Y8.424 2.00000
G1 X54.105 Y7.524 2.00000
G1 X55.581 Y6.873 2.00000
G1 X57.323 Y6.389 2.00000
G1 X51.405 Y19.724 2.00000
G1 X46.212 Y24.644 2.00000
G1 0.00000 F1200.00000
G1 X46.637 Y21.285 F900.000
G1 2.00000 F1200.00000
G1 F900
G1 X46.149 Y21.192 2.00000
G1 X46.149 Y17.554 2.00000
G1 X47.587 Y14.805 2.00000
G1 X48.848 Y12.722 2.00000
G1 X50.151 Y10.902 2.00000
G1 X50.616 Y11.155 2.00000
G1 X46.669 Y21.204 2.00000
G1 0.00000 F1200.00000
G1 X46.825 Y24.201 F900.000
G1 2.00000 F1200.00000
G1 F900
G1 X50.904 Y20.336 2.00000
G1 X56.660 Y18.206 2.00000
G1 X61.196 Y18.206 2.00000
G1 X61.196 Y22.838 2.00000
G1 X58.061 Y23.447 2.00000
G1 X55.203 Y23.819 2.00000
G1 X49.628 Y24.320 2.00000
G1 X47.004 Y24.591 2.00000
G1 X46.861 Y24.280 2.00000
G1 0.00000 F1200.00000
G1 X48.175 Y26.632 F900.000
G1 2.00000 F1200.00000
G1 F900
G1 X63.991 Y24.747 2.00000
G1 X68.847 Y25.820 2.00000
G1 X69.049 Y25.877 2.00000
G1 X69.468 Y26.045 2.00000
G1 X69.712 Y26.191 2.00000
G1 X69.894 Y26.338 2.00000
G1 X70.032 Y26.492 2.00000
G1 X70.145 Y26.669 2.00000
G1 X70.243 Y26.931 2.00000
G1 X70.271 Y27.304 2.00000
G1 X70.234 Y27.548 2.00000
G1 X70.147 Y27.826 2.00000
G1 X69.976 Y28.182 2.00000
G1 X69.647 Y28.665 2.00000
G1 X69.227 Y29.138 2.00000
G1 X68.478 Y29.784 2.00000
G1 X67.884 Y30.166 2.00000
G1 X67.982 Y30.280 2.00000
G1 X68.115 Y30.513 2.00000
G1 X68.201 Y30.743 2.00000
G1 X68.240 Y30.932 2.00000
G1 X68.251 Y31.153 2.00000
G1 X68.226 Y31.360 2.00000
G1 X68.174 Y31.551 2.00000
G1 X68.063 Y31.796 2.00000
G1 X67.908 Y32.028 2.00000
G1 X67.664 Y32.287 2.00000
G1 X67.381 Y32.511 2.00000
G1 X67.036 Y32.709 2.00000
G1 X66.556 Y32.898 2.00000
G1 X66.082 Y32.999 2.00000
G1 X65.379 Y33.034 2.00000
G1 X64.671 Y32.975 2.00000
G1 X63.770 Y32.798 2.00000
G1 X62.061 Y32.333 2.00000
G1 X60.222 Y31.862 2.00000
G1 X56.767 Y30.906 2.00000
G1 X54.059 Y29.961 2.00000
G1 X51.453 Y28.825 2.00000
G1 X48.097 Y27.068 2.00000
G1 X48.160 Y26.718 2.00000
G1 0.00000 F1200.00000
G1 X69.816 Y33.113 F900.000
G1 2.00000 F1200.00000
G1 F900
G1 X70.137 Y32.483 2.00000
G1 X79.319 Y29.733 2.00000
G1 X79.275 Y30.386 2.00000
G1 X79.228 Y30.601 2.00000
G1 X79.142 Y30.823 2.00000
G1 X79.004 Y31.060 2.00000
G1 X78.774 Y31.332 2.00000
G1 X78.461 Y31.602 2.00000
G1 X77.812 Y32.017 2.00000
G1 X76.783 Y32.618 2.00000
G1 X76.494 Y32.851 2.00000
G1 X76.259 Y33.113 2.00000
G1 X69.903 Y33.113 2.00000
G1 0.00000 F1200.00000
G1 X70.200 Y32.360 F900.000
G1 2.00000 F1200.00000
G1 F900
G1 X71.526 Y29.759 2.00000
G1 X82.424 Y25.428 2.00000
G1 X82.620 Y26.021 2.00000
G1 X82.645 Y26.264 2.00000
G1 X82.631 Y26.482 2.00000
G1 X82.587 Y26.684 2.00000
G1 X82.519 Y26.875 2.00000
G1 X82.361 Y27.170 2.00000
G1 X82.122 Y27.493 2.00000
G1 X81.732 Y27.897 2.00000
G1 X80.776 Y28.815 2.00000
G1 X80.598 Y29.045 2.00000
G1 X80.468 Y29.284 2.00000
G1 X70.283 Y32.335 2.00000
G1 0.00000 F1200.00000
G1 X72.206 Y16.141 F900.000
G1 2.00000 F1200.00000
G1 F900
G1 X72.655 Y15.724 2.00000
G1 X73.232 Y15.345 2.00000
G1 X73.823 Y15.085 2.00000
G1 X74.467 Y14.914 2.00000
G1 X75.281 Y14.828 2.00000
G1 X76.198 Y14.869 2.00000
G1 X76.343 Y14.881 2.00000
G1 X77.645 Y15.144 2.00000
G1 X79.169 Y15.661 2.00000
G1 X80.849 Y16.466 2.00000
G1 X82.147 Y17.298 2.00000
G1 X82.331 Y17.434 2.00000
G1 X83.519 Y18.451 2.00000
G1 X84.637 Y19.708 2.00000
G1 X85.629 Y21.211 2.00000
G1 X86.379 Y22.770 2.00000
G1 X86.936 Y24.425 2.00000
G1 X87.295 Y26.140 2.00000
G1 X87.397 Y27.566 2.00000
G1 X87.354 Y28.278 2.00000
G1 X87.205 Y29.090 2.00000
G1 X86.950 Y29.823 2.00000
G1 X86.554 Y30.558 2.00000
G1 X86.004 Y31.292 2.00000
G1 X85.887 Y31.426 2.00000
G1 X85.039 Y32.240 2.00000
G1 X83.863 Y33.090 2.00000
G1 X82.335 Y33.897 2.00000
G1 X80.812 Y34.457 2.00000
G1 X79.115 Y34.860 2.00000
G1 X77.197 Y35.103 2.00000
G1 X74.920 Y35.178 2.00000
G1 X72.298 Y35.078 2.00000
G1 X70.574 Y34.943 2.00000
G1 X68.508 Y34.717 2.00000
G1 X64.740 Y34.118 2.00000
G1 X61.268 Y33.348 2.00000
G1 X57.589 Y32.299 2.00000
G1 X53.871 Y30.988 2.00000
G1 X50.167 Y29.423 2.00000
G1 X46.149 Y27.437 2.00000
G1 X46.149 Y30.887 2.00000
G1 X44.949 Y30.887 2.00000
G1 X44.949 Y1.387 2.00000
G1 X46.149 Y1.387 2.00000
G1 X46.149 Y14.820 2.00000
G1 X46.592 Y14.939 2.00000
G1 X47.797 Y12.876 2.00000
G1 X49.192 Y10.957 2.00000
G1 X50.770 Y9.206 2.00000
G1 X52.291 Y7.838 2.00000
G1 X53.792 Y6.749 2.00000
G1 X55.332 Y5.872 2.00000
G1 X57.086 Y5.152 2.00000
G1 X58.701 Y4.729 2.00000
G1 X60.391 Y4.533 2.00000
G1 X62.079 Y4.568 2.00000
G1 X63.768 Y4.835 2.00000
G1 X65.355 Y5.321 2.00000
G1 X66.801 Y6.011 2.00000
G1 X67.904 Y6.758 2.00000
G1 X68.161 Y6.954 2.00000
G1 X69.226 Y7.928 2.00000
G1 X69.784 Y8.541 2.00000
G1 X70.473 Y9.400 2.00000
G1 X71.349 Y10.688 2.00000
G1 X71.966 Y11.870 2.00000
G1 X72.269 Y12.732 2.00000
G1 X72.404 Y13.431 2.00000
G1 X72.428 Y13.974 2.00000
G1 X72.372 Y14.494 2.00000
G1 X72.233 Y15.000 2.00000
G1 X72.015 Y15.472 2.00000
G1 X71.801 Y15.793 2.00000
G1 X72.140 Y16.084 2.00000
G1 0.00000 F1200.00000
G1 X65.055 Y23.365 F900.000
G1 2.00000 F1200.00000
G1 F900
G1 X68.728 Y19.691 2.00000
G1 X67.992 Y20.345 2.00000
G1 X66.597 Y21.264 2.00000
G1 X64.030 Y23.832 2.00000
G1 X63.715 Y23.975 2.00000
G1 X63.729 Y24.132 2.00000
G1 X63.445 Y24.416 2.00000
G1 X62.811 Y24.492 2.00000
G1 X65.498 Y21.805 2.00000
G1 X64.931 Y22.077 2.00000
G1 X64.522 Y22.223 2.00000
G1 X62.178 Y24.567 2.00000
G1 X61.544 Y24.643 2.00000
G1 X63.653 Y22.533 2.00000
G1 X63.301 Y22.659 2.00000
G1 X62.840 Y22.789 2.00000
G1 X60.910 Y24.718 2.00000
G1 X60.277 Y24.794 2.00000
G1 X62.063 Y23.007 2.00000
G1 X61.588 Y23.141 2.00000
G1 X61.588 Y23.162 2.00000
G1 X61.287 Y23.226 2.00000
G1 X59.643 Y24.870 2.00000
G1 X59.009 Y24.945 2.00000
G1 X60.601 Y23.354 2.00000
G1 X59.908 Y23.488 2.00000
G1 X58.376 Y25.021 2.00000
G1 X57.742 Y25.096 2.00000
G1 X59.215 Y23.623 2.00000
G1 X58.523 Y23.758 2.00000
G1 X57.109 Y25.172 2.00000
G1 X56.475 Y25.247 2.00000
G1 X57.852 Y23.871 2.00000
G1 X57.210 Y23.954 2.00000
G1 X55.841 Y25.323 2.00000
G1 X55.208 Y25.398 2.00000
G1 X56.569 Y24.037 2.00000
G1 X55.927 Y24.121 2.00000
G1 X54.574 Y25.474 2.00000
G1 X53.940 Y25.550 2.00000
G1 X55.286 Y24.204 2.00000
G1 X54.671 Y24.261 2.00000
G1 X53.307 Y25.625 2.00000
G1 X52.673 Y25.701 2.00000
G1 X54.058 Y24.316 2.00000
G1 X53.445 Y24.371 2.00000
G1 X52.040 Y25.776 2.00000
G1 X51.406 Y25.852 2.00000
G1 X52.831 Y24.426 2.00000
G1 X52.218 Y24.482 2.00000
G1 X50.772 Y25.927 2.00000
G1 X50.139 Y26.003 2.00000
G1 X51.605 Y24.537 2.00000
G1 X50.992 Y24.592 2.00000
G1 X49.505 Y26.078 2.00000
G1 X48.871 Y26.154 2.00000
G1 X50.378 Y24.647 2.00000
G1 X49.765 Y24.702 2.00000
G1 X48.238 Y26.230 2.00000
G1 X47.841 Y26.277 2.00000
G1 X47.764 Y26.704 2.00000
G1 F900
G1 X47.032 Y27.435 2.00000
G1 X47.405 Y27.620 2.00000
G1 X47.715 Y27.311 2.00000
G1 X48.081 Y27.503 2.00000
G1 X47.779 Y27.805 2.00000
G1 X48.152 Y27.989 2.00000
G1 X48.447 Y27.694 2.00000
G1 X48.813 Y27.886 2.00000
G1 X48.526 Y28.174 2.00000
G1 X48.899 Y28.358 2.00000
G1 X49.180 Y28.078 2.00000
G1 X49.546 Y28.270 2.00000
G1 X49.273 Y28.543 2.00000
G1 X49.646 Y28.727 2.00000
G1 X49.912 Y28.462 2.00000
G1 X50.279 Y28.653 2.00000
G1 X50.020 Y28.912 2.00000
G1 X50.397 Y29.093 2.00000
G1 X50.645 Y28.845 2.00000
G1 X51.011 Y29.037 2.00000
G1 X50.789 Y29.259 2.00000
G1 X51.181 Y29.425 2.00000
G1 X51.383 Y29.223 2.00000
G1 X51.772 Y29.392 2.00000
G1 X51.573 Y29.591 2.00000
G1 X51.966 Y29.757 2.00000
G1 X52.160 Y29.562 2.00000
G1 X52.549 Y29.731 2.00000
G1 X52.358 Y29.922 2.00000
G1 X52.750 Y30.088 2.00000
G1 X52.938 Y29.901 2.00000
G1 X53.326 Y30.070 2.00000
G1 X53.143 Y30.254 2.00000
G1 X53.535 Y30.420 2.00000
G1 X53.715 Y30.240 2.00000
G1 X54.116 Y30.397 2.00000
G1 X53.927 Y30.585 2.00000
G1 X54.013 Y30.622 2.00000
G1 X54.335 Y30.735 2.00000
G1 X54.529 Y30.541 2.00000
G1 X54.943 Y30.686 2.00000
G1 X54.748 Y30.881 2.00000
G1 X55.160 Y31.026 2.00000
G1 X55.357 Y30.830 2.00000
G1 X55.771 Y30.974 2.00000
G1 X55.573 Y31.172 2.00000
G1 X55.986 Y31.317 2.00000
G1 X56.184 Y31.119 2.00000
G1 X56.598 Y31.263 2.00000
G1 X56.398 Y31.463 2.00000
G1 X56.811 Y31.609 2.00000
G1 X57.032 Y31.387 2.00000
G1 X57.470 Y31.508 2.00000
G1 X57.223 Y31.754 2.00000
G1 X57.636 Y31.900 2.00000
G1 X57.907 Y31.629 2.00000
G1 X58.344 Y31.750 2.00000
G1 X58.066 Y32.027 2.00000
G1 X58.501 Y32.151 2.00000
G1 X58.781 Y31.871 2.00000
G1 X59.218 Y31.991 2.00000
G1 X58.935 Y32.275 2.00000
G1 X59.369 Y32.398 2.00000
G1 X59.655 Y32.112 2.00000
G1 X60.092 Y32.233 2.00000
G1 X59.804 Y32.522 2.00000
G1 X60.238 Y32.646 2.00000
G1 X60.536 Y32.348 2.00000
G1 X60.980 Y32.462 2.00000
G1 X60.672 Y32.770 2.00000
G1 X61.106 Y32.894 2.00000
G1 X61.424 Y32.575 2.00000
G1 X61.869 Y32.689 2.00000
G1 X61.550 Y33.008 2.00000
G1 X62.007 Y33.109 2.00000
G1 X62.309 Y32.808 2.00000
G1 X62.747 Y32.927 2.00000
G1 X62.463 Y33.211 2.00000
G1 X62.920 Y33.312 2.00000
G1 X63.186 Y33.046 2.00000
G1 X63.625 Y33.165 2.00000
G1 X63.377 Y33.413 2.00000
G1 X63.834 Y33.514 2.00000
G1 X64.088 Y33.261 2.00000
G1 X64.554 Y33.353 2.00000
G1 X64.291 Y33.616 2.00000
G1 X64.748 Y33.717 2.00000
G1 X65.062 Y33.402 2.00000
G1 X65.372 Y33.428 2.00000
G1 X65.606 Y33.416 2.00000
G1 X65.225 Y33.797 2.00000
G1 X65.707 Y33.874 2.00000
G1 X66.206 Y33.374 2.00000
G1 X66.670 Y33.275 2.00000
G1 X66.990 Y33.149 2.00000
G1 X66.189 Y33.950 2.00000
G1 X66.670 Y34.027 2.00000
G1 X71.239 Y29.458 2.00000
G1 X70.658 Y30.597 2.00000
G1 X67.152 Y34.103 2.00000
G1 X67.633 Y34.180 2.00000
G1 X70.077 Y31.735 2.00000
G1 X69.497 Y32.874 2.00000
G1 X68.115 Y34.256 2.00000
G1 X68.598 Y34.331 2.00000
G1 X69.423 Y33.506 2.00000
G1 X69.981 Y33.506 2.00000
G1 X69.101 Y34.387 2.00000
G1 X69.603 Y34.442 2.00000
G1 X70.539 Y33.506 2.00000
G1 X71.097 Y33.506 2.00000
G1 X70.106 Y34.497 2.00000
G1 X70.609 Y34.552 2.00000
G1 X71.655 Y33.506 2.00000
G1 X72.213 Y33.506 2.00000
G1 X71.127 Y34.593 2.00000
G1 X71.644 Y34.633 2.00000
G1 X72.771 Y33.506 2.00000
G1 X73.329 Y33.506 2.00000
G1 X72.162 Y34.674 2.00000
G1 X72.693 Y34.700 2.00000
G1 X73.888 Y33.506 2.00000
G1 X74.446 Y33.506 2.00000
G1 X73.231 Y34.721 2.00000
G1 X73.769 Y34.741 2.00000
G1 X75.004 Y33.506 2.00000
G1 X75.562 Y33.506 2.00000
G1 X74.306 Y34.762 2.00000
G1 X74.844 Y34.782 2.00000
G1 X76.120 Y33.506 2.00000
G1 X76.434 Y33.506 2.00000
G1 X76.765 Y33.137 2.00000
G1 X76.867 Y33.055 2.00000
G1 X76.767 Y33.245 2.00000
G1 X76.678 Y33.506 2.00000
G1 X75.408 Y34.776 2.00000
G1 X75.987 Y34.755 2.00000
G1 X76.577 Y34.165 2.00000
G1 X76.567 Y34.733 2.00000
G1 0.00000 F1200.00000
G1 X68.578 Y31.560 F900.000
G1 2.00000 F1200.00000
G1 F900
G1 X71.820 Y28.319 2.00000
G1 X72.254 Y27.467 2.00000
G1 X71.953 Y27.628 2.00000
G1 X68.634 Y30.947 2.00000
G1 X68.579 Y30.633 2.00000
G1 X68.528 Y30.495 2.00000
G1 X71.050 Y27.973 2.00000
G1 X70.788 Y27.677 2.00000
G1 X70.522 Y27.942 2.00000
G1 X70.617 Y27.636 2.00000
G1 X70.637 Y27.507 2.00000
G1 X70.788 Y27.677 2.00000
G1 0.00000 F1200.00000
G1 X83.700 Y19.788 F900.000
G1 2.00000 F1200.00000
G1 F900
G1 X83.959 Y19.529 2.00000
G1 X83.695 Y19.235 2.00000
G1 X83.558 Y19.371 2.00000
G1 X83.355 Y19.016 2.00000
G1 X83.430 Y18.941 2.00000
G1 X83.156 Y18.657 2.00000
G1 X83.093 Y18.720 2.00000
G1 X82.782 Y18.473 2.00000
G1 X82.855 Y18.400 2.00000
G1 X82.554 Y18.142 2.00000
G1 X82.423 Y18.274 2.00000
G1 X82.173 Y18.171 2.00000
G1 X82.008 Y18.131 2.00000
G1 X82.254 Y17.885 2.00000
G1 X81.944 Y17.637 2.00000
G1 X81.520 Y18.061 2.00000
G1 X81.425 Y18.054 2.00000
G1 X80.916 Y18.107 2.00000
G1 X81.605 Y17.417 2.00000
G1 X81.265 Y17.199 2.00000
G1 X80.127 Y18.337 2.00000
G1 X79.253 Y18.653 2.00000
G1 X80.925 Y16.981 2.00000
G1 X80.577 Y16.771 2.00000
G1 X78.488 Y18.860 2.00000
G1 X77.787 Y19.056 2.00000
G1 X77.783 Y19.007 2.00000
G1 X80.200 Y16.590 2.00000
G1 X79.823 Y16.409 2.00000
G1 X77.716 Y18.516 2.00000
G1 X77.642 Y18.202 2.00000
G1 X77.593 Y18.081 2.00000
G1 X79.446 Y16.229 2.00000
G1 X79.068 Y16.048 2.00000
G1 X77.431 Y17.686 2.00000
G1 X77.390 Y17.587 2.00000
G1 X77.229 Y17.329 2.00000
G1 X78.656 Y15.902 2.00000
G1 X78.240 Y15.760 2.00000
G1 X77.013 Y16.987 2.00000
G1 X76.755 Y16.687 2.00000
G1 X77.823 Y15.619 2.00000
G1 X77.543 Y15.524 2.00000
G1 X77.390 Y15.493 2.00000
G1 X76.468 Y16.415 2.00000
G1 X76.344 Y16.307 2.00000
G1 X76.146 Y16.180 2.00000
G1 X76.926 Y15.400 2.00000
G1 X76.462 Y15.306 2.00000
G1 X75.771 Y15.996 2.00000
G1 X75.592 Y15.920 2.00000
G1 X75.341 Y15.869 2.00000
G1 X75.958 Y15.251 2.00000
G1 X75.424 Y15.227 2.00000
G1 X74.791 Y15.861 2.00000
G1 X74.626 Y15.880 2.00000
G1 X74.264 Y15.976 2.00000
G1 X74.006 Y16.088 2.00000
G1 X74.822 Y15.271 2.00000
G1 X74.539 Y15.301 2.00000
G1 X74.124 Y15.411 2.00000
G1 X68.095 Y21.441 2.00000
G1 X67.142 Y22.173 2.00000
G1 X66.264 Y22.713 2.00000
G1 X73.029 Y15.948 2.00000
G1 X72.898 Y16.035 2.00000
G1 X72.217 Y16.667 2.00000
G1 X71.966 Y16.453 2.00000
G1 X69.195 Y19.225 2.00000
G1 X69.502 Y18.845 2.00000
G1 X69.785 Y18.354 2.00000
G1 X69.949 Y17.912 2.00000
G1 X71.666 Y16.195 2.00000
G1 X71.366 Y15.937 2.00000
G1 X70.053 Y17.250 2.00000
G1 X70.075 Y16.881 2.00000
G1 X70.065 Y16.680 2.00000
G1 X71.847 Y14.898 2.00000
G1 X71.985 Y14.420 2.00000
G1 X72.011 Y14.176 2.00000
G1 X70.041 Y16.146 2.00000
G1 X70.016 Y15.613 2.00000
G1 X72.019 Y13.610 2.00000
G1 X72.013 Y13.477 2.00000
G1 X71.945 Y13.125 2.00000
G1 X70.039 Y15.032 2.00000
G1 X70.151 Y14.362 2.00000
G1 X71.834 Y12.679 2.00000
G1 X71.689 Y12.266 2.00000
G1 X70.277 Y13.677 2.00000
G1 X70.403 Y12.993 2.00000
G1 X71.524 Y11.872 2.00000
G1 X71.333 Y11.506 2.00000
G1 X70.529 Y12.309 2.00000
G1 X70.576 Y12.057 2.00000
G1 X70.379 Y12.177 2.00000
G1 X70.367 Y11.914 2.00000
G1 X71.142 Y11.139 2.00000
G1 X70.939 Y10.783 2.00000
G1 X70.319 Y11.404 2.00000
G1 X70.224 Y10.941 2.00000
G1 X70.713 Y10.451 2.00000
G1 X70.487 Y10.119 2.00000
G1 X70.092 Y10.514 2.00000
G1 X69.933 Y10.115 2.00000
G1 X70.261 Y9.787 2.00000
G1 X70.157 Y9.634 2.00000
G1 X70.023 Y9.467 2.00000
G1 X69.732 Y9.758 2.00000
G1 X69.663 Y9.637 2.00000
G1 X69.501 Y9.431 2.00000
G1 X69.775 Y9.157 2.00000
G1 X69.527 Y8.847 2.00000
G1 X69.244 Y9.130 2.00000
G1 X68.956 Y8.860 2.00000
G1 X69.263 Y8.552 2.00000
G1 X68.997 Y8.260 2.00000
G1 X68.653 Y8.605 2.00000
G1 X68.319 Y8.381 2.00000
G1 X68.711 Y7.989 2.00000
G1 X68.419 Y7.722 2.00000
G1 X67.978 Y8.164 2.00000
G1 X67.596 Y7.987 2.00000
G1 X68.128 Y7.456 2.00000
G1 X67.830 Y7.195 2.00000
G1 X67.215 Y7.810 2.00000
G1 X66.831 Y7.636 2.00000
G1 X67.505 Y6.962 2.00000
G1 X67.173 Y6.737 2.00000
G1 X66.408 Y7.501 2.00000
G1 X65.985 Y7.366 2.00000
G1 X66.840 Y6.511 2.00000
G1 X66.605 Y6.352 2.00000
G1 X66.494 Y6.299 2.00000
G1 X65.563 Y7.230 2.00000
G1 X65.411 Y7.182 2.00000
G1 X65.432 Y7.156 2.00000
G1 X65.149 Y7.086 2.00000
G1 X66.116 Y6.119 2.00000
G1 X65.738 Y5.939 2.00000
G1 X64.701 Y6.976 2.00000
G1 X64.253 Y6.866 2.00000
G1 X65.360 Y5.758 2.00000
G1 X65.214 Y5.689 2.00000
G1 X64.951 Y5.610 2.00000
G1 X63.805 Y6.756 2.00000
G1 X63.357 Y6.646 2.00000
G1 X64.521 Y5.482 2.00000
G1 X64.091 Y5.354 2.00000
G1 X62.909 Y6.536 2.00000
G1 X62.445 Y6.441 2.00000
G1 X63.661 Y5.226 2.00000
G1 X63.553 Y5.194 2.00000
G1 X63.191 Y5.138 2.00000
G1 X61.978 Y6.350 2.00000
G1 X61.511 Y6.259 2.00000
G1 X62.707 Y5.063 2.00000
G1 X62.224 Y4.988 2.00000
G1 X61.044 Y6.168 2.00000
G1 X60.572 Y6.082 2.00000
G1 X61.701 Y4.953 2.00000
G1 X61.154 Y4.942 2.00000
G1 X60.060 Y6.037 2.00000
G1 X59.547 Y5.991 2.00000
G1 X60.608 Y4.930 2.00000
G1 X60.410 Y4.926 2.00000
G1 X60.007 Y4.973 2.00000
G1 X59.032 Y5.948 2.00000
G1 X58.449 Y5.973 2.00000
G1 X59.376 Y5.046 2.00000
G1 X58.774 Y5.116 2.00000
G1 X58.738 Y5.125 2.00000
G1 X57.974 Y5.890 2.00000
G1 X58.020 Y5.787 2.00000
G1 X57.326 Y5.980 2.00000
G1 X57.982 Y5.324 2.00000
G1 X57.226 Y5.522 2.00000
G1 X56.553 Y6.195 2.00000
G1 X55.780 Y6.410 2.00000
G1 X56.283 Y5.907 2.00000
G1 X55.504 Y6.226 2.00000
G1 X55.275 Y6.357 2.00000
G1 X54.878 Y6.753 2.00000
G1 X53.859 Y7.215 2.00000
G1 X53.965 Y7.109 2.00000
G1 0.00000 F1200.00000
G1 X50.889 Y9.660 F900.000
G1 2.00000 F1200.00000
G1 F900
G1 X50.502 Y10.646 2.00000
G1 0.00000 F1200.00000
G1 X47.590 Y14.042 F900.000
G1 2.00000 F1200.00000
G1 F900
G1 X47.544 Y14.087 2.00000
G1 0.00000 F1200.00000
G1 X45.342 Y1.780 F900.000
G1 2.00000 F1200.00000
G1 F900
G1 X45.342 Y2.338 2.00000
G1 X45.756 Y1.924 2.00000
G1 X45.756 Y2.482 2.00000
G1 X45.342 Y2.896 2.00000
G1 X45.342 Y3.454 2.00000
G1 X45.756 Y3.040 2.00000
G1 X45.756 Y3.598 2.00000
G1 X45.342 Y4.012 2.00000
G1 X45.342 Y4.571 2.00000
G1 X45.756 Y4.156 2.00000
G1 X45.756 Y4.714 2.00000
G1 X45.342 Y5.129 2.00000
G1 X45.342 Y5.687 2.00000
G1 X45.756 Y5.272 2.00000
G1 X45.756 Y5.830 2.00000
G1 X45.342 Y6.245 2.00000
G1 X45.342 Y6.803 2.00000
G1 X45.756 Y6.388 2.00000
G1 X45.756 Y6.946 2.00000
G1 X45.342 Y7.361 2.00000
G1 X45.342 Y7.919 2.00000
G1 X45.756 Y7.504 2.00000
G1 X45.756 Y8.062 2.00000
G1 X45.342 Y8.477 2.00000
G1 X45.342 Y9.035 2.00000
G1 X45.756 Y8.620 2.00000
G1 X45.756 Y9.179 2.00000
G1 X45.342 Y9.593 2.00000
G1 X45.342 Y10.151 2.00000
G1 X45.756 Y9.737 2.00000
G1 X45.756 Y10.295 2.00000
G1 X45.342 Y10.709 2.00000
G1 X45.342 Y11.267 2.00000
G1 X45.756 Y10.853 2.00000
G1 X45.756 Y11.411 2.00000
G1 X45.342 Y11.825 2.00000
G1 X45.342 Y12.384 2.00000
G1 X45.756 Y11.969 2.00000
G1 X45.756 Y12.527 2.00000
G1 X45.342 Y12.942 2.00000
G1 X45.342 Y13.500 2.00000
G1 X45.756 Y13.085 2.00000
G1 X45.756 Y13.643 2.00000
G1 X45.342 Y14.058 2.00000
G1 X45.342 Y14.616 2.00000
G1 X45.756 Y14.201 2.00000
G1 X45.756 Y14.759 2.00000
G1 X45.342 Y15.174 2.00000
G1 X45.342 Y15.732 2.00000
G1 X45.911 Y15.162 2.00000
G1 X46.351 Y15.281 2.00000
G1 X45.342 Y16.290 2.00000
G1 X45.342 Y16.848 2.00000
G1 X46.879 Y15.310 2.00000
G1 X46.267 Y16.480 2.00000
G1 X45.342 Y17.406 2.00000
G1 X45.342 Y17.964 2.00000
G1 X45.756 Y17.550 2.00000
G1 X45.756 Y18.108 2.00000
G1 X45.342 Y18.522 2.00000
G1 X45.342 Y19.080 2.00000
G1 X45.756 Y18.666 2.00000
G1 X45.756 Y19.224 2.00000
G1 X45.342 Y19.639 2.00000
G1 X45.342 Y20.197 2.00000
G1 X45.756 Y19.782 2.00000
G1 X45.756 Y20.340 2.00000
G1 X45.342 Y20.755 2.00000
G1 X45.342 Y21.313 2.00000
G1 X45.756 Y20.898 2.00000
G1 X45.756 Y21.456 2.00000
G1 X45.342 Y21.871 2.00000
G1 X45.342 Y22.429 2.00000
G1 X46.174 Y21.597 2.00000
G1 X46.198 Y21.601 2.00000
G1 X45.856 Y22.472 2.00000
G1 X45.342 Y22.987 2.00000
G1 X45.342 Y23.545 2.00000
G1 X45.756 Y23.130 2.00000
G1 X45.756 Y23.688 2.00000
G1 X45.342 Y24.103 2.00000
G1 X45.342 Y24.661 2.00000
G1 X45.756 Y24.247 2.00000
G1 X45.756 Y24.805 2.00000
G1 X45.342 Y25.219 2.00000
G1 X45.342 Y25.777 2.00000
G1 X45.756 Y25.363 2.00000
G1 X45.756 Y25.617 2.00000
G1 X46.653 Y24.767 2.00000
G1 X46.734 Y24.943 2.00000
G1 X45.342 Y26.335 2.00000
G1 X45.342 Y26.893 2.00000
G1 X47.277 Y24.958 2.00000
G1 X47.899 Y24.894 2.00000
G1 X45.911 Y26.882 2.00000
G1 X46.285 Y27.066 2.00000
G1 X48.522 Y24.829 2.00000
G1 X49.144 Y24.765 2.00000
G1 X46.658 Y27.251 2.00000
G1 0.00000 F1200.00000
G1 X45.756 Y27.037 F900.000
G1 2.00000 F1200.00000
G1 F900
G1 X45.342 Y27.452 2.00000
G1 X45.342 Y28.010 2.00000
G1 X45.756 Y27.595 2.00000
G1 X45.756 Y28.153 2.00000
G1 X45.342 Y28.568 2.00000
G1 X45.342 Y29.126 2.00000
G1 X45.756 Y28.711 2.00000
G1 X45.756 Y29.269 2.00000
G1 X45.342 Y29.684 2.00000
G1 X45.342 Y30.242 2.00000
G1 X45.756 Y29.827 2.00000
G1 X45.756 Y30.385 2.00000
G1 X45.647 Y30.495 2.00000
G1 Z-149.000 F900.000
G1 0.00000 F1200.00000
G1 X11.934 Y34.583 F900.000
G1 2.00000 F1200.00000
G1 F900
G1 X10.720 Y34.618 2.00000
G1 X10.296 Y34.602 2.00000
G1 X9.125 Y34.445 2.00000
G1 X8.516 Y34.305 2.00000
G1 X7.895 Y34.118 2.00000
G1 X7.308 Y33.910 2.00000
G1 X6.379 Y33.479 2.00000
G1 X5.839 Y33.179 2.00000
G1 X5.131 Y32.700 2.00000
G1 X4.677 Y32.349 2.00000
G1 X4.035 Y31.745 2.00000
G1 X3.774 Y31.464 2.00000
G1 X3.288 Y30.841 2.00000
G1 X3.080 Y30.535 2.00000
G1 X2.559 Y29.531 2.00000
G1 X2.423 Y29.168 2.00000
G1 X2.208 Y28.444 2.00000
G1 X2.035 Y27.307 2.00000
G1 X2.050 Y26.126 2.00000
G1 X2.247 Y24.986 2.00000
G1 X2.550 Y23.984 2.00000
G1 X2.818 Y23.294 2.00000
G1 X3.395 Y22.032 2.00000
G1 X4.482 Y19.936 2.00000
G1 X4.920 Y20.330 2.00000
G1 X5.086 Y20.536 2.00000
G1 X5.205 Y20.777 2.00000
G1 X5.265 Y21.046 2.00000
G1 X5.235 Y21.441 2.00000
G1 X4.982 Y22.252 2.00000
G1 X4.938 Y22.486 2.00000
G1 X4.920 Y22.712 2.00000
G1 X4.946 Y23.111 2.00000
G1 X5.039 Y23.522 2.00000
G1 X5.245 Y24.040 2.00000
G1 X5.430 Y24.376 2.00000
G1 X5.700 Y24.756 2.00000
G1 X6.182 Y25.275 2.00000
G1 X6.022 Y25.880 2.00000
G1 X5.969 Y26.351 2.00000
G1 X6.006 Y27.015 2.00000
G1 X6.118 Y27.511 2.00000
G1 X6.358 Y28.118 2.00000
G1 X6.724 Y28.708 2.00000
G1 X7.065 Y29.102 2.00000
G1 X7.459 Y29.441 2.00000
G1 X7.643 Y29.569 2.00000
G1 X8.007 Y29.774 2.00000
G1 X8.517 Y29.969 2.00000
G1 X8.833 Y30.052 2.00000
G1 X8.876 Y30.514 2.00000
G1 X8.941 Y30.760 2.00000
G1 X9.037 Y30.972 2.00000
G1 X9.169 Y31.170 2.00000
G1 X9.365 Y31.383 2.00000
G1 X9.785 Y31.710 2.00000
G1 X10.847 Y32.375 2.00000
G1 X11.115 Y32.575 2.00000
G1 X11.435 Y32.880 2.00000
G1 X11.604 Y33.100 2.00000
G1 X11.715 Y33.294 2.00000
G1 X11.859 Y33.654 2.00000
G1 X11.926 Y34.042 2.00000
G1 X11.932 Y34.496 2.00000
G1 0.00000 F1200.00000
G1 X17.303 Y29.625 F900.000
G1 2.00000 F1200.00000
G1 F900
G1 X6.251 Y25.232 2.00000
G1 X6.286 Y24.962 2.00000
G1 X6.275 Y24.895 2.00000
G1 X6.224 Y24.729 2.00000
G1 X5.755 Y23.562 2.00000
G1 X5.637 Y23.203 2.00000
G1 X5.580 Y22.946 2.00000
G1 X5.550 Y22.678 2.00000
G1 X5.564 Y22.432 2.00000
G1 X5.606 Y22.265 2.00000
G1 X5.724 Y22.043 2.00000
G1 X5.893 Y21.882 2.00000
G1 X6.027 Y21.804 2.00000
G1 X6.429 Y21.694 2.00000
G1 X15.806 Y26.689 2.00000
G1 X17.263 Y29.547 2.00000
G1 0.00000 F1200.00000
G1 X17.677 Y27.573 F900.000
G1 2.00000 F1200.00000
G1 F900
G1 X6.566 Y21.653 2.00000
G1 X6.356 Y21.578 2.00000
G1 X6.132 Y21.455 2.00000
G1 X5.949 Y21.308 2.00000
G1 X5.803 Y21.144 2.00000
G1 X5.688 Y20.961 2.00000
G1 X5.587 Y20.705 2.00000
G1 X5.539 Y20.468 2.00000
G1 X5.527 Y20.253 2.00000
G1 X5.553 Y19.980 2.00000
G1 X5.636 Y19.684 2.00000
G1 X5.718 Y19.484 2.00000
G1 X5.875 Y19.229 2.00000
G1 X6.051 Y19.026 2.00000
G1 X6.271 Y18.838 2.00000
G1 X6.538 Y18.674 2.00000
G1 X6.859 Y18.541 2.00000
G1 X7.245 Y18.463 2.00000
G1 X7.521 Y18.449 2.00000
G1 X7.851 Y18.481 2.00000
G1 X8.444 Y18.633 2.00000
G1 X9.618 Y19.066 2.00000
G1 X10.914 Y19.401 2.00000
G1 X11.284 Y19.562 2.00000
G1 X11.603 Y19.767 2.00000
G1 X18.904 Y26.189 2.00000
G1 X17.735 Y27.508 2.00000
G1 0.00000 F1200.00000
G1 X24.731 Y24.647 F900.000
G1 2.00000 F1200.00000
G1 F900
G1 X18.794 Y25.959 2.00000
G1 X11.560 Y19.593 2.00000
G1 X11.509 Y19.281 2.00000
G1 X11.506 Y18.985 2.00000
G1 X11.528 Y18.763 2.00000
G1 X11.601 Y18.424 2.00000
G1 X11.781 Y17.933 2.00000
G1 X12.032 Y17.468 2.00000
G1 X12.356 Y17.032 2.00000
G1 X12.508 Y16.866 2.00000
G1 X12.795 Y16.619 2.00000
G1 X13.218 Y16.371 2.00000
G1 X13.536 Y16.270 2.00000
G1 X13.799 Y16.236 2.00000
G1 X14.159 Y16.260 2.00000
G1 X14.472 Y16.337 2.00000
G1 X14.981 Y16.555 2.00000
G1 X15.504 Y16.873 2.00000
G1 X16.222 Y17.456 2.00000
G1 X16.667 Y17.899 2.00000
G1 X18.240 Y19.616 2.00000
G1 X18.898 Y20.287 2.00000
G1 X20.161 Y21.442 2.00000
G1 X21.314 Y22.340 2.00000
G1 X21.808 Y22.686 2.00000
G1 X22.984 Y23.397 2.00000
G1 X23.444 Y23.632 2.00000
G1 X24.776 Y24.215 2.00000
G1 X24.740 Y24.561 2.00000
G1 0.00000 F1200.00000
G1 X27.628 Y22.823 F900.000
G1 2.00000 F1200.00000
G1 F900
G1 X25.558 Y22.234 2.00000
G1 X24.130 Y21.719 2.00000
G1 X22.834 Y21.109 2.00000
G1 X22.391 Y20.866 2.00000
G1 X21.413 Y20.227 2.00000
G1 X21.142 Y20.029 2.00000
G1 X20.766 Y19.715 2.00000
G1 X20.163 Y19.165 2.00000
G1 X19.714 Y18.613 2.00000
G1 X19.465 Y18.176 2.00000
G1 X19.330 Y17.815 2.00000
G1 X19.263 Y17.513 2.00000
G1 X19.216 Y16.889 2.00000
G1 X19.278 Y15.509 2.00000
G1 X19.260 Y15.055 2.00000
G1 X19.226 Y14.738 2.00000
G1 X18.862 Y12.845 2.00000
G1 X27.628 Y18.181 2.00000
G1 X27.628 Y22.736 2.00000
G1 0.00000 F1200.00000
G1 X32.270 Y18.106 F900.000
G1 2.00000 F1200.00000
G1 F900
G1 X27.697 Y18.106 2.00000
G1 X18.887 Y12.743 2.00000
G1 X18.929 Y11.666 2.00000
G1 X19.111 Y10.807 2.00000
G1 X19.286 Y10.347 2.00000
G1 X19.480 Y9.987 2.00000
G1 X19.648 Y9.739 2.00000
G1 X19.915 Y9.414 2.00000
G1 X20.388 Y8.981 2.00000
G1 X21.114 Y8.502 2.00000
G1 X21.949 Y8.108 2.00000
G1 X22.294 Y7.966 2.00000
G1 X23.461 Y7.589 2.00000
G1 X24.041 Y7.422 2.00000
G1 X32.217 Y18.037 2.00000
G1 0.00000 F1200.00000
G1 X37.495 Y19.975 F900.000
G1 2.00000 F1200.00000
G1 F900
G1 X32.377 Y18.081 2.00000
G1 X24.144 Y7.393 2.00000
G1 X26.306 Y6.865 2.00000
G1 X28.413 Y6.465 2.00000
G1 X29.850 Y6.340 2.00000
G1 X31.475 Y6.412 2.00000
G1 X37.460 Y19.896 2.00000
G1 0.00000 F1200.00000
G1 X42.749 Y24.704 F900.000
G1 2.00000 F1200.00000
G1 F900
G1 X37.493 Y19.724 2.00000
G1 X31.575 Y6.388 2.00000
G1 X33.318 Y6.873 2.00000
G1 X34.793 Y7.524 2.00000
G1 X36.209 Y8.425 2.00000
G1 X37.561 Y9.594 2.00000
G1 X42.749 Y22.801 2.00000
G1 X42.749 Y24.617 2.00000
G1 0.00000 F1200.00000
G1 X42.261 Y21.285 F900.000
G1 2.00000 F1200.00000
G1 F900
G1 X38.283 Y11.158 2.00000
G1 X38.730 Y10.900 2.00000
G1 X38.897 Y11.110 2.00000
G1 X40.123 Y12.827 2.00000
G1 X41.311 Y14.805 2.00000
G1 X42.749 Y17.554 2.00000
G1 X42.749 Y21.192 2.00000
G1 X42.346 Y21.269 2.00000
G1 0.00000 F1200.00000
G1 X42.072 Y24.200 F900.000
G1 2.00000 F1200.00000
G1 F900
G1 X41.892 Y24.590 2.00000
G1 X39.175 Y24.312 2.00000
G1 X33.773 Y23.829 2.00000
G1 X30.837 Y23.448 2.00000
G1 X27.702 Y22.838 2.00000
G1 X27.702 Y18.206 2.00000
G1 X32.238 Y18.206 2.00000
G1 X37.994 Y20.336 2.00000
G1 X42.008 Y24.140 2.00000
G1 0.00000 F1200.00000
G1 X40.723 Y26.633 F900.000
G1 2.00000 F1200.00000
G1 F900
G1 X40.806 Y27.066 2.00000
G1 X37.447 Y28.824 2.00000
G1 X34.838 Y29.961 2.00000
G1 X32.169 Y30.894 2.00000
G1 X28.660 Y31.868 2.00000
G1 X24.984 Y32.831 2.00000
G1 X24.074 Y32.994 2.00000
G1 X23.409 Y33.039 2.00000
G1 X22.831 Y33.001 2.00000
G1 X22.343 Y32.898 2.00000
G1 X21.901 Y32.730 2.00000
G1 X21.424 Y32.442 2.00000
G1 X21.210 Y32.266 2.00000
G1 X20.989 Y32.027 2.00000
G1 X20.833 Y31.794 2.00000
G1 X20.708 Y31.502 2.00000
G1 X20.648 Y31.189 2.00000
G1 X20.657 Y30.933 2.00000
G1 X20.698 Y30.739 2.00000
G1 X20.785 Y30.508 2.00000
G1 X20.919 Y30.275 2.00000
G1 X21.013 Y30.166 2.00000
G1 X20.515 Y29.857 2.00000
G1 X20.269 Y29.666 2.00000
G1 X19.669 Y29.136 2.00000
G1 X19.266 Y28.684 2.00000
G1 X18.921 Y28.181 2.00000
G1 X18.720 Y27.742 2.00000
G1 X18.627 Y27.322 2.00000
G1 X18.651 Y26.948 2.00000
G1 X18.741 Y26.693 2.00000
G1 X18.844 Y26.521 2.00000
G1 X19.001 Y26.341 2.00000
G1 X19.159 Y26.209 2.00000
G1 X19.442 Y26.038 2.00000
G1 X19.817 Y25.888 2.00000
G1 X20.050 Y25.820 2.00000
G1 X24.907 Y24.747 2.00000
G1 X40.637 Y26.622 2.00000
G1 0.00000 F1200.00000
G1 X19.082 Y33.113 F900.000
G1 2.00000 F1200.00000
G1 F900
G1 X12.640 Y33.113 2.00000
G1 X12.397 Y32.844 2.00000
G1 X12.089 Y32.601 2.00000
G1 X10.726 Y31.796 2.00000
G1 X10.392 Y31.569 2.00000
G1 X10.182 Y31.389 2.00000
G1 X9.898 Y31.067 2.00000
G1 X9.761 Y30.835 2.00000
G1 X9.658 Y30.563 2.00000
G1 X9.603 Y30.175 2.00000
G1 X9.602 Y29.740 2.00000
G1 X18.761 Y32.483 2.00000
G1 X19.043 Y33.036 2.00000
G1 0.00000 F1200.00000
G1 X18.698 Y32.360 F900.000
G1 2.00000 F1200.00000
G1 F900
G1 X8.430 Y29.284 2.00000
G1 X8.299 Y29.044 2.00000
G1 X8.106 Y28.798 2.00000
G1 X7.297 Y28.028 2.00000
G1 X6.817 Y27.541 2.00000
G1 X6.529 Y27.159 2.00000
G1 X6.371 Y26.857 2.00000
G1 X6.268 Y26.495 2.00000
G1 X6.252 Y26.269 2.00000
G1 X6.273 Y26.044 2.00000
G1 X6.357 Y25.756 2.00000
G1 X6.493 Y25.436 2.00000
G1 X17.372 Y29.759 2.00000
G1 X18.658 Y32.282 2.00000
G1 0.00000 F1200.00000
G1 X16.669 Y16.104 F900.000
G1 2.00000 F1200.00000
G1 F900
G1 X17.067 Y15.759 2.00000
G1 X16.884 Y15.475 2.00000
G1 X16.655 Y14.973 2.00000
G1 X16.525 Y14.493 2.00000
G1 X16.476 Y14.087 2.00000
G1 X16.494 Y13.429 2.00000
G1 X16.628 Y12.732 2.00000
G1 X16.935 Y11.864 2.00000
G1 X17.356 Y11.021 2.00000
G1 X17.630 Y10.555 2.00000
G1 X18.476 Y9.330 2.00000
G1 X18.949 Y8.734 2.00000
G1 X19.624 Y7.977 2.00000
G1 X20.030 Y7.582 2.00000
G1 X20.922 Y6.803 2.00000
G1 X21.894 Y6.133 2.00000
G1 X22.290 Y5.904 2.00000
G1 X23.388 Y5.383 2.00000
G1 X23.786 Y5.233 2.00000
G1 X25.065 Y4.851 2.00000
G1 X26.431 Y4.616 2.00000
G1 X26.816 Y4.569 2.00000
G1 X28.247 Y4.527 2.00000
G1 X28.626 Y4.540 2.00000
G1 X30.196 Y4.729 2.00000
G1 X31.909 Y5.182 2.00000
G1 X33.483 Y5.833 2.00000
G1 X35.104 Y6.747 2.00000
G1 X36.635 Y7.861 2.00000
G1 X38.128 Y9.206 2.00000
G1 X39.702 Y10.954 2.00000
G1 X41.065 Y12.822 2.00000
G1 X42.309 Y14.937 2.00000
G1 X42.749 Y14.812 2.00000
G1 X42.749 Y1.387 2.00000
G1 X43.949 Y1.387 2.00000
G1 X43.949 Y30.887 2.00000
G1 X42.749 Y30.887 2.00000
G1 X42.749 Y27.437 2.00000
G1 X38.734 Y29.421 2.00000
G1 X34.996 Y31.000 2.00000
G1 X31.309 Y32.299 2.00000
G1 X28.425 Y33.131 2.00000
G1 X27.342 Y33.419 2.00000
G1 X24.075 Y34.133 2.00000
G1 X21.197 Y34.604 2.00000
G1 X20.097 Y34.753 2.00000
G1 X17.375 Y35.020 2.00000
G1 X16.110 Y35.106 2.00000
G1 X13.801 Y35.179 2.00000
G1 X12.386 Y35.142 2.00000
G1 X11.574 Y35.093 2.00000
G1 X10.199 Y34.928 2.00000
G1 X9.436 Y34.793 2.00000
G1 X8.253 Y34.506 2.00000
G1 X7.169 Y34.140 2.00000
G1 X6.531 Y33.883 2.00000
G1 X5.523 Y33.374 2.00000
G1 X5.037 Y33.092 2.00000
G1 X4.128 Y32.456 2.00000
G1 X3.668 Y32.075 2.00000
G1 X3.035 Y31.455 2.00000
G1 X2.770 Y31.145 2.00000
G1 X2.344 Y30.560 2.00000
G1 X1.948 Y29.823 2.00000
G1 X1.693 Y29.090 2.00000
G1 X1.543 Y28.278 2.00000
G1 X1.501 Y27.566 2.00000
G1 X1.602 Y26.140 2.00000
G1 X1.962 Y24.425 2.00000
G1 X2.520 Y22.768 2.00000
G1 X2.878 Y21.984 2.00000
G1 X3.294 Y21.165 2.00000
G1 X3.588 Y20.682 2.00000
G1 X4.240 Y19.735 2.00000
G1 X4.966 Y18.881 2.00000
G1 X5.434 Y18.398 2.00000
G1 X6.264 Y17.672 2.00000
G1 X6.799 Y17.262 2.00000
G1 X7.747 Y16.642 2.00000
G1 X8.336 Y16.309 2.00000
G1 X9.430 Y15.786 2.00000
G1 X10.108 Y15.516 2.00000
G1 X11.187 Y15.162 2.00000
G1 X12.158 Y14.945 2.00000
G1 X12.676 Y14.868 2.00000
G1 X13.513 Y14.826 2.00000
G1 X14.166 Y14.875 2.00000
G1 X14.521 Y14.932 2.00000
G1 X15.083 Y15.087 2.00000
G1 X15.591 Y15.306 2.00000
G1 X16.241 Y15.722 2.00000
G1 X16.604 Y16.046 2.00000
G1 0.00000 F1200.00000
G1 X18.951 Y19.597 F900.000
G1 2.00000 F1200.00000
G1 F900
G1 X19.012 Y19.556 2.00000
G1 X19.012 Y19.659 2.00000
G1 X20.778 Y21.425 2.00000
G1 0.00000 F1200.00000
G1 X23.851 Y23.381 F900.000
G1 2.00000 F1200.00000
G1 F900
G1 X24.843 Y23.815 2.00000
G1 X22.282 Y21.254 2.00000
G1 X22.656 Y21.459 2.00000
G1 X23.391 Y21.805 2.00000
G1 X26.077 Y24.491 2.00000
G1 X26.710 Y24.566 2.00000
G1 X24.365 Y22.221 2.00000
G1 X25.239 Y22.537 2.00000
G1 X27.344 Y24.642 2.00000
G1 X27.978 Y24.717 2.00000
G1 X26.040 Y22.780 2.00000
G1 X26.821 Y23.002 2.00000
G1 X28.612 Y24.793 2.00000
G1 X29.245 Y24.868 2.00000
G1 X27.601 Y23.224 2.00000
G1 X28.021 Y23.343 2.00000
G1 X28.021 Y23.300 2.00000
G1 X28.287 Y23.352 2.00000
G1 X29.879 Y24.944 2.00000
G1 X30.513 Y25.020 2.00000
G1 X28.980 Y23.486 2.00000
G1 X29.673 Y23.621 2.00000
G1 X31.147 Y25.095 2.00000
G1 X31.780 Y25.171 2.00000
G1 X30.366 Y23.756 2.00000
G1 X31.037 Y23.869 2.00000
G1 X32.414 Y25.246 2.00000
G1 X33.048 Y25.322 2.00000
G1 X31.679 Y23.953 2.00000
G1 X32.320 Y24.036 2.00000
G1 X33.682 Y25.397 2.00000
G1 X34.316 Y25.473 2.00000
G1 X32.962 Y24.119 2.00000
G1 X33.603 Y24.203 2.00000
G1 X34.949 Y25.549 2.00000
G1 X35.583 Y25.624 2.00000
G1 X34.222 Y24.263 2.00000
G1 X34.835 Y24.318 2.00000
G1 X36.217 Y25.700 2.00000
G1 X36.851 Y25.775 2.00000
G1 X35.448 Y24.373 2.00000
G1 X36.061 Y24.428 2.00000
G1 X37.484 Y25.851 2.00000
G1 X38.118 Y25.926 2.00000
G1 X36.674 Y24.482 2.00000
G1 X37.287 Y24.537 2.00000
G1 X38.752 Y26.002 2.00000
G1 X39.386 Y26.078 2.00000
G1 X37.900 Y24.592 2.00000
G1 X38.513 Y24.647 2.00000
G1 X40.019 Y26.153 2.00000
G1 X40.653 Y26.229 2.00000
G1 X39.126 Y24.702 2.00000
G1 X39.748 Y24.765 2.00000
G1 X42.235 Y27.253 2.00000
G1 X42.609 Y27.068 2.00000
G1 X40.370 Y24.829 2.00000
G1 X40.992 Y24.893 2.00000
G1 X42.982 Y26.883 2.00000
G1 0.00000 F1200.00000
G1 X41.862 Y27.437 F900.000
G1 2.00000 F1200.00000
G1 F900
G1 X41.138 Y26.714 2.00000
G1 X41.247 Y27.279 2.00000
G1 X41.180 Y27.314 2.00000
G1 X41.488 Y27.622 2.00000
G1 X41.115 Y27.807 2.00000
G1 X40.814 Y27.505 2.00000
G1 X40.447 Y27.697 2.00000
G1 X40.741 Y27.991 2.00000
G1 X40.367 Y28.176 2.00000
G1 X40.081 Y27.889 2.00000
G1 X39.714 Y28.081 2.00000
G1 X39.994 Y28.360 2.00000
G1 X39.620 Y28.545 2.00000
G1 X39.348 Y28.272 2.00000
G1 X38.981 Y28.464 2.00000
G1 X39.247 Y28.730 2.00000
G1 X38.873 Y28.914 2.00000
G1 X38.615 Y28.656 2.00000
G1 X38.248 Y28.848 2.00000
G1 X38.496 Y29.095 2.00000
G1 X38.104 Y29.261 2.00000
G1 X37.882 Y29.039 2.00000
G1 X37.511 Y29.226 2.00000
G1 X37.711 Y29.427 2.00000
G1 X37.319 Y29.593 2.00000
G1 X37.125 Y29.399 2.00000
G1 X36.736 Y29.568 2.00000
G1 X36.926 Y29.758 2.00000
G1 X36.534 Y29.924 2.00000
G1 X36.346 Y29.736 2.00000
G1 X35.957 Y29.905 2.00000
G1 X36.141 Y30.090 2.00000
G1 X35.749 Y30.256 2.00000
G1 X35.567 Y30.074 2.00000
G1 X35.178 Y30.242 2.00000
G1 X35.357 Y30.421 2.00000
G1 X34.964 Y30.587 2.00000
G1 X34.776 Y30.399 2.00000
G1 X34.362 Y30.544 2.00000
G1 X34.557 Y30.738 2.00000
G1 X34.144 Y30.884 2.00000
G1 X33.949 Y30.688 2.00000
G1 X33.535 Y30.833 2.00000
G1 X33.732 Y31.029 2.00000
G1 X33.319 Y31.175 2.00000
G1 X33.121 Y30.977 2.00000
G1 X32.708 Y31.122 2.00000
G1 X32.906 Y31.320 2.00000
G1 X32.493 Y31.466 2.00000
G1 X32.294 Y31.266 2.00000
G1 X31.858 Y31.388 2.00000
G1 X32.081 Y31.611 2.00000
G1 X31.668 Y31.756 2.00000
G1 X31.421 Y31.509 2.00000
G1 X30.984 Y31.631 2.00000
G1 X31.255 Y31.902 2.00000
G1 X31.189 Y31.925 2.00000
G1 X30.825 Y32.030 2.00000
G1 X30.547 Y31.752 2.00000
G1 X30.110 Y31.873 2.00000
G1 X30.392 Y32.155 2.00000
G1 X29.959 Y32.280 2.00000
G1 X29.673 Y31.994 2.00000
G1 X29.236 Y32.116 2.00000
G1 X29.525 Y32.405 2.00000
G1 X29.092 Y32.530 2.00000
G1 X28.799 Y32.237 2.00000
G1 X28.357 Y32.353 2.00000
G1 X28.659 Y32.655 2.00000
G1 X28.320 Y32.752 2.00000
G1 X28.224 Y32.778 2.00000
G1 X27.915 Y32.469 2.00000
G1 X27.473 Y32.585 2.00000
G1 X27.783 Y32.895 2.00000
G1 X27.342 Y33.013 2.00000
G1 X27.030 Y32.701 2.00000
G1 X26.588 Y32.817 2.00000
G1 X26.888 Y33.117 2.00000
G1 X26.430 Y33.217 2.00000
G1 X26.145 Y32.932 2.00000
G1 X25.703 Y33.048 2.00000
G1 X25.972 Y33.317 2.00000
G1 X25.514 Y33.417 2.00000
G1 X25.261 Y33.164 2.00000
G1 X24.801 Y33.262 2.00000
G1 X25.056 Y33.517 2.00000
G1 X24.597 Y33.617 2.00000
G1 X24.328 Y33.347 2.00000
G1 X24.122 Y33.384 2.00000
G1 X23.826 Y33.404 2.00000
G1 X24.139 Y33.717 2.00000
G1 X23.666 Y33.802 2.00000
G1 X23.288 Y33.424 2.00000
G1 X22.675 Y33.370 2.00000
G1 X23.186 Y33.881 2.00000
G1 X22.707 Y33.959 2.00000
G1 X21.896 Y33.148 2.00000
G1 F900
G1 X21.728 Y33.085 2.00000
G1 X21.197 Y32.764 2.00000
G1 X20.940 Y32.553 2.00000
G1 X20.680 Y32.271 2.00000
G1 X20.487 Y31.983 2.00000
G1 X20.322 Y31.574 2.00000
G1 X17.090 Y28.342 2.00000
G1 X16.644 Y27.467 2.00000
G1 X16.921 Y27.615 2.00000
G1 X20.263 Y30.958 2.00000
G1 X20.320 Y30.629 2.00000
G1 X20.367 Y30.503 2.00000
G1 X17.843 Y27.979 2.00000
G1 X18.105 Y27.683 2.00000
G1 X18.393 Y27.971 2.00000
G1 0.00000 F1200.00000
G1 X22.227 Y34.038 F900.000
G1 2.00000 F1200.00000
G1 F900
G1 X17.671 Y29.481 2.00000
G1 X18.252 Y30.621 2.00000
G1 X21.747 Y34.116 2.00000
G1 X21.267 Y34.195 2.00000
G1 X18.876 Y31.804 2.00000
G1 X18.885 Y31.863 2.00000
G1 X19.414 Y32.899 2.00000
G1 X20.779 Y34.264 2.00000
G1 X20.287 Y34.331 2.00000
G1 X19.463 Y33.506 2.00000
G1 X18.904 Y33.506 2.00000
G1 X19.787 Y34.389 2.00000
G1 X19.279 Y34.439 2.00000
G1 X18.346 Y33.506 2.00000
G1 X17.788 Y33.506 2.00000
G1 X18.770 Y34.489 2.00000
G1 X18.262 Y34.539 2.00000
G1 X17.230 Y33.506 2.00000
G1 X16.672 Y33.506 2.00000
G1 X17.754 Y34.589 2.00000
G1 X17.243 Y34.636 2.00000
G1 X16.114 Y33.506 2.00000
G1 X15.555 Y33.506 2.00000
G1 X16.720 Y34.671 2.00000
G1 X16.198 Y34.707 2.00000
G1 X14.997 Y33.506 2.00000
G1 X14.439 Y33.506 2.00000
G1 X15.660 Y34.728 2.00000
G1 X15.119 Y34.745 2.00000
G1 X13.881 Y33.506 2.00000
G1 X13.323 Y33.506 2.00000
G1 X14.578 Y34.762 2.00000
G1 X14.037 Y34.779 2.00000
G1 X12.764 Y33.506 2.00000
G1 X12.465 Y33.506 2.00000
G1 X12.127 Y33.132 2.00000
G1 X12.032 Y33.056 2.00000
G1 X12.234 Y33.534 2.00000
G1 X13.478 Y34.778 2.00000
G1 X12.905 Y34.763 2.00000
G1 X12.321 Y34.179 2.00000
G1 X12.329 Y34.745 2.00000
G1 0.00000 F1200.00000
G1 X24.843 Y23.815 F900.000
G1 2.00000 F1200.00000
G1 F900
G1 X25.196 Y23.970 2.00000
G1 X25.178 Y24.150 2.00000
G1 X25.443 Y24.415 2.00000
G1 0.00000 F1200.00000
G1 X43.142 Y30.392 F900.000
G1 2.00000 F1200.00000
G1 F900
G1 X43.244 Y30.495 2.00000
G1 X43.556 Y30.495 2.00000
G1 X43.556 Y30.248 2.00000
G1 X43.142 Y29.833 2.00000
G1 X43.142 Y29.275 2.00000
G1 X43.556 Y29.690 2.00000
G1 X43.556 Y29.132 2.00000
G1 X43.142 Y28.717 2.00000
G1 X43.142 Y28.159 2.00000
G1 X43.556 Y28.573 2.00000
G1 X43.556 Y28.015 2.00000
G1 X43.142 Y27.601 2.00000
G1 X43.142 Y27.042 2.00000
G1 X43.556 Y27.457 2.00000
G1 X43.556 Y26.899 2.00000
G1 X41.614 Y24.956 2.00000
G1 X42.131 Y25.009 2.00000
G1 X42.161 Y24.945 2.00000
G1 X43.556 Y26.341 2.00000
G1 X43.556 Y25.783 2.00000
G1 X43.142 Y25.368 2.00000
G1 X43.142 Y24.810 2.00000
G1 X43.556 Y25.224 2.00000
G1 X43.556 Y24.666 2.00000
G1 X43.142 Y24.252 2.00000
G1 X43.142 Y23.693 2.00000
G1 X43.556 Y24.108 2.00000
G1 X43.556 Y23.550 2.00000
G1 X43.142 Y23.135 2.00000
G1 X43.142 Y22.727 2.00000
G1 X43.045 Y22.480 2.00000
G1 X43.556 Y22.992 2.00000
G1 X43.556 Y22.433 2.00000
G1 X42.720 Y21.598 2.00000
G1 X43.142 Y21.518 2.00000
G1 X43.142 Y21.461 2.00000
G1 X43.556 Y21.875 2.00000
G1 X43.556 Y21.317 2.00000
G1 X43.142 Y20.902 2.00000
G1 X43.142 Y20.344 2.00000
G1 X43.556 Y20.759 2.00000
G1 X43.556 Y20.201 2.00000
G1 X43.142 Y19.786 2.00000
G1 X43.142 Y19.228 2.00000
G1 X43.556 Y19.642 2.00000
G1 X43.556 Y19.084 2.00000
G1 X43.142 Y18.670 2.00000
G1 X43.142 Y18.111 2.00000
G1 X43.556 Y18.526 2.00000
G1 X43.556 Y17.968 2.00000
G1 X43.142 Y17.553 2.00000
G1 X43.142 Y17.458 2.00000
G1 X42.634 Y16.487 2.00000
G1 X43.556 Y17.410 2.00000
G1 X43.556 Y16.851 2.00000
G1 X42.022 Y15.317 2.00000
G1 X41.654 Y14.613 2.00000
G1 X41.320 Y14.057 2.00000
G1 X41.358 Y14.095 2.00000
G1 0.00000 F1200.00000
G1 X42.542 Y15.279 F900.000
G1 2.00000 F1200.00000
G1 F900
G1 X43.556 Y16.293 2.00000
G1 X43.556 Y15.735 2.00000
G1 X42.977 Y15.156 2.00000
G1 X43.142 Y15.109 2.00000
G1 X43.142 Y14.762 2.00000
G1 X43.556 Y15.177 2.00000
G1 X43.556 Y14.619 2.00000
G1 X43.142 Y14.204 2.00000
G1 X43.142 Y13.646 2.00000
G1 X43.556 Y14.060 2.00000
G1 X43.556 Y13.502 2.00000
G1 X43.142 Y13.088 2.00000
G1 X43.142 Y12.529 2.00000
G1 X43.556 Y12.944 2.00000
G1 X43.556 Y12.386 2.00000
G1 X43.142 Y11.971 2.00000
G1 X43.142 Y11.413 2.00000
G1 X43.556 Y11.828 2.00000
G1 X43.556 Y11.269 2.00000
G1 X43.142 Y10.855 2.00000
G1 X43.142 Y10.297 2.00000
G1 X43.556 Y10.711 2.00000
G1 X43.556 Y10.153 2.00000
G1 X43.142 Y9.738 2.00000
G1 X43.142 Y9.180 2.00000
G1 X43.556 Y9.595 2.00000
G1 X43.556 Y9.037 2.00000
G1 X43.142 Y8.622 2.00000
G1 X43.142 Y8.064 2.00000
G1 X43.556 Y8.478 2.00000
G1 X43.556 Y7.920 2.00000
G1 X43.142 Y7.506 2.00000
G1 X43.142 Y6.947 2.00000
G1 X43.556 Y7.362 2.00000
G1 X43.556 Y6.804 2.00000
G1 X43.142 Y6.389 2.00000
G1 X43.142 Y5.831 2.00000
G1 X43.556 Y6.246 2.00000
G1 X43.556 Y5.687 2.00000
G1 X43.142 Y5.273 2.00000
G1 X43.142 Y4.715 2.00000
G1 X43.556 Y5.129 2.00000
G1 X43.556 Y4.571 2.00000
G1 X43.142 Y4.156 2.00000
G1 X43.142 Y3.598 2.00000
G1 X43.556 Y4.013 2.00000
G1 X43.556 Y3.455 2.00000
G1 X43.142 Y3.040 2.00000
G1 X43.142 Y2.482 2.00000
G1 X43.556 Y2.896 2.00000
G1 X43.556 Y2.338 2.00000
G1 X43.142 Y1.924 2.00000
G1 X43.142 Y1.780 2.00000
G1 X43.556 Y1.780 2.00000
G1 0.00000 F1200.00000
G1 X38.010 Y9.661 F900.000
G1 2.00000 F1200.00000
G1 F900
G1 X38.394 Y10.640 2.00000
G1 0.00000 F1200.00000
G1 X35.031 Y7.210 F900.000
G1 2.00000 F1200.00000
G1 F900
G1 X34.887 Y7.075 2.00000
G1 X33.624 Y6.361 2.00000
G1 X34.014 Y6.751 2.00000
G1 X33.450 Y6.502 2.00000
G1 X33.113 Y6.409 2.00000
G1 X32.595 Y5.890 2.00000
G1 X31.783 Y5.555 2.00000
G1 X31.672 Y5.525 2.00000
G1 X32.340 Y6.194 2.00000
G1 X31.567 Y5.979 2.00000
G1 X30.913 Y5.325 2.00000
G1 X30.154 Y5.124 2.00000
G1 X30.927 Y5.896 2.00000
G1 X30.971 Y5.996 2.00000
G1 X30.445 Y5.973 2.00000
G1 X29.514 Y5.042 2.00000
G1 X28.880 Y4.966 2.00000
G1 X29.861 Y5.948 2.00000
G1 X29.345 Y5.990 2.00000
G1 X28.277 Y4.921 2.00000
G1 X27.732 Y4.935 2.00000
G1 X28.832 Y6.034 2.00000
G1 X28.322 Y6.082 2.00000
G1 X27.190 Y4.951 2.00000
G1 X26.664 Y4.983 2.00000
G1 X27.853 Y6.172 2.00000
G1 X27.383 Y6.261 2.00000
G1 X26.181 Y5.058 2.00000
G1 X25.704 Y5.139 2.00000
G1 X26.914 Y6.350 2.00000
G1 X26.445 Y6.439 2.00000
G1 X25.228 Y5.221 2.00000
G1 X25.155 Y5.234 2.00000
G1 X24.791 Y5.342 2.00000
G1 X25.987 Y6.539 2.00000
G1 X25.538 Y6.648 2.00000
G1 X24.361 Y5.471 2.00000
G1 X23.931 Y5.599 2.00000
G1 X25.090 Y6.758 2.00000
G1 X24.641 Y6.868 2.00000
G1 X23.526 Y5.752 2.00000
G1 X23.147 Y5.932 2.00000
G1 X24.187 Y6.971 2.00000
G1 X23.744 Y7.087 2.00000
G1 X22.769 Y6.111 2.00000
G1 X22.473 Y6.252 2.00000
G1 X22.396 Y6.297 2.00000
G1 X23.321 Y7.222 2.00000
G1 X22.899 Y7.358 2.00000
G1 X22.046 Y6.505 2.00000
G1 X21.716 Y6.733 2.00000
G1 X22.477 Y7.494 2.00000
G1 X22.061 Y7.637 2.00000
G1 X21.385 Y6.961 2.00000
G1 X21.065 Y7.199 2.00000
G1 X21.671 Y7.805 2.00000
G1 X21.292 Y7.984 2.00000
G1 X20.767 Y7.459 2.00000
G1 X20.469 Y7.720 2.00000
G1 X20.914 Y8.164 2.00000
G1 X20.577 Y8.386 2.00000
G1 X20.178 Y7.986 2.00000
G1 X19.896 Y8.262 2.00000
G1 X20.241 Y8.607 2.00000
G1 X20.146 Y8.670 2.00000
G1 X19.937 Y8.862 2.00000
G1 X19.633 Y8.557 2.00000
G1 X19.370 Y8.852 2.00000
G1 X19.645 Y9.128 2.00000
G1 X19.391 Y9.432 2.00000
G1 X19.115 Y9.156 2.00000
G1 X19.079 Y9.201 2.00000
G1 X19.050 Y9.378 2.00000
G1 X18.962 Y9.349 2.00000
G1 X18.868 Y9.468 2.00000
G1 X19.160 Y9.759 2.00000
G1 X18.962 Y10.120 2.00000
G1 X18.634 Y9.792 2.00000
G1 X18.406 Y10.122 2.00000
G1 X18.801 Y10.517 2.00000
G1 X18.706 Y10.825 2.00000
G1 X18.662 Y10.825 2.00000
G1 X18.666 Y10.939 2.00000
G1 X18.178 Y10.452 2.00000
G1 X17.952 Y10.784 2.00000
G1 X18.581 Y11.413 2.00000
G1 X18.538 Y11.618 2.00000
G1 X18.526 Y11.917 2.00000
G1 X17.745 Y11.135 2.00000
G1 X17.554 Y11.503 2.00000
G1 X18.358 Y12.307 2.00000
G1 X18.491 Y12.998 2.00000
G1 X17.368 Y11.875 2.00000
G1 X17.297 Y12.017 2.00000
G1 X17.207 Y12.272 2.00000
G1 X18.624 Y13.689 2.00000
G1 X18.619 Y13.876 2.00000
G1 X18.660 Y13.876 2.00000
G1 X18.757 Y14.380 2.00000
G1 X17.062 Y12.685 2.00000
G1 X17.009 Y12.835 2.00000
G1 X16.951 Y13.132 2.00000
G1 X18.864 Y15.045 2.00000
G1 X18.880 Y15.619 2.00000
G1 X16.881 Y13.621 2.00000
G1 X16.870 Y14.069 2.00000
G1 X16.883 Y14.181 2.00000
G1 X18.856 Y16.154 2.00000
G1 X18.832 Y16.688 2.00000
G1 X17.061 Y14.917 2.00000
G1 X17.229 Y15.286 2.00000
G1 X17.581 Y15.832 2.00000
G1 X17.494 Y15.908 2.00000
G1 X18.851 Y17.265 2.00000
G1 X18.874 Y17.570 2.00000
G1 X18.951 Y17.924 2.00000
G1 X17.195 Y16.167 2.00000
G1 X16.896 Y16.427 2.00000
G1 X19.755 Y19.285 2.00000
G1 X19.877 Y19.436 2.00000
G1 X20.197 Y19.727 2.00000
G1 X23.851 Y23.381 2.00000
G1 X23.175 Y23.054 2.00000
G1 X22.644 Y22.732 2.00000
G1 X15.848 Y15.937 2.00000
G1 X15.406 Y15.654 2.00000
G1 X14.952 Y15.459 2.00000
G1 X14.758 Y15.405 2.00000
G1 X18.951 Y19.597 2.00000
G1 X18.842 Y19.669 2.00000
G1 X18.525 Y19.346 2.00000
G1 X16.950 Y17.627 2.00000
G1 X16.485 Y17.163 2.00000
G1 X15.731 Y16.551 2.00000
G1 X15.161 Y16.205 2.00000
G1 X14.880 Y16.085 2.00000
G1 X14.055 Y15.260 2.00000
G1 X13.458 Y15.221 2.00000
G1 X14.099 Y15.862 2.00000
G1 X13.786 Y15.842 2.00000
G1 X13.551 Y15.872 2.00000
G1 X12.927 Y15.248 2.00000
G1 X12.423 Y15.303 2.00000
G1 X13.113 Y15.993 2.00000
G1 X12.751 Y16.189 2.00000
G1 X11.955 Y15.393 2.00000
G1 X11.499 Y15.495 2.00000
G1 X12.424 Y16.420 2.00000
G1 X12.136 Y16.691 2.00000
G1 X11.062 Y15.616 2.00000
G1 X10.642 Y15.754 2.00000
G1 X11.889 Y17.002 2.00000
G1 X11.660 Y17.330 2.00000
G1 X10.222 Y15.893 2.00000
G1 X9.823 Y16.052 2.00000
G1 X11.464 Y17.693 2.00000
G1 X11.305 Y18.092 2.00000
G1 X9.433 Y16.220 2.00000
G1 X9.055 Y16.400 2.00000
G1 X11.178 Y18.523 2.00000
G1 X11.139 Y18.702 2.00000
G1 X11.113 Y19.017 2.00000
G1 X8.678 Y16.581 2.00000
G1 X8.312 Y16.774 2.00000
G1 X10.401 Y18.863 2.00000
G1 X9.634 Y18.654 2.00000
G1 X7.956 Y16.975 2.00000
G1 X7.618 Y17.196 2.00000
G1 X8.749 Y18.327 2.00000
G1 X8.561 Y18.258 2.00000
G1 X7.969 Y18.106 2.00000
G1 X7.280 Y17.416 2.00000
G1 X6.948 Y17.642 2.00000
G1 X7.369 Y18.064 2.00000
G1 X7.196 Y18.072 2.00000
G1 X6.883 Y18.135 2.00000
G1 X6.632 Y17.885 2.00000
G1 X6.327 Y18.138 2.00000
G1 X6.467 Y18.278 2.00000
G1 X6.358 Y18.323 2.00000
G1 X6.108 Y18.477 2.00000
G1 X6.030 Y18.399 2.00000
G1 X5.732 Y18.659 2.00000
G1 X5.798 Y18.725 2.00000
G1 X5.540 Y19.025 2.00000
G1 X5.455 Y18.941 2.00000
G1 X5.186 Y19.229 2.00000
G1 X5.336 Y19.380 2.00000
G1 X5.264 Y19.556 2.00000
G1 X5.196 Y19.798 2.00000
G1 X4.929 Y19.531 2.00000
G1 0.00000 F1200.00000
G1 X76.964 Y34.583 F900.000
G1 2.00000 F1200.00000
G1 F900
G1 X76.972 Y34.042 2.00000
G1 X77.039 Y33.654 2.00000
G1 X77.182 Y33.294 2.00000
G1 X77.294 Y33.100 2.00000
G1 X77.463 Y32.880 2.00000
G1 X77.783 Y32.575 2.00000
G1 X78.051 Y32.375 2.00000
G1 X79.113 Y31.710 2.00000
G1 X79.533 Y31.383 2.00000
G1 X79.729 Y31.170 2.00000
G1 X79.861 Y30.972 2.00000
G1 X79.957 Y30.760 2.00000
G1 X80.022 Y30.514 2.00000
G1 X80.065 Y30.052 2.00000
G1 X80.381 Y29.969 2.00000
G1 X80.891 Y29.774 2.00000
G1 X81.254 Y29.569 2.00000
G1 X81.439 Y29.441 2.00000
G1 X81.832 Y29.102 2.00000
G1 X82.174 Y28.708 2.00000
G1 X82.539 Y28.118 2.00000
G1 X82.780 Y27.511 2.00000
G1 X82.892 Y27.011 2.00000
G1 X82.923 Y26.650 2.00000
G1 X82.929 Y26.356 2.00000
G1 X82.876 Y25.880 2.00000
G1 X82.716 Y25.275 2.00000
G1 X83.199 Y24.754 2.00000
G1 X83.395 Y24.487 2.00000
G1 X83.590 Y24.159 2.00000
G1 X83.724 Y23.888 2.00000
G1 X83.836 Y23.590 2.00000
G1 X83.952 Y23.110 2.00000
G1 X83.978 Y22.715 2.00000
G1 X83.939 Y22.351 2.00000
G1 X83.665 Y21.448 2.00000
G1 X83.632 Y21.204 2.00000
G1 X83.645 Y20.967 2.00000
G1 X83.723 Y20.700 2.00000
G1 X83.837 Y20.500 2.00000
G1 X84.036 Y20.277 2.00000
G1 X84.416 Y19.938 2.00000
G1 X85.503 Y22.033 2.00000
G1 X86.079 Y23.292 2.00000
G1 X86.250 Y23.715 2.00000
G1 X86.650 Y24.984 2.00000
G1 X86.848 Y26.126 2.00000
G1 X86.863 Y27.307 2.00000
G1 X86.690 Y28.444 2.00000
G1 X86.474 Y29.170 2.00000
G1 X86.280 Y29.667 2.00000
G1 X85.907 Y30.387 2.00000
G1 X85.612 Y30.838 2.00000
G1 X85.239 Y31.328 2.00000
G1 X84.864 Y31.744 2.00000
G1 X84.221 Y32.349 2.00000
G1 X83.766 Y32.700 2.00000
G1 X83.059 Y33.179 2.00000
G1 X82.516 Y33.480 2.00000
G1 X81.531 Y33.933 2.00000
G1 X81.001 Y34.119 2.00000
G1 X80.052 Y34.387 2.00000
G1 X79.770 Y34.445 2.00000
G1 X78.601 Y34.602 2.00000
G1 X78.177 Y34.618 2.00000
G1 X77.051 Y34.586 2.00000
G1 0.00000 F1200.00000
G1 X71.220 Y27.573 F900.000
G1 2.00000 F1200.00000
G1 F900
G1 X69.994 Y26.189 2.00000
G1 X77.294 Y19.767 2.00000
G1 X77.614 Y19.562 2.00000
G1 X77.984 Y19.401 2.00000
G1 X79.279 Y19.066 2.00000
G1 X80.452 Y18.634 2.00000
G1 X80.969 Y18.495 2.00000
G1 X81.408 Y18.448 2.00000
G1 X81.732 Y18.470 2.00000
G1 X82.043 Y18.542 2.00000
G1 X82.360 Y18.674 2.00000
G1 X82.627 Y18.838 2.00000
G1 X82.848 Y19.026 2.00000
G1 X83.037 Y19.249 2.00000
G1 X83.180 Y19.486 2.00000
G1 X83.286 Y19.745 2.00000
G1 X83.353 Y20.032 2.00000
G1 X83.371 Y20.294 2.00000
G1 X83.349 Y20.541 2.00000
G1 X83.254 Y20.864 2.00000
G1 X83.122 Y21.107 2.00000
G1 X82.951 Y21.307 2.00000
G1 X82.766 Y21.455 2.00000
G1 X82.542 Y21.578 2.00000
G1 X82.332 Y21.653 2.00000
G1 X71.297 Y27.532 2.00000
G1 0.00000 F1200.00000
G1 X71.595 Y29.625 F900.000
G1 2.00000 F1200.00000
G1 F900
G1 X73.092 Y26.689 2.00000
G1 X82.468 Y21.694 2.00000
G1 X82.748 Y21.756 2.00000
G1 X82.998 Y21.875 2.00000
G1 X83.181 Y22.052 2.00000
G1 X83.292 Y22.267 2.00000
G1 X83.333 Y22.432 2.00000
G1 X83.347 Y22.678 2.00000
G1 X83.318 Y22.946 2.00000
G1 X83.260 Y23.203 2.00000
G1 X83.111 Y23.658 2.00000
G1 X82.674 Y24.728 2.00000
G1 X82.617 Y24.920 2.00000
G1 X82.653 Y25.230 2.00000
G1 X71.676 Y29.592 2.00000
G1 0.00000 F1200.00000
G1 X70.200 Y32.360 F900.000
G1 2.00000 F1200.00000
G1 F900
G1 X71.526 Y29.759 2.00000
G1 X82.405 Y25.436 2.00000
G1 X82.555 Y25.790 2.00000
G1 X82.625 Y26.047 2.00000
G1 X82.645 Y26.269 2.00000
G1 X82.630 Y26.495 2.00000
G1 X82.527 Y26.857 2.00000
G1 X82.369 Y27.159 2.00000
G1 X82.081 Y27.540 2.00000
G1 X80.792 Y28.797 2.00000
G1 X80.599 Y29.044 2.00000
G1 X80.468 Y29.284 2.00000
G1 X70.283 Y32.335 2.00000
G1 0.00000 F1200.00000
G1 X69.816 Y33.113 F900.000
G1 2.00000 F1200.00000
G1 F900
G1 X70.137 Y32.483 2.00000
G1 X79.307 Y29.736 2.00000
G1 X79.286 Y30.313 2.00000
G1 X79.252 Y30.501 2.00000
G1 X79.152 Y30.803 2.00000
G1 X79.000 Y31.066 2.00000
G1 X78.713 Y31.391 2.00000
G1 X78.369 Y31.669 2.00000
G1 X76.809 Y32.600 2.00000
G1 X76.501 Y32.844 2.00000
G1 X76.258 Y33.113 2.00000
G1 X69.903 Y33.113 2.00000
G1 0.00000 F1200.00000
G1 X64.170 Y24.648 F900.000
G1 2.00000 F1200.00000
G1 F900
G1 X64.131 Y24.214 2.00000
G1 X65.453 Y23.632 2.00000
G1 X65.914 Y23.397 2.00000
G1 X67.090 Y22.686 2.00000
G1 X67.583 Y22.340 2.00000
G1 X68.730 Y21.448 2.00000
G1 X69.804 Y20.478 2.00000
G1 X70.658 Y19.616 2.00000
G1 X72.231 Y17.899 2.00000
G1 X72.676 Y17.456 2.00000
G1 X73.394 Y16.873 2.00000
G1 X73.917 Y16.555 2.00000
G1 X74.425 Y16.338 2.00000
G1 X74.700 Y16.267 2.00000
G1 X74.974 Y16.235 2.00000
G1 X75.218 Y16.245 2.00000
G1 X75.468 Y16.296 2.00000
G1 X75.678 Y16.372 2.00000
G1 X75.906 Y16.489 2.00000
G1 X76.109 Y16.623 2.00000
G1 X76.391 Y16.867 2.00000
G1 X76.642 Y17.150 2.00000
G1 X76.865 Y17.467 2.00000
G1 X77.041 Y17.770 2.00000
G1 X77.268 Y18.324 2.00000
G1 X77.384 Y18.875 2.00000
G1 X77.395 Y19.205 2.00000
G1 X77.340 Y19.591 2.00000
G1 X70.103 Y25.959 2.00000
G1 X64.255 Y24.667 2.00000
G1 0.00000 F1200.00000
G1 X61.270 Y22.823 F900.000
G1 2.00000 F1200.00000
G1 F900
G1 X61.270 Y18.181 2.00000
G1 X70.036 Y12.845 2.00000
G1 X69.672 Y14.738 2.00000
G1 X69.638 Y15.055 2.00000
G1 X69.620 Y15.509 2.00000
G1 X69.682 Y16.889 2.00000
G1 X69.634 Y17.513 2.00000
G1 X69.568 Y17.815 2.00000
G1 X69.433 Y18.176 2.00000
G1 X69.185 Y18.612 2.00000
G1 X68.817 Y19.074 2.00000
G1 X68.552 Y19.344 2.00000
G1 X67.750 Y20.035 2.00000
G1 X66.724 Y20.731 2.00000
G1 X66.066 Y21.107 2.00000
G1 X64.786 Y21.711 2.00000
G1 X64.234 Y21.916 2.00000
G1 X63.339 Y22.234 2.00000
G1 X61.354 Y22.799 2.00000
G1 0.00000 F1200.00000
G1 X56.627 Y18.106 F900.000
G1 2.00000 F1200.00000
G1 F900
G1 X64.860 Y7.419 2.00000
G1 X66.590 Y7.961 2.00000
G1 X66.948 Y8.108 2.00000
G1 X67.783 Y8.502 2.00000
G1 X68.508 Y8.980 2.00000
G1 X68.907 Y9.337 2.00000
G1 X69.334 Y9.853 2.00000
G1 X69.583 Y10.285 2.00000
G1 X69.811 Y10.886 2.00000
G1 X69.941 Y11.488 2.00000
G1 X69.987 Y11.875 2.00000
G1 X70.009 Y12.745 2.00000
G1 X61.201 Y18.106 2.00000
G1 X56.714 Y18.106 2.00000
G1 0.00000 F1200.00000
G1 X51.403 Y19.975 F900.000
G1 2.00000 F1200.00000
G1 F900
G1 X57.422 Y6.412 2.00000
G1 X59.048 Y6.340 2.00000
G1 X60.578 Y6.477 2.00000
G1 X62.591 Y6.865 2.00000
G1 X64.753 Y7.393 2.00000
G1 X56.520 Y18.081 2.00000
G1 X51.484 Y19.945 2.00000
G1 0.00000 F1200.00000
G1 X46.149 Y24.704 F900.000
G1 2.00000 F1200.00000
G1 F900
G1 X46.149 Y22.801 2.00000
G1 X51.337 Y9.594 2.00000
G1 X52.689 Y8.425 2.00000
G1 X54.105 Y7.524 2.00000
G1 X55.580 Y6.873 2.00000
G1 X57.323 Y6.389 2.00000
G1 X51.405 Y19.724 2.00000
G1 X46.212 Y24.644 2.00000
G1 0.00000 F1200.00000
G1 X46.637 Y21.285 F900.000
G1 2.00000 F1200.00000
G1 F900
G1 X46.149 Y21.192 2.00000
G1 X46.149 Y17.554 2.00000
G1 X47.673 Y14.657 2.00000
G1 X48.783 Y12.814 2.00000
G1 X50.001 Y11.109 2.00000
G1 X50.169 Y10.900 2.00000
G1 X50.615 Y11.159 2.00000
G1 X46.669 Y21.204 2.00000
G1 0.00000 F1200.00000
G1 X46.826 Y24.200 F900.000
G1 2.00000 F1200.00000
G1 F900
G1 X50.904 Y20.336 2.00000
G1 X56.660 Y18.206 2.00000
G1 X61.196 Y18.206 2.00000
G1 X61.196 Y22.838 2.00000
G1 X58.061 Y23.447 2.00000
G1 X55.529 Y23.781 2.00000
G1 X54.698 Y23.871 2.00000
G1 X49.604 Y24.322 2.00000
G1 X47.006 Y24.590 2.00000
G1 X46.863 Y24.279 2.00000
G1 0.00000 F1200.00000
G1 X48.175 Y26.633 F900.000
G1 2.00000 F1200.00000
G1 F900
G1 X63.991 Y24.747 2.00000
G1 X68.928 Y25.842 2.00000
G1 X69.495 Y26.059 2.00000
G1 X69.740 Y26.210 2.00000
G1 X69.897 Y26.341 2.00000
G1 X70.054 Y26.521 2.00000
G1 X70.157 Y26.693 2.00000
G1 X70.247 Y26.948 2.00000
G1 X70.270 Y27.315 2.00000
G1 X70.232 Y27.554 2.00000
G1 X70.146 Y27.829 2.00000
G1 X69.919 Y28.276 2.00000
G1 X69.631 Y28.685 2.00000
G1 X69.230 Y29.135 2.00000
G1 X68.972 Y29.372 2.00000
G1 X68.386 Y29.855 2.00000
G1 X67.885 Y30.166 2.00000
G1 X67.979 Y30.275 2.00000
G1 X68.113 Y30.508 2.00000
G1 X68.200 Y30.739 2.00000
G1 X68.241 Y30.934 2.00000
G1 X68.248 Y31.208 2.00000
G1 X68.170 Y31.564 2.00000
G1 X68.063 Y31.795 2.00000
G1 X67.959 Y31.957 2.00000
G1 X67.689 Y32.266 2.00000
G1 X67.381 Y32.511 2.00000
G1 X66.995 Y32.731 2.00000
G1 X66.684 Y32.854 2.00000
G1 X66.439 Y32.927 2.00000
G1 X66.065 Y33.001 2.00000
G1 X65.488 Y33.039 2.00000
G1 X64.670 Y32.975 2.00000
G1 X63.557 Y32.746 2.00000
G1 X61.957 Y32.306 2.00000
G1 X59.714 Y31.728 2.00000
G1 X57.112 Y31.009 2.00000
G1 X56.305 Y30.752 2.00000
G1 X54.059 Y29.961 2.00000
G1 X51.306 Y28.753 2.00000
G1 X48.092 Y27.066 2.00000
G1 X48.158 Y26.718 2.00000
G1 0.00000 F1200.00000
G1 X46.149 Y27.437 F900.000
G1 2.00000 F1200.00000
G1 F900
G1 X46.149 Y30.887 2.00000
G1 X44.949 Y30.887 2.00000
G1 X44.949 Y1.387 2.00000
G1 X46.149 Y1.387 2.00000
G1 X46.149 Y14.814 2.00000
G1 X46.590 Y14.937 2.00000
G1 X47.807 Y12.860 2.00000
G1 X49.186 Y10.965 2.00000
G1 X50.769 Y9.206 2.00000
G1 X52.349 Y7.792 2.00000
G1 X53.792 Y6.749 2.00000
G1 X55.326 Y5.876 2.00000
G1 X56.767 Y5.265 2.00000
G1 X57.298 Y5.090 2.00000
G1 X58.701 Y4.730 2.00000
G1 X60.392 Y4.533 2.00000
G1 X62.029 Y4.564 2.00000
G1 X63.383 Y4.760 2.00000
G1 X63.803 Y4.843 2.00000
G1 X65.063 Y5.217 2.00000
G1 X65.351 Y5.319 2.00000
G1 X66.599 Y5.900 2.00000
G1 X66.903 Y6.071 2.00000
G1 X67.984 Y6.810 2.00000
G1 X68.369 Y7.130 2.00000
G1 X69.244 Y7.947 2.00000
G1 X69.975 Y8.766 2.00000
G1 X70.576 Y9.539 2.00000
G1 X71.292 Y10.593 2.00000
G1 X71.796 Y11.510 2.00000
G1 X71.987 Y11.919 2.00000
G1 X72.269 Y12.732 2.00000
G1 X72.404 Y13.431 2.00000
G1 X72.428 Y13.974 2.00000
G1 X72.372 Y14.493 2.00000
G1 X72.213 Y15.052 2.00000
G1 X72.015 Y15.474 2.00000
G1 X71.828 Y15.766 2.00000
G1 X72.217 Y16.117 2.00000
G1 X72.657 Y15.721 2.00000
G1 X73.329 Y15.295 2.00000
G1 X73.845 Y15.077 2.00000
G1 X74.446 Y14.918 2.00000
G1 X75.198 Y14.831 2.00000
G1 X75.901 Y14.845 2.00000
G1 X76.371 Y14.885 2.00000
G1 X77.371 Y15.075 2.00000
G1 X77.968 Y15.238 2.00000
G1 X79.170 Y15.660 2.00000
G1 X80.259 Y16.157 2.00000
G1 X80.919 Y16.505 2.00000
G1 X81.924 Y17.140 2.00000
G1 X82.505 Y17.568 2.00000
G1 X83.382 Y18.321 2.00000
G1 X83.889 Y18.834 2.00000
G1 X84.639 Y19.711 2.00000
G1 X85.296 Y20.660 2.00000
G1 X85.677 Y21.296 2.00000
G1 X86.215 Y22.388 2.00000
G1 X86.377 Y22.765 2.00000
G1 X86.936 Y24.425 2.00000
G1 X87.295 Y26.140 2.00000
G1 X87.397 Y27.566 2.00000
G1 X87.354 Y28.278 2.00000
G1 X87.205 Y29.090 2.00000
G1 X86.950 Y29.823 2.00000
G1 X86.553 Y30.560 2.00000
G1 X86.128 Y31.143 2.00000
G1 X85.752 Y31.572 2.00000
G1 X85.059 Y32.225 2.00000
G1 X84.274 Y32.817 2.00000
G1 X83.866 Y33.089 2.00000
G1 X82.624 Y33.764 2.00000
G1 X81.923 Y34.067 2.00000
G1 X80.812 Y34.457 2.00000
G1 X79.523 Y34.779 2.00000
G1 X78.764 Y34.918 2.00000
G1 X77.298 Y35.095 2.00000
G1 X75.724 Y35.169 2.00000
G1 X74.767 Y35.176 2.00000
G1 X72.299 Y35.079 2.00000
G1 X70.646 Y34.950 2.00000
G1 X68.508 Y34.716 2.00000
G1 X65.668 Y34.281 2.00000
G1 X64.742 Y34.118 2.00000
G1 X61.953 Y33.512 2.00000
G1 X61.167 Y33.322 2.00000
G1 X57.589 Y32.299 2.00000
G1 X53.871 Y30.988 2.00000
G1 X50.173 Y29.426 2.00000
G1 X46.227 Y27.475 2.00000
G1 0.00000 F1200.00000
G1 X45.904 Y25.477 F900.000
G1 2.00000 F1200.00000
G1 F900
G1 X47.660 Y27.233 2.00000
G1 X47.750 Y26.765 2.00000
G1 X46.190 Y25.206 2.00000
G1 X46.477 Y24.934 2.00000
G1 X47.839 Y26.297 2.00000
G1 X47.843 Y26.277 2.00000
G1 X48.320 Y26.220 2.00000
G1 X47.078 Y24.978 2.00000
G1 X47.584 Y24.925 2.00000
G1 X48.819 Y26.160 2.00000
G1 X49.317 Y26.101 2.00000
G1 X48.090 Y24.873 2.00000
G1 X48.596 Y24.821 2.00000
G1 X49.816 Y26.041 2.00000
G1 X50.315 Y25.982 2.00000
G1 X49.102 Y24.769 2.00000
G1 X49.607 Y24.717 2.00000
G1 X50.813 Y25.922 2.00000
G1 X51.312 Y25.863 2.00000
G1 X50.119 Y24.671 2.00000
G1 X50.632 Y24.626 2.00000
G1 X51.810 Y25.804 2.00000
G1 X52.309 Y25.744 2.00000
G1 X51.145 Y24.580 2.00000
G1 X51.657 Y24.535 2.00000
G1 X52.807 Y25.685 2.00000
G1 X53.306 Y25.625 2.00000
G1 X52.170 Y24.489 2.00000
G1 X52.682 Y24.444 2.00000
G1 X53.804 Y25.566 2.00000
G1 X54.303 Y25.506 2.00000
G1 X53.195 Y24.399 2.00000
G1 X53.707 Y24.353 2.00000
G1 X54.801 Y25.447 2.00000
G1 X55.300 Y25.387 2.00000
G1 X54.220 Y24.308 2.00000
G1 X54.733 Y24.262 2.00000
G1 X55.798 Y25.328 2.00000
G1 X56.297 Y25.269 2.00000
G1 X55.236 Y24.208 2.00000
G1 X55.736 Y24.150 2.00000
G1 X56.795 Y25.209 2.00000
G1 X57.294 Y25.150 2.00000
G1 X56.229 Y24.085 2.00000
G1 X56.722 Y24.020 2.00000
G1 X57.792 Y25.090 2.00000
G1 X58.291 Y25.031 2.00000
G1 X57.215 Y23.955 2.00000
G1 X57.708 Y23.890 2.00000
G1 X58.789 Y24.971 2.00000
G1 X59.288 Y24.912 2.00000
G1 X58.197 Y23.821 2.00000
G1 X58.664 Y23.730 2.00000
G1 X59.786 Y24.852 2.00000
G1 X60.285 Y24.793 2.00000
G1 X59.131 Y23.639 2.00000
G1 X59.598 Y23.549 2.00000
G1 X60.783 Y24.734 2.00000
G1 X61.282 Y24.674 2.00000
G1 X60.066 Y23.458 2.00000
G1 X60.533 Y23.367 2.00000
G1 X61.781 Y24.615 2.00000
G1 X62.279 Y24.555 2.00000
G1 X61.025 Y23.301 2.00000
G1 X61.467 Y23.185 2.00000
G1 X62.778 Y24.496 2.00000
G1 X63.276 Y24.436 2.00000
G1 X61.894 Y23.054 2.00000
G1 X62.328 Y22.930 2.00000
G1 X63.749 Y24.352 2.00000
G1 X63.715 Y23.969 2.00000
G1 X63.860 Y23.905 2.00000
G1 X62.762 Y22.807 2.00000
G1 X63.197 Y22.683 2.00000
G1 X64.248 Y23.734 2.00000
G1 X64.635 Y23.563 2.00000
G1 X63.622 Y22.551 2.00000
G1 X64.034 Y22.404 2.00000
G1 X65.022 Y23.393 2.00000
G1 X65.404 Y23.216 2.00000
G1 X64.444 Y22.257 2.00000
G1 X64.851 Y22.106 2.00000
G1 X65.770 Y23.025 2.00000
G1 X66.118 Y22.815 2.00000
G1 X65.236 Y21.933 2.00000
G1 X65.615 Y21.754 2.00000
G1 X66.466 Y22.604 2.00000
G1 X66.813 Y22.394 2.00000
G1 X65.995 Y21.575 2.00000
G1 X66.366 Y21.388 2.00000
G1 X67.145 Y22.168 2.00000
G1 X67.468 Y21.933 2.00000
G1 X66.721 Y21.185 2.00000
G1 X67.066 Y20.973 2.00000
G1 X67.782 Y21.688 2.00000
G1 X68.095 Y21.444 2.00000
G1 X67.399 Y20.748 2.00000
G1 X67.731 Y20.522 2.00000
G1 X68.409 Y21.200 2.00000
G1 X68.707 Y20.940 2.00000
G1 X68.056 Y20.289 2.00000
G1 X68.356 Y20.031 2.00000
G1 X69.000 Y20.675 2.00000
G1 X69.293 Y20.410 2.00000
G1 X68.656 Y19.773 2.00000
G1 X68.945 Y19.504 2.00000
G1 X69.584 Y20.143 2.00000
G1 X69.861 Y19.862 2.00000
G1 X69.210 Y19.211 2.00000
G1 X69.457 Y18.900 2.00000
G1 X70.139 Y19.582 2.00000
G1 X70.415 Y19.300 2.00000
G1 X69.669 Y18.554 2.00000
G1 X69.789 Y18.343 2.00000
G1 X69.851 Y18.178 2.00000
G1 X70.682 Y19.009 2.00000
G1 X70.948 Y18.717 2.00000
G1 X69.984 Y17.753 2.00000
G1 X70.024 Y17.570 2.00000
G1 X70.047 Y17.259 2.00000
G1 X71.215 Y18.426 2.00000
G1 X71.482 Y18.135 2.00000
G1 X70.067 Y16.720 2.00000
G1 X70.041 Y16.136 2.00000
G1 X71.749 Y17.844 2.00000
G1 X72.019 Y17.556 2.00000
G1 X70.015 Y15.552 2.00000
G1 X70.037 Y15.016 2.00000
G1 X72.298 Y17.277 2.00000
G1 0.00000 F1200.00000
G1 X72.220 Y16.642 F900.000
G1 2.00000 F1200.00000
G1 F900
G1 X72.591 Y17.012 2.00000
G1 X72.898 Y16.761 2.00000
G1 X72.514 Y16.378 2.00000
G1 X72.808 Y16.114 2.00000
G1 X73.216 Y16.522 2.00000
G1 X73.563 Y16.311 2.00000
G1 X73.135 Y15.883 2.00000
G1 X73.477 Y15.666 2.00000
G1 X73.932 Y16.121 2.00000
G1 X74.326 Y15.958 2.00000
G1 X73.864 Y15.495 2.00000
G1 X74.291 Y15.365 2.00000
G1 X74.788 Y15.861 2.00000
G1 X74.959 Y15.841 2.00000
G1 X75.357 Y15.872 2.00000
G1 X74.761 Y15.277 2.00000
G1 X75.216 Y15.224 2.00000
G1 X75.267 Y15.225 2.00000
G1 X76.389 Y16.347 2.00000
G1 0.00000 F1200.00000
G1 X77.776 Y18.850 F900.000
G1 2.00000 F1200.00000
G1 F900
G1 X77.935 Y19.008 2.00000
G1 X78.378 Y18.894 2.00000
G1 X77.612 Y18.127 2.00000
G1 X77.394 Y17.596 2.00000
G1 X77.196 Y17.255 2.00000
G1 X76.955 Y16.913 2.00000
G1 X78.821 Y18.779 2.00000
G1 X79.257 Y18.656 2.00000
G1 X75.837 Y15.236 2.00000
G1 X76.460 Y15.302 2.00000
G1 X79.664 Y18.506 2.00000
G1 X80.072 Y18.355 2.00000
G1 X77.148 Y15.432 2.00000
G1 X77.541 Y15.522 2.00000
G1 X77.907 Y15.633 2.00000
G1 X80.491 Y18.217 2.00000
G1 X80.936 Y18.103 2.00000
G1 X78.767 Y15.935 2.00000
G1 X79.023 Y16.025 2.00000
G1 X79.744 Y16.354 2.00000
G1 X81.447 Y18.057 2.00000
G1 X81.791 Y18.080 2.00000
G1 X82.101 Y18.152 2.00000
G1 X80.915 Y16.967 2.00000
G1 X81.702 Y17.465 2.00000
G1 X82.260 Y17.875 2.00000
G1 X83.125 Y18.619 2.00000
G1 0.00000 F1200.00000
G1 X82.101 Y18.152 F900.000
G1 2.00000 F1200.00000
G1 F900
G1 X82.539 Y18.323 2.00000
G1 X82.858 Y18.520 2.00000
G1 X83.126 Y18.748 2.00000
G1 X83.357 Y19.018 2.00000
G1 X83.532 Y19.309 2.00000
G1 X83.662 Y19.626 2.00000
G1 X83.688 Y19.740 2.00000
G1 X83.858 Y19.909 2.00000
G1 0.00000 F1200.00000
G1 X72.220 Y16.642 F900.000
G1 2.00000 F1200.00000
G1 F900
G1 X71.318 Y15.835 2.00000
G1 X71.356 Y15.777 2.00000
G1 X70.111 Y14.533 2.00000
G1 X70.201 Y14.065 2.00000
G1 X71.573 Y15.436 2.00000
G1 X71.670 Y15.284 2.00000
G1 X71.769 Y15.074 2.00000
G1 X70.291 Y13.597 2.00000
G1 X70.381 Y13.129 2.00000
G1 X71.915 Y14.663 2.00000
G1 X71.985 Y14.417 2.00000
G1 X72.009 Y14.198 2.00000
G1 X70.471 Y12.660 2.00000
G1 X70.561 Y12.192 2.00000
G1 X72.021 Y13.652 2.00000
G1 0.00000 F1200.00000
G1 X70.383 Y12.014 F900.000
G1 2.00000 F1200.00000
G1 F900
G1 X70.387 Y12.172 2.00000
G1 X70.482 Y12.114 2.00000
G1 X70.383 Y12.014 2.00000
G1 X70.323 Y11.397 2.00000
G1 X71.920 Y12.994 2.00000
G1 X71.889 Y12.834 2.00000
G1 X71.660 Y12.176 2.00000
G1 X70.146 Y10.662 2.00000
G1 X69.939 Y10.117 2.00000
G1 X69.658 Y9.628 2.00000
G1 X69.598 Y9.555 2.00000
G1 X71.098 Y11.055 2.00000
G1 0.00000 F1200.00000
G1 X69.859 Y9.259 F900.000
G1 2.00000 F1200.00000
G1 F900
G1 X67.673 Y7.072 2.00000
G1 X66.696 Y6.405 2.00000
G1 X66.420 Y6.249 2.00000
G1 X66.180 Y6.138 2.00000
G1 X68.636 Y8.594 2.00000
G1 X67.976 Y8.159 2.00000
G1 X67.345 Y7.860 2.00000
G1 X65.148 Y5.663 2.00000
G1 X64.338 Y5.411 2.00000
G1 X66.423 Y7.497 2.00000
G1 X65.611 Y7.243 2.00000
G1 X63.565 Y5.196 2.00000
G1 X62.897 Y5.086 2.00000
G1 X64.799 Y6.989 2.00000
G1 X64.076 Y6.823 2.00000
G1 X62.244 Y4.992 2.00000
G1 X61.997 Y4.956 2.00000
G1 X61.644 Y4.949 2.00000
G1 X63.338 Y6.643 2.00000
G1 X62.604 Y6.467 2.00000
G1 X61.075 Y4.938 2.00000
G1 X60.506 Y4.928 2.00000
G1 X61.913 Y6.334 2.00000
G1 X61.222 Y6.201 2.00000
G1 X59.995 Y4.974 2.00000
G1 X59.495 Y5.032 2.00000
G1 X60.543 Y6.080 2.00000
G1 X59.930 Y6.025 2.00000
G1 X58.995 Y5.091 2.00000
G1 X58.773 Y5.117 2.00000
G1 X58.527 Y5.180 2.00000
G1 X59.317 Y5.970 2.00000
G1 X59.057 Y5.947 2.00000
G1 X58.749 Y5.960 2.00000
G1 X58.083 Y5.294 2.00000
G1 X57.639 Y5.408 2.00000
G1 X58.019 Y5.788 2.00000
G1 X57.582 Y5.909 2.00000
G1 X57.206 Y5.534 2.00000
G1 X56.906 Y5.633 2.00000
G1 X56.795 Y5.680 2.00000
G1 X57.145 Y6.030 2.00000
G1 X56.709 Y6.152 2.00000
G1 X56.403 Y5.846 2.00000
G1 X56.011 Y6.012 2.00000
G1 X56.272 Y6.273 2.00000
G1 X55.836 Y6.394 2.00000
G1 X55.619 Y6.178 2.00000
G1 X55.252 Y6.369 2.00000
G1 X55.404 Y6.521 2.00000
G1 X55.017 Y6.692 2.00000
G1 X54.897 Y6.572 2.00000
G1 X54.541 Y6.774 2.00000
G1 X54.630 Y6.863 2.00000
G1 X54.243 Y7.034 2.00000
G1 X54.186 Y6.977 2.00000
G1 X54.004 Y7.080 2.00000
G1 X53.846 Y7.195 2.00000
G1 X53.863 Y7.212 2.00000
G1 X53.522 Y7.429 2.00000
G1 0.00000 F1200.00000
G1 X50.889 Y9.661 F900.000
G1 2.00000 F1200.00000
G1 F900
G1 X50.573 Y10.011 2.00000
G1 X50.701 Y10.139 2.00000
G1 X50.513 Y10.618 2.00000
G1 X50.257 Y10.362 2.00000
G1 0.00000 F1200.00000
G1 X48.108 Y13.174 F900.000
G1 2.00000 F1200.00000
G1 F900
G1 X48.089 Y13.155 2.00000
G1 X47.883 Y13.507 2.00000
G1 X47.898 Y13.522 2.00000
G1 X47.688 Y13.870 2.00000
G1 X47.677 Y13.859 2.00000
G1 X47.059 Y14.914 2.00000
G1 X47.081 Y14.937 2.00000
G1 X46.889 Y15.303 2.00000
G1 X46.852 Y15.266 2.00000
G1 X46.776 Y15.396 2.00000
G1 X46.289 Y15.260 2.00000
G1 0.00000 F1200.00000
G1 X45.342 Y25.473 F900.000
G1 2.00000 F1200.00000
G1 F900
G1 X45.342 Y24.915 2.00000
G1 X45.756 Y25.329 2.00000
G1 X45.756 Y24.771 2.00000
G1 X45.342 Y24.357 2.00000
G1 X45.342 Y23.799 2.00000
G1 X45.756 Y24.213 2.00000
G1 X45.756 Y23.655 2.00000
G1 X45.342 Y23.241 2.00000
G1 X45.342 Y22.683 2.00000
G1 X45.756 Y23.097 2.00000
G1 X45.756 Y22.727 2.00000
G1 X45.809 Y22.592 2.00000
G1 X45.342 Y22.125 2.00000
G1 X45.342 Y21.567 2.00000
G1 X45.966 Y22.192 2.00000
G1 X46.124 Y21.791 2.00000
G1 X45.872 Y21.540 2.00000
G1 X45.756 Y21.518 2.00000
G1 X45.756 Y21.424 2.00000
G1 X45.342 Y21.009 2.00000
G1 X45.342 Y20.451 2.00000
G1 X45.756 Y20.866 2.00000
G1 X45.756 Y20.308 2.00000
G1 X45.342 Y19.893 2.00000
G1 X45.342 Y19.335 2.00000
G1 X45.756 Y19.750 2.00000
G1 X45.756 Y19.192 2.00000
G1 X45.342 Y18.777 2.00000
G1 X45.342 Y18.219 2.00000
G1 X45.756 Y18.634 2.00000
G1 X45.756 Y18.076 2.00000
G1 X45.342 Y17.661 2.00000
G1 X45.342 Y17.103 2.00000
G1 X45.756 Y17.518 2.00000
G1 X45.756 Y17.457 2.00000
G1 X45.928 Y17.131 2.00000
G1 X45.342 Y16.545 2.00000
G1 X45.342 Y15.987 2.00000
G1 X46.120 Y16.766 2.00000
G1 X46.312 Y16.400 2.00000
G1 X45.342 Y15.429 2.00000
G1 X45.342 Y14.871 2.00000
G1 X46.505 Y16.034 2.00000
G1 X46.697 Y15.669 2.00000
G1 X46.289 Y15.260 2.00000
G1 X45.756 Y15.112 2.00000
G1 X45.756 Y14.728 2.00000
G1 X45.342 Y14.313 2.00000
G1 X45.342 Y13.755 2.00000
G1 X45.756 Y14.170 2.00000
G1 X45.756 Y13.612 2.00000
G1 X45.342 Y13.197 2.00000
G1 X45.342 Y12.639 2.00000
G1 X45.756 Y13.054 2.00000
G1 X45.756 Y12.496 2.00000
G1 X45.342 Y12.081 2.00000
G1 X45.342 Y11.524 2.00000
G1 X45.756 Y11.938 2.00000
G1 X45.756 Y11.380 2.00000
G1 X45.342 Y10.966 2.00000
G1 X45.342 Y10.408 2.00000
G1 X45.756 Y10.822 2.00000
G1 X45.756 Y10.264 2.00000
G1 X45.342 Y9.850 2.00000
G1 X45.342 Y9.292 2.00000
G1 X45.756 Y9.706 2.00000
G1 X45.756 Y9.148 2.00000
G1 X45.342 Y8.734 2.00000
G1 X45.342 Y8.176 2.00000
G1 X45.756 Y8.590 2.00000
G1 X45.756 Y8.032 2.00000
G1 X45.342 Y7.618 2.00000
G1 X45.342 Y7.060 2.00000
G1 X45.756 Y7.474 2.00000
G1 X45.756 Y6.916 2.00000
G1 X45.342 Y6.502 2.00000
G1 X45.342 Y5.944 2.00000
G1 X45.756 Y6.358 2.00000
G1 X45.756 Y5.801 2.00000
G1 X45.342 Y5.386 2.00000
G1 X45.342 Y4.828 2.00000
G1 X45.756 Y5.243 2.00000
G1 X45.756 Y4.685 2.00000
G1 X45.342 Y4.270 2.00000
G1 X45.342 Y3.712 2.00000
G1 X45.756 Y4.127 2.00000
G1 X45.756 Y3.569 2.00000
G1 X45.342 Y3.154 2.00000
G1 X45.342 Y2.596 2.00000
G1 X45.756 Y3.011 2.00000
G1 X45.756 Y2.453 2.00000
G1 X45.342 Y2.038 2.00000
G1 X45.342 Y1.780 2.00000
G1 X45.641 Y1.780 2.00000
G1 X45.756 Y1.895 2.00000
G1 0.00000 F1200.00000
G1 X58.019 Y5.788 F900.000
G1 2.00000 F1200.00000
G1 F900
G1 X58.215 Y5.984 2.00000
G1 0.00000 F1200.00000
G1 X72.130 Y27.711 F900.000
G1 2.00000 F1200.00000
G1 F900
G1 X72.014 Y27.595 2.00000
G1 X71.650 Y27.789 2.00000
G1 X71.942 Y28.080 2.00000
G1 X71.753 Y28.450 2.00000
G1 X71.286 Y27.983 2.00000
G1 X71.132 Y28.065 2.00000
G1 X70.637 Y27.507 2.00000
G1 X70.562 Y27.816 2.00000
G1 X71.565 Y28.819 2.00000
G1 X71.376 Y29.189 2.00000
G1 X70.394 Y28.207 2.00000
G1 X70.210 Y28.569 2.00000
G1 X70.195 Y28.566 2.00000
G1 X71.188 Y29.558 2.00000
G1 X70.999 Y29.928 2.00000
G1 X69.965 Y28.893 2.00000
G1 X69.705 Y29.192 2.00000
G1 X70.811 Y30.297 2.00000
G1 X70.622 Y30.667 2.00000
G1 X69.435 Y29.480 2.00000
G1 X69.140 Y29.743 2.00000
G1 X70.434 Y31.036 2.00000
G1 X70.246 Y31.406 2.00000
G1 X68.834 Y29.994 2.00000
G1 X68.517 Y30.236 2.00000
G1 X70.029 Y31.747 2.00000
G1 X70.012 Y31.864 2.00000
G1 X69.869 Y32.145 2.00000
G1 X68.633 Y30.909 2.00000
G1 X68.642 Y31.245 2.00000
G1 X68.600 Y31.435 2.00000
G1 X69.680 Y32.514 2.00000
G1 X69.492 Y32.884 2.00000
G1 X68.467 Y31.859 2.00000
G1 X68.408 Y31.985 2.00000
G1 X68.259 Y32.209 2.00000
G1 X69.303 Y33.253 2.00000
G1 X69.174 Y33.506 2.00000
G1 X69.556 Y33.506 2.00000
G1 X70.600 Y34.550 2.00000
G1 X69.973 Y34.481 2.00000
G1 X67.999 Y32.507 2.00000
G1 X67.696 Y32.762 2.00000
G1 X69.347 Y34.413 2.00000
G1 X68.721 Y34.345 2.00000
G1 X67.354 Y32.978 2.00000
G1 X67.166 Y33.085 2.00000
G1 X66.978 Y33.160 2.00000
G1 X68.070 Y34.252 2.00000
G1 X67.411 Y34.151 2.00000
G1 X66.561 Y33.301 2.00000
G1 X66.095 Y33.393 2.00000
G1 X66.752 Y34.050 2.00000
G1 X66.093 Y33.949 2.00000
G1 X65.571 Y33.427 2.00000
G1 X64.979 Y33.393 2.00000
G1 X65.426 Y33.840 2.00000
G1 X64.818 Y33.733 2.00000
G1 X64.745 Y33.717 2.00000
G1 X64.335 Y33.307 2.00000
G1 X63.632 Y33.162 2.00000
G1 X64.032 Y33.562 2.00000
G1 X63.319 Y33.407 2.00000
G1 X62.879 Y32.966 2.00000
G1 X62.109 Y32.755 2.00000
G1 X62.606 Y33.252 2.00000
G1 X61.889 Y33.092 2.00000
G1 X61.351 Y32.555 2.00000
G1 X60.600 Y32.362 2.00000
G1 X61.146 Y32.907 2.00000
G1 X60.365 Y32.684 2.00000
G1 X59.849 Y32.168 2.00000
G1 X59.084 Y31.961 2.00000
G1 X59.583 Y32.461 2.00000
G1 X58.802 Y32.238 2.00000
G1 X58.313 Y31.748 2.00000
G1 X57.541 Y31.535 2.00000
G1 X58.021 Y32.015 2.00000
G1 X57.191 Y31.743 2.00000
G1 X56.756 Y31.308 2.00000
G1 X55.926 Y31.035 2.00000
G1 X56.329 Y31.439 2.00000
G1 X55.467 Y31.135 2.00000
G1 X55.064 Y30.732 2.00000
G1 X54.203 Y30.428 2.00000
G1 X54.605 Y30.831 2.00000
G1 X54.013 Y30.622 2.00000
G1 X53.711 Y30.494 2.00000
G1 X53.260 Y30.043 2.00000
G1 X52.275 Y29.617 2.00000
G1 X52.745 Y30.086 2.00000
G1 X51.778 Y29.678 2.00000
