; Postprocessed by [ArcWelder](https://github.com/FormerLurker/ArcWelderLib)
; Copyright(C) 2021 - Brad Hochgesang
; Version: 1.2.0, Branch: master, BuildDate: 2021-11-22T09:56:32Z
; resolution=0.05mm
; path_tolerance=5.0%
; max_radius=9999.00mm
; default_xyz_precision=3
; default_e_precision=5
; extrusion_rate_variance_percent=5.0%

; generated by Slic3r 1.3.0 on 2023-07-27 at 16:53:10

; external perimeters extrusion width = 0.35mm (1.44mm^3/s)
; perimeters extrusion width = 0.35mm (1.44mm^3/s)
; infill extrusion width = 0.35mm (1.44mm^3/s)
; solid infill extrusion width = 0.35mm (1.44mm^3/s)
; top infill extrusion width = 0.35mm (1.44mm^3/s)


; Filament gcode

G21 ; set units to millimeters
G90 ; use absolute coordinates
G1 Z-149.650 F900.000
G1 X72.621 Y55.170 F900.000
G1 F900
G1 X73.043 Y55.454 0.00000
G1 X72.731 Y57.007 0.00000
G1 X74.576 Y56.197 0.00000
G1 X73.969 Y57.849 0.00000
G1 X75.698 Y56.847 0.00000
G1 X75.546 Y58.200 0.00000
G1 X77.763 Y56.512 0.00000
G1 X77.669 Y57.220 0.00000
G1 X77.272 Y58.335 0.00000
G1 X79.113 Y56.835 0.00000
G1 X79.389 Y57.017 0.00000
G1 X78.950 Y58.552 0.00000
G1 X80.264 Y57.137 0.00000
G1 X80.783 Y57.443 0.00000
G3 X78.928 Y61.852 I-106.327 J-42.140
G1 X77.561 Y64.365 0.00000
G1 X75.935 Y66.673 0.00000
G1 X73.988 Y68.890 0.00000
G1 X71.682 Y71.055 0.00000
G1 X65.031 Y76.342 0.00000
G1 X61.186 Y79.842 0.00000
G1 X57.612 Y83.568 0.00000
G1 X54.296 Y87.528 0.00000
G1 X51.226 Y91.736 0.00000
G3 X46.964 Y98.217 I-158.664 J-99.698
G1 X44.111 Y101.816 0.00000
G3 X40.329 Y105.977 I-41.216 J-33.663
G1 X38.451 Y107.562 0.00000
G1 X36.598 Y108.767 0.00000
G1 X35.340 Y109.410 0.00000
G1 X35.115 Y109.052 0.00000
G1 X35.458 Y108.689 0.00000
G1 X37.183 Y106.657 0.00000
G1 X38.514 Y104.542 0.00000
G1 X39.423 Y102.421 0.00000
G1 X39.955 Y100.273 0.00000
G1 X40.137 Y98.066 0.00000
G1 X39.972 Y95.765 0.00000
G2 X38.896 Y92.584 I-7.143 J0.644
G1 X38.350 Y91.615 0.00000
G1 X37.598 Y92.505 0.00000
G1 X37.445 Y89.629 0.00000
G1 X36.931 Y90.219 0.00000
G1 X36.412 Y90.015 0.00000
G1 X37.185 Y87.095 0.00000
G1 X36.246 Y87.848 0.00000
G1 X35.804 Y87.642 0.00000
G1 X36.855 Y85.313 0.00000
G2 X35.859 Y85.960 I0.686 J2.147
G1 X35.864 Y85.205 0.00000
G2 X36.704 Y83.270 I-14.105 J-7.273
G1 X36.508 Y82.431 0.00000
G1 X37.984 Y80.113 0.00000
G1 X39.501 Y78.308 0.00000
G1 X41.184 Y76.774 0.00000
G1 X43.241 Y75.384 0.00000
G1 X43.930 Y75.013 0.00000
G1 X46.954 Y73.667 0.00000
G1 X50.118 Y72.571 0.00000
G3 X56.192 Y70.929 I38.995 J132.191
G1 X58.699 Y70.126 0.00000
G1 X60.711 Y69.164 0.00000
G1 X62.630 Y67.866 0.00000
G1 X64.247 Y66.336 0.00000
G1 X65.597 Y64.566 0.00000
G1 X67.569 Y60.965 0.00000
G1 X68.709 Y59.315 0.00000
G3 X72.583 Y55.207 I38.309 J32.246
G1 X67.563 Y56.731 F900.000
G1 F900
G1 X65.015 Y59.645 0.00000
G3 X63.660 Y58.431 I0.908 J-2.376
G3 X63.966 Y56.577 I1.881 J-0.642
G3 X65.968 Y55.582 I1.723 J0.955
G3 X67.528 Y56.693 I-0.966 J3.007
G1 X64.266 Y60.654 F900.000
G1 F900
G1 X64.260 Y60.982 0.00000
G3 X61.643 Y60.852 I-1.146 J-3.327
G3 X58.252 Y56.954 I2.752 J-5.818
G3 X60.898 Y49.229 I6.523 J-2.081
G3 X64.551 Y48.430 I2.881 J4.419
G3 X65.937 Y49.315 I-0.601 J2.470
G1 X63.808 Y49.423 0.00000
G2 X61.849 Y49.997 I0.854 J6.543
G2 X59.258 Y53.215 I2.038 J4.293
G1 X59.006 Y54.664 0.00000
G2 X60.110 Y58.367 I5.002 J0.525
G2 X61.407 Y59.460 I4.300 J-3.787
G1 X62.645 Y60.099 0.00000
G1 X64.217 Y60.637 0.00000
G1 X63.790 Y62.117 F900.000
G1 F900
G1 X63.079 Y63.415 0.00000
G1 X62.041 Y64.743 0.00000
G1 X60.437 Y66.233 0.00000
G1 X58.477 Y67.565 0.00000
G1 X56.378 Y68.573 0.00000
G1 X54.674 Y69.089 0.00000
G1 X53.406 Y69.272 0.00000
G1 X51.876 Y69.248 0.00000
G1 X52.758 Y68.528 0.00000
G1 X48.997 Y68.736 0.00000
G1 X48.973 Y68.202 0.00000
G1 X50.722 Y67.466 0.00000
G1 X47.878 Y67.179 0.00000
G1 X47.839 Y66.702 0.00000
G1 X48.938 Y66.187 0.00000
G3 X47.002 Y65.527 I0.009 J-3.195
G3 X46.384 Y63.070 I1.439 J-1.668
G1 X46.808 Y62.099 0.00000
G3 X47.666 Y61.021 I3.096 J1.584
G3 X51.991 Y58.079 I24.367 J31.171
G1 X49.417 Y58.718 0.00000
G1 X47.442 Y59.030 0.00000
G1 X45.946 Y59.056 0.00000
G1 X44.680 Y58.885 0.00000
G3 X43.012 Y58.329 I2.046 J-8.918
G1 X43.318 Y58.010 0.00000
G1 X41.397 Y57.559 0.00000
G1 X41.437 Y57.122 0.00000
G1 X42.484 Y56.861 0.00000
G1 X40.101 Y56.110 0.00000
G1 X40.264 Y55.699 0.00000
G1 X41.582 Y55.607 0.00000
G3 X41.177 Y51.137 I2.032 J-2.437
G3 X43.503 Y49.117 I9.449 J8.531
G1 X46.179 Y47.617 0.00000
G1 X48.953 Y46.473 0.00000
G1 X51.766 Y45.705 0.00000
G1 X54.438 Y45.313 0.00000
G1 X55.023 Y45.268 0.00000
G3 X59.829 Y45.252 I2.661 J77.582
G1 X60.068 Y45.772 0.00000
G1 X58.534 Y46.576 0.00000
G2 X56.403 Y48.781 I3.263 J5.286
G1 X58.594 Y47.587 0.00000
G1 X59.642 Y47.174 0.00000
G3 X61.949 Y47.057 I1.383 J4.473
G1 X63.135 Y47.304 0.00000
G1 X60.712 Y48.638 0.00000
G1 X59.448 Y49.618 0.00000
G1 X58.580 Y50.539 0.00000
G1 X57.926 Y51.507 0.00000
G2 X57.119 Y54.510 I5.704 J3.143
G1 X57.188 Y55.762 0.00000
G1 X57.466 Y57.058 0.00000
G1 X57.890 Y58.136 0.00000
G1 X58.520 Y59.195 0.00000
G2 X61.769 Y61.716 I5.742 J-4.046
G2 X63.738 Y62.110 I2.513 J-7.443
G1 X62.841 Y61.400 F900.000
G1 X62.609 Y61.497 F900.000
G1 X63.308 Y59.454 F900.000
G1 X62.191 Y58.296 F900.000
G1 X61.616 Y56.947 F900.000
G1 X61.544 Y55.867 F900.000
G1 X62.243 Y53.914 F900.000
G1 X62.990 Y53.090 F900.000
G1 X63.767 Y52.722 F900.000
G1 X62.983 Y50.448 F900.000
G1 X62.148 Y48.712 F900.000
G1 X61.601 Y48.549 F900.000
G1 X63.493 Y46.495 F900.000
G1 X63.701 Y45.101 F900.000
G1 X64.147 Y44.975 F900.000
G1 X65.035 Y42.020 F900.000
G1 X66.056 Y40.048 F900.000
G1 X68.351 Y38.417 F900.000
G1 X69.266 Y38.289 F900.000
G1 X69.638 Y38.465 F900.000
G1 X70.498 Y39.917 F900.000
G1 X71.563 Y41.048 F900.000
G1 X71.219 Y43.203 F900.000
G1 X71.275 Y43.809 F900.000
G2 X72.199 Y44.946 I4.726 J-2.897
G1 X73.201 Y45.299 F900.000
G1 X76.050 Y45.576 F900.000
G1 X75.753 Y46.966 F900.000
G1 X75.065 Y47.659 F900.000
G1 F900
G2 X75.383 Y49.178 I6.755 J-0.621
G1 X76.137 Y50.480 0.00000
G2 X79.298 Y52.675 I4.423 J-2.995
G2 X80.743 Y52.790 I1.177 J-5.655
G2 X84.762 Y52.121 I-2.465 J-27.214
G1 X86.200 Y51.786 0.00000
G1 X86.370 Y52.068 0.00000
G1 X85.492 Y53.058 0.00000
G1 X84.500 Y53.857 0.00000
G1 X83.436 Y54.455 0.00000
G3 X78.821 Y54.922 I-2.990 J-6.509
G3 X75.027 Y52.486 I1.561 J-6.603
G1 X74.520 Y51.811 0.00000
G2 X73.900 Y51.456 I-0.823 J0.719
G1 X72.266 Y51.339 0.00000
G3 X70.113 Y50.628 I1.005 J-6.659
G3 X66.716 Y43.688 I3.130 J-5.834
G3 X67.849 Y41.275 I5.118 J0.930
G1 X68.732 Y40.382 0.00000
G3 X68.811 Y41.540 I-6.955 J1.056
G1 X68.512 Y42.925 0.00000
G2 X68.784 Y45.030 I3.677 J0.595
G2 X70.364 Y46.446 I3.059 J-1.823
G1 X71.538 Y46.907 0.00000
G2 X75.014 Y47.649 I9.299 J-35.051
G1 X75.753 Y46.966 F900.000
G1 X76.050 Y45.576 F900.000
G1 X73.201 Y45.299 F900.000
G1 X72.199 Y44.946 F900.000
G1 X71.237 Y43.654 F900.000
G1 X71.269 Y42.466 F900.000
G1 X71.563 Y41.048 F900.000
G1 X70.498 Y39.917 F900.000
G1 X69.638 Y38.465 F900.000
G1 X69.266 Y38.289 F900.000
G1 X68.351 Y38.417 F900.000
G1 X66.056 Y40.048 F900.000
G1 X65.035 Y42.020 F900.000
G1 X64.224 Y44.644 F900.000
G1 X62.796 Y44.021 F900.000
G1 X62.287 Y43.124 F900.000
G1 F900
G1 X57.953 Y42.570 0.00000
G1 X54.698 Y41.905 0.00000
G1 X51.854 Y41.047 0.00000
G1 X49.323 Y39.983 0.00000
G1 X47.577 Y39.036 0.00000
G1 X46.685 Y38.391 0.00000
G3 X43.668 Y35.376 I71.638 J-74.702
G1 X44.759 Y35.271 0.00000
G1 X42.946 Y33.344 0.00000
G1 X43.103 Y33.057 0.00000
G1 X44.202 Y33.263 0.00000
G1 X42.863 Y31.597 0.00000
G1 X42.428 Y30.900 0.00000
G1 X43.949 Y31.371 0.00000
G1 X42.361 Y28.741 0.00000
G1 X42.764 Y28.467 0.00000
G1 X43.633 Y28.932 0.00000
G1 X42.541 Y25.925 0.00000
G1 X43.031 Y25.754 0.00000
G1 X43.795 Y26.433 0.00000
G1 X43.579 Y23.808 0.00000
G1 X43.666 Y22.465 0.00000
G3 X44.805 Y19.541 I6.465 J0.834
G1 X46.233 Y17.847 0.00000
G1 X47.879 Y16.380 0.00000
G1 X49.864 Y14.999 0.00000
G1 X52.696 Y13.408 0.00000
G1 X52.677 Y17.749 0.00000
G1 X52.962 Y21.060 0.00000
G1 X53.511 Y24.044 0.00000
G1 X54.310 Y26.751 0.00000
G1 X55.284 Y29.087 0.00000
G1 X56.682 Y31.564 0.00000
G1 X58.363 Y33.809 0.00000
G1 X60.339 Y35.852 0.00000
G1 X62.637 Y37.715 0.00000
G1 X64.191 Y38.763 0.00000
G1 X62.308 Y43.076 0.00000
G1 X57.802 Y43.661 F900.000
G1 F900
G1 X57.786 Y44.058 0.00000
G2 X50.360 Y44.855 I7.082 J100.981
G1 X49.821 Y44.957 0.00000
G1 X46.777 Y45.749 0.00000
G1 X44.246 Y46.723 0.00000
G1 X41.742 Y48.057 0.00000
G1 X39.533 Y49.646 0.00000
G1 X37.583 Y51.493 0.00000
G1 X36.231 Y53.114 0.00000
G1 X34.930 Y55.128 0.00000
G1 X33.931 Y57.291 0.00000
G1 X33.240 Y59.586 0.00000
G1 X32.891 Y61.933 0.00000
G1 X32.899 Y64.195 0.00000
G1 X33.257 Y66.372 0.00000
G1 X33.857 Y68.157 0.00000
G1 X34.668 Y69.710 0.00000
G1 X35.799 Y71.205 0.00000
G1 X37.037 Y72.375 0.00000
G1 X37.429 Y72.682 0.00000
G2 X36.340 Y74.622 I10.958 J7.427
G3 X34.866 Y75.358 I-1.408 J-0.976
G1 X31.833 Y75.292 0.00000
G1 X28.938 Y74.887 0.00000
G1 X26.149 Y74.154 0.00000
G1 X23.442 Y73.094 0.00000
G1 X20.792 Y71.696 0.00000
G1 X18.178 Y69.942 0.00000
G1 X15.750 Y67.957 0.00000
G3 X15.340 Y66.668 I1.298 J-1.123
G1 X16.287 Y61.675 0.00000
G1 X17.559 Y56.822 0.00000
G1 X19.173 Y52.021 0.00000
G1 X21.131 Y47.265 0.00000
G1 X22.555 Y44.270 0.00000
G3 X28.461 Y33.659 I217.258 J113.975
G1 X29.677 Y35.396 0.00000
G1 X30.869 Y36.608 0.00000
G1 X32.216 Y37.607 0.00000
G1 X33.883 Y38.517 0.00000
G1 X36.511 Y39.570 0.00000
G1 X37.867 Y40.031 0.00000
G1 X36.354 Y37.716 0.00000
G1 X35.215 Y35.618 0.00000
G1 X34.398 Y33.576 0.00000
G1 X34.148 Y32.724 0.00000
G1 X34.438 Y32.543 0.00000
G2 X37.310 Y35.099 I39.596 J-41.599
G2 X39.817 Y36.787 I24.599 J-33.829
G1 X39.052 Y34.021 0.00000
G1 X38.605 Y31.460 0.00000
G1 X38.480 Y29.151 0.00000
G1 X38.657 Y26.995 0.00000
G1 X38.951 Y25.582 0.00000
G1 X39.325 Y25.589 0.00000
G1 X39.936 Y29.265 0.00000
G1 X40.682 Y32.002 0.00000
G1 X41.595 Y34.274 0.00000
G1 X42.677 Y36.192 0.00000
G1 X44.082 Y37.981 0.00000
G1 X44.951 Y38.839 0.00000
G1 X46.719 Y40.196 0.00000
G1 X48.784 Y41.342 0.00000
G1 X51.223 Y42.299 0.00000
G1 X54.131 Y43.071 0.00000
G1 X57.751 Y43.652 0.00000
G1 X107.897 Y34.605 F900.000
G1 X107.284 Y35.231 F900.000
G1 F900
G1 X107.574 Y35.448 0.00000
G1 X107.241 Y36.147 0.00000
G3 X104.393 Y39.800 I-31.631 J-21.724
G1 X101.979 Y42.089 0.00000
G1 X99.380 Y44.097 0.00000
G1 X96.511 Y45.906 0.00000
G1 X93.341 Y47.530 0.00000
G1 X89.823 Y48.982 0.00000
G1 X88.229 Y49.544 0.00000
G1 X85.939 Y50.137 0.00000
G3 X82.500 Y50.614 I-7.953 J-44.702
G3 X80.610 Y50.036 I0.046 J-3.531
G1 X80.099 Y49.700 0.00000
G3 X79.717 Y48.096 I1.357 J-1.171
G3 X80.928 Y47.252 I1.439 J0.773
G3 X83.141 Y47.509 I-0.220 J11.549
G2 X85.274 Y47.730 I2.533 J-14.048
G2 X85.836 Y47.662 I-0.006 J-2.409
G1 X89.729 Y46.508 0.00000
G1 X93.434 Y45.037 0.00000
G1 X96.843 Y43.292 0.00000
G1 X99.738 Y41.452 0.00000
G1 X100.579 Y40.846 0.00000
G2 X107.244 Y35.265 I-77.972 J-99.887
G1 X106.519 Y35.817 F900.000
G1 X74.106 Y43.188 F900.000
G1 X73.919 Y42.941 F900.000
G1 F900
G1 X73.938 Y43.358 0.00000
G1 X75.721 Y43.412 0.00000
G1 X80.004 Y43.260 0.00000
G1 X84.354 Y42.730 0.00000
G1 X88.813 Y41.797 0.00000
G1 X92.928 Y40.597 0.00000
G1 X97.532 Y38.884 0.00000
G1 X102.252 Y36.751 0.00000
G1 X106.943 Y34.291 0.00000
G1 X109.935 Y32.559 0.00000
G1 X109.879 Y33.068 0.00000
G1 X109.307 Y35.097 0.00000
G1 X108.454 Y36.959 0.00000
G1 X107.295 Y38.762 0.00000
G1 X105.794 Y40.558 0.00000
G1 X104.021 Y42.293 0.00000
G1 X101.382 Y44.448 0.00000
G1 X98.560 Y46.347 0.00000
G1 X95.370 Y48.136 0.00000
G1 X91.717 Y49.862 0.00000
G2 X88.357 Y51.284 I25.883 J65.838
G1 X88.080 Y51.494 0.00000
G1 X87.199 Y52.575 0.00000
G1 X86.014 Y53.624 0.00000
G1 X83.906 Y55.023 0.00000
G2 X83.050 Y56.140 I1.053 J1.694
G1 X82.339 Y59.000 0.00000
G1 X81.336 Y61.661 0.00000
G1 X80.001 Y64.292 0.00000
G1 X78.799 Y66.216 0.00000
G1 X77.122 Y68.399 0.00000
G1 X75.218 Y70.393 0.00000
G1 X72.435 Y72.820 0.00000
G2 X65.965 Y77.988 I118.994 J155.606
G1 X62.260 Y81.449 0.00000
G1 X58.827 Y85.135 0.00000
G1 X55.651 Y89.059 0.00000
G1 X52.723 Y93.232 0.00000
G3 X49.369 Y98.322 I-88.742 J-54.825
G1 X46.370 Y102.163 0.00000
G1 X45.782 Y102.872 0.00000
G1 X43.532 Y105.299 0.00000
G1 X41.368 Y107.183 0.00000
G1 X38.855 Y108.908 0.00000
G1 X36.569 Y110.110 0.00000
G1 X34.360 Y110.932 0.00000
G1 X32.427 Y111.332 0.00000
G1 X30.540 Y111.423 0.00000
G1 X29.080 Y111.262 0.00000
G2 X32.860 Y108.741 I-28.323 J-46.561
G1 X34.758 Y107.034 0.00000
G1 X36.267 Y105.196 0.00000
G1 X37.364 Y103.289 0.00000
G1 X38.061 Y101.405 0.00000
G1 X38.451 Y99.375 0.00000
G1 X38.516 Y97.197 0.00000
G1 X38.247 Y94.916 0.00000
G1 X38.106 Y94.221 0.00000
G1 X37.683 Y93.996 0.00000
G1 X37.501 Y94.390 0.00000
G1 X36.336 Y91.443 0.00000
G1 X35.484 Y93.005 0.00000
G1 X35.349 Y90.413 0.00000
G1 X34.462 Y91.197 0.00000
G1 X34.713 Y87.608 0.00000
G1 X33.908 Y88.248 0.00000
G1 X34.335 Y84.906 0.00000
G1 X33.334 Y85.701 0.00000
G1 X35.706 Y80.077 0.00000
G3 X34.713 Y78.494 I2.804 J-2.862
G3 X34.996 Y77.226 I2.030 J-0.213
G1 X34.287 Y77.090 0.00000
G3 X28.713 Y76.591 I1.871 J-52.277
G1 X25.835 Y75.852 0.00000
G1 X23.106 Y74.814 0.00000
G1 X20.420 Y73.453 0.00000
G1 X17.744 Y71.745 0.00000
G1 X15.037 Y69.655 0.00000
G1 X13.426 Y68.230 0.00000
G3 X13.259 Y67.414 I0.970 J-0.624
G1 X14.535 Y61.609 0.00000
G1 X16.139 Y55.979 0.00000
G1 X18.029 Y50.660 0.00000
G1 X20.202 Y45.623 0.00000
G1 X22.656 Y40.838 0.00000
G1 X25.194 Y36.595 0.00000
G3 X29.423 Y30.543 I127.650 J84.695
G1 X29.651 Y31.964 0.00000
G1 X30.131 Y33.408 0.00000
G1 X30.748 Y34.594 0.00000
G2 X33.176 Y36.768 I4.793 J-2.910
G1 X33.889 Y37.010 0.00000
G3 X32.554 Y30.879 I58.898 J-16.036
G3 X32.856 Y28.289 I5.741 J-0.643
G1 X33.406 Y27.055 0.00000
G1 X34.292 Y25.689 0.00000
G1 X34.284 Y27.333 0.00000
G1 X34.532 Y28.926 0.00000
G1 X34.958 Y30.253 0.00000
G1 X35.555 Y31.432 0.00000
G1 X36.397 Y32.585 0.00000
G1 X37.738 Y33.946 0.00000
G1 X37.753 Y33.158 0.00000
G3 X37.061 Y29.840 I42.237 J-10.540
G1 X36.971 Y28.201 0.00000
G1 X37.146 Y26.674 0.00000
G1 X37.551 Y25.239 0.00000
G1 X38.216 Y23.760 0.00000
G1 X39.257 Y22.091 0.00000
G1 X40.851 Y20.111 0.00000
G1 X40.851 Y24.245 0.00000
G1 X41.155 Y24.349 0.00000
G2 X41.636 Y23.254 I-1.490 J-1.308
G1 X42.288 Y20.841 0.00000
G1 X43.058 Y19.087 0.00000
G1 X43.929 Y17.724 0.00000
G1 X44.935 Y16.591 0.00000
G1 X46.143 Y15.600 0.00000
G2 X50.712 Y12.589 I-124.026 J-193.173
G3 X52.456 Y11.805 I2.575 J3.397
G3 X54.896 Y12.654 I0.307 J3.047
G2 X54.673 Y16.882 I66.531 J5.629
G1 X54.832 Y20.019 0.00000
G1 X55.353 Y23.302 0.00000
G1 X56.124 Y26.113 0.00000
G1 X56.411 Y26.931 0.00000
G1 X57.575 Y29.593 0.00000
G1 X58.849 Y31.734 0.00000
G1 X60.469 Y33.766 0.00000
G1 X62.296 Y35.467 0.00000
G1 X64.339 Y36.866 0.00000
G1 X65.974 Y37.714 0.00000
G1 X67.314 Y36.959 0.00000
G3 X69.378 Y37.007 I0.991 J1.801
G3 X70.742 Y38.054 I-4.653 J7.473
G2 X71.628 Y38.259 I0.690 J-0.964
G1 X76.103 Y37.012 0.00000
G1 X80.576 Y36.085 0.00000
G1 X85.513 Y35.354 0.00000
G1 X92.189 Y34.707 0.00000
G2 X99.310 Y34.074 I-3.990 J-85.258
G1 X104.511 Y33.218 0.00000
G2 X106.176 Y32.834 I-3.476 J-18.875
G3 X104.147 Y34.415 I-15.396 J-17.666
G1 X100.942 Y36.271 0.00000
G1 X97.586 Y37.840 0.00000
G3 X96.076 Y38.442 I-17.299 J-41.196
G1 X92.311 Y39.707 0.00000
G1 X88.095 Y40.795 0.00000
G1 X82.642 Y41.822 0.00000
G3 X73.972 Y42.935 I-41.310 J-287.471
G1 X74.106 Y43.188 F900.000
G1 X33.940 Y109.250 F900.000
G1 F900
G1 X34.278 Y109.788 0.00000
G3 X33.334 Y110.020 I-1.227 J-2.955
G1 X33.245 Y109.814 0.00000
G2 X33.901 Y109.285 I-1.735 J-2.823
G1 X34.000 Y108.827 F900.000
G1 F900
G1 X34.691 Y109.928 0.00000
G1 X34.131 Y110.136 0.00000
G1 X32.322 Y110.511 0.00000
G1 X32.092 Y110.522 0.00000
G1 X32.026 Y110.326 0.00000
G1 X33.374 Y109.390 0.00000
G1 X33.960 Y108.862 0.00000
G1 X34.423 Y108.983 F900.000
G1 F900
G1 X35.104 Y110.068 0.00000
G1 X34.208 Y110.401 0.00000
G1 X32.357 Y110.784 0.00000
G1 X31.147 Y110.843 0.00000
G1 X31.080 Y110.647 0.00000
G1 X33.203 Y109.173 0.00000
G1 X35.157 Y107.415 0.00000
G1 X36.722 Y105.510 0.00000
G1 X37.864 Y103.523 0.00000
G1 X38.592 Y101.553 0.00000
G1 X39.000 Y99.435 0.00000
G1 X39.067 Y97.173 0.00000
G1 X38.791 Y94.829 0.00000
G1 X38.593 Y93.857 0.00000
G1 X37.615 Y93.336 0.00000
G1 X38.259 Y92.575 0.00000
G1 X38.881 Y93.731 0.00000
G3 X39.425 Y95.832 I-7.137 J2.969
G1 X39.585 Y98.064 0.00000
G1 X39.411 Y100.183 0.00000
G1 X38.900 Y102.246 0.00000
G1 X38.026 Y104.286 0.00000
G1 X36.739 Y106.331 0.00000
G1 X35.048 Y108.322 0.00000
G1 X34.459 Y108.945 0.00000
G1 X34.096 Y108.980 F900.000
G1 X35.426 Y89.243 F900.000
G1 F900
G1 X35.485 Y88.404 0.00000
G1 X35.930 Y88.611 0.00000
G1 X35.865 Y88.855 0.00000
G1 X35.466 Y89.208 0.00000
G1 X35.943 Y89.154 F900.000
G1 F900
G1 X35.105 Y89.894 0.00000
G1 X35.238 Y87.986 0.00000
G1 X36.255 Y88.459 0.00000
G1 X36.067 Y89.167 0.00000
G1 X35.995 Y89.159 0.00000
G1 X35.866 Y88.855 F900.000
G1 X63.438 Y59.273 F900.000
G1 X63.945 Y59.301 F900.000
G1 F900
G3 X63.509 Y56.834 I1.327 J-1.507
G3 X65.075 Y55.350 I2.480 J1.049
G3 X67.272 Y56.013 I0.523 J2.239
G1 X67.933 Y56.726 0.00000
G1 X65.078 Y59.992 0.00000
G1 X64.277 Y59.558 0.00000
G1 X63.987 Y59.333 0.00000
G1 X67.335 Y60.821 F900.000
G1 F900
G1 X68.492 Y59.146 0.00000
G3 X72.592 Y54.819 I38.576 J32.446
G1 X73.349 Y55.329 0.00000
G1 X73.105 Y56.542 0.00000
G1 X75.056 Y55.686 0.00000
G1 X74.489 Y57.230 0.00000
G1 X76.032 Y56.335 0.00000
G1 X75.891 Y57.592 0.00000
G1 X78.122 Y55.893 0.00000
G1 X77.938 Y57.285 0.00000
G1 X77.861 Y57.501 0.00000
G1 X79.096 Y56.495 0.00000
G1 X79.709 Y56.899 0.00000
G1 X79.530 Y57.523 0.00000
G1 X80.212 Y56.789 0.00000
G1 X81.128 Y57.326 0.00000
G3 X79.175 Y61.972 I-112.037 J-44.362
G1 X77.795 Y64.510 0.00000
G1 X76.151 Y66.843 0.00000
G1 X74.186 Y69.081 0.00000
G1 X71.862 Y71.263 0.00000
G1 X65.209 Y76.552 0.00000
G1 X61.378 Y80.039 0.00000
G1 X57.817 Y83.751 0.00000
G1 X54.512 Y87.697 0.00000
G1 X51.453 Y91.892 0.00000
G3 X47.186 Y98.379 I-158.144 J-99.377
G1 X44.323 Y101.992 0.00000
G3 X40.517 Y106.178 I-41.750 J-34.137
G1 X38.615 Y107.784 0.00000
G1 X36.736 Y109.005 0.00000
G1 X35.241 Y109.770 0.00000
G1 X34.769 Y109.018 0.00000
G1 X35.253 Y108.505 0.00000
G1 X36.961 Y106.494 0.00000
G1 X38.270 Y104.414 0.00000
G1 X39.162 Y102.334 0.00000
G1 X39.683 Y100.228 0.00000
G1 X39.861 Y98.065 0.00000
G1 X39.699 Y95.799 0.00000
G2 X39.131 Y93.616 I-7.997 J0.915
G1 X38.305 Y92.095 0.00000
G1 X37.361 Y93.211 0.00000
G1 X37.206 Y90.321 0.00000
G1 X37.011 Y90.546 0.00000
G1 X36.084 Y90.181 0.00000
G1 X36.705 Y87.832 0.00000
G1 X36.285 Y88.170 0.00000
G1 X35.442 Y87.777 0.00000
G1 X36.249 Y85.989 0.00000
G1 X35.581 Y86.561 0.00000
G1 X35.590 Y85.142 0.00000
G2 X36.425 Y83.287 I-21.265 J-10.687
G1 X36.214 Y82.381 0.00000
G1 X37.762 Y79.951 0.00000
G1 X39.302 Y78.117 0.00000
G1 X41.013 Y76.558 0.00000
G1 X43.098 Y75.149 0.00000
G1 X43.809 Y74.766 0.00000
G1 X46.853 Y73.411 0.00000
G1 X50.036 Y72.308 0.00000
G3 X56.117 Y70.664 I41.137 J140.095
G1 X58.597 Y69.870 0.00000
G1 X60.574 Y68.925 0.00000
G1 X62.457 Y67.651 0.00000
G1 X64.042 Y66.152 0.00000
G1 X65.366 Y64.416 0.00000
G1 X67.310 Y60.867 0.00000
G1 X66.710 Y60.423 F900.000
G1 X66.568 Y59.976 F900.000
G1 X69.122 Y56.950 F900.000
G1 X69.421 Y55.830 F900.000
G1 X69.304 Y53.847 F900.000
G1 X71.987 Y53.207 F900.000
G1 X73.102 Y53.270 F900.000
G1 X74.486 Y54.389 F900.000
G1 X75.990 Y54.599 F900.000
G1 X76.247 Y55.138 F900.000
G1 X76.588 Y55.116 F900.000
G1 X77.075 Y55.505 F900.000
G1 X77.619 Y55.514 F900.000
G1 X78.426 Y55.963 F900.000
G1 X79.061 Y55.808 F900.000
G1 X79.843 Y56.101 F900.000
G1 X80.159 Y56.006 F900.000
G1 X81.595 Y56.321 F900.000
G1 X81.881 Y57.004 F900.000
G1 X81.365 Y58.694 F900.000
G1 X79.853 Y62.307 F900.000
G1 X78.418 Y64.910 F900.000
G1 X76.351 Y67.737 F900.000
G1 X74.548 Y69.693 F900.000
G1 X72.281 Y71.743 F900.000
G1 X65.359 Y77.292 F900.000
G1 X61.595 Y80.779 F900.000
G1 X58.341 Y84.221 F900.000
G1 X59.794 Y82.485 F900.000
G1 F900
G1 X59.992 Y82.673 0.00000
G1 X58.204 Y84.594 0.00000
G1 X54.992 Y88.562 0.00000
G1 X52.036 Y92.774 0.00000
G3 X48.701 Y97.837 I-90.850 J-56.213
G1 X45.726 Y101.645 0.00000
G3 X44.538 Y103.000 I-12.583 J-9.834
G1 X44.337 Y102.820 0.00000
G1 X44.747 Y102.342 0.00000
G1 X47.631 Y98.704 0.00000
G2 X51.907 Y92.203 I-152.598 J-105.028
G1 X54.946 Y88.037 0.00000
G1 X58.227 Y84.119 0.00000
G1 X59.758 Y82.523 0.00000
G1 X74.138 Y69.881 F900.000
G1 F900
G1 X74.582 Y69.465 0.00000
G1 X76.584 Y67.185 0.00000
G1 X78.263 Y64.801 0.00000
G1 X79.671 Y62.214 0.00000
G2 X81.515 Y57.833 I-103.471 J-46.131
G1 X81.758 Y57.913 0.00000
G1 X81.549 Y58.754 0.00000
G1 X80.580 Y61.328 0.00000
G1 X79.281 Y63.885 0.00000
G1 X78.120 Y65.745 0.00000
G1 X76.495 Y67.861 0.00000
G1 X74.647 Y69.796 0.00000
G1 X74.320 Y70.081 0.00000
G1 X74.174 Y69.920 0.00000
G1 X81.766 Y56.743 F900.000
G1 F900
G1 X80.908 Y56.239 0.00000
G1 X81.938 Y56.050 0.00000
G1 X81.778 Y56.692 0.00000
G1 X81.944 Y57.167 F900.000
G1 F900
G1 X80.159 Y56.119 0.00000
G1 X80.189 Y56.005 0.00000
G1 X79.872 Y56.347 0.00000
G1 X79.452 Y56.070 0.00000
G1 X79.531 Y55.863 0.00000
G1 X79.923 Y55.922 0.00000
G1 X81.233 Y55.900 0.00000
G1 X82.308 Y55.701 0.00000
G1 X81.956 Y57.116 0.00000
G1 X81.473 Y57.210 F900.000
G1 F900
G1 X80.161 Y56.439 0.00000
G1 X79.915 Y56.705 0.00000
G1 X79.079 Y56.154 0.00000
G1 X78.279 Y56.805 0.00000
G1 X78.467 Y55.385 0.00000
G1 X78.693 Y55.459 0.00000
G1 X79.941 Y55.647 0.00000
G1 X81.205 Y55.625 0.00000
G1 X82.458 Y55.394 0.00000
G1 X82.854 Y55.251 0.00000
G2 X82.521 Y55.986 I2.277 J1.475
G1 X81.813 Y58.836 0.00000
G1 X80.832 Y61.439 0.00000
G1 X79.521 Y64.021 0.00000
G1 X78.346 Y65.902 0.00000
G1 X76.704 Y68.040 0.00000
G1 X74.837 Y69.995 0.00000
G1 X72.085 Y72.396 0.00000
G2 X65.603 Y77.573 I116.506 J152.521
G1 X61.871 Y81.060 0.00000
G1 X58.411 Y84.774 0.00000
G1 X55.212 Y88.727 0.00000
G1 X52.265 Y92.926 0.00000
G3 X48.924 Y97.999 I-89.002 J-54.979
G1 X45.941 Y101.818 0.00000
G1 X45.368 Y102.509 0.00000
G1 X43.149 Y104.903 0.00000
G1 X41.031 Y106.747 0.00000
G1 X39.125 Y108.056 0.00000
G1 X38.966 Y107.848 0.00000
G1 X40.706 Y106.379 0.00000
G2 X44.535 Y102.167 I-38.105 J-38.487
G1 X47.408 Y98.542 0.00000
G2 X51.680 Y92.047 I-153.548 J-105.647
G1 X54.729 Y87.867 0.00000
G1 X58.022 Y83.935 0.00000
G1 X61.570 Y80.237 0.00000
G1 X65.388 Y76.762 0.00000
G1 X72.042 Y71.471 0.00000
G1 X74.384 Y69.273 0.00000
G1 X76.368 Y67.014 0.00000
G1 X78.029 Y64.656 0.00000
G1 X79.423 Y62.093 0.00000
G2 X81.453 Y57.258 I-113.702 J-50.582
G1 X66.591 Y49.557 F900.000
G1 F900
G1 X63.844 Y49.697 0.00000
G2 X61.273 Y50.655 I0.733 J5.897
G2 X59.527 Y53.277 I2.704 J3.693
G1 X59.280 Y54.689 0.00000
G2 X60.318 Y58.187 I4.737 J0.497
G2 X61.552 Y59.225 I4.112 J-3.636
G1 X62.753 Y59.846 0.00000
G1 X64.545 Y60.459 0.00000
G1 X64.530 Y61.189 0.00000
G3 X61.534 Y61.105 I-1.399 J-3.590
G3 X58.433 Y58.115 I2.687 J-5.890
G3 X60.749 Y48.997 I6.340 J-3.243
G3 X64.611 Y48.161 I3.030 J4.658
G3 X65.601 Y48.618 I-0.428 J2.227
G1 X66.553 Y49.521 0.00000
G1 X63.919 Y47.186 F900.000
G1 F900
G1 X60.864 Y48.868 0.00000
G1 X59.633 Y49.822 0.00000
G1 X58.795 Y50.711 0.00000
G2 X57.769 Y52.510 I4.939 J4.009
G2 X57.395 Y54.517 I5.951 J2.147
G1 X57.461 Y55.725 0.00000
G1 X57.730 Y56.978 0.00000
G1 X58.137 Y58.015 0.00000
G2 X60.946 Y61.044 I6.397 J-3.115
G2 X62.849 Y61.717 I2.975 J-5.384
G1 X64.225 Y61.897 0.00000
G1 X63.309 Y63.567 0.00000
G1 X62.244 Y64.929 0.00000
G1 X60.609 Y66.448 0.00000
G1 X58.615 Y67.804 0.00000
G1 X56.478 Y68.830 0.00000
G1 X54.734 Y69.358 0.00000
G1 X53.423 Y69.547 0.00000
G1 X51.120 Y69.511 0.00000
G1 X51.930 Y68.849 0.00000
G1 X48.735 Y69.026 0.00000
G1 X48.690 Y68.022 0.00000
G1 X49.620 Y67.631 0.00000
G1 X47.622 Y67.429 0.00000
G1 X47.550 Y66.534 0.00000
G1 X48.015 Y66.316 0.00000
G3 X46.123 Y62.983 I0.462 J-2.466
G1 X46.565 Y61.968 0.00000
G3 X47.493 Y60.807 I3.359 J1.733
G3 X50.361 Y58.767 I23.079 J29.410
G1 X49.471 Y58.987 0.00000
G1 X47.466 Y59.304 0.00000
G1 X45.930 Y59.332 0.00000
G1 X44.622 Y59.154 0.00000
G3 X42.534 Y58.431 I2.730 J-11.261
G1 X42.787 Y58.168 0.00000
G1 X41.101 Y57.772 0.00000
G1 X41.181 Y56.902 0.00000
G1 X41.471 Y56.830 0.00000
G1 X39.737 Y56.283 0.00000
G1 X40.073 Y55.437 0.00000
G1 X40.963 Y55.374 0.00000
G3 X40.960 Y50.968 I2.645 J-2.205
G3 X43.353 Y48.886 I9.674 J8.703
G1 X46.059 Y47.369 0.00000
G1 X48.864 Y46.212 0.00000
G1 X51.709 Y45.435 0.00000
G1 X54.408 Y45.039 0.00000
G1 X55.010 Y44.994 0.00000
G3 X60.006 Y44.980 I2.719 J78.947
G1 X60.427 Y45.894 0.00000
G1 X58.680 Y46.809 0.00000
G2 X57.320 Y47.968 I3.059 J4.967
G3 X60.324 Y46.736 I4.830 J7.499
G3 X61.991 Y46.785 I0.687 J4.993
G1 X63.868 Y47.175 0.00000
G1 X66.701 Y46.973 F900.000
G1 F900
G1 X66.420 Y45.838 0.00000
G1 X66.337 Y44.701 0.00000
G3 X67.638 Y41.098 I5.754 J0.041
G1 X68.953 Y39.767 0.00000
G3 X69.087 Y41.568 I-11.081 J1.730
G1 X68.785 Y42.963 0.00000
G2 X69.029 Y44.902 I3.385 J0.559
G2 X70.485 Y46.198 I2.806 J-1.686
G1 X71.620 Y46.644 0.00000
G2 X75.307 Y47.425 I9.849 J-37.404
G2 X75.633 Y49.061 I7.344 J-0.613
G1 X76.363 Y50.323 0.00000
G2 X79.356 Y52.406 I4.212 J-2.860
G2 X80.727 Y52.515 I1.121 J-5.426
G2 X84.704 Y51.852 I-2.457 J-26.998
G1 X86.332 Y51.473 0.00000
G1 X86.710 Y52.099 0.00000
G1 X85.682 Y53.258 0.00000
G1 X84.655 Y54.086 0.00000
G1 X83.551 Y54.706 0.00000
G1 X82.386 Y55.127 0.00000
G1 X81.178 Y55.350 0.00000
G1 X79.959 Y55.371 0.00000
G1 X78.757 Y55.190 0.00000
G1 X77.613 Y54.814 0.00000
G1 X76.559 Y54.256 0.00000
G3 X74.315 Y51.996 I4.914 J-7.123
G2 X73.577 Y51.696 I-0.710 J0.690
G1 X72.225 Y51.612 0.00000
G1 X71.052 Y51.330 0.00000
G3 X66.720 Y47.022 I2.149 J-6.493
G1 X51.700 Y41.856 F900.000
G1 F900
G1 X51.394 Y41.775 0.00000
G1 X49.019 Y40.843 0.00000
G1 X47.021 Y39.735 0.00000
G1 X45.314 Y38.423 0.00000
G1 X44.493 Y37.614 0.00000
G1 X43.551 Y36.414 0.00000
G1 X43.747 Y36.242 0.00000
G2 X46.330 Y38.812 I60.056 J-57.777
G1 X47.283 Y39.503 0.00000
G1 X49.085 Y40.480 0.00000
G1 X51.783 Y41.614 0.00000
G1 X51.717 Y41.807 0.00000
G1 X58.634 Y43.488 F900.000
G1 X38.427 Y34.853 F900.000
G1 X38.901 Y35.536 F900.000
G1 F900
G1 X38.268 Y35.095 0.00000
G1 X38.284 Y34.189 0.00000
G1 X38.520 Y34.159 0.00000
G1 X38.887 Y35.485 0.00000
G1 X38.427 Y34.853 F900.000
G1 X34.517 Y36.063 F900.000
G1 X34.948 Y36.857 F900.000
G1 F900
G1 X35.780 Y38.388 0.00000
G1 X34.999 Y38.075 0.00000
G1 X34.723 Y36.944 0.00000
G1 X34.899 Y36.876 0.00000
G1 X34.716 Y35.852 F900.000
G1 F900
G1 X35.882 Y37.998 0.00000
G1 X36.342 Y38.703 0.00000
G1 X36.214 Y38.858 0.00000
G1 X34.118 Y38.019 0.00000
G1 X33.706 Y37.794 0.00000
G1 X33.808 Y37.563 0.00000
G1 X34.661 Y37.852 0.00000
G1 X33.756 Y34.140 0.00000
G1 X34.000 Y34.062 0.00000
G1 X34.696 Y35.804 0.00000
G1 X34.517 Y36.063 F900.000
G1 X29.233 Y33.323 F900.000
G1 X30.205 Y34.743 F900.000
G1 F900
G1 X29.985 Y34.877 0.00000
G1 X28.504 Y32.761 0.00000
G1 X29.073 Y31.970 0.00000
G1 X29.622 Y33.623 0.00000
G1 X30.181 Y34.696 0.00000
G1 X29.233 Y33.323 F900.000
G1 X33.963 Y31.236 F900.000
G1 X33.801 Y31.643 F900.000
G1 F900
G3 X33.641 Y30.529 I5.156 J-1.309
G1 X33.877 Y30.487 0.00000
G2 X34.278 Y31.346 I2.954 J-0.856
G1 X33.846 Y31.615 0.00000
G1 X33.609 Y32.087 F900.000
G1 F900
G3 X33.502 Y29.063 I5.847 J-1.721
G1 X33.707 Y29.058 0.00000
G1 X34.192 Y30.568 0.00000
G1 X34.637 Y31.447 0.00000
G1 X33.653 Y32.059 0.00000
G1 X33.417 Y32.531 F900.000
G1 F900
G3 X33.069 Y30.076 I9.649 J-2.620
G3 X33.620 Y27.926 I4.859 J0.100
G1 X33.823 Y27.953 0.00000
G1 X33.995 Y29.053 0.00000
G1 X34.448 Y30.463 0.00000
G1 X35.084 Y31.720 0.00000
G1 X35.822 Y32.731 0.00000
G1 X35.637 Y32.897 0.00000
G1 X34.502 Y31.855 0.00000
G1 X33.461 Y32.503 0.00000
G1 X33.825 Y32.601 F900.000
G1 F900
G1 X34.470 Y32.199 0.00000
G2 X37.479 Y34.881 I41.046 J-43.021
G2 X39.361 Y36.166 I17.726 J-23.941
G1 X38.784 Y34.081 0.00000
G1 X38.331 Y31.492 0.00000
G1 X38.205 Y29.147 0.00000
G1 X38.385 Y26.955 0.00000
G1 X38.729 Y25.302 0.00000
G1 X39.558 Y25.319 0.00000
G1 X40.205 Y29.206 0.00000
G1 X40.943 Y31.914 0.00000
G1 X41.843 Y34.155 0.00000
G1 X42.907 Y36.038 0.00000
G1 X44.288 Y37.798 0.00000
G1 X45.132 Y38.631 0.00000
G1 X46.870 Y39.966 0.00000
G1 X48.901 Y41.093 0.00000
G1 X51.308 Y42.037 0.00000
G1 X54.189 Y42.802 0.00000
G1 X58.087 Y43.428 0.00000
G1 X58.051 Y44.309 0.00000
G1 X53.393 Y44.739 0.00000
G1 X50.403 Y45.127 0.00000
G1 X49.881 Y45.226 0.00000
G1 X46.861 Y46.011 0.00000
G1 X44.360 Y46.973 0.00000
G1 X41.888 Y48.291 0.00000
G1 X39.708 Y49.858 0.00000
G1 X37.784 Y51.681 0.00000
G1 X36.453 Y53.277 0.00000
G1 X35.171 Y55.261 0.00000
G1 X34.188 Y57.389 0.00000
G1 X33.509 Y59.646 0.00000
G1 X33.166 Y61.953 0.00000
G1 X33.174 Y64.172 0.00000
G1 X33.524 Y66.306 0.00000
G1 X34.111 Y68.049 0.00000
G1 X34.901 Y69.562 0.00000
G1 X36.004 Y71.021 0.00000
G1 X37.216 Y72.167 0.00000
G1 X37.793 Y72.617 0.00000
G2 X36.575 Y74.766 I12.169 J8.317
G3 X34.881 Y75.634 I-1.640 J-1.114
G1 X31.811 Y75.566 0.00000
G1 X28.883 Y75.157 0.00000
G1 X26.064 Y74.416 0.00000
G1 X23.327 Y73.344 0.00000
G1 X20.651 Y71.932 0.00000
G1 X18.014 Y70.163 0.00000
G1 X15.553 Y68.150 0.00000
G3 X15.066 Y66.638 I1.483 J-1.312
G1 X16.018 Y61.615 0.00000
G1 X17.296 Y56.744 0.00000
G1 X18.915 Y51.925 0.00000
G1 X20.880 Y47.154 0.00000
G1 X22.310 Y44.145 0.00000
G1 X24.828 Y39.470 0.00000
G1 X28.438 Y33.146 0.00000
G1 X29.889 Y35.220 0.00000
G1 X31.050 Y36.400 0.00000
G1 X32.364 Y37.374 0.00000
G1 X34.001 Y38.268 0.00000
G1 X36.606 Y39.312 0.00000
G1 X37.201 Y39.514 0.00000
G1 X36.118 Y37.857 0.00000
G1 X34.965 Y35.735 0.00000
G1 X34.138 Y33.666 0.00000
G1 X33.840 Y32.651 0.00000
G1 X34.360 Y32.665 F900.000
G1 X35.587 Y82.951 F900.000
G1 X35.517 Y82.650 F900.000
G1 F900
G1 X35.716 Y82.667 0.00000
G1 X35.849 Y83.238 0.00000
G1 X35.521 Y84.011 0.00000
G1 X35.290 Y83.948 0.00000
G1 X35.429 Y82.857 0.00000
G1 X35.496 Y82.698 0.00000
G1 X35.587 Y82.951 F900.000
G1 X14.662 Y67.787 F900.000
G1 X14.812 Y68.060 F900.000
G1 F900
G1 X14.633 Y68.195 0.00000
G1 X14.083 Y67.709 0.00000
G1 X14.079 Y67.530 0.00000
G1 X14.262 Y66.695 0.00000
G1 X14.511 Y66.727 0.00000
G2 X14.789 Y68.013 I2.500 J0.133
G1 X14.662 Y67.787 F900.000
G1 X39.220 Y63.619 F900.000
G1 F900
G1 X39.899 Y63.896 0.00000
G1 X40.001 Y65.247 0.00000
G1 X40.213 Y66.130 0.00000
G1 X39.986 Y66.216 0.00000
G3 X39.421 Y64.839 I4.045 J-2.464
G1 X39.229 Y63.671 0.00000
G1 X38.953 Y63.690 F900.000
G1 F900
G1 X38.951 Y63.212 0.00000
G1 X40.189 Y63.717 0.00000
G1 X40.174 Y63.895 0.00000
G1 X40.274 Y65.204 0.00000
G1 X40.607 Y66.588 0.00000
G1 X41.035 Y67.515 0.00000
G1 X40.851 Y67.648 0.00000
G3 X39.153 Y64.906 I3.197 J-3.877
G1 X38.961 Y63.742 0.00000
G1 X38.678 Y63.713 F900.000
G1 F900
G1 X38.675 Y62.857 0.00000
G1 X38.997 Y62.933 0.00000
G1 X40.479 Y63.539 0.00000
G1 X40.451 Y63.895 0.00000
G1 X40.547 Y65.161 0.00000
G1 X40.868 Y66.498 0.00000
G1 X41.546 Y67.965 0.00000
G1 X42.066 Y68.667 0.00000
G1 X41.894 Y68.835 0.00000
G3 X40.120 Y67.335 I7.019 J-10.100
G3 X38.885 Y64.973 I4.110 J-3.653
G1 X38.686 Y63.765 0.00000
G1 X38.402 Y63.736 F900.000
G1 F900
G1 X38.398 Y62.510 0.00000
G1 X39.081 Y62.670 0.00000
G1 X40.770 Y63.360 0.00000
G1 X40.727 Y63.896 0.00000
G1 X40.820 Y65.118 0.00000
G1 X41.129 Y66.407 0.00000
G1 X41.784 Y67.824 0.00000
G1 X42.483 Y68.769 0.00000
G1 X42.559 Y69.704 0.00000
G1 X40.630 Y68.197 0.00000
G3 X38.617 Y65.039 I3.535 J-4.474
G1 X38.411 Y63.788 0.00000
G1 X38.127 Y63.759 F900.000
G1 F900
G1 X38.122 Y62.162 0.00000
G1 X39.165 Y62.407 0.00000
G1 X41.060 Y63.181 0.00000
G1 X41.003 Y63.896 0.00000
G1 X41.092 Y65.076 0.00000
G1 X41.390 Y66.316 0.00000
G1 X42.022 Y67.683 0.00000
G1 X42.751 Y68.669 0.00000
G1 X42.840 Y69.774 0.00000
G1 X42.433 Y69.955 0.00000
G1 X40.450 Y68.406 0.00000
G3 X38.349 Y65.106 I3.713 J-4.683
G1 X38.136 Y63.811 0.00000
G1 X37.852 Y63.782 F900.000
G1 F900
G1 X37.847 Y62.291 0.00000
G1 X37.915 Y61.831 0.00000
G1 X39.249 Y62.144 0.00000
G1 X41.350 Y63.003 0.00000
G2 X41.365 Y65.033 I6.511 J0.967
G1 X41.652 Y66.225 0.00000
G1 X42.260 Y67.542 0.00000
G1 X43.019 Y68.568 0.00000
G1 X43.131 Y69.946 0.00000
G1 X42.394 Y70.274 0.00000
G1 X40.271 Y68.615 0.00000
G3 X38.081 Y65.173 I3.948 J-4.930
G1 X37.861 Y63.834 0.00000
G1 X37.577 Y63.805 F900.000
G1 F900
G1 X37.572 Y62.271 0.00000
G1 X37.687 Y61.494 0.00000
G1 X39.333 Y61.881 0.00000
G1 X41.641 Y62.824 0.00000
G2 X41.913 Y66.134 I6.979 J1.093
G1 X42.498 Y67.401 0.00000
G1 X43.225 Y68.383 0.00000
G1 X43.285 Y68.442 0.00000
G1 X43.421 Y70.118 0.00000
G1 X42.355 Y70.593 0.00000
G1 X40.091 Y68.824 0.00000
G3 X37.813 Y65.239 I4.118 J-5.133
G1 X37.585 Y63.857 0.00000
G1 X37.302 Y63.828 F900.000
G1 F900
G1 X37.296 Y62.251 0.00000
G1 X37.459 Y61.158 0.00000
G1 X39.417 Y61.618 0.00000
G1 X41.958 Y62.656 0.00000
G1 X41.916 Y62.831 0.00000
G2 X42.174 Y66.044 I6.761 J1.074
G1 X42.737 Y67.260 0.00000
G1 X43.433 Y68.201 0.00000
G1 X43.551 Y68.316 0.00000
G1 X43.706 Y70.233 0.00000
G1 X43.547 Y70.363 0.00000
G1 X42.315 Y70.911 0.00000
G1 X39.911 Y69.032 0.00000
G3 X37.921 Y66.425 I4.213 J-5.279
G1 X37.545 Y65.306 0.00000
G1 X37.310 Y63.880 0.00000
G1 X37.026 Y63.851 F900.000
G1 F900
G1 X37.021 Y62.231 0.00000
G1 X37.230 Y60.821 0.00000
G1 X39.501 Y61.355 0.00000
G1 X42.135 Y62.431 0.00000
G1 X42.283 Y62.475 0.00000
G1 X42.189 Y62.873 0.00000
G2 X42.436 Y65.953 I6.465 J1.031
G1 X42.975 Y67.119 0.00000
G1 X43.640 Y68.019 0.00000
G1 X43.817 Y68.190 0.00000
G1 X43.992 Y70.355 0.00000
G1 X43.693 Y70.600 0.00000
G1 X42.276 Y71.230 0.00000
G1 X39.732 Y69.241 0.00000
G3 X37.667 Y66.533 I4.365 J-5.470
G1 X37.277 Y65.373 0.00000
G1 X37.035 Y63.903 0.00000
G1 X36.751 Y63.874 F900.000
G1 F900
G1 X36.746 Y62.211 0.00000
G1 X37.002 Y60.485 0.00000
G1 X39.585 Y61.092 0.00000
G1 X42.227 Y62.171 0.00000
G1 X42.610 Y62.286 0.00000
G2 X42.697 Y65.862 I5.856 J1.647
G1 X43.213 Y66.978 0.00000
G1 X43.848 Y67.837 0.00000
G1 X44.083 Y68.065 0.00000
G1 X44.278 Y70.477 0.00000
G1 X43.838 Y70.836 0.00000
G1 X42.237 Y71.549 0.00000
G1 X39.552 Y69.450 0.00000
G1 X38.679 Y68.626 0.00000
G1 X37.936 Y67.642 0.00000
G1 X37.413 Y66.641 0.00000
G1 X37.009 Y65.439 0.00000
G1 X36.760 Y63.926 0.00000
G1 X36.476 Y63.897 F900.000
G1 F900
G1 X36.470 Y62.192 0.00000
G1 X36.741 Y60.369 0.00000
G1 X37.172 Y58.938 0.00000
G1 X37.662 Y59.093 0.00000
G1 X37.548 Y60.330 0.00000
G1 X39.669 Y60.829 0.00000
G1 X42.319 Y61.911 0.00000
G1 X42.938 Y62.097 0.00000
G2 X44.056 Y67.655 I5.580 J1.769
G1 X44.349 Y67.939 0.00000
G1 X44.564 Y70.599 0.00000
G1 X43.984 Y71.073 0.00000
G1 X42.209 Y71.876 0.00000
G1 X39.372 Y69.659 0.00000
G1 X38.473 Y68.810 0.00000
G1 X37.702 Y67.790 0.00000
G1 X37.159 Y66.750 0.00000
G1 X36.741 Y65.506 0.00000
G1 X36.485 Y63.949 0.00000
G1 X36.201 Y63.920 F900.000
G1 F900
G1 X36.195 Y62.172 0.00000
G1 X36.472 Y60.309 0.00000
G1 X36.988 Y58.592 0.00000
G1 X37.956 Y58.897 0.00000
G1 X37.844 Y60.117 0.00000
G1 X39.753 Y60.566 0.00000
G1 X42.410 Y61.652 0.00000
G1 X43.265 Y61.908 0.00000
G2 X43.002 Y64.776 I6.027 J1.999
G1 X43.220 Y65.680 0.00000
G1 X43.689 Y66.696 0.00000
G1 X44.264 Y67.473 0.00000
G1 X44.615 Y67.813 0.00000
G1 X44.807 Y70.188 0.00000
G1 X45.426 Y70.251 0.00000
G1 X44.130 Y71.309 0.00000
G2 X41.696 Y72.465 I6.446 J16.712
G1 X41.551 Y72.311 0.00000
G1 X41.802 Y71.908 0.00000
G1 X39.193 Y69.868 0.00000
G1 X38.268 Y68.994 0.00000
G1 X37.469 Y67.937 0.00000
G1 X36.905 Y66.858 0.00000
G1 X36.473 Y65.573 0.00000
G1 X36.209 Y63.972 0.00000
G1 X35.926 Y63.943 F900.000
G1 F900
G1 X35.920 Y62.152 0.00000
G1 X36.202 Y60.248 0.00000
G1 X36.805 Y58.245 0.00000
G1 X38.251 Y58.701 0.00000
G1 X38.140 Y59.904 0.00000
G1 X39.837 Y60.303 0.00000
G1 X42.502 Y61.392 0.00000
G1 X43.662 Y61.740 0.00000
G1 X43.500 Y62.111 0.00000
G2 X43.927 Y66.555 I5.273 J1.736
G2 X44.881 Y67.687 I3.894 J-2.314
G1 X45.063 Y69.937 0.00000
G1 X46.115 Y70.044 0.00000
G1 X44.275 Y71.546 0.00000
G2 X41.672 Y72.790 I6.916 J17.816
G1 X40.830 Y73.359 0.00000
G1 X40.670 Y73.205 0.00000
G1 X41.438 Y71.972 0.00000
G1 X39.013 Y70.077 0.00000
G1 X38.062 Y69.178 0.00000
G1 X37.235 Y68.085 0.00000
G1 X36.651 Y66.966 0.00000
G1 X36.205 Y65.639 0.00000
G1 X35.934 Y63.995 0.00000
G1 X35.650 Y63.966 F900.000
G1 F900
G1 X35.644 Y62.132 0.00000
G1 X35.933 Y60.188 0.00000
G1 X36.510 Y58.270 0.00000
G1 X36.674 Y57.915 0.00000
G1 X38.545 Y58.505 0.00000
G1 X38.436 Y59.691 0.00000
G1 X39.921 Y60.040 0.00000
G1 X42.594 Y61.132 0.00000
G1 X44.038 Y61.566 0.00000
G2 X44.679 Y67.109 I4.488 J2.290
G1 X45.147 Y67.562 0.00000
G1 X45.319 Y69.686 0.00000
G1 X46.290 Y69.785 0.00000
G1 X46.310 Y70.240 0.00000
G1 X44.654 Y71.592 0.00000
G1 X44.670 Y71.671 0.00000
G1 X42.717 Y72.541 0.00000
G1 X41.814 Y73.026 0.00000
G1 X39.912 Y74.311 0.00000
G1 X39.752 Y74.157 0.00000
G1 X41.073 Y72.037 0.00000
G1 X38.833 Y70.286 0.00000
G1 X37.856 Y69.363 0.00000
G1 X37.002 Y68.233 0.00000
G1 X36.397 Y67.075 0.00000
G1 X35.937 Y65.706 0.00000
G1 X35.659 Y64.017 0.00000
G1 X35.375 Y63.989 F900.000
G1 F900
G1 X35.369 Y62.112 0.00000
G1 X35.664 Y60.128 0.00000
G1 X36.252 Y58.172 0.00000
G1 X36.806 Y56.974 0.00000
G1 X37.051 Y57.080 0.00000
G1 X36.817 Y57.671 0.00000
G1 X38.840 Y58.309 0.00000
G1 X38.732 Y59.478 0.00000
G1 X40.005 Y59.777 0.00000
G1 X42.686 Y60.872 0.00000
G1 X44.154 Y61.313 0.00000
G1 X44.432 Y61.351 0.00000
G2 X43.821 Y64.647 I4.585 J2.555
G1 X44.003 Y65.408 0.00000
G1 X44.403 Y66.273 0.00000
G2 X45.413 Y67.436 I4.003 J-2.457
G1 X45.575 Y69.436 0.00000
G1 X46.554 Y69.535 0.00000
G1 X46.591 Y70.365 0.00000
G1 X44.957 Y71.700 0.00000
G1 X44.984 Y71.833 0.00000
G1 X42.838 Y72.788 0.00000
G1 X41.957 Y73.262 0.00000
G1 X39.648 Y74.823 0.00000
G1 X38.947 Y75.461 0.00000
G1 X38.765 Y75.321 0.00000
G1 X39.058 Y74.751 0.00000
G1 X40.709 Y72.101 0.00000
G1 X38.653 Y70.495 0.00000
G1 X37.650 Y69.547 0.00000
G1 X36.769 Y68.381 0.00000
G1 X36.143 Y67.183 0.00000
G1 X35.669 Y65.773 0.00000
G1 X35.384 Y64.040 0.00000
G1 X35.100 Y64.012 F900.000
G1 F900
G1 X35.094 Y62.092 0.00000
G1 X35.394 Y60.068 0.00000
G1 X35.994 Y58.074 0.00000
G1 X36.864 Y56.193 0.00000
G1 X38.008 Y54.421 0.00000
G1 X38.299 Y54.072 0.00000
G1 X38.383 Y54.471 0.00000
G1 X37.182 Y57.498 0.00000
G1 X39.134 Y58.114 0.00000
G1 X39.028 Y59.264 0.00000
G1 X40.089 Y59.514 0.00000
G1 X42.778 Y60.612 0.00000
G1 X44.212 Y61.043 0.00000
G1 X44.829 Y61.127 0.00000
G1 X44.287 Y62.373 0.00000
G2 X45.095 Y66.745 I4.262 J1.473
G2 X45.677 Y67.287 I2.014 J-1.580
G1 X45.831 Y69.185 0.00000
G1 X46.818 Y69.285 0.00000
G1 X46.872 Y70.491 0.00000
G1 X45.815 Y71.355 0.00000
G1 X46.191 Y71.361 0.00000
G1 X46.236 Y71.577 0.00000
G1 X42.959 Y73.035 0.00000
G1 X42.100 Y73.498 0.00000
G1 X39.818 Y75.039 0.00000
G1 X37.909 Y76.780 0.00000
G1 X37.738 Y76.984 0.00000
G1 X37.536 Y76.860 0.00000
G1 X37.727 Y76.405 0.00000
G2 X38.222 Y75.777 I-1.771 J-1.905
G1 X38.818 Y74.615 0.00000
G1 X40.344 Y72.166 0.00000
G1 X38.474 Y70.704 0.00000
G1 X37.445 Y69.731 0.00000
G1 X36.535 Y68.528 0.00000
G1 X35.889 Y67.291 0.00000
G1 X35.401 Y65.839 0.00000
G1 X35.109 Y64.063 0.00000
G1 X34.825 Y64.034 F900.000
G1 F900
G1 X34.818 Y62.072 0.00000
G1 X35.125 Y60.008 0.00000
G1 X35.736 Y57.976 0.00000
G1 X36.622 Y56.060 0.00000
G1 X37.786 Y54.258 0.00000
G1 X38.514 Y53.385 0.00000
G2 X38.669 Y54.496 I3.446 J0.086
G1 X37.547 Y57.324 0.00000
G1 X39.429 Y57.918 0.00000
G1 X39.324 Y59.051 0.00000
G1 X40.173 Y59.250 0.00000
G1 X42.870 Y60.352 0.00000
G1 X44.271 Y60.773 0.00000
G1 X45.282 Y60.911 0.00000
G1 X45.105 Y61.182 0.00000
G1 X44.549 Y62.460 0.00000
G2 X45.303 Y66.563 I3.999 J1.386
G2 X45.941 Y67.136 I2.145 J-1.746
G1 X46.087 Y68.934 0.00000
G1 X47.082 Y69.035 0.00000
G1 X47.154 Y70.617 0.00000
G1 X46.573 Y71.091 0.00000
G1 X47.756 Y71.110 0.00000
G1 X47.793 Y71.338 0.00000
G1 X46.245 Y71.874 0.00000
G1 X43.081 Y73.283 0.00000
G1 X42.242 Y73.734 0.00000
G1 X39.989 Y75.256 0.00000
G1 X38.108 Y76.971 0.00000
G1 X36.863 Y78.452 0.00000
G1 X36.673 Y78.208 0.00000
G1 X37.494 Y76.249 0.00000
G2 X37.986 Y75.633 I-1.717 J-1.876
G1 X38.579 Y74.479 0.00000
G1 X39.980 Y72.230 0.00000
G1 X38.294 Y70.913 0.00000
G1 X37.239 Y69.916 0.00000
G1 X36.302 Y68.676 0.00000
G1 X35.635 Y67.399 0.00000
G1 X35.133 Y65.906 0.00000
G1 X34.833 Y64.086 0.00000
G1 X34.550 Y64.057 F900.000
G1 F900
G1 X34.543 Y62.053 0.00000
G1 X34.856 Y59.947 0.00000
G1 X35.478 Y57.878 0.00000
G1 X36.380 Y55.927 0.00000
G1 X37.564 Y54.094 0.00000
G1 X38.601 Y52.850 0.00000
G1 X38.789 Y52.931 0.00000
G1 X38.775 Y53.053 0.00000
G2 X38.955 Y54.520 I4.561 J0.185
G1 X37.912 Y57.151 0.00000
G1 X39.723 Y57.722 0.00000
G1 X39.620 Y58.838 0.00000
G1 X40.257 Y58.987 0.00000
G1 X42.962 Y60.093 0.00000
G1 X44.329 Y60.503 0.00000
G1 X45.750 Y60.696 0.00000
G1 X45.349 Y61.313 0.00000
G1 X44.811 Y62.547 0.00000
G2 X45.510 Y66.381 I3.738 J1.299
G2 X46.205 Y66.985 I2.288 J-1.931
G1 X46.343 Y68.683 0.00000
G1 X47.347 Y68.785 0.00000
G1 X47.423 Y70.477 0.00000
G1 X47.463 Y70.474 0.00000
G1 X47.536 Y70.660 0.00000
G1 X47.330 Y70.828 0.00000
G1 X49.320 Y70.859 0.00000
G1 X49.357 Y71.087 0.00000
G1 X46.347 Y72.130 0.00000
G1 X43.202 Y73.530 0.00000
G1 X42.385 Y73.969 0.00000
G1 X40.160 Y75.473 0.00000
G1 X38.307 Y77.162 0.00000
G1 X36.861 Y78.883 0.00000
G3 X36.363 Y78.236 I2.681 J-2.578
G1 X37.261 Y76.093 0.00000
G2 X37.751 Y75.488 I-1.671 J-1.854
G1 X38.339 Y74.343 0.00000
G1 X39.615 Y72.295 0.00000
G1 X38.114 Y71.122 0.00000
G1 X37.033 Y70.100 0.00000
G1 X36.068 Y68.824 0.00000
G1 X35.381 Y67.508 0.00000
G1 X34.865 Y65.972 0.00000
G1 X34.558 Y64.109 0.00000
G1 X34.274 Y64.080 F900.000
G1 F900
G1 X34.268 Y62.033 0.00000
G1 X34.586 Y59.887 0.00000
G1 X35.220 Y57.780 0.00000
G1 X36.138 Y55.794 0.00000
G1 X37.341 Y53.931 0.00000
G1 X38.588 Y52.436 0.00000
G1 X39.016 Y52.031 0.00000
G1 X39.195 Y52.139 0.00000
G2 X39.248 Y54.528 I4.055 J1.105
G1 X38.277 Y56.977 0.00000
G1 X40.018 Y57.526 0.00000
G1 X39.917 Y58.625 0.00000
G1 X40.657 Y58.799 0.00000
G1 X40.619 Y58.838 0.00000
G1 X43.054 Y59.833 0.00000
G1 X44.388 Y60.234 0.00000
G1 X45.865 Y60.434 0.00000
G1 X46.321 Y60.426 0.00000
G2 X45.592 Y61.444 I3.041 J2.948
G1 X45.073 Y62.635 0.00000
G2 X46.124 Y66.591 I3.433 J1.206
G1 X46.469 Y66.834 0.00000
G1 X46.598 Y68.432 0.00000
G1 X47.611 Y68.535 0.00000
G1 X47.685 Y70.186 0.00000
G1 X48.292 Y70.153 0.00000
G1 X48.365 Y70.339 0.00000
G1 X48.088 Y70.565 0.00000
G1 X51.159 Y70.613 0.00000
G1 X51.189 Y70.849 0.00000
G1 X49.710 Y71.256 0.00000
G1 X46.448 Y72.386 0.00000
G1 X43.323 Y73.777 0.00000
G1 X42.528 Y74.205 0.00000
G1 X40.330 Y75.690 0.00000
G1 X38.506 Y77.353 0.00000
G1 X36.859 Y79.313 0.00000
G3 X36.130 Y78.383 I3.803 J-3.732
G1 X36.064 Y78.237 0.00000
G1 X36.920 Y76.194 0.00000
G1 X36.796 Y76.171 0.00000
G2 X37.516 Y75.344 I-2.289 J-2.720
G1 X38.099 Y74.207 0.00000
G1 X39.251 Y72.359 0.00000
G3 X36.827 Y70.284 I9.798 J-13.899
G1 X35.835 Y68.971 0.00000
G1 X35.127 Y67.616 0.00000
G1 X34.597 Y66.039 0.00000
G1 X34.283 Y64.132 0.00000
G1 X33.999 Y64.103 F900.000
G1 F900
G1 X33.992 Y62.013 0.00000
G1 X34.317 Y59.827 0.00000
G1 X34.962 Y57.682 0.00000
G1 X35.897 Y55.660 0.00000
G1 X37.119 Y53.767 0.00000
G1 X38.387 Y52.247 0.00000
G1 X39.672 Y51.030 0.00000
G1 X39.856 Y51.162 0.00000
G2 X39.544 Y54.529 I3.634 J2.035
G1 X38.642 Y56.804 0.00000
G1 X40.312 Y57.331 0.00000
G1 X40.213 Y58.411 0.00000
G1 X41.189 Y58.641 0.00000
G1 X41.098 Y58.736 0.00000
G1 X43.145 Y59.573 0.00000
G1 X44.446 Y59.964 0.00000
G1 X45.881 Y60.158 0.00000
G1 X47.002 Y60.138 0.00000
G2 X45.835 Y61.575 I3.151 J3.751
G1 X45.336 Y62.722 0.00000
G2 X46.733 Y66.683 I3.095 J1.135
G1 X46.854 Y68.182 0.00000
G1 X47.875 Y68.285 0.00000
G1 X47.948 Y69.896 0.00000
G1 X49.121 Y69.831 0.00000
G1 X49.193 Y70.018 0.00000
G1 X48.846 Y70.301 0.00000
G1 X53.088 Y70.368 0.00000
G1 X53.118 Y70.604 0.00000
G1 X49.791 Y71.519 0.00000
G1 X46.549 Y72.643 0.00000
G1 X43.445 Y74.024 0.00000
G1 X42.670 Y74.441 0.00000
G1 X40.501 Y75.907 0.00000
G1 X38.705 Y77.544 0.00000
G1 X37.094 Y79.461 0.00000
G1 X36.890 Y79.783 0.00000
G1 X36.053 Y78.768 0.00000
G3 X35.800 Y78.297 I1.050 J-0.867
G1 X35.817 Y78.114 0.00000
G1 X36.535 Y76.401 0.00000
G1 X36.264 Y76.349 0.00000
G1 X36.237 Y76.153 0.00000
G2 X37.280 Y75.199 I-1.018 J-2.160
G3 X38.886 Y72.424 I17.542 J8.300
G3 X36.622 Y70.469 I9.253 J-13.004
G1 X35.602 Y69.119 0.00000
G1 X34.873 Y67.724 0.00000
G1 X34.329 Y66.106 0.00000
G1 X34.008 Y64.155 0.00000
G1 X33.724 Y64.126 F900.000
G1 X39.261 Y63.665 F900.000
G1 X39.606 Y64.104 F900.000
G1 X39.890 Y65.585 F900.000
G1 X40.480 Y66.944 F900.000
G1 X42.324 Y69.358 F900.000
G1 X45.814 Y70.487 F900.000
G1 X48.284 Y70.930 F900.000
G1 X49.575 Y70.935 F900.000
G1 X53.504 Y70.415 F900.000
G1 X56.747 Y69.574 F900.000
G1 X59.054 Y68.623 F900.000
G1 X61.215 Y67.265 F900.000
G1 X63.056 Y65.619 F900.000
G1 X64.184 Y64.193 F900.000
G1 X65.555 Y61.765 F900.000
G1 X66.657 Y60.681 F900.000
G1 X66.568 Y59.976 F900.000
G1 X69.122 Y56.950 F900.000
G1 X69.421 Y55.830 F900.000
G1 X69.304 Y53.847 F900.000
G1 X68.307 Y53.214 F900.000
G1 X68.559 Y53.515 F900.000
G1 F900
G1 X68.683 Y53.310 0.00000
G1 X69.730 Y53.758 0.00000
G1 X69.317 Y54.169 0.00000
G2 X67.737 Y52.989 I-5.008 J5.057
G1 F900
G1 X66.656 Y52.617 0.00000
G1 X66.339 Y52.577 0.00000
G1 X66.348 Y52.326 0.00000
G1 X67.166 Y52.284 0.00000
G2 X67.843 Y52.769 I1.751 J-1.729
G1 X67.760 Y52.941 0.00000
G1 X64.398 Y52.679 F900.000
G1 F900
G1 X64.258 Y52.708 0.00000
G1 X63.302 Y53.109 0.00000
G1 X62.547 Y53.629 0.00000
G1 X62.385 Y53.477 0.00000
G3 X63.582 Y52.572 I1.602 J0.874
G3 X64.366 Y52.427 I0.811 J2.191
G3 X64.339 Y52.972 I-0.983 J0.224
G1 F900
G1 X63.435 Y53.352 0.00000
G2 X62.025 Y54.588 I2.367 J4.123
G1 X61.828 Y54.502 0.00000
G3 X62.705 Y52.687 I2.505 J0.091
G3 X64.174 Y52.161 I1.853 J2.860
G1 X67.266 Y52.004 0.00000
G1 X67.520 Y52.235 0.00000
G1 X68.818 Y53.068 0.00000
G1 X70.216 Y53.667 0.00000
G1 X69.313 Y54.570 0.00000
G2 X65.817 Y52.789 I-3.853 J3.242
G2 X64.391 Y52.962 I-0.188 J4.414
G1 X64.421 Y53.237 F900.000
G1 F900
G1 X63.568 Y53.595 0.00000
G2 X61.683 Y55.586 I2.473 J4.230
G1 X61.476 Y55.532 0.00000
G1 X61.481 Y54.888 0.00000
G1 X61.676 Y53.772 0.00000
G3 X63.423 Y52.043 I2.282 J0.558
G1 X64.137 Y51.887 0.00000
G1 X67.366 Y51.723 0.00000
G1 X67.688 Y52.015 0.00000
G1 X68.948 Y52.824 0.00000
G1 X70.356 Y53.427 0.00000
G1 X70.757 Y53.524 0.00000
G2 X69.309 Y54.971 I23.175 J24.639
G2 X65.805 Y53.065 I-3.907 J3.008
G2 X64.472 Y53.226 I-0.178 J4.122
G1 X64.503 Y53.501 F900.000
G1 F900
G1 X63.700 Y53.837 0.00000
G2 X61.541 Y56.595 I2.561 J4.229
G3 X61.206 Y54.863 I2.381 J-1.359
G1 X61.433 Y53.619 0.00000
G3 X63.343 Y51.779 I2.523 J0.708
G1 X64.101 Y51.613 0.00000
G1 X67.467 Y51.442 0.00000
G1 X67.856 Y51.796 0.00000
G1 X69.077 Y52.580 0.00000
G1 X70.443 Y53.165 0.00000
G1 X71.314 Y53.375 0.00000
G2 X69.305 Y55.371 I28.209 J30.401
G2 X67.311 Y53.715 I-4.737 J3.675
G1 X66.469 Y53.426 0.00000
G2 X64.554 Y53.490 I-0.831 J3.805
G1 X64.585 Y53.765 F900.000
G1 F900
G2 X62.006 Y56.140 I1.411 J4.119
G2 X61.673 Y57.241 I3.237 J1.580
G3 X60.931 Y54.838 I2.226 J-2.003
G1 X61.138 Y53.648 0.00000
G3 X63.263 Y51.514 I2.821 J0.684
G1 X64.064 Y51.339 0.00000
G1 X67.567 Y51.162 0.00000
G1 X68.024 Y51.577 0.00000
G1 X69.207 Y52.336 0.00000
G1 X70.530 Y52.903 0.00000
G1 X71.871 Y53.226 0.00000
G2 X69.302 Y55.772 I33.516 J36.388
G1 X68.401 Y54.801 0.00000
G2 X65.781 Y53.617 I-2.869 J2.858
G2 X64.636 Y53.754 I-0.159 J3.527
G1 X64.666 Y54.029 F900.000
G1 F900
G2 X62.256 Y56.256 I1.331 J3.858
G2 X61.900 Y57.815 I2.974 J1.499
G3 X60.656 Y54.813 I2.039 J-2.604
G1 X60.870 Y53.586 0.00000
G3 X63.184 Y51.250 I3.083 J0.740
G1 X64.027 Y51.066 0.00000
G1 X67.667 Y50.881 0.00000
G1 X68.193 Y51.358 0.00000
G1 X69.336 Y52.092 0.00000
G1 X70.617 Y52.640 0.00000
G1 X72.020 Y52.978 0.00000
G1 X72.499 Y53.008 0.00000
G2 X69.298 Y56.173 I39.821 J43.476
G1 X68.213 Y55.003 0.00000
G2 X65.224 Y53.914 I-2.641 J2.602
G1 X64.718 Y54.019 0.00000
G1 X72.686 Y53.223 F900.000
G1 F900
G1 X72.754 Y53.024 0.00000
G1 X73.396 Y53.064 0.00000
G2 X74.020 Y53.828 I4.054 J-2.675
G1 X73.860 Y54.014 0.00000
G1 X72.730 Y53.252 0.00000
G1 X72.474 Y53.412 F900.000
G1 F900
G2 X69.294 Y56.574 I40.160 J43.569
G1 X68.025 Y55.205 0.00000
G2 X64.748 Y54.293 I-2.423 J2.363
G2 X62.217 Y58.347 I1.254 J3.600
G3 X60.611 Y56.586 I2.042 J-3.475
G3 X60.381 Y54.788 I3.747 J-1.393
G1 X60.601 Y53.524 0.00000
G3 X63.104 Y50.986 I3.398 J0.848
G1 X63.991 Y50.792 0.00000
G1 X67.768 Y50.600 0.00000
G1 X68.361 Y51.138 0.00000
G1 X69.466 Y51.848 0.00000
G1 X70.704 Y52.378 0.00000
G1 X72.061 Y52.705 0.00000
G1 X73.540 Y52.797 0.00000
G2 X75.053 Y54.485 I7.501 J-5.202
G1 X74.456 Y54.747 0.00000
G1 X72.517 Y53.441 0.00000
G1 X72.503 Y53.764 F900.000
G1 F900
G2 X67.839 Y58.638 I33.267 J36.502
G1 X66.631 Y60.386 0.00000
G1 X64.672 Y63.964 0.00000
G1 X63.426 Y65.598 0.00000
G1 X61.939 Y67.004 0.00000
G1 X60.162 Y68.207 0.00000
G1 X59.425 Y68.559 0.00000
G1 X59.298 Y68.338 0.00000
G1 X61.125 Y67.096 0.00000
G1 X62.855 Y65.490 0.00000
G1 X64.001 Y64.022 0.00000
G1 X65.189 Y61.855 0.00000
G1 X65.343 Y61.809 0.00000
G1 X65.348 Y61.564 0.00000
G1 X65.529 Y61.234 0.00000
G1 X65.356 Y61.211 0.00000
G1 X65.362 Y60.921 0.00000
G1 X69.045 Y56.710 0.00000
G1 X67.836 Y55.407 0.00000
G2 X64.231 Y54.809 I-2.203 J2.113
G2 X62.446 Y57.954 I1.913 J3.165
G2 X62.638 Y58.857 I2.763 J-0.116
G3 X60.355 Y56.690 I1.594 J-3.965
G3 X60.106 Y54.764 I4.018 J-1.499
G1 X60.333 Y53.463 0.00000
G3 X63.025 Y50.721 I3.702 J0.942
G1 X63.954 Y50.518 0.00000
G1 X67.868 Y50.319 0.00000
G1 X68.529 Y50.919 0.00000
G1 X69.595 Y51.604 0.00000
G1 X70.791 Y52.116 0.00000
G1 X72.102 Y52.432 0.00000
G1 X73.691 Y52.540 0.00000
G2 X75.588 Y54.550 I7.231 J-4.924
G1 X74.227 Y55.148 0.00000
G1 X74.267 Y54.951 0.00000
G1 X72.547 Y53.793 0.00000
G1 X72.533 Y54.115 F900.000
G1 F900
G2 X68.056 Y58.808 I32.695 J35.672
G1 X66.866 Y60.531 0.00000
G1 X64.903 Y64.115 0.00000
G1 X63.631 Y65.782 0.00000
G1 X62.112 Y67.220 0.00000
G1 X60.300 Y68.446 0.00000
G1 X58.394 Y69.357 0.00000
G1 X55.966 Y70.135 0.00000
G2 X49.873 Y71.782 I33.221 J134.994
G1 X46.650 Y72.899 0.00000
G1 X43.566 Y74.272 0.00000
G1 X42.813 Y74.677 0.00000
G1 X40.672 Y76.124 0.00000
G1 X38.904 Y77.735 0.00000
G1 X37.317 Y79.624 0.00000
G1 X36.573 Y80.792 0.00000
G1 X36.349 Y80.675 0.00000
G1 X36.660 Y79.938 0.00000
G1 X35.831 Y78.932 0.00000
G3 X35.519 Y78.259 I0.826 J-0.792
G1 X35.554 Y78.029 0.00000
G1 X36.150 Y76.607 0.00000
G1 X35.066 Y76.399 0.00000
G1 X35.074 Y76.164 0.00000
G2 X37.045 Y75.055 I0.004 J-2.299
G3 X38.522 Y72.488 I16.272 J7.654
G3 X36.416 Y70.653 I8.594 J-11.990
G1 X35.368 Y69.267 0.00000
G1 X34.619 Y67.833 0.00000
G1 X34.061 Y66.172 0.00000
G1 X33.724 Y64.126 0.00000
G1 X33.717 Y61.993 0.00000
G1 X34.047 Y59.767 0.00000
G1 X34.704 Y57.584 0.00000
G1 X35.655 Y55.527 0.00000
G1 X36.897 Y53.604 0.00000
G1 X38.186 Y52.059 0.00000
G1 X40.060 Y50.284 0.00000
G1 X41.826 Y49.014 0.00000
G1 X41.989 Y49.215 0.00000
G2 X40.525 Y50.628 I6.968 J8.684
G2 X39.981 Y54.891 I3.194 J2.574
G1 X39.689 Y54.912 0.00000
G1 X39.007 Y56.630 0.00000
G1 X40.607 Y57.135 0.00000
G1 X40.509 Y58.198 0.00000
G1 X41.722 Y58.483 0.00000
G1 X41.577 Y58.635 0.00000
G2 X44.505 Y59.694 I6.970 J-14.695
G1 X45.897 Y59.883 0.00000
G1 X47.536 Y59.854 0.00000
G1 X47.601 Y60.044 0.00000
G2 X46.078 Y61.706 I2.357 J3.689
G1 X45.598 Y62.809 0.00000
G2 X46.995 Y66.508 I2.820 J1.048
G1 X47.110 Y67.931 0.00000
G1 X48.140 Y68.035 0.00000
G1 X48.210 Y69.606 0.00000
G1 X49.950 Y69.510 0.00000
G1 X50.022 Y69.696 0.00000
G1 X49.604 Y70.038 0.00000
G1 X53.458 Y70.098 0.00000
G1 X54.854 Y69.897 0.00000
G1 X56.678 Y69.344 0.00000
G1 X58.890 Y68.283 0.00000
G1 X60.953 Y66.880 0.00000
G1 X62.651 Y65.303 0.00000
G1 X63.771 Y63.870 0.00000
G1 X65.002 Y61.623 0.00000
G1 X65.072 Y61.602 0.00000
G3 X65.095 Y61.455 I0.153 J-0.051
G1 X65.075 Y61.452 0.00000
G1 X65.093 Y60.626 0.00000
G1 X65.203 Y60.685 0.00000
G1 X68.674 Y56.715 0.00000
G1 X67.648 Y55.609 0.00000
G2 X64.912 Y54.822 I-2.045 J1.962
G2 X62.771 Y58.343 I1.090 J3.074
G2 X63.133 Y59.187 I1.925 J-0.326
G1 X62.991 Y59.349 0.00000
G1 X61.843 Y58.756 0.00000
G3 X59.924 Y56.238 I2.184 J-3.655
G3 X59.831 Y54.739 I4.668 J-1.042
G1 X60.064 Y53.401 0.00000
G3 X62.945 Y50.457 I3.924 J0.958
G1 X63.918 Y50.244 0.00000
G1 X67.968 Y50.039 0.00000
G1 X68.697 Y50.700 0.00000
G1 X69.724 Y51.360 0.00000
G1 X70.878 Y51.854 0.00000
G1 X72.143 Y52.159 0.00000
G3 X73.743 Y52.269 I-0.305 J16.134
G3 X73.904 Y52.365 I-0.050 J0.266
G2 X76.260 Y54.721 I7.457 J-5.101
G1 X77.397 Y55.323 0.00000
G1 X77.792 Y55.452 0.00000
G1 X76.582 Y56.374 0.00000
G1 X76.702 Y55.311 0.00000
G1 X75.531 Y55.989 0.00000
G1 X76.019 Y54.662 0.00000
G1 X73.853 Y55.613 0.00000
G1 X73.961 Y55.077 0.00000
G1 X72.576 Y54.145 0.00000
G1 X55.303 Y26.240 F900.000
G1 F900
G1 X55.041 Y26.315 0.00000
G1 X54.315 Y23.852 0.00000
G1 X53.781 Y20.949 0.00000
G1 X53.502 Y17.715 0.00000
G1 X53.524 Y12.743 0.00000
G3 X54.038 Y13.032 I-0.709 J1.863
G1 X53.846 Y16.883 0.00000
G1 X54.010 Y20.105 0.00000
G1 X54.545 Y23.477 0.00000
G2 X55.344 Y26.387 I316.674 J-85.385
G1 X86.672 Y50.873 F900.000
G1 X86.583 Y50.823 F900.000
G1 F900
G1 X87.571 Y50.567 0.00000
G1 X87.669 Y50.770 0.00000
G1 X87.502 Y50.896 0.00000
G1 X86.999 Y51.513 0.00000
G1 X86.610 Y50.868 0.00000
G1 X82.070 Y51.592 F900.000
G1 X79.988 Y51.314 F900.000
G1 X78.650 Y50.598 F900.000
G1 X77.757 Y49.316 F900.000
G1 X77.425 Y47.753 F900.000
G1 X77.611 Y46.155 F900.000
G1 X78.424 Y45.795 F900.000
G1 F900
G1 X77.949 Y46.263 0.00000
G1 X77.471 Y47.010 0.00000
G1 X77.286 Y45.835 0.00000
G1 X78.371 Y45.797 0.00000
G1 X78.659 Y45.950 F900.000
G1 F900
G1 X78.164 Y46.437 0.00000
G1 X77.659 Y47.226 0.00000
G1 X77.535 Y47.758 0.00000
G1 X77.309 Y47.750 0.00000
G1 X76.966 Y45.571 0.00000
G1 X78.952 Y45.501 0.00000
G1 X79.017 Y45.694 0.00000
G1 X78.701 Y45.920 0.00000
G1 X78.836 Y46.161 F900.000
G1 F900
G1 X78.380 Y46.612 0.00000
G1 X77.917 Y47.335 0.00000
G2 X77.772 Y49.025 I3.163 J1.123
G1 X77.560 Y49.094 0.00000
G1 X77.136 Y48.361 0.00000
G1 X76.758 Y46.017 0.00000
G1 X74.273 Y45.549 0.00000
G1 X74.300 Y45.296 0.00000
G1 X75.726 Y45.339 0.00000
G1 X80.207 Y45.181 0.00000
G1 X80.248 Y45.416 0.00000
G2 X78.879 Y46.131 I0.926 J3.442
G1 X83.340 Y45.315 F900.000
G1 F900
G1 X83.340 Y45.072 0.00000
G1 X84.713 Y44.904 0.00000
G1 X89.348 Y43.935 0.00000
G1 X90.049 Y43.730 0.00000
G1 X90.134 Y43.978 0.00000
G1 X89.008 Y44.425 0.00000
G1 X85.331 Y45.515 0.00000
G1 X84.925 Y45.510 0.00000
G1 X83.392 Y45.321 0.00000
G1 X83.407 Y45.601 F900.000
G1 F900
G2 X81.030 Y45.328 I-2.592 J12.086
G1 X81.022 Y45.077 0.00000
G1 X84.668 Y44.632 0.00000
G1 X89.281 Y43.668 0.00000
G1 X93.534 Y42.427 0.00000
G1 X94.276 Y42.151 0.00000
G1 X94.380 Y42.388 0.00000
G1 X92.637 Y43.280 0.00000
G1 X89.098 Y44.686 0.00000
G1 X85.382 Y45.787 0.00000
G3 X84.902 Y45.784 I-0.228 J-1.889
G2 X71.498 Y44.238 I-102.226 J827.432
G1 F900
G3 X71.002 Y43.902 I0.560 J-1.361
G3 X70.973 Y43.264 I1.262 J-0.377
G1 X71.173 Y42.339 0.00000
G1 X71.414 Y42.359 0.00000
G1 X71.496 Y44.186 0.00000
G1 X78.380 Y39.622 F900.000
G1 F900
G1 X78.335 Y39.360 0.00000
G1 X81.057 Y38.796 0.00000
G1 X85.848 Y38.086 0.00000
G1 X86.548 Y38.019 0.00000
G1 X86.585 Y38.279 0.00000
G1 X82.202 Y39.104 0.00000
G1 X78.432 Y39.615 0.00000
G1 X77.748 Y39.985 F900.000
G1 F900
G1 X73.978 Y40.439 0.00000
G1 X73.929 Y40.189 0.00000
G1 X76.687 Y39.421 0.00000
G1 X81.009 Y38.525 0.00000
G1 X85.814 Y37.813 0.00000
G1 X90.470 Y37.362 0.00000
G1 X90.514 Y37.612 0.00000
G1 X87.556 Y38.376 0.00000
G1 X82.246 Y39.375 0.00000
G1 X77.800 Y39.978 0.00000
G1 X77.783 Y40.259 F900.000
G1 F900
G1 X71.628 Y40.999 0.00000
G1 X71.792 Y44.641 0.00000
G3 X70.741 Y44.005 I0.570 J-2.129
G3 X70.699 Y43.227 I1.606 J-0.477
G1 X71.015 Y41.766 0.00000
G2 X70.952 Y40.480 I-8.012 J-0.252
G1 X71.958 Y40.452 0.00000
G1 X76.622 Y39.153 0.00000
G1 X80.961 Y38.253 0.00000
G1 X85.781 Y37.540 0.00000
G1 X92.371 Y36.901 0.00000
G1 X93.155 Y36.847 0.00000
G1 X93.203 Y37.085 0.00000
G1 X91.684 Y37.595 0.00000
G1 X87.616 Y38.645 0.00000
G1 X82.290 Y39.647 0.00000
G1 X77.835 Y40.251 0.00000
G1 X77.818 Y40.532 F900.000
G1 F900
G1 X71.915 Y41.242 0.00000
G1 X72.086 Y45.052 0.00000
G1 X71.214 Y44.710 0.00000
G3 X70.497 Y44.133 I0.639 J-1.528
G3 X70.426 Y43.189 I1.773 J-0.608
G1 X70.740 Y41.738 0.00000
G2 X70.640 Y40.087 I-10.241 J-0.208
G1 X71.082 Y40.201 0.00000
G1 X71.917 Y40.178 0.00000
G1 X76.557 Y38.886 0.00000
G1 X80.913 Y37.982 0.00000
G1 X85.747 Y37.266 0.00000
G1 X92.348 Y36.627 0.00000
G1 X95.275 Y36.426 0.00000
G1 X95.323 Y36.663 0.00000
G1 X91.762 Y37.859 0.00000
G1 X87.675 Y38.914 0.00000
G1 X82.334 Y39.919 0.00000
G1 X77.870 Y40.525 0.00000
G1 X77.853 Y40.805 F900.000
G1 F900
G1 X72.201 Y41.485 0.00000
G1 X72.357 Y44.962 0.00000
G1 X75.725 Y45.064 0.00000
G1 X80.133 Y44.908 0.00000
G1 X84.623 Y44.360 0.00000
G1 X89.214 Y43.400 0.00000
G1 X93.447 Y42.165 0.00000
G1 X97.381 Y40.702 0.00000
G1 X97.491 Y40.924 0.00000
G1 X96.023 Y41.857 0.00000
G1 X92.751 Y43.531 0.00000
G1 X89.188 Y44.946 0.00000
G1 X85.433 Y46.059 0.00000
G3 X84.879 Y46.059 I-0.277 J-2.164
G3 X82.011 Y45.661 I4.725 J-44.579
G1 X80.856 Y45.594 0.00000
G2 X78.174 Y47.444 I0.316 J3.327
G2 X78.449 Y50.241 I3.413 J1.076
G1 X78.270 Y50.372 0.00000
G3 X77.498 Y49.535 I2.302 J-2.898
G1 X76.883 Y48.473 0.00000
G1 X76.826 Y48.227 0.00000
G1 X76.516 Y46.252 0.00000
G3 X72.034 Y45.328 I7.171 J-46.118
G1 X71.092 Y44.958 0.00000
G3 X70.197 Y44.133 I0.674 J-1.629
G3 X70.152 Y43.151 I2.299 J-0.597
G1 X70.464 Y41.710 0.00000
G2 X70.331 Y39.723 I-12.128 J-0.186
G1 X71.113 Y39.925 0.00000
G1 X71.876 Y39.904 0.00000
G1 X76.492 Y38.618 0.00000
G1 X80.865 Y37.711 0.00000
G1 X85.714 Y36.993 0.00000
G1 X92.325 Y36.353 0.00000
G1 X96.061 Y36.096 0.00000
G1 X97.128 Y35.978 0.00000
G1 X97.192 Y36.202 0.00000
G3 X95.511 Y36.890 I-10.061 J-22.186
G1 X91.841 Y38.123 0.00000
G1 X87.735 Y39.183 0.00000
G1 X82.378 Y40.191 0.00000
G1 X77.905 Y40.798 0.00000
G1 X77.888 Y41.078 F900.000
G1 F900
G1 X72.488 Y41.728 0.00000
G1 X72.621 Y44.695 0.00000
G1 X75.725 Y44.789 0.00000
G1 X80.111 Y44.633 0.00000
G1 X84.578 Y44.089 0.00000
G1 X89.147 Y43.133 0.00000
G1 X93.361 Y41.904 0.00000
G1 X98.056 Y40.157 0.00000
G1 X99.881 Y39.333 0.00000
G1 X100.008 Y39.539 0.00000
G3 X98.966 Y40.312 I-7.968 J-9.652
G1 X96.159 Y42.096 0.00000
G1 X92.865 Y43.782 0.00000
G1 X89.278 Y45.207 0.00000
G1 X85.473 Y46.331 0.00000
G3 X84.856 Y46.333 I-0.316 J-2.287
G3 X81.981 Y45.935 I4.585 J-43.707
G1 X80.868 Y45.870 0.00000
G2 X78.431 Y47.552 I0.305 J3.048
G2 X79.141 Y50.718 I3.093 J0.969
G1 X79.781 Y51.138 0.00000
G1 X79.681 Y51.354 0.00000
G3 X77.271 Y49.693 I0.905 J-3.891
G1 X76.607 Y48.522 0.00000
G1 X76.274 Y46.486 0.00000
G3 X71.952 Y45.591 I6.905 J-44.229
G1 X70.971 Y45.206 0.00000
G3 X69.936 Y44.221 I0.776 J-1.852
G3 X69.879 Y43.114 I2.525 J-0.685
G1 X70.189 Y41.682 0.00000
G1 X70.184 Y41.175 0.00000
G1 X70.010 Y39.220 0.00000
G1 X70.387 Y39.453 0.00000
G1 X71.144 Y39.649 0.00000
G1 X71.834 Y39.630 0.00000
G1 X76.427 Y38.350 0.00000
G1 X80.817 Y37.440 0.00000
G1 X85.680 Y36.720 0.00000
G1 X92.303 Y36.078 0.00000
G2 X98.756 Y35.520 I-3.396 J-76.861
G1 X98.819 Y35.745 0.00000
G3 X95.605 Y37.149 I-13.540 J-26.614
G1 X91.919 Y38.387 0.00000
G1 X87.795 Y39.452 0.00000
G1 X82.422 Y40.463 0.00000
G1 X77.940 Y41.071 0.00000
G1 X77.923 Y41.351 F900.000
G1 F900
G1 X72.774 Y41.970 0.00000
G1 X72.884 Y44.427 0.00000
G1 X75.724 Y44.513 0.00000
G1 X80.090 Y44.359 0.00000
G1 X84.533 Y43.817 0.00000
G1 X89.080 Y42.866 0.00000
G1 X93.274 Y41.642 0.00000
G1 X97.951 Y39.902 0.00000
G1 X101.735 Y38.193 0.00000
G1 X101.861 Y38.399 0.00000
G3 X99.121 Y40.540 I-21.493 J-24.682
G1 X96.296 Y42.335 0.00000
G1 X92.979 Y44.033 0.00000
G1 X89.368 Y45.467 0.00000
G1 X85.512 Y46.604 0.00000
G3 X84.833 Y46.608 I-0.354 J-2.525
G3 X81.952 Y46.209 I4.562 J-43.544
G1 X80.880 Y46.147 0.00000
G2 X78.688 Y47.661 I0.289 J2.762
G2 X79.333 Y50.514 I2.822 J0.862
G2 X80.985 Y51.454 I4.802 J-6.518
G1 X80.950 Y51.655 0.00000
G3 X77.564 Y50.481 I-0.566 J-3.838
G1 X77.044 Y49.850 0.00000
G1 X76.383 Y48.708 0.00000
G1 X76.285 Y48.327 0.00000
G1 X76.032 Y46.721 0.00000
G3 X71.869 Y45.854 I6.781 J-42.988
G1 X70.850 Y45.454 0.00000
G3 X69.674 Y44.309 I0.900 J-2.100
G3 X69.606 Y43.076 I2.778 J-0.772
G1 X69.913 Y41.653 0.00000
G1 X69.909 Y41.188 0.00000
G1 X69.678 Y38.596 0.00000
G2 X71.175 Y39.372 I1.884 J-1.802
G1 X71.793 Y39.355 0.00000
G1 X76.362 Y38.083 0.00000
G1 X80.768 Y37.169 0.00000
G1 X85.647 Y36.446 0.00000
G1 X92.280 Y35.804 0.00000
G2 X100.501 Y34.994 I-3.347 J-76.089
G1 X100.578 Y35.209 0.00000
G1 X100.432 Y35.294 0.00000
G1 X97.143 Y36.833 0.00000
G3 X95.699 Y37.408 I-16.668 J-39.759
G1 X91.997 Y38.651 0.00000
G1 X87.855 Y39.720 0.00000
G1 X82.466 Y40.735 0.00000
G1 X77.975 Y41.344 0.00000
G1 X76.773 Y39.773 F900.000
G1 X72.795 Y40.600 F900.000
G1 X71.563 Y41.048 F900.000
G1 X70.498 Y39.917 F900.000
G1 X69.638 Y38.465 F900.000
G1 X69.266 Y38.289 F900.000
G1 X68.706 Y38.330 F900.000
G1 X67.954 Y38.639 F900.000
G1 X66.056 Y40.048 F900.000
G1 X65.035 Y42.020 F900.000
G1 X64.292 Y44.380 F900.000
G1 X64.444 Y44.266 F900.000
G1 F900
G2 X64.451 Y45.328 I3.037 J0.511
G1 X63.787 Y45.191 0.00000
G1 X64.217 Y44.207 0.00000
G1 X64.394 Y44.253 0.00000
G1 X64.680 Y44.679 F900.000
G1 F900
G1 X64.752 Y45.672 0.00000
G1 X63.399 Y45.391 0.00000
G1 X65.835 Y39.813 0.00000
G1 X66.011 Y39.904 0.00000
G1 X66.354 Y39.711 0.00000
G1 X66.499 Y39.901 0.00000
G1 X66.367 Y40.035 0.00000
G1 X65.678 Y41.011 0.00000
G1 X65.150 Y42.128 0.00000
G1 X64.815 Y43.331 0.00000
G1 X64.685 Y44.626 0.00000
G1 X64.956 Y44.682 F900.000
G1 F900
G1 X65.053 Y46.016 0.00000
G1 X62.201 Y45.423 0.00000
G1 X61.702 Y45.373 0.00000
G1 X61.380 Y44.673 0.00000
G1 X63.305 Y44.919 0.00000
G1 X65.701 Y39.433 0.00000
G1 X66.006 Y39.591 0.00000
G1 X67.930 Y38.507 0.00000
G1 X68.075 Y38.697 0.00000
G1 X66.579 Y40.212 0.00000
G1 X65.916 Y41.150 0.00000
G1 X65.408 Y42.224 0.00000
G1 X65.087 Y43.382 0.00000
G1 X64.961 Y44.630 0.00000
G1 X65.232 Y44.686 F900.000
G1 F900
G1 X65.329 Y46.011 0.00000
G1 X65.418 Y46.373 0.00000
G1 X62.159 Y45.696 0.00000
G1 X61.518 Y45.631 0.00000
G1 X60.922 Y44.336 0.00000
G1 X63.136 Y44.619 0.00000
G1 X65.566 Y39.053 0.00000
G1 X66.000 Y39.278 0.00000
G1 X67.892 Y38.213 0.00000
G3 X68.845 Y38.310 I0.418 J0.626
G1 X66.790 Y40.389 0.00000
G1 X66.155 Y41.289 0.00000
G2 X65.358 Y43.433 I5.822 J3.384
G1 X65.237 Y44.634 0.00000
G1 X65.508 Y44.690 F900.000
G1 F900
G1 X65.602 Y45.968 0.00000
G1 X65.790 Y46.731 0.00000
G1 X62.117 Y45.968 0.00000
G1 X61.334 Y45.889 0.00000
G1 X60.465 Y44.000 0.00000
G1 X62.966 Y44.320 0.00000
G1 X65.432 Y38.673 0.00000
G1 X65.995 Y38.965 0.00000
G1 X67.776 Y37.962 0.00000
G3 X68.826 Y37.963 I0.524 J0.812
G1 X69.271 Y38.270 0.00000
G1 X67.002 Y40.566 0.00000
G2 X65.630 Y43.484 I4.889 J4.080
G1 X65.514 Y44.638 0.00000
G1 X65.870 Y47.055 F900.000
G1 F900
G2 X66.108 Y47.728 I2.792 J-0.609
G1 X65.949 Y47.854 0.00000
G2 X65.170 Y47.440 I-1.713 J2.282
G1 X65.824 Y47.080 0.00000
G1 X59.581 Y44.149 F900.000
G1 F900
G1 X58.884 Y44.140 0.00000
G1 X58.898 Y43.800 0.00000
G1 X59.599 Y43.890 0.00000
G1 X59.585 Y44.096 0.00000
G1 X60.361 Y44.433 F900.000
G1 F900
G1 X58.598 Y44.412 0.00000
G1 X58.636 Y43.489 0.00000
G1 X62.796 Y44.021 0.00000
G1 X65.297 Y38.293 0.00000
G1 X65.990 Y38.652 0.00000
G1 X67.661 Y37.711 0.00000
G3 X68.964 Y37.724 I0.641 J1.061
G1 X69.347 Y37.988 0.00000
G1 X69.344 Y37.953 0.00000
G1 X70.255 Y38.724 0.00000
G1 X70.605 Y38.941 0.00000
G2 X71.752 Y39.081 I0.817 J-1.928
G1 X76.297 Y37.815 0.00000
G1 X80.720 Y36.898 0.00000
G1 X85.614 Y36.173 0.00000
G1 X92.257 Y35.530 0.00000
G2 X101.942 Y34.478 I-3.375 J-76.176
G1 X102.019 Y34.693 0.00000
G1 X100.559 Y35.539 0.00000
G1 X97.254 Y37.085 0.00000
G1 X95.793 Y37.667 0.00000
G1 X92.076 Y38.915 0.00000
G1 X87.915 Y39.989 0.00000
G1 X82.510 Y41.006 0.00000
G3 X73.061 Y42.213 I-44.330 J-309.445
G1 X73.148 Y44.160 0.00000
G1 X75.723 Y44.238 0.00000
G1 X80.068 Y44.084 0.00000
G1 X84.489 Y43.545 0.00000
G1 X89.013 Y42.599 0.00000
G1 X93.188 Y41.381 0.00000
G1 X97.846 Y39.648 0.00000
G1 X102.614 Y37.494 0.00000
G1 X103.669 Y36.940 0.00000
G1 X103.807 Y37.142 0.00000
G1 X103.086 Y37.766 0.00000
G1 X100.078 Y40.189 0.00000
G1 X99.275 Y40.768 0.00000
G1 X96.433 Y42.574 0.00000
G1 X93.092 Y44.284 0.00000
G1 X89.458 Y45.728 0.00000
G1 X85.552 Y46.877 0.00000
G3 X84.809 Y46.882 I-0.390 J-2.738
G3 X81.923 Y46.483 I4.673 J-44.434
G1 X80.892 Y46.423 0.00000
G2 X78.946 Y47.770 I0.271 J2.470
G2 X79.524 Y50.311 I2.543 J0.758
G2 X81.663 Y51.371 I3.973 J-5.329
G2 X82.709 Y51.422 I0.656 J-2.711
G1 X82.748 Y51.681 0.00000
G1 X82.358 Y51.759 0.00000
G1 X80.694 Y51.965 0.00000
G3 X76.817 Y50.008 I-0.218 J-4.388
G1 X76.133 Y48.825 0.00000
G3 X76.014 Y48.377 I1.404 J-0.613
G1 X75.790 Y46.956 0.00000
G3 X71.786 Y46.117 I6.622 J-41.577
G1 X70.728 Y45.702 0.00000
G3 X69.412 Y44.396 I1.018 J-2.342
G3 X69.332 Y43.038 I3.050 J-0.861
G1 X69.638 Y41.625 0.00000
G1 X69.634 Y41.202 0.00000
G1 X69.396 Y38.535 0.00000
G1 X67.214 Y40.744 0.00000
G2 X65.901 Y43.535 I4.690 J3.911
G1 X65.785 Y44.694 0.00000
G1 X65.875 Y45.924 0.00000
G1 X66.175 Y47.140 0.00000
G2 X67.016 Y48.881 I7.050 J-2.332
G1 X66.830 Y49.025 0.00000
G1 X65.949 Y48.189 0.00000
G2 X64.434 Y47.531 I-2.189 J2.967
G1 X65.490 Y46.950 0.00000
G1 X62.075 Y46.240 0.00000
G1 X61.150 Y46.147 0.00000
G1 X60.383 Y44.481 0.00000
G1 X107.922 Y34.678 F900.000
G1 F900
G1 X108.693 Y34.232 0.00000
G3 X108.421 Y35.048 I-2.719 J-0.453
G1 X107.964 Y34.709 0.00000
G1 X107.422 Y34.649 F900.000
G1 F900
G1 X109.142 Y33.654 0.00000
G1 X108.789 Y34.906 0.00000
G1 X107.970 Y36.694 0.00000
G1 X106.850 Y38.436 0.00000
G1 X105.389 Y40.184 0.00000
G1 X103.654 Y41.883 0.00000
G1 X101.053 Y44.006 0.00000
G1 X98.271 Y45.878 0.00000
G1 X95.118 Y47.647 0.00000
G1 X91.494 Y49.360 0.00000
G2 X88.074 Y50.808 I25.500 J64.990
G1 X87.695 Y51.096 0.00000
G1 X86.966 Y51.990 0.00000
G1 X86.465 Y51.159 0.00000
G3 X82.402 Y52.031 I-15.672 J-63.120
G1 X80.710 Y52.240 0.00000
G3 X76.590 Y50.165 I-0.235 J-4.660
G1 X75.883 Y48.943 0.00000
G3 X75.549 Y47.190 I7.815 J-2.397
G3 X71.703 Y46.381 I6.320 J-39.592
G1 X70.607 Y45.950 0.00000
G3 X69.273 Y44.774 I1.232 J-2.742
G3 X69.059 Y43.001 I2.898 J-1.249
G1 X69.362 Y41.597 0.00000
G1 X69.359 Y41.215 0.00000
G1 X69.175 Y39.151 0.00000
G1 X67.426 Y40.921 0.00000
G2 X66.173 Y43.586 I4.469 J3.728
G1 X66.061 Y44.698 0.00000
G1 X66.147 Y45.881 0.00000
G2 X67.996 Y49.692 I7.286 J-1.181
G2 X69.854 Y51.116 I5.168 J-4.819
G1 X70.965 Y51.592 0.00000
G1 X72.184 Y51.885 0.00000
G3 X73.795 Y51.998 I-0.362 J16.695
G3 X74.109 Y52.180 I-0.095 J0.526
G2 X76.410 Y54.488 I7.298 J-4.975
G1 X77.505 Y55.068 0.00000
G1 X78.375 Y55.354 0.00000
G1 X76.237 Y56.983 0.00000
G1 X76.367 Y55.823 0.00000
G1 X75.010 Y56.610 0.00000
G1 X75.537 Y55.174 0.00000
G1 X73.479 Y56.078 0.00000
G1 X73.655 Y55.203 0.00000
G1 X72.562 Y54.467 0.00000
G2 X68.274 Y58.977 I32.139 J34.851
G1 X67.100 Y60.676 0.00000
G1 X65.135 Y64.265 0.00000
G1 X63.837 Y65.967 0.00000
G1 X62.284 Y67.435 0.00000
G1 X60.437 Y68.686 0.00000
G1 X58.495 Y69.614 0.00000
G1 X56.041 Y70.399 0.00000
G2 X49.955 Y72.045 I34.100 J138.157
G1 X46.752 Y73.155 0.00000
G1 X43.687 Y74.519 0.00000
G1 X42.956 Y74.913 0.00000
G1 X40.843 Y76.341 0.00000
G1 X39.103 Y77.926 0.00000
G1 X37.539 Y79.787 0.00000
G1 X35.920 Y82.331 0.00000
G1 X36.137 Y83.263 0.00000
G3 X35.315 Y85.079 I-21.867 J-8.804
G1 X35.306 Y86.433 0.00000
G1 X34.626 Y86.974 0.00000
G1 X35.053 Y83.633 0.00000
G1 X35.015 Y83.663 0.00000
G1 X34.845 Y83.534 0.00000
G1 X36.342 Y79.984 0.00000
G3 X35.404 Y78.782 I5.139 J-4.977
G3 X35.291 Y77.944 I0.827 J-0.538
G1 X35.765 Y76.813 0.00000
G1 X34.356 Y76.543 0.00000
G3 X28.831 Y76.053 I1.848 J-52.232
G1 X26.002 Y75.327 0.00000
G1 X23.329 Y74.310 0.00000
G1 X20.693 Y72.974 0.00000
G1 X18.061 Y71.295 0.00000
G1 X15.388 Y69.230 0.00000
G1 X13.864 Y67.883 0.00000
G3 X13.806 Y67.491 I0.535 J-0.279
G1 X15.069 Y61.744 0.00000
G1 X16.663 Y56.147 0.00000
G1 X18.541 Y50.861 0.00000
G1 X20.700 Y45.857 0.00000
G1 X23.138 Y41.105 0.00000
G1 X25.800 Y36.674 0.00000
G1 X26.027 Y36.813 0.00000
G2 X22.064 Y44.021 I144.246 J84.001
G1 X20.628 Y47.042 0.00000
G1 X18.657 Y51.828 0.00000
G1 X17.032 Y56.665 0.00000
G1 X15.750 Y61.554 0.00000
G1 X14.791 Y66.607 0.00000
G2 X15.355 Y68.345 I2.193 J0.249
G1 X17.850 Y70.385 0.00000
G1 X20.510 Y72.169 0.00000
G1 X23.212 Y73.595 0.00000
G1 X25.978 Y74.678 0.00000
G1 X28.829 Y75.427 0.00000
G1 X31.789 Y75.841 0.00000
G1 X34.895 Y75.909 0.00000
G2 X36.810 Y74.911 I0.046 J-2.248
G3 X38.157 Y72.553 I14.812 J6.898
G3 X35.135 Y69.415 I7.090 J-9.852
G1 X34.365 Y67.941 0.00000
G1 X33.792 Y66.239 0.00000
G1 X33.449 Y64.149 0.00000
G1 X33.442 Y61.973 0.00000
G1 X33.778 Y59.707 0.00000
G1 X34.446 Y57.486 0.00000
G1 X35.413 Y55.394 0.00000
G1 X36.675 Y53.440 0.00000
G1 X37.985 Y51.870 0.00000
G1 X39.884 Y50.071 0.00000
G1 X42.034 Y48.525 0.00000
G1 X44.475 Y47.224 0.00000
G1 X46.945 Y46.273 0.00000
G1 X47.962 Y46.009 0.00000
G1 X48.044 Y46.252 0.00000
G1 X45.938 Y47.121 0.00000
G1 X43.202 Y48.655 0.00000
G2 X40.742 Y50.798 I7.463 J11.050
G2 X40.446 Y55.135 I2.881 J2.375
G1 X39.881 Y55.174 0.00000
G1 X39.372 Y56.457 0.00000
G1 X40.901 Y56.939 0.00000
G1 X40.805 Y57.985 0.00000
G1 X42.254 Y58.325 0.00000
G1 X42.055 Y58.533 0.00000
G2 X44.563 Y59.424 I5.906 J-12.649
G1 X45.913 Y59.607 0.00000
G1 X47.490 Y59.579 0.00000
G1 X48.574 Y59.408 0.00000
G1 X48.657 Y59.607 0.00000
G1 X47.319 Y60.593 0.00000
G2 X46.321 Y61.837 I2.840 J3.301
G1 X45.860 Y62.896 0.00000
G2 X47.257 Y66.330 I2.558 J0.961
G1 X47.366 Y67.680 0.00000
G1 X48.404 Y67.785 0.00000
G1 X48.473 Y69.316 0.00000
G1 X50.779 Y69.189 0.00000
G1 X50.851 Y69.375 0.00000
G1 X50.362 Y69.774 0.00000
G1 X53.441 Y69.823 0.00000
G1 X54.794 Y69.628 0.00000
G1 X56.578 Y69.087 0.00000
G1 X58.753 Y68.043 0.00000
G1 X60.781 Y66.664 0.00000
G1 X62.448 Y65.116 0.00000
G1 X63.540 Y63.719 0.00000
G1 X64.660 Y61.676 0.00000
G1 X64.634 Y61.672 0.00000
G1 X64.616 Y61.450 0.00000
G1 X64.801 Y61.396 0.00000
G1 X64.827 Y60.169 0.00000
G1 X65.140 Y60.338 0.00000
G1 X68.304 Y56.720 0.00000
G1 X67.460 Y55.811 0.00000
G2 X64.993 Y55.086 I-1.859 J1.767
G2 X63.042 Y58.286 I1.010 J2.811
G2 X64.107 Y59.775 I2.348 J-0.554
G1 X63.997 Y59.980 0.00000
G1 X62.862 Y59.592 0.00000
G1 X61.698 Y58.991 0.00000
G3 X59.655 Y56.300 I2.332 J-3.891
G3 X59.556 Y54.714 I4.967 J-1.106
G1 X59.795 Y53.339 0.00000
G3 X62.865 Y50.192 I4.192 J1.018
G1 X63.881 Y49.970 0.00000
G1 X67.246 Y49.800 0.00000
G1 X65.775 Y48.403 0.00000
G2 X63.784 Y47.814 I-1.808 J2.453
G1 X63.728 Y47.606 0.00000
G1 X64.704 Y47.068 0.00000
G1 X62.033 Y46.513 0.00000
G1 X61.049 Y46.413 0.00000
G1 X60.421 Y46.454 0.00000
G1 X60.361 Y46.239 0.00000
G1 X60.787 Y46.016 0.00000
G1 X60.184 Y44.706 0.00000
G1 X58.311 Y44.684 0.00000
G1 X58.373 Y43.178 0.00000
G1 X62.626 Y43.722 0.00000
G1 X64.879 Y38.562 0.00000
G1 X62.965 Y37.272 0.00000
G1 X60.711 Y35.445 0.00000
G1 X58.783 Y33.452 0.00000
G1 X57.144 Y31.263 0.00000
G1 X55.779 Y28.845 0.00000
G1 X54.829 Y26.567 0.00000
G1 X54.047 Y23.916 0.00000
G1 X53.507 Y20.986 0.00000
G1 X53.227 Y17.727 0.00000
G1 X53.251 Y12.369 0.00000
G3 X54.325 Y12.890 I-0.633 J2.672
G1 X54.122 Y16.883 0.00000
G1 X54.284 Y20.077 0.00000
G1 X54.814 Y23.419 0.00000
G1 X55.599 Y26.277 0.00000
G1 X55.898 Y27.133 0.00000
G1 X57.085 Y29.845 0.00000
G1 X58.396 Y32.048 0.00000
G1 X60.064 Y34.141 0.00000
G1 X61.952 Y35.897 0.00000
G1 X64.056 Y37.339 0.00000
G1 X65.984 Y38.339 0.00000
G1 X67.545 Y37.460 0.00000
G3 X69.102 Y37.485 I0.758 J1.312
G3 X70.417 Y38.501 I-4.434 J7.097
G2 X71.710 Y38.807 I1.010 J-1.384
G1 X76.232 Y37.547 0.00000
G1 X80.672 Y36.627 0.00000
G1 X85.580 Y35.900 0.00000
G1 X92.235 Y35.255 0.00000
G2 X103.383 Y33.961 I-3.602 J-79.702
G1 X103.460 Y34.177 0.00000
G1 X100.687 Y35.783 0.00000
G1 X97.365 Y37.337 0.00000
G1 X95.888 Y37.925 0.00000
G1 X92.154 Y39.179 0.00000
G1 X87.975 Y40.258 0.00000
G1 X82.554 Y41.278 0.00000
G3 X73.347 Y42.456 I-43.623 J-304.376
G1 X73.411 Y43.893 0.00000
G1 X75.723 Y43.962 0.00000
G1 X80.047 Y43.809 0.00000
G1 X84.444 Y43.273 0.00000
G1 X88.947 Y42.331 0.00000
G1 X93.101 Y41.119 0.00000
G1 X97.742 Y39.393 0.00000
G1 X102.493 Y37.246 0.00000
G1 X105.650 Y35.590 0.00000
G1 X105.788 Y35.792 0.00000
G3 X99.430 Y40.996 I-59.403 J-66.090
G1 X96.570 Y42.814 0.00000
G1 X93.206 Y44.535 0.00000
G1 X89.549 Y45.988 0.00000
G1 X85.592 Y47.150 0.00000
G3 X84.786 Y47.157 I-0.430 J-3.106
G3 X81.894 Y46.757 I4.647 J-44.255
G1 X80.904 Y46.700 0.00000
G2 X79.203 Y47.879 I0.257 J2.188
G2 X79.716 Y50.107 I2.272 J0.650
G2 X81.725 Y51.102 I3.716 J-4.978
G2 X83.116 Y51.102 I0.696 J-3.831
G1 X86.047 Y50.677 0.00000
G1 X88.389 Y50.070 0.00000
G1 X90.019 Y49.496 0.00000
G1 X93.572 Y48.030 0.00000
G1 X96.784 Y46.385 0.00000
G1 X99.695 Y44.549 0.00000
G1 X102.337 Y42.507 0.00000
G1 X104.795 Y40.177 0.00000
G2 X107.720 Y36.421 I-29.414 J-25.923
G1 X108.265 Y35.276 0.00000
G1 X107.464 Y34.680 0.00000
G1 X107.897 Y34.605 F900.000
G1 X64.535 Y38.663 F900.000
G1 F900
G1 X62.457 Y43.423 0.00000
G1 X57.908 Y42.841 0.00000
G1 X54.631 Y42.172 0.00000
G1 X51.761 Y41.306 0.00000
G1 X49.204 Y40.231 0.00000
G1 X47.430 Y39.269 0.00000
G1 X46.507 Y38.601 0.00000
G3 X43.069 Y35.158 I78.489 J-81.813
G1 X44.175 Y35.051 0.00000
G1 X42.609 Y33.387 0.00000
G1 X42.958 Y32.751 0.00000
G1 X43.522 Y32.856 0.00000
G3 X41.803 Y30.419 I9.454 J-8.493
G1 X43.340 Y30.895 0.00000
G1 X41.991 Y28.660 0.00000
G1 X42.747 Y28.146 0.00000
G1 X43.130 Y28.351 0.00000
G1 X42.188 Y25.757 0.00000
G1 X43.093 Y25.442 0.00000
G1 X43.465 Y25.772 0.00000
G1 X43.304 Y23.811 0.00000
G1 X43.393 Y22.427 0.00000
G3 X44.581 Y19.381 I6.735 J0.872
G1 X46.036 Y17.654 0.00000
G1 X47.708 Y16.164 0.00000
G1 X49.718 Y14.766 0.00000
G1 X52.973 Y12.937 0.00000
G1 X52.952 Y17.738 0.00000
G1 X53.234 Y21.023 0.00000
G1 X53.779 Y23.980 0.00000
G1 X54.569 Y26.659 0.00000
G1 X55.532 Y28.966 0.00000
G1 X56.913 Y31.413 0.00000
G1 X58.573 Y33.631 0.00000
G1 X60.525 Y35.649 0.00000
G1 X62.801 Y37.494 0.00000
G1 X64.492 Y38.633 0.00000
G1 X65.204 Y38.505 F900.000
G1 X42.493 Y32.453 F900.000
G1 F900
G1 X42.066 Y33.233 0.00000
G1 X41.466 Y31.738 0.00000
G1 X41.284 Y31.070 0.00000
G1 X41.501 Y30.974 0.00000
G1 X42.189 Y32.076 0.00000
G1 X42.460 Y32.412 0.00000
G1 X41.108 Y27.927 F900.000
G1 F900
G1 X40.731 Y25.658 0.00000
G1 X41.016 Y25.755 0.00000
G1 X41.667 Y27.549 0.00000
G1 X41.152 Y27.898 0.00000
G1 X40.907 Y28.397 F900.000
G1 F900
G1 X40.384 Y25.249 0.00000
G1 X41.229 Y25.537 0.00000
G1 X41.999 Y27.656 0.00000
G1 X40.951 Y28.367 0.00000
G1 X41.249 Y28.497 F900.000
G1 F900
G1 X42.121 Y29.941 0.00000
G1 X40.870 Y29.554 0.00000
G1 X40.743 Y29.088 0.00000
G1 X40.037 Y24.839 0.00000
G1 X41.443 Y25.319 0.00000
G1 X42.331 Y27.763 0.00000
G1 X41.293 Y28.468 0.00000
G1 X41.669 Y25.355 F900.000
G1 F900
G1 X41.549 Y25.189 0.00000
G2 X42.359 Y23.808 I-2.323 J-2.290
G1 X42.555 Y23.016 0.00000
G1 X42.800 Y23.057 0.00000
G2 X42.844 Y24.945 I6.510 J0.793
G1 X41.719 Y25.338 0.00000
G1 X39.750 Y24.497 F900.000
G1 F900
G1 X39.098 Y24.484 0.00000
G3 X39.551 Y23.700 I3.041 J1.234
G1 X39.750 Y23.757 0.00000
G1 X39.750 Y24.444 0.00000
G1 X40.026 Y24.778 F900.000
G1 F900
G1 X38.676 Y24.750 0.00000
G1 X38.946 Y24.150 0.00000
G1 X39.826 Y22.737 0.00000
G1 X40.026 Y22.794 0.00000
G1 X40.026 Y24.725 0.00000
G1 X40.301 Y24.638 F900.000
G1 F900
G1 X41.350 Y24.997 0.00000
G2 X42.170 Y23.385 I-2.095 J-2.080
G1 X42.809 Y21.024 0.00000
G1 X43.544 Y19.347 0.00000
G1 X44.369 Y18.057 0.00000
G1 X45.318 Y16.988 0.00000
G1 X46.598 Y15.956 0.00000
G2 X51.007 Y13.053 I-101.818 J-159.438
G3 X52.540 Y12.351 I2.303 J3.005
G3 X53.071 Y12.346 I0.279 J1.467
G1 X53.113 Y12.543 0.00000
G1 X49.572 Y14.532 0.00000
G1 X47.537 Y15.948 0.00000
G1 X45.838 Y17.462 0.00000
G1 X44.355 Y19.221 0.00000
G1 X43.757 Y20.230 0.00000
G2 X43.119 Y22.388 I6.620 J3.131
G1 X43.028 Y23.813 0.00000
G1 X43.136 Y25.135 0.00000
G1 X41.834 Y25.589 0.00000
G1 X42.663 Y27.871 0.00000
G1 X41.620 Y28.578 0.00000
G1 X42.731 Y30.418 0.00000
G1 X41.177 Y29.937 0.00000
G1 X42.414 Y31.916 0.00000
G1 X42.822 Y32.424 0.00000
G1 X42.272 Y33.430 0.00000
G1 X43.590 Y34.831 0.00000
G1 X42.595 Y34.927 0.00000
G1 X42.092 Y34.035 0.00000
G1 X41.205 Y31.826 0.00000
G1 X40.474 Y29.147 0.00000
G1 X39.793 Y25.048 0.00000
G1 X38.301 Y25.018 0.00000
G1 X38.494 Y25.081 0.00000
G1 X38.112 Y26.916 0.00000
G1 X37.929 Y29.143 0.00000
G1 X38.000 Y30.469 0.00000
G1 X37.745 Y30.500 0.00000
G1 X37.608 Y29.774 0.00000
G1 X37.523 Y28.217 0.00000
G1 X37.687 Y26.781 0.00000
G1 X38.069 Y25.427 0.00000
G1 X38.702 Y24.020 0.00000
G1 X39.706 Y22.410 0.00000
G1 X40.117 Y21.899 0.00000
G1 X40.301 Y21.964 0.00000
G1 X40.301 Y24.586 0.00000
G1 X40.105 Y24.944 F900.000
G1 X78.892 Y47.800 F900.000
G1 X79.460 Y47.987 F900.000
G1 F900
G3 X80.916 Y46.976 I1.698 J0.892
G3 X83.179 Y47.237 I-0.204 J11.706
G2 X85.269 Y47.454 I2.462 J-13.535
G1 X85.769 Y47.395 0.00000
G1 X89.639 Y46.248 0.00000
G1 X93.320 Y44.786 0.00000
G1 X96.707 Y43.053 0.00000
G1 X99.584 Y41.224 0.00000
G1 X100.412 Y40.627 0.00000
G2 X107.273 Y34.881 I-81.421 J-104.190
G1 X107.920 Y35.362 0.00000
G1 X107.481 Y36.284 0.00000
G3 X104.594 Y39.988 I-32.298 J-22.197
G1 X102.158 Y42.298 0.00000
G1 X99.537 Y44.323 0.00000
G1 X96.648 Y46.145 0.00000
G1 X93.456 Y47.779 0.00000
G1 X89.921 Y49.239 0.00000
G1 X88.309 Y49.807 0.00000
G1 X85.993 Y50.407 0.00000
G3 X82.517 Y50.888 I-7.760 J-43.277
G3 X80.472 Y50.275 I0.024 J-3.798
G1 X79.908 Y49.903 0.00000
G3 X79.448 Y48.038 I1.553 J-1.372
G1 X80.025 Y43.535 F900.000
G1 F900
G1 X84.399 Y43.001 0.00000
G1 X88.880 Y42.064 0.00000
G1 X93.014 Y40.858 0.00000
G1 X97.637 Y39.138 0.00000
G1 X102.372 Y36.999 0.00000
G1 X107.075 Y34.531 0.00000
G1 X109.591 Y33.076 0.00000
G1 X109.048 Y35.001 0.00000
G1 X108.212 Y36.827 0.00000
G1 X107.073 Y38.599 0.00000
G1 X105.592 Y40.371 0.00000
G1 X103.837 Y42.088 0.00000
G1 X101.218 Y44.227 0.00000
G1 X98.416 Y46.113 0.00000
G1 X95.244 Y47.892 0.00000
G1 X91.606 Y49.611 0.00000
G2 X88.216 Y51.046 I24.262 J62.038
G1 X87.887 Y51.295 0.00000
G1 X87.000 Y52.384 0.00000
G1 X85.846 Y53.405 0.00000
G1 X83.748 Y54.798 0.00000
G2 X82.785 Y56.063 I1.209 J1.920
G1 X82.076 Y58.918 0.00000
G1 X81.084 Y61.550 0.00000
G1 X79.761 Y64.156 0.00000
G1 X78.573 Y66.059 0.00000
G1 X76.913 Y68.220 0.00000
G1 X75.027 Y70.194 0.00000
G1 X72.260 Y72.608 0.00000
G2 X65.784 Y77.781 I117.086 J153.218
G1 X62.066 Y81.254 0.00000
G1 X58.619 Y84.955 0.00000
G1 X55.432 Y88.893 0.00000
G1 X52.494 Y93.079 0.00000
G3 X49.147 Y98.161 I-90.941 J-56.250
G1 X46.155 Y101.990 0.00000
G1 X45.575 Y102.691 0.00000
G1 X43.341 Y105.101 0.00000
G1 X41.200 Y106.965 0.00000
G1 X38.712 Y108.672 0.00000
G1 X36.456 Y109.858 0.00000
G1 X34.284 Y110.667 0.00000
G1 X32.392 Y111.058 0.00000
G1 X30.548 Y111.148 0.00000
G1 X29.888 Y111.075 0.00000
G2 X33.031 Y108.957 I-23.955 J-38.938
G1 X34.957 Y107.225 0.00000
G1 X36.494 Y105.353 0.00000
G1 X37.613 Y103.406 0.00000
G1 X38.326 Y101.479 0.00000
G1 X38.725 Y99.405 0.00000
G1 X38.792 Y97.185 0.00000
G1 X38.519 Y94.873 0.00000
G1 X38.349 Y94.039 0.00000
G1 X37.556 Y93.616 0.00000
G1 X37.521 Y93.693 0.00000
G1 X36.376 Y90.796 0.00000
G1 X35.708 Y92.021 0.00000
G1 X35.594 Y89.830 0.00000
G1 X34.783 Y90.546 0.00000
G1 X35.031 Y87.004 0.00000
G1 X34.267 Y87.612 0.00000
G1 X34.694 Y84.270 0.00000
G1 X34.005 Y84.817 0.00000
G1 X36.024 Y80.031 0.00000
G3 X35.162 Y78.915 I4.723 J-4.539
G3 X35.029 Y77.859 I1.046 J-0.668
G1 X35.380 Y77.020 0.00000
G1 X34.321 Y76.816 0.00000
G3 X28.772 Y76.322 I1.840 J-52.085
G1 X25.918 Y75.589 0.00000
G1 X23.217 Y74.562 0.00000
G1 X20.557 Y73.214 0.00000
G1 X17.902 Y71.520 0.00000
G1 X15.212 Y69.443 0.00000
G1 X13.645 Y68.056 0.00000
G3 X13.532 Y67.452 I0.759 J-0.455
G1 X14.802 Y61.677 0.00000
G1 X16.400 Y56.063 0.00000
G1 X18.285 Y50.761 0.00000
G1 X20.451 Y45.740 0.00000
G1 X22.897 Y40.971 0.00000
G1 X25.428 Y36.741 0.00000
G3 X29.257 Y31.244 I116.946 J77.378
G1 X29.383 Y32.029 0.00000
G1 X29.877 Y33.515 0.00000
G1 X30.514 Y34.740 0.00000
G2 X32.457 Y36.715 I5.255 J-3.226
G1 X33.070 Y37.022 0.00000
G1 X34.275 Y37.431 0.00000
G3 X32.877 Y31.228 I71.328 J-19.335
G3 X33.116 Y28.381 I5.438 J-0.977
G1 X33.648 Y27.186 0.00000
G1 X34.013 Y26.625 0.00000
G1 X34.009 Y27.354 0.00000
G1 X34.264 Y28.990 0.00000
G1 X34.703 Y30.358 0.00000
G1 X35.320 Y31.576 0.00000
G1 X36.187 Y32.763 0.00000
G1 X38.001 Y34.604 0.00000
G1 X38.028 Y33.129 0.00000
G3 X37.334 Y29.807 I43.934 J-10.912
G1 X37.247 Y28.209 0.00000
G1 X37.416 Y26.727 0.00000
G1 X37.810 Y25.333 0.00000
G1 X38.459 Y23.890 0.00000
G1 X39.481 Y22.250 0.00000
G1 X40.576 Y20.891 0.00000
G1 X40.576 Y24.441 0.00000
G1 X41.253 Y24.673 0.00000
G2 X41.903 Y23.320 I-1.715 J-1.657
G1 X42.548 Y20.932 0.00000
G1 X43.301 Y19.217 0.00000
G1 X44.149 Y17.890 0.00000
G1 X45.126 Y16.789 0.00000
G1 X46.308 Y15.820 0.00000
G2 X50.859 Y12.821 I-118.693 J-185.070
G3 X52.498 Y12.078 I2.434 J3.191
G3 X54.611 Y12.774 I0.321 J2.580
G1 X54.572 Y13.262 0.00000
G1 X54.398 Y16.882 0.00000
G1 X54.559 Y20.048 0.00000
G1 X55.084 Y23.360 0.00000
G1 X55.862 Y26.195 0.00000
G1 X56.155 Y27.032 0.00000
G1 X57.330 Y29.719 0.00000
G1 X58.623 Y31.891 0.00000
G1 X60.266 Y33.954 0.00000
G1 X62.124 Y35.682 0.00000
G1 X64.197 Y37.102 0.00000
G1 X65.979 Y38.026 0.00000
G1 X67.430 Y37.209 0.00000
G3 X69.240 Y37.246 I0.874 J1.554
G3 X70.579 Y38.277 I-4.456 J7.173
G2 X71.669 Y38.533 I0.851 J-1.173
G1 X76.167 Y37.280 0.00000
G1 X80.624 Y36.355 0.00000
G1 X85.547 Y35.627 0.00000
G1 X92.212 Y34.981 0.00000
G2 X99.347 Y34.347 I-4.006 J-85.546
G1 X104.562 Y33.488 0.00000
G1 X105.075 Y33.377 0.00000
G1 X103.995 Y34.185 0.00000
G1 X100.814 Y36.027 0.00000
G1 X97.476 Y37.589 0.00000
G3 X95.982 Y38.184 I-16.960 J-40.411
G1 X92.232 Y39.443 0.00000
G1 X88.035 Y40.527 0.00000
G1 X82.598 Y41.550 0.00000
G3 X73.633 Y42.699 I-42.779 J-298.233
G1 X73.675 Y43.625 0.00000
G1 X75.722 Y43.687 0.00000
G1 X79.973 Y43.537 0.00000
G1 X85.253 Y33.193 F900.000
G1 X79.220 Y34.831 F900.000
G1 F900
G3 X71.900 Y36.798 I-130.286 J-470.243
G3 X71.191 Y36.624 I-0.126 J-1.019
G2 X69.400 Y35.443 I-4.287 J4.552
G2 X67.068 Y35.617 I-0.944 J3.065
G1 X66.332 Y35.937 0.00000
G3 X65.602 Y35.872 I-0.259 J-1.225
G3 X60.055 Y31.080 I5.747 J-12.259
G3 X56.490 Y21.774 I19.359 J-12.752
G3 X56.068 Y16.779 I32.157 J-5.232
G1 X56.094 Y13.258 0.00000
G3 X79.190 Y34.788 I-35.219 J60.933
G1 X64.091 Y26.524 F900.000
G1 F900
G1 X64.274 Y26.385 0.00000
G3 X67.480 Y29.521 I-30.270 J34.153
G1 X66.586 Y29.704 0.00000
G3 X64.115 Y26.571 I6.365 J-7.561
G1 X63.978 Y26.910 F900.000
G1 F900
G3 X63.232 Y25.374 I12.151 J-6.851
G1 X63.409 Y25.243 0.00000
G3 X68.100 Y29.774 I-38.053 J44.091
G2 X66.523 Y29.999 I-0.009 J5.575
G3 X64.004 Y26.955 I6.204 J-7.699
G1 X63.735 Y27.042 F900.000
G1 F900
G3 X62.564 Y24.424 I13.814 J-7.750
G1 X62.739 Y24.302 0.00000
G3 X68.710 Y30.017 I-39.583 J47.333
G2 X66.458 Y30.295 I-0.172 J7.869
G3 X63.761 Y27.088 I6.159 J-7.917
G1 X63.491 Y27.175 F900.000
G1 F900
G3 X62.006 Y23.592 I14.819 J-8.241
G1 X62.174 Y23.478 0.00000
G3 X69.398 Y30.367 I-39.031 J48.161
G1 X68.704 Y30.295 0.00000
G2 X66.392 Y30.591 I-0.145 J8.047
G3 X63.518 Y27.220 I6.189 J-8.187
G1 X63.248 Y27.307 F900.000
G1 F900
G3 X61.515 Y22.834 I15.502 J-8.578
G1 X61.681 Y22.728 0.00000
G3 X70.074 Y30.715 I-38.685 J49.055
G1 X68.698 Y30.572 0.00000
G1 X67.549 Y30.637 0.00000
G1 X66.340 Y30.898 0.00000
G3 X63.274 Y27.353 I6.262 J-8.514
G1 X63.005 Y27.440 F900.000
G1 F900
G3 X61.008 Y21.835 I16.367 J-8.990
G3 X70.697 Y31.004 I-39.480 J51.423
G1 X70.589 Y31.178 0.00000
G1 X69.817 Y30.967 0.00000
G2 X66.299 Y31.204 I-1.289 J7.098
G3 X63.031 Y27.485 I6.229 J-8.769
G1 X62.762 Y27.572 F900.000
G1 F900
G3 X60.606 Y21.202 I17.086 J-9.333
G3 X71.610 Y31.653 I-38.230 J51.272
G1 X71.477 Y31.826 0.00000
G1 X70.808 Y31.524 0.00000
G2 X66.264 Y31.508 I-2.295 J6.482
G3 X62.788 Y27.618 I6.170 J-9.011
G1 X62.519 Y27.705 F900.000
G1 F900
G3 X60.236 Y20.581 I17.831 J-9.642
G3 X72.725 Y32.572 I-38.390 J52.484
G1 X72.384 Y32.662 0.00000
G2 X66.228 Y31.812 I-3.880 J5.385
G3 X62.545 Y27.750 I6.146 J-9.274
G1 X62.276 Y27.837 F900.000
G1 F900
G3 X59.871 Y19.964 I18.558 J-9.973
G3 X73.213 Y32.729 I-38.661 J53.764
G1 X72.338 Y32.961 0.00000
G2 X66.192 Y32.117 I-3.851 J5.241
G3 X62.494 Y28.218 I5.776 J-9.182
G1 X62.302 Y27.883 0.00000
G1 X62.032 Y27.970 F900.000
G1 F900
G3 X59.540 Y19.400 I18.915 J-10.147
G3 X73.681 Y32.892 I-37.769 J53.742
G1 X72.292 Y33.259 0.00000
G2 X68.665 Y31.961 I-3.938 J5.288
G2 X66.157 Y32.421 I-0.095 J6.549
G3 X62.258 Y28.361 I5.802 J-9.474
G1 X62.058 Y28.015 0.00000
G1 X61.789 Y28.102 F900.000
G1 F900
G3 X59.215 Y18.838 I19.408 J-10.382
G3 X74.155 Y33.053 I-37.393 J54.259
G1 X72.230 Y33.562 0.00000
G2 X67.763 Y32.289 I-3.799 J4.856
G2 X66.121 Y32.725 I0.919 J6.771
G3 X62.021 Y28.505 I5.850 J-9.785
G1 X61.815 Y28.148 0.00000
G1 X61.546 Y28.235 F900.000
G1 F900
G3 X59.031 Y19.950 I19.397 J-10.412
G1 X58.890 Y18.276 0.00000
G3 X74.628 Y33.214 I-37.212 J54.964
G1 X72.166 Y33.865 0.00000
G2 X66.104 Y33.023 I-3.715 J4.501
G3 X61.784 Y28.649 I5.752 J-10.001
G1 X61.572 Y28.280 0.00000
G1 X61.303 Y28.367 F900.000
G1 F900
G3 X58.756 Y19.981 I19.619 J-10.538
G3 X58.588 Y17.730 I20.797 J-2.684
G3 X75.101 Y33.375 I-37.236 J55.839
G1 X72.103 Y34.169 0.00000
G2 X68.646 Y32.794 I-3.756 J4.411
G2 X66.091 Y33.327 I0.019 J6.482
G3 X61.547 Y28.792 I5.694 J-10.249
G1 X61.329 Y28.413 0.00000
G1 X61.060 Y28.500 F900.000
G1 F900
G3 X58.480 Y20.012 I19.891 J-10.682
G3 X58.295 Y17.215 I25.916 J-3.119
G3 X75.572 Y33.533 I-36.890 J56.363
G1 X72.039 Y34.472 0.00000
G2 X68.639 Y33.071 I-3.724 J4.212
G2 X66.082 Y33.633 I0.035 J6.258
G3 X61.310 Y28.936 I5.657 J-10.520
G1 X61.086 Y28.545 0.00000
G1 X60.816 Y28.632 F900.000
G1 F900
G3 X58.205 Y20.042 I20.132 J-10.811
G3 X58.002 Y16.698 I31.424 J-3.586
G3 X76.034 Y33.694 I-36.526 J56.816
G1 X71.976 Y34.775 0.00000
G2 X68.632 Y33.349 I-3.691 J4.021
G2 X66.073 Y33.939 I0.053 J6.073
G3 X61.652 Y29.984 I5.223 J-10.286
G3 X60.843 Y28.678 I13.861 J-9.490
G1 X60.573 Y28.765 F900.000
G1 F900
G3 X57.930 Y20.073 I20.364 J-10.940
G3 X57.731 Y16.195 I28.255 J-3.394
G3 X76.490 Y33.856 I-36.221 J57.266
G1 X71.913 Y35.078 0.00000
G2 X68.626 Y33.627 I-3.659 J3.841
G2 X66.063 Y34.245 I0.069 J5.909
G3 X61.423 Y30.141 I5.243 J-10.603
G3 X60.599 Y28.810 I14.253 J-9.744
G1 X60.330 Y28.897 F900.000
G1 F900
G3 X57.655 Y20.103 I20.583 J-11.065
G3 X57.458 Y15.690 I31.943 J-3.637
G3 X76.945 Y34.019 I-36.040 J57.840
G1 X71.849 Y35.381 0.00000
G2 X69.869 Y34.138 I-4.123 J4.369
G2 X66.571 Y34.326 I-1.407 J4.334
G1 X66.054 Y34.551 0.00000
G3 X61.195 Y30.298 I5.264 J-10.916
G3 X60.356 Y28.943 I14.145 J-9.696
G1 X60.087 Y29.030 F900.000
G1 F900
G3 X57.379 Y20.134 I20.856 J-11.209
G3 X57.185 Y15.185 I35.877 J-3.885
G3 X77.401 Y34.181 I-35.970 J58.535
G1 X71.786 Y35.684 0.00000
G2 X69.775 Y34.399 I-4.677 J5.104
G2 X66.671 Y34.585 I-1.313 J4.074
G1 X66.045 Y34.856 0.00000
G3 X60.966 Y30.454 I5.289 J-11.233
G3 X60.113 Y29.075 I14.289 J-9.792
G1 X59.844 Y29.162 F900.000
G1 F900
G3 X57.104 Y20.164 I21.075 J-11.334
G3 X56.912 Y14.709 I39.839 J-4.133
G3 X77.856 Y34.344 I-35.512 J58.867
G1 X71.765 Y35.976 0.00000
G1 X71.645 Y35.926 0.00000
G2 X69.681 Y34.660 I-4.617 J5.006
G2 X66.770 Y34.844 I-1.220 J3.819
G1 X66.101 Y35.134 0.00000
G1 X65.905 Y35.096 0.00000
G3 X60.738 Y30.611 I5.431 J-11.476
G3 X59.870 Y29.208 I14.206 J-9.759
G1 X59.601 Y29.295 F900.000
G1 F900
G3 X56.829 Y20.195 I21.308 J-11.463
G3 X56.639 Y14.224 I43.450 J-4.371
G3 X78.312 Y34.507 I-35.311 J59.451
G3 X71.810 Y36.251 I-116.524 J-421.434
G3 X71.493 Y36.159 I-0.039 J-0.458
G2 X69.587 Y34.922 I-4.493 J4.836
G2 X66.870 Y35.102 I-1.129 J3.559
G1 X66.165 Y35.408 0.00000
G3 X65.804 Y35.355 I-0.059 J-0.853
G3 X60.510 Y30.768 I5.528 J-11.729
G3 X59.627 Y29.340 I15.050 J-10.293
G1 X59.357 Y29.427 F900.000
G1 F900
G3 X56.553 Y20.225 I21.588 J-11.606
G3 X56.365 Y13.739 I47.484 J-4.622
G3 X78.768 Y34.669 I-35.160 J60.089
G3 X71.855 Y36.525 I-124.762 J-450.897
G3 X71.342 Y36.392 I-0.059 J-0.829
G2 X69.493 Y35.183 I-4.421 J4.744
G2 X66.970 Y35.361 I-1.034 J3.315
G1 X66.249 Y35.673 0.00000
G3 X65.703 Y35.614 I-0.160 J-1.074
G3 X60.281 Y30.925 I5.632 J-11.992
G3 X59.384 Y29.473 I15.197 J-10.391
G1 X111.088 Y25.954 F900.000
G1 X113.349 Y28.725 F900.000
G1 X113.081 Y33.602 F900.000
G1 X112.684 Y36.458 F900.000
G1 X111.379 Y41.549 F900.000
G1 X110.325 Y44.487 F900.000
G1 X88.707 Y53.756 F900.000
G1 F900
G3 X93.564 Y76.216 I-90.579 J31.343
G3 X94.001 Y93.600 I-127.961 J11.914
G3 X92.416 Y95.920 I-2.437 J0.036
G3 X89.284 Y96.738 I-6.057 J-16.788
G3 X73.476 Y99.218 I-62.731 J-348.238
G3 X49.993 Y100.216 I-19.597 J-184.344
G2 X55.456 Y91.824 I-357.629 J-238.782
G3 X62.491 Y83.243 I47.943 J32.131
G1 X63.250 Y82.522 0.00000
G3 X70.712 Y76.081 I113.743 J124.230
G1 X74.480 Y72.968 0.00000
G2 X80.612 Y66.210 I-19.984 J-24.294
G2 X84.374 Y56.877 I-21.561 J-14.116
G3 X84.832 Y56.265 I1.084 J0.334
G1 X88.656 Y53.643 0.00000
G1 X88.685 Y53.708 0.00000
G1 X80.439 Y84.869 F900.000
G1 F900
G1 X81.075 Y84.343 0.00000
G1 X81.102 Y84.964 0.00000
G1 X80.526 Y85.060 0.00000
G1 X80.460 Y84.916 0.00000
G1 X81.378 Y84.960 F900.000
G1 F900
G1 X81.380 Y85.197 0.00000
G1 X79.556 Y85.504 0.00000
G1 X79.469 Y85.312 0.00000
G1 X81.327 Y83.776 0.00000
G1 X81.375 Y84.908 0.00000
G1 X81.654 Y84.953 F900.000
G1 F900
G1 X81.658 Y85.430 0.00000
G1 X78.602 Y85.933 0.00000
G1 X78.515 Y85.744 0.00000
G1 X81.579 Y83.210 0.00000
G1 X81.651 Y84.901 0.00000
G1 X81.929 Y84.946 F900.000
G1 F900
G1 X81.935 Y85.663 0.00000
G3 X77.670 Y86.357 I-28.580 J-162.185
G1 X77.584 Y86.167 0.00000
G1 X81.832 Y82.644 0.00000
G1 X81.927 Y84.894 0.00000
G1 X82.205 Y84.939 F900.000
G1 F900
G1 X82.213 Y85.896 0.00000
G3 X76.738 Y86.780 I-36.637 J-209.516
G1 X76.652 Y86.591 0.00000
G3 X82.084 Y82.078 I238.794 J281.895
G1 X82.203 Y84.887 0.00000
G1 X82.481 Y84.932 F900.000
G1 F900
G1 X82.491 Y86.129 0.00000
G3 X75.806 Y87.204 I-43.824 J-251.203
G1 X75.720 Y87.014 0.00000
G3 X82.335 Y81.492 I429.759 J508.100
G1 X82.479 Y84.880 0.00000
G1 X82.757 Y84.925 F900.000
G1 F900
G1 X82.769 Y86.362 0.00000
G3 X74.876 Y87.623 I-49.194 J-282.587
G1 X74.793 Y87.434 0.00000
G3 X81.843 Y81.560 I316.124 J372.246
G1 X82.586 Y80.900 0.00000
G1 X82.755 Y84.873 0.00000
G1 X83.033 Y84.918 F900.000
G1 F900
G1 X83.047 Y86.595 0.00000
G3 X73.976 Y88.019 I-43.972 J-250.502
G1 X73.893 Y87.831 0.00000
G3 X81.664 Y81.351 I349.050 J410.691
G1 X82.814 Y80.329 0.00000
G1 X82.867 Y81.015 0.00000
G1 X83.031 Y84.866 0.00000
G1 X83.309 Y84.911 F900.000
G1 F900
G1 X83.325 Y86.828 0.00000
G3 X73.102 Y88.413 I-44.192 J-251.273
G1 X73.018 Y88.228 0.00000
G1 X73.438 Y87.853 0.00000
G3 X81.484 Y81.141 I364.498 J428.762
G1 X83.045 Y79.753 0.00000
G1 X83.143 Y80.999 0.00000
G1 X83.307 Y84.859 0.00000
G1 X83.585 Y84.904 F900.000
G1 F900
G1 X83.603 Y87.061 0.00000
G3 X72.251 Y88.803 I-35.763 J-195.197
G1 X72.166 Y88.619 0.00000
G1 X73.257 Y87.645 0.00000
G3 X81.305 Y80.932 I353.462 J415.574
G1 X83.277 Y79.178 0.00000
G3 X83.583 Y84.852 I-79.975 J7.158
G1 X83.861 Y84.897 F900.000
G1 F900
G1 X83.881 Y87.294 0.00000
G3 X71.428 Y89.162 I-40.919 J-230.345
G1 X71.348 Y88.979 0.00000
G1 X73.076 Y87.436 0.00000
G3 X81.125 Y80.722 I367.499 J432.390
G1 X83.509 Y78.603 0.00000
G3 X83.859 Y84.845 I-87.408 J8.032
G1 X84.137 Y84.890 F900.000
G1 F900
G1 X84.159 Y87.527 0.00000
G3 X72.335 Y89.349 I-36.839 J-199.791
G1 X70.612 Y89.521 0.00000
G1 X70.532 Y89.338 0.00000
G1 X72.895 Y87.228 0.00000
G3 X80.945 Y80.512 I367.006 J431.722
G1 X83.146 Y78.556 0.00000
G1 X83.735 Y77.952 0.00000
G3 X84.135 Y84.838 I-97.402 J9.113
G1 X84.413 Y84.883 F900.000
G1 F900
G1 X84.437 Y87.760 0.00000
G3 X72.366 Y89.623 I-47.858 J-270.048
G1 X69.798 Y89.880 0.00000
G1 X69.716 Y89.701 0.00000
G3 X76.897 Y83.498 I106.455 J115.981
G1 X80.766 Y80.303 0.00000
G1 X82.955 Y78.356 0.00000
G1 X83.962 Y77.323 0.00000
G3 X84.411 Y84.831 I-104.868 J10.039
G1 X84.689 Y84.876 F900.000
G1 F900
G1 X84.715 Y87.993 0.00000
G3 X72.398 Y89.897 I-49.130 J-277.032
G1 X68.755 Y90.261 0.00000
G1 X69.607 Y89.424 0.00000
G3 X76.720 Y83.286 I109.741 J119.982
G1 X80.586 Y80.093 0.00000
G1 X82.765 Y78.156 0.00000
G1 X84.176 Y76.709 0.00000
G1 X84.224 Y77.122 0.00000
G3 X84.687 Y84.824 I-107.682 J10.338
G1 X84.965 Y84.869 F900.000
G1 F900
G1 X84.993 Y88.226 0.00000
G3 X72.430 Y90.171 I-49.762 J-279.872
G1 X68.690 Y90.545 0.00000
G1 X68.054 Y90.587 0.00000
G3 X69.420 Y89.221 I17.427 J16.061
G3 X76.544 Y83.074 I108.841 J118.938
G1 X80.406 Y79.884 0.00000
G1 X82.574 Y77.957 0.00000
G1 X84.383 Y76.101 0.00000
G1 X84.498 Y77.095 0.00000
G3 X84.963 Y84.817 I-108.235 J10.393
G1 X85.241 Y84.862 F900.000
G1 F900
G1 X85.271 Y88.459 0.00000
G3 X72.461 Y90.445 I-50.988 J-286.574
G3 X67.357 Y90.911 I-9.672 J-77.751
G3 X69.233 Y89.018 I23.306 J21.220
G3 X76.367 Y82.863 I109.042 J119.174
G1 X80.227 Y79.674 0.00000
G1 X82.383 Y77.757 0.00000
G1 X84.591 Y75.493 0.00000
G3 X85.238 Y84.810 I-99.178 J11.568
G1 X85.517 Y84.855 F900.000
G1 F900
G1 X85.549 Y88.693 0.00000
G3 X72.493 Y90.720 I-52.248 J-293.472
G3 X66.704 Y91.231 I-10.716 J-88.353
G3 X69.046 Y88.815 I23.916 J20.840
G3 X76.190 Y82.651 I108.580 J118.621
G1 X80.047 Y79.464 0.00000
G1 X82.192 Y77.557 0.00000
G1 X84.270 Y75.427 0.00000
G1 X84.789 Y74.807 0.00000
G3 X85.514 Y84.803 I-100.642 J12.324
G1 X85.793 Y84.848 F900.000
G1 F900
G1 X85.827 Y88.926 0.00000
G3 X72.525 Y90.994 I-53.506 J-300.354
G3 X66.061 Y91.550 I-11.680 J-97.943
G3 X68.859 Y88.612 I25.367 J21.356
G3 X76.013 Y82.439 I108.125 J118.076
G1 X79.868 Y79.255 0.00000
G1 X82.002 Y77.357 0.00000
G1 X84.065 Y75.241 0.00000
G1 X84.989 Y74.139 0.00000
G3 X85.790 Y84.796 I-102.135 J13.035
G1 X86.068 Y84.841 F900.000
G1 F900
G1 X86.101 Y89.159 0.00000
G3 X72.557 Y91.268 I-53.900 J-301.603
G3 X65.418 Y91.870 I-12.756 J-108.645
G3 X68.672 Y88.409 I27.124 J22.241
G3 X75.837 Y82.227 I109.445 J119.604
G1 X79.688 Y79.045 0.00000
G1 X81.811 Y77.158 0.00000
G1 X83.861 Y75.056 0.00000
G1 X85.190 Y73.470 0.00000
G3 X86.066 Y84.789 I-105.358 J13.847
G1 X86.344 Y84.834 F900.000
G1 F900
G1 X86.371 Y89.394 0.00000
G3 X72.588 Y91.542 I-55.288 J-309.468
G3 X64.776 Y92.189 I-13.741 J-118.428
G3 X68.485 Y88.206 I31.905 J25.991
G3 X75.660 Y82.015 I108.984 J119.052
G1 X79.508 Y78.836 0.00000
G1 X81.620 Y76.958 0.00000
G1 X83.656 Y74.871 0.00000
G1 X85.375 Y72.819 0.00000
G1 X85.443 Y73.254 0.00000
G3 X86.342 Y84.781 I-106.133 J14.076
G1 X86.620 Y84.827 F900.000
G1 F900
G1 X86.656 Y89.043 0.00000
G1 X86.642 Y89.628 0.00000
G3 X72.620 Y91.816 I-55.834 J-311.791
G3 X64.199 Y92.505 I-14.740 J-128.345
G3 X68.298 Y88.003 I29.760 J22.979
G3 X75.483 Y81.803 I109.703 J119.868
G1 X79.329 Y78.626 0.00000
G1 X81.430 Y76.758 0.00000
G1 X83.451 Y74.686 0.00000
G1 X85.257 Y72.529 0.00000
G1 X85.547 Y72.123 0.00000
G1 X85.716 Y73.217 0.00000
G3 X86.618 Y84.774 I-106.679 J14.140
G1 X86.896 Y84.820 F900.000
G1 F900
G1 X86.932 Y89.045 0.00000
G1 X86.913 Y89.862 0.00000
G3 X72.652 Y92.091 I-57.308 J-319.921
G1 X68.850 Y92.470 0.00000
G1 X63.608 Y92.813 0.00000
G3 X68.111 Y87.800 I31.021 J23.336
G3 X75.306 Y81.591 I109.243 J119.317
G1 X79.149 Y78.417 0.00000
G1 X81.239 Y76.559 0.00000
G1 X83.246 Y74.501 0.00000
G1 X85.039 Y72.360 0.00000
G1 X85.716 Y71.411 0.00000
G3 X86.894 Y84.767 I-98.324 J15.402
G1 X87.172 Y84.813 F900.000
G1 F900
G1 X87.208 Y89.047 0.00000
G1 X87.183 Y90.097 0.00000
G3 X72.684 Y92.365 I-58.105 J-323.977
G3 X63.019 Y93.117 I-16.175 J-145.401
G3 X67.924 Y87.597 I32.750 J24.162
G3 X75.130 Y81.379 I109.539 J119.659
G1 X78.969 Y78.207 0.00000
G1 X81.048 Y76.359 0.00000
G1 X83.041 Y74.315 0.00000
G1 X84.821 Y72.191 0.00000
G1 X85.885 Y70.698 0.00000
G3 X87.170 Y84.760 I-99.199 J16.155
G1 X87.448 Y84.806 F900.000
G1 F900
G1 X87.484 Y89.049 0.00000
G1 X87.454 Y90.331 0.00000
G3 X72.715 Y92.639 I-59.227 J-330.007
G3 X62.431 Y93.422 I-16.931 J-154.440
G3 X67.737 Y87.394 I36.504 J26.783
G3 X74.953 Y81.167 I110.106 J120.299
G1 X78.790 Y77.997 0.00000
G1 X80.857 Y76.159 0.00000
G1 X82.836 Y74.130 0.00000
G1 X84.602 Y72.023 0.00000
G1 X86.054 Y69.986 0.00000
G3 X87.446 Y84.753 I-100.802 J16.951
G1 X87.724 Y84.799 F900.000
G1 F900
G1 X87.760 Y89.052 0.00000
G1 X87.724 Y90.565 0.00000
G3 X72.747 Y92.913 I-60.338 J-335.933
G3 X61.891 Y93.724 I-17.489 J-161.043
G3 X67.550 Y87.191 I34.452 J24.126
G3 X74.776 Y80.955 I110.830 J121.120
G1 X78.610 Y77.788 0.00000
G1 X80.667 Y75.959 0.00000
G1 X82.631 Y73.945 0.00000
G1 X84.384 Y71.854 0.00000
G1 X85.928 Y69.687 0.00000
G1 X86.213 Y69.211 0.00000
G3 X87.722 Y84.746 I-102.998 J17.846
G1 X88.000 Y84.792 F900.000
G1 F900
G3 X87.995 Y90.799 I-94.012 J2.925
G3 X72.779 Y93.187 I-60.888 J-338.296
G3 X61.337 Y94.027 I-18.335 J-171.396
G3 X67.363 Y86.988 I36.475 J25.127
G3 X74.599 Y80.743 I110.365 J120.564
G1 X78.431 Y77.578 0.00000
G1 X80.476 Y75.760 0.00000
G1 X82.427 Y73.760 0.00000
G1 X84.165 Y71.685 0.00000
G1 X85.697 Y69.536 0.00000
G1 X86.339 Y68.463 0.00000
G1 X86.520 Y69.388 0.00000
G3 X87.998 Y84.739 I-102.908 J17.655
G1 X88.276 Y84.785 F900.000
G1 F900
G3 X88.265 Y91.034 I-97.049 J2.954
G3 X72.810 Y93.462 I-62.575 J-347.906
G3 X60.784 Y94.330 I-19.019 J-179.765
G3 X67.176 Y86.784 I38.476 J26.111
G3 X74.423 Y80.531 I110.141 J120.323
G1 X78.251 Y77.369 0.00000
G2 X83.947 Y71.516 I-24.141 J-29.191
G1 X85.466 Y69.384 0.00000
G1 X86.471 Y67.704 0.00000
G1 X86.791 Y69.340 0.00000
G3 X88.274 Y84.732 I-102.965 J17.688
G1 X88.552 Y84.778 F900.000
G1 F900
G3 X88.536 Y91.255 I-100.939 J2.989
G3 X72.842 Y93.736 I-59.749 J-327.078
G3 X60.230 Y94.633 I-19.832 J-189.731
G3 X66.989 Y86.581 I41.116 J27.651
G3 X74.246 Y80.319 I110.860 J121.139
G1 X78.071 Y77.159 0.00000
G2 X83.728 Y71.347 I-23.863 J-28.886
G1 X85.234 Y69.233 0.00000
G1 X86.604 Y66.944 0.00000
G3 X88.550 Y84.725 I-99.441 J19.880
G1 X88.828 Y84.771 F900.000
G1 F900
G3 X88.807 Y91.479 I-104.943 J3.025
G1 X88.301 Y91.588 0.00000
G3 X72.874 Y94.010 I-62.346 J-346.770
G3 X59.677 Y94.935 I-20.395 J-196.367
G3 X66.180 Y86.969 I44.681 J29.838
G1 X66.802 Y86.378 0.00000
G3 X74.069 Y80.107 I111.431 J121.783
G1 X77.892 Y76.949 0.00000
G2 X85.003 Y69.082 I-23.200 J-28.118
G1 X86.300 Y66.915 0.00000
G1 X86.578 Y66.350 0.00000
G1 X86.774 Y66.376 0.00000
G3 X88.826 Y84.718 I-99.908 J20.463
G1 X89.104 Y84.764 F900.000
G1 F900
G3 X89.078 Y91.704 I-108.964 J3.062
G1 X88.352 Y91.859 0.00000
G3 X72.906 Y94.284 I-61.938 J-344.108
G3 X59.170 Y95.228 I-20.395 J-196.353
G3 X65.986 Y86.773 I43.516 J28.105
G1 X66.615 Y86.175 0.00000
G3 X73.892 Y79.895 I112.161 J122.611
G1 X77.712 Y76.740 0.00000
G2 X84.772 Y68.931 I-23.022 J-27.910
G1 X86.057 Y66.783 0.00000
G1 X86.817 Y65.242 0.00000
G1 X86.908 Y65.622 0.00000
G3 X89.102 Y84.711 I-101.120 J21.293
G1 X89.380 Y84.757 F900.000
G1 F900
G3 X89.349 Y91.928 I-112.914 J3.097
G1 X88.404 Y92.130 0.00000
G3 X72.937 Y94.558 I-62.155 J-345.464
G3 X58.656 Y95.516 I-19.994 J-191.131
G3 X65.792 Y86.577 I44.229 J27.990
G1 X66.428 Y85.972 0.00000
G3 X73.716 Y79.683 I111.262 J121.569
G1 X77.532 Y76.530 0.00000
G2 X84.541 Y68.780 I-22.856 J-27.715
G1 X85.815 Y66.651 0.00000
G1 X86.908 Y64.434 0.00000
G1 X87.177 Y65.564 0.00000
G3 X89.377 Y84.704 I-101.108 J21.318
G1 X89.656 Y84.750 F900.000
G1 F900
G3 X89.619 Y92.153 I-115.709 J3.123
G1 X88.456 Y92.401 0.00000
G3 X72.969 Y94.832 I-61.804 J-343.186
G3 X58.142 Y95.803 I-19.826 J-189.047
G3 X65.598 Y86.380 I45.350 J28.222
G1 X66.241 Y85.769 0.00000
G3 X73.539 Y79.471 I111.987 J122.391
G1 X77.353 Y76.321 0.00000
G2 X84.310 Y68.628 I-22.715 J-27.534
G1 X85.572 Y66.519 0.00000
G1 X86.646 Y64.341 0.00000
G1 X86.850 Y63.827 0.00000
G1 X87.051 Y63.841 0.00000
G1 X87.447 Y65.505 0.00000
G3 X89.653 Y84.697 I-101.350 J21.372
G1 X89.932 Y84.743 F900.000
G1 F900
G3 X89.890 Y92.377 I-119.669 J3.159
G1 X88.508 Y92.672 0.00000
G3 X73.001 Y95.107 I-62.396 J-346.764
G3 X57.627 Y96.090 I-19.728 J-187.830
G3 X65.403 Y86.184 I46.631 J28.599
G1 X66.054 Y85.566 0.00000
G3 X73.362 Y79.259 I111.523 J121.835
G1 X77.173 Y76.111 0.00000
G2 X84.079 Y68.477 I-22.482 J-27.279
G2 X86.394 Y64.229 I-25.149 J-16.460
G1 X86.915 Y62.911 0.00000
G1 X87.116 Y62.925 0.00000
G3 X89.756 Y80.600 I-93.938 J23.066
G1 X89.929 Y84.690 0.00000
G1 X90.208 Y84.736 F900.000
G1 F900
G3 X90.162 Y92.576 I-123.678 J3.194
G3 X88.559 Y92.943 I-2.886 J-8.922
G3 X73.032 Y95.381 I-61.949 J-343.873
G3 X57.113 Y96.377 I-19.785 J-188.513
G3 X63.598 Y87.652 I50.413 J30.698
G3 X65.867 Y85.363 I28.435 J25.918
G3 X73.185 Y79.047 I113.297 J123.873
G1 X76.994 Y75.901 0.00000
G2 X83.848 Y68.326 I-22.362 J-27.121
G2 X86.981 Y61.996 I-24.528 J-16.081
G1 X87.182 Y62.010 0.00000
G3 X90.205 Y84.683 I-99.166 J24.760
G1 X90.483 Y84.729 F900.000
G1 F900
