; generated by Slic3r 1.3.0 on 2023-03-25 at 00:38:53

; external perimeters extrusion width = 0.50mm (2.95mm^3/s)
; perimeters extrusion width = 0.50mm (2.95mm^3/s)
; infill extrusion width = 0.50mm (2.95mm^3/s)
; solid infill extrusion width = 0.50mm (2.95mm^3/s)
; top infill extrusion width = 0.50mm (2.95mm^3/s)


; Filament gcode

G21 ; set units to millimeters
G90 ; use absolute coordinates
G1 Z-149.500 F900.000
G1 X12.343 Y11.590 F900.000
G1 F900
G1 X13.000 Y10.890 0.00000
G1 X14.513 Y9.638 0.00000
G1 X16.208 Y8.559 0.00000
G1 X18.008 Y7.712 0.00000
G1 X19.897 Y7.098 0.00000
G1 X21.850 Y6.726 0.00000
G1 X23.810 Y6.603 0.00000
G1 X25.815 Y6.726 0.00000
G1 X27.768 Y7.098 0.00000
G1 X29.658 Y7.712 0.00000
G1 X31.456 Y8.559 0.00000
G1 X33.134 Y9.623 0.00000
G1 X34.665 Y10.890 0.00000
G1 X36.026 Y12.339 0.00000
G1 X37.194 Y13.946 0.00000
G1 X38.151 Y15.688 0.00000
G1 X38.883 Y17.536 0.00000
G1 X39.371 Y19.438 0.00000
G1 X39.626 Y21.430 0.00000
G1 X39.626 Y23.419 0.00000
G1 X39.377 Y25.391 0.00000
G1 X38.883 Y27.316 0.00000
G1 X38.151 Y29.163 0.00000
G1 X37.194 Y30.905 0.00000
G1 X36.026 Y32.512 0.00000
G1 X34.665 Y33.961 0.00000
G1 X33.134 Y35.228 0.00000
G1 X31.456 Y36.293 0.00000
G1 X29.658 Y37.139 0.00000
G1 X27.768 Y37.753 0.00000
G1 X25.839 Y38.121 0.00000
G1 X23.834 Y38.250 0.00000
G1 X21.850 Y38.125 0.00000
G1 X19.897 Y37.753 0.00000
G1 X18.008 Y37.139 0.00000
G1 X16.209 Y36.293 0.00000
G1 X14.532 Y35.228 0.00000
G1 X13.000 Y33.961 0.00000
G1 X11.640 Y32.512 0.00000
G1 X10.486 Y30.924 0.00000
G1 X9.515 Y29.165 0.00000
G1 X8.783 Y27.316 0.00000
G1 X8.295 Y25.413 0.00000
G1 X8.040 Y23.421 0.00000
G1 X8.040 Y21.432 0.00000
G1 X8.286 Y19.484 0.00000
G1 X8.782 Y17.537 0.00000
G1 X9.515 Y15.688 0.00000
G1 X10.472 Y13.946 0.00000
G1 X11.640 Y12.339 0.00000
G1 X12.283 Y11.654 0.00000
G1 X12.629 Y11.859 F900.000
G1 F900
G1 X13.270 Y11.177 0.00000
G1 X14.745 Y9.956 0.00000
G1 X16.398 Y8.904 0.00000
G1 X18.152 Y8.078 0.00000
G1 X19.995 Y7.479 0.00000
G1 X21.899 Y7.116 0.00000
G1 X23.810 Y6.996 0.00000
G1 X25.766 Y7.116 0.00000
G1 X27.670 Y7.479 0.00000
G1 X29.513 Y8.078 0.00000
G1 X31.267 Y8.903 0.00000
G1 X32.903 Y9.942 0.00000
G1 X34.396 Y11.177 0.00000
G1 X35.723 Y12.589 0.00000
G1 X36.862 Y14.157 0.00000
G1 X37.795 Y15.855 0.00000
G1 X38.509 Y17.657 0.00000
G1 X38.985 Y19.512 0.00000
G1 X39.233 Y21.456 0.00000
G1 X39.233 Y23.394 0.00000
G1 X38.990 Y25.317 0.00000
G1 X38.509 Y27.194 0.00000
G1 X37.795 Y28.996 0.00000
G1 X36.862 Y30.694 0.00000
G1 X35.723 Y32.262 0.00000
G1 X34.396 Y33.674 0.00000
G1 X32.903 Y34.909 0.00000
G1 X31.267 Y35.948 0.00000
G1 X29.513 Y36.773 0.00000
G1 X27.670 Y37.372 0.00000
G1 X25.790 Y37.730 0.00000
G1 X23.834 Y37.857 0.00000
G1 X21.899 Y37.735 0.00000
G1 X19.995 Y37.372 0.00000
G1 X18.152 Y36.773 0.00000
G1 X16.399 Y35.948 0.00000
G1 X14.763 Y34.909 0.00000
G1 X13.270 Y33.674 0.00000
G1 X11.943 Y32.262 0.00000
G1 X10.818 Y30.713 0.00000
G1 X9.871 Y28.997 0.00000
G1 X9.157 Y27.194 0.00000
G1 X8.681 Y25.339 0.00000
G1 X8.432 Y23.396 0.00000
G1 X8.432 Y21.457 0.00000
G1 X8.672 Y19.557 0.00000
G1 X9.157 Y17.658 0.00000
G1 X9.871 Y15.855 0.00000
G1 X10.804 Y14.157 0.00000
G1 X11.943 Y12.589 0.00000
G1 X12.569 Y11.923 0.00000
G1 X12.915 Y12.128 F900.000
G1 F900
G1 X13.539 Y11.464 0.00000
G1 X14.977 Y10.275 0.00000
G1 X16.588 Y9.248 0.00000
G1 X18.297 Y8.444 0.00000
G1 X20.093 Y7.861 0.00000
G1 X21.948 Y7.507 0.00000
G1 X23.810 Y7.390 0.00000
G1 X25.717 Y7.507 0.00000
G1 X27.573 Y7.861 0.00000
G1 X29.369 Y8.444 0.00000
G1 X31.077 Y9.248 0.00000
G1 X32.672 Y10.260 0.00000
G1 X34.127 Y11.464 0.00000
G1 X35.419 Y12.840 0.00000
G1 X36.529 Y14.368 0.00000
G1 X37.439 Y16.023 0.00000
G1 X38.134 Y17.779 0.00000
G1 X38.598 Y19.586 0.00000
G1 X38.841 Y21.481 0.00000
G1 X38.841 Y23.370 0.00000
G1 X38.604 Y25.243 0.00000
G1 X38.134 Y27.072 0.00000
G1 X37.439 Y28.828 0.00000
G1 X36.529 Y30.483 0.00000
G1 X35.419 Y32.011 0.00000
G1 X34.127 Y33.387 0.00000
G1 X32.672 Y34.591 0.00000
G1 X31.077 Y35.603 0.00000
G1 X29.369 Y36.407 0.00000
G1 X27.573 Y36.991 0.00000
G1 X25.740 Y37.340 0.00000
G1 X23.834 Y37.463 0.00000
G1 X21.948 Y37.344 0.00000
G1 X20.093 Y36.991 0.00000
G1 X18.297 Y36.407 0.00000
G1 X16.589 Y35.603 0.00000
G1 X14.994 Y34.591 0.00000
G1 X13.539 Y33.387 0.00000
G1 X12.246 Y32.011 0.00000
G1 X11.150 Y30.501 0.00000
G1 X10.227 Y28.829 0.00000
G1 X9.531 Y27.072 0.00000
G1 X9.067 Y25.265 0.00000
G1 X8.825 Y23.371 0.00000
G1 X8.825 Y21.481 0.00000
G1 X9.059 Y19.630 0.00000
G1 X9.531 Y17.779 0.00000
G1 X10.227 Y16.023 0.00000
G1 X11.136 Y14.368 0.00000
G1 X12.246 Y12.840 0.00000
G1 X12.856 Y12.192 0.00000
G1 X13.201 Y12.397 F900.000
G1 F900
G1 X13.808 Y11.751 0.00000
G1 X15.208 Y10.593 0.00000
G1 X16.778 Y9.593 0.00000
G1 X18.442 Y8.810 0.00000
G1 X20.191 Y8.242 0.00000
G1 X21.997 Y7.897 0.00000
G1 X23.810 Y7.783 0.00000
G1 X25.668 Y7.897 0.00000
G1 X27.475 Y8.242 0.00000
G1 X29.224 Y8.810 0.00000
G1 X30.888 Y9.593 0.00000
G1 X32.440 Y10.578 0.00000
G1 X33.857 Y11.751 0.00000
G1 X35.116 Y13.091 0.00000
G1 X36.197 Y14.579 0.00000
G1 X37.083 Y16.190 0.00000
G1 X37.760 Y17.900 0.00000
G1 X38.212 Y19.660 0.00000
G1 X38.448 Y21.506 0.00000
G1 X38.448 Y23.345 0.00000
G1 X38.217 Y25.170 0.00000
G1 X37.760 Y26.951 0.00000
G1 X37.083 Y28.661 0.00000
G1 X36.197 Y30.272 0.00000
G1 X35.116 Y31.760 0.00000
G1 X33.857 Y33.101 0.00000
G1 X32.440 Y34.273 0.00000
G1 X30.888 Y35.258 0.00000
G1 X29.224 Y36.041 0.00000
G1 X27.475 Y36.609 0.00000
G1 X25.690 Y36.950 0.00000
G1 X23.833 Y37.070 0.00000
G1 X21.997 Y36.954 0.00000
G1 X20.191 Y36.609 0.00000
G1 X18.442 Y36.041 0.00000
G1 X16.778 Y35.258 0.00000
G1 X15.225 Y34.273 0.00000
G1 X13.808 Y33.101 0.00000
G1 X12.549 Y31.760 0.00000
G1 X11.482 Y30.290 0.00000
G1 X10.583 Y28.661 0.00000
G1 X9.906 Y26.951 0.00000
G1 X9.454 Y25.191 0.00000
G1 X9.218 Y23.346 0.00000
G1 X9.218 Y21.506 0.00000
G1 X9.445 Y19.704 0.00000
G1 X9.905 Y17.901 0.00000
G1 X10.583 Y16.190 0.00000
G1 X11.469 Y14.579 0.00000
G1 X12.549 Y13.091 0.00000
G1 X13.142 Y12.460 0.00000
G1 X13.488 Y12.666 F900.000
G1 F900
G1 X14.078 Y12.037 0.00000
G1 X15.440 Y10.911 0.00000
G1 X16.967 Y9.938 0.00000
G1 X18.587 Y9.176 0.00000
G1 X20.289 Y8.623 0.00000
G1 X22.047 Y8.287 0.00000
G1 X23.811 Y8.176 0.00000
G1 X25.619 Y8.287 0.00000
G1 X27.377 Y8.623 0.00000
G1 X29.079 Y9.176 0.00000
G1 X30.698 Y9.938 0.00000
G1 X32.209 Y10.897 0.00000
G1 X33.588 Y12.037 0.00000
G1 X34.813 Y13.342 0.00000
G1 X35.865 Y14.790 0.00000
G1 X36.727 Y16.358 0.00000
G1 X37.386 Y18.022 0.00000
G1 X37.825 Y19.734 0.00000
G1 X38.055 Y21.531 0.00000
G1 X38.055 Y23.320 0.00000
G1 X37.831 Y25.096 0.00000
G1 X37.386 Y26.829 0.00000
G1 X36.727 Y28.493 0.00000
G1 X35.865 Y30.061 0.00000
G1 X34.813 Y31.509 0.00000
G1 X33.588 Y32.814 0.00000
G1 X32.209 Y33.954 0.00000
G1 X30.698 Y34.913 0.00000
G1 X29.079 Y35.675 0.00000
G1 X27.377 Y36.228 0.00000
G1 X25.641 Y36.560 0.00000
G1 X23.833 Y36.676 0.00000
G1 X22.047 Y36.564 0.00000
G1 X20.289 Y36.228 0.00000
G1 X18.587 Y35.675 0.00000
G1 X16.968 Y34.913 0.00000
G1 X15.457 Y33.954 0.00000
G1 X14.078 Y32.814 0.00000
G1 X12.853 Y31.509 0.00000
G1 X11.814 Y30.079 0.00000
G1 X10.939 Y28.493 0.00000
G1 X10.280 Y26.829 0.00000
G1 X9.840 Y25.117 0.00000
G1 X9.610 Y23.321 0.00000
G1 X9.610 Y21.531 0.00000
G1 X9.832 Y19.777 0.00000
G1 X10.280 Y18.022 0.00000
G1 X10.939 Y16.358 0.00000
G1 X11.801 Y14.790 0.00000
G1 X12.853 Y13.342 0.00000
G1 X13.428 Y12.729 0.00000
G1 X13.305 Y12.115 F900.000
G1 X10.840 Y12.479 F900.000
G1 F900
G1 X14.888 Y8.715 0.00000
G1 X14.308 Y7.377 0.00000
G1 X15.310 Y8.457 0.00000
G1 X20.445 Y6.410 0.00000
G1 X20.388 Y4.953 0.00000
G1 X20.932 Y6.321 0.00000
G1 X26.460 Y6.267 0.00000
G1 X26.932 Y4.888 0.00000
G1 X26.945 Y6.361 0.00000
G1 X32.119 Y8.307 0.00000
G1 X33.058 Y7.192 0.00000
G1 X32.539 Y8.570 0.00000
G1 X36.660 Y12.254 0.00000
G1 X37.938 Y11.553 0.00000
G1 X36.956 Y12.650 0.00000
G1 X39.468 Y17.575 0.00000
G1 X40.913 Y17.383 0.00000
G1 X39.601 Y18.051 0.00000
G1 X40.164 Y23.550 0.00000
G1 X41.582 Y23.893 0.00000
G1 X40.116 Y24.043 0.00000
G1 X38.655 Y29.374 0.00000
G1 X39.853 Y30.206 0.00000
G1 X38.433 Y29.816 0.00000
G1 X35.144 Y34.259 0.00000
G1 X35.960 Y35.467 0.00000
G1 X34.777 Y34.591 0.00000
G1 X30.106 Y37.546 0.00000
G1 X30.430 Y38.968 0.00000
G1 X29.644 Y37.723 0.00000
G1 X24.220 Y38.791 0.00000
G1 X24.009 Y40.234 0.00000
G1 X23.725 Y38.789 0.00000
G1 X18.282 Y37.826 0.00000
G1 X17.564 Y39.095 0.00000
G1 X17.821 Y37.645 0.00000
G1 X13.093 Y34.781 0.00000
G1 X11.966 Y35.705 0.00000
G1 X12.729 Y34.446 0.00000
G1 X9.355 Y30.067 0.00000
G1 X7.970 Y30.521 0.00000
G1 X9.137 Y29.623 0.00000
G1 X7.573 Y24.321 0.00000
G1 X6.117 Y24.244 0.00000
G1 X7.530 Y23.828 0.00000
G1 X7.986 Y18.319 0.00000
G1 X6.656 Y17.721 0.00000
G1 X8.124 Y17.844 0.00000
G1 X10.540 Y12.872 0.00000
G1 X9.515 Y11.834 0.00000
G1 X10.761 Y12.440 0.00000
G1 X10.769 Y12.008 F900.000
G1 F900
G1 X14.418 Y8.616 0.00000
G1 X13.694 Y6.949 0.00000
G1 X14.178 Y6.630 0.00000
G1 X14.455 Y6.958 0.00000
G1 X15.415 Y7.992 0.00000
G1 X20.042 Y6.148 0.00000
G1 X19.970 Y4.332 0.00000
G1 X20.537 Y4.211 0.00000
G1 X20.676 Y4.615 0.00000
G1 X21.197 Y5.926 0.00000
G1 X26.178 Y5.877 0.00000
G1 X26.767 Y4.158 0.00000
G1 X27.339 Y4.248 0.00000
G1 X27.323 Y4.678 0.00000
G1 X27.336 Y6.088 0.00000
G1 X31.998 Y7.842 0.00000
G1 X33.168 Y6.452 0.00000
G1 X33.668 Y6.744 0.00000
G1 X33.499 Y7.137 0.00000
G1 X33.001 Y8.457 0.00000
G1 X36.714 Y11.776 0.00000
G1 X38.309 Y10.902 0.00000
G1 X38.670 Y11.354 0.00000
G1 X38.369 Y11.661 0.00000
G1 X37.428 Y12.712 0.00000
G1 X39.692 Y17.149 0.00000
G1 X41.488 Y16.910 0.00000
G1 X41.666 Y17.463 0.00000
G1 X41.276 Y17.639 0.00000
G1 X40.019 Y18.279 0.00000
G1 X40.527 Y23.234 0.00000
G1 X42.288 Y23.661 0.00000
G1 X42.254 Y24.240 0.00000
G1 X41.827 Y24.263 0.00000
G1 X40.424 Y24.406 0.00000
G1 X39.107 Y29.210 0.00000
G1 X40.600 Y30.247 0.00000
G1 X40.357 Y30.772 0.00000
G1 X39.948 Y30.639 0.00000
G1 X38.588 Y30.266 0.00000
G1 X35.625 Y34.270 0.00000
G1 X36.642 Y35.776 0.00000
G1 X36.224 Y36.176 0.00000
G1 X35.893 Y35.906 0.00000
G1 X34.760 Y35.066 0.00000
G1 X30.550 Y37.730 0.00000
G1 X30.955 Y39.501 0.00000
G1 X30.420 Y39.724 0.00000
G1 X30.209 Y39.352 0.00000
G1 X29.455 Y38.160 0.00000
G1 X24.568 Y39.123 0.00000
G1 X24.306 Y40.916 0.00000
G1 X23.726 Y40.936 0.00000
G1 X23.663 Y40.513 0.00000
G1 X23.392 Y39.129 0.00000
G1 X18.487 Y38.261 0.00000
G1 X17.594 Y39.839 0.00000
G1 X17.047 Y39.647 0.00000
G1 X17.141 Y39.230 0.00000
G1 X17.388 Y37.841 0.00000
G1 X13.127 Y35.260 0.00000
G1 X11.725 Y36.409 0.00000
G1 X11.284 Y36.033 0.00000
G1 X11.522 Y35.678 0.00000
G1 X12.254 Y34.472 0.00000
G1 X9.214 Y30.526 0.00000
G1 X7.491 Y31.091 0.00000
G1 X7.216 Y30.581 0.00000
G1 X7.566 Y30.336 0.00000
G1 X8.684 Y29.476 0.00000
G1 X7.275 Y24.698 0.00000
G1 X5.460 Y24.602 0.00000
G1 X5.392 Y24.027 0.00000
G1 X5.807 Y23.926 0.00000
G1 X7.160 Y23.527 0.00000
G1 X7.572 Y18.563 0.00000
G1 X5.919 Y17.820 0.00000
G1 X6.059 Y17.257 0.00000
G1 X6.483 Y17.313 0.00000
G1 X7.888 Y17.430 0.00000
G1 X10.065 Y12.950 0.00000
G1 X8.789 Y11.657 0.00000
G1 X9.126 Y11.186 0.00000
G1 X9.501 Y11.390 0.00000
G1 X10.691 Y11.970 0.00000
G1 X10.699 Y11.537 F900.000
G1 F900
G1 X13.947 Y8.518 0.00000
G1 X13.203 Y6.802 0.00000
G1 X14.254 Y6.113 0.00000
G1 X14.749 Y6.698 0.00000
G1 X15.520 Y7.528 0.00000
G1 X19.639 Y5.886 0.00000
G1 X19.564 Y4.017 0.00000
G1 X20.794 Y3.755 0.00000
G1 X21.044 Y4.479 0.00000
G1 X21.463 Y5.531 0.00000
G1 X25.897 Y5.487 0.00000
G1 X26.503 Y3.718 0.00000
G1 X27.744 Y3.917 0.00000
G1 X27.716 Y4.683 0.00000
G1 X27.726 Y5.815 0.00000
G1 X31.876 Y7.377 0.00000
G1 X33.080 Y5.946 0.00000
G1 X34.166 Y6.581 0.00000
G1 X33.863 Y7.284 0.00000
G1 X33.463 Y8.343 0.00000
G1 X36.769 Y11.298 0.00000
G1 X38.410 Y10.399 0.00000
G1 X39.193 Y11.383 0.00000
G1 X38.655 Y11.930 0.00000
G1 X37.900 Y12.773 0.00000
G1 X39.915 Y16.723 0.00000
G1 X41.762 Y16.478 0.00000
G1 X42.144 Y17.677 0.00000
G1 X41.446 Y17.993 0.00000
G1 X40.437 Y18.507 0.00000
G1 X40.889 Y22.918 0.00000
G1 X42.700 Y23.356 0.00000
G1 X42.623 Y24.613 0.00000
G1 X41.858 Y24.655 0.00000
G1 X40.732 Y24.769 0.00000
G1 X39.560 Y29.046 0.00000
G1 X41.095 Y30.113 0.00000
G1 X40.564 Y31.253 0.00000
G1 X39.835 Y31.016 0.00000
G1 X38.744 Y30.716 0.00000
G1 X36.106 Y34.280 0.00000
G1 X37.153 Y35.830 0.00000
G1 X36.245 Y36.700 0.00000
G1 X35.652 Y36.216 0.00000
G1 X34.742 Y35.542 0.00000
G1 X30.995 Y37.913 0.00000
G1 X31.411 Y39.737 0.00000
G1 X30.250 Y40.220 0.00000
G1 X29.872 Y39.555 0.00000
G1 X29.267 Y38.597 0.00000
G1 X24.917 Y39.454 0.00000
G1 X24.647 Y41.298 0.00000
G1 X23.419 Y41.339 0.00000
G1 X23.389 Y41.338 0.00000
G1 X23.276 Y40.579 0.00000
G1 X23.058 Y39.468 0.00000
G1 X18.692 Y38.696 0.00000
G1 X17.775 Y40.318 0.00000
G1 X16.587 Y39.900 0.00000
G1 X16.756 Y39.152 0.00000
G1 X16.954 Y38.038 0.00000
G1 X13.161 Y35.740 0.00000
G1 X11.720 Y36.921 0.00000
G1 X10.785 Y36.124 0.00000
G1 X10.764 Y36.103 0.00000
G1 X11.191 Y35.466 0.00000
G1 X11.779 Y34.498 0.00000
G1 X9.072 Y30.986 0.00000
G1 X7.302 Y31.566 0.00000
G1 X6.706 Y30.458 0.00000
G1 X7.334 Y30.019 0.00000
G1 X8.231 Y29.329 0.00000
G1 X6.977 Y25.076 0.00000
G1 X5.109 Y24.977 0.00000
G1 X4.961 Y23.728 0.00000
G1 X5.705 Y23.546 0.00000
G1 X6.791 Y23.227 0.00000
G1 X7.157 Y18.808 0.00000
G1 X5.458 Y18.044 0.00000
G1 X5.764 Y16.823 0.00000
G1 X6.524 Y16.922 0.00000
G1 X7.653 Y17.016 0.00000
G1 X9.590 Y13.028 0.00000
G1 X8.277 Y11.697 0.00000
G1 X9.009 Y10.674 0.00000
G1 X9.681 Y11.041 0.00000
G1 X10.621 Y11.499 0.00000
G1 X10.629 Y11.066 F900.000
G1 F900
G1 X13.476 Y8.419 0.00000
G1 X12.711 Y6.656 0.00000
G1 X14.022 Y5.792 0.00000
G1 X14.346 Y5.612 0.00000
G1 X15.043 Y6.437 0.00000
G1 X15.624 Y7.063 0.00000
G1 X19.235 Y5.624 0.00000
G1 X19.159 Y3.702 0.00000
G1 X20.790 Y3.354 0.00000
G1 X21.059 Y3.318 0.00000
G1 X21.412 Y4.342 0.00000
G1 X21.728 Y5.135 0.00000
G1 X25.615 Y5.097 0.00000
G1 X26.238 Y3.279 0.00000
G1 X27.788 Y3.524 0.00000
G1 X28.149 Y3.609 0.00000
G1 X28.108 Y4.689 0.00000
G1 X28.116 Y5.542 0.00000
G1 X31.754 Y6.911 0.00000
G1 X32.993 Y5.440 0.00000
G1 X34.432 Y6.281 0.00000
G1 X34.656 Y6.436 0.00000
G1 X34.227 Y7.431 0.00000
G1 X33.926 Y8.230 0.00000
G1 X36.824 Y10.821 0.00000
G1 X38.511 Y9.895 0.00000
G1 X39.490 Y11.122 0.00000
G1 X39.699 Y11.428 0.00000
G1 X38.942 Y12.198 0.00000
G1 X38.372 Y12.834 0.00000
G1 X40.139 Y16.297 0.00000
G1 X42.035 Y16.045 0.00000
G1 X42.516 Y17.543 0.00000
G1 X42.601 Y17.902 0.00000
G1 X41.616 Y18.347 0.00000
G1 X40.855 Y18.734 0.00000
G1 X41.251 Y22.601 0.00000
G1 X43.111 Y23.052 0.00000
G1 X43.018 Y24.622 0.00000
G1 X42.967 Y24.987 0.00000
G1 X41.889 Y25.046 0.00000
G1 X41.039 Y25.133 0.00000
G1 X40.012 Y28.882 0.00000
G1 X41.590 Y29.979 0.00000
G1 X40.930 Y31.403 0.00000
G1 X40.750 Y31.726 0.00000
G1 X39.723 Y31.392 0.00000
G1 X38.899 Y31.166 0.00000
G1 X36.587 Y34.290 0.00000
G1 X37.663 Y35.884 0.00000
G1 X36.460 Y37.039 0.00000
G1 X36.250 Y37.211 0.00000
G1 X35.411 Y36.526 0.00000
G1 X34.725 Y36.018 0.00000
G1 X31.440 Y38.096 0.00000
G1 X31.868 Y39.972 0.00000
G1 X30.328 Y40.613 0.00000
G1 X30.070 Y40.698 0.00000
G1 X29.535 Y39.757 0.00000
G1 X29.079 Y39.035 0.00000
G1 X25.265 Y39.786 0.00000
G1 X24.988 Y41.679 0.00000
G1 X23.416 Y41.732 0.00000
G1 X23.048 Y41.715 0.00000
G1 X22.889 Y40.646 0.00000
G1 X22.725 Y39.808 0.00000
G1 X18.897 Y39.131 0.00000
G1 X17.955 Y40.796 0.00000
G1 X16.470 Y40.278 0.00000
G1 X16.133 Y40.129 0.00000
G1 X16.371 Y39.075 0.00000
G1 X16.520 Y38.234 0.00000
G1 X13.196 Y36.220 0.00000
G1 X11.715 Y37.433 0.00000
G1 X10.518 Y36.412 0.00000
G1 X10.258 Y36.152 0.00000
G1 X10.860 Y35.255 0.00000
G1 X11.303 Y34.525 0.00000
G1 X8.931 Y31.446 0.00000
G1 X7.113 Y32.042 0.00000
G1 X6.365 Y30.658 0.00000
G1 X6.216 Y30.321 0.00000
G1 X7.102 Y29.702 0.00000
G1 X7.779 Y29.182 0.00000
G1 X6.679 Y25.453 0.00000
G1 X4.758 Y25.352 0.00000
G1 X4.562 Y23.696 0.00000
G1 X4.551 Y23.424 0.00000
G1 X5.603 Y23.167 0.00000
G1 X6.422 Y22.926 0.00000
G1 X6.743 Y19.052 0.00000
G1 X4.998 Y18.268 0.00000
G1 X5.378 Y16.741 0.00000
G1 X5.495 Y16.392 0.00000
