; Postprocessed by [ArcWelder](https://github.com/FormerLurker/ArcWelderLib)
; Copyright(C) 2021 - Brad Hochgesang
; Version: 1.2.0, Branch: master, BuildDate: 2021-11-22T09:56:32Z
; resolution=0.05mm
; path_tolerance=5.0%
; max_radius=9999.00mm
; default_xyz_precision=3
; default_e_precision=5
; extrusion_rate_variance_percent=5.0%

; generated by Slic3r 1.3.0 on 2023-07-27 at 13:58:09

; external perimeters extrusion width = 0.49mm (2.83mm^3/s)
; perimeters extrusion width = 0.49mm (2.83mm^3/s)
; infill extrusion width = 0.49mm (2.83mm^3/s)
; solid infill extrusion width = 0.49mm (2.83mm^3/s)
; top infill extrusion width = 0.49mm (2.83mm^3/s)


; Filament gcode

G21 ; set units to millimeters
G90 ; use absolute coordinates
G1 Z-149.510 F900.000
G1 X31.126 Y41.159 F900.000
G1 F900
G1 X21.691 Y24.788 0.00000
G1 X33.204 Y39.770 0.00000
G1 X33.622 Y39.596 0.00000
G1 X31.170 Y20.861 0.00000
G1 X36.074 Y39.109 0.00000
G1 X36.527 Y39.109 0.00000
G1 X41.431 Y20.861 0.00000
G1 X38.979 Y39.596 0.00000
G1 X39.396 Y39.770 0.00000
G1 X50.910 Y24.788 0.00000
G1 X41.475 Y41.159 0.00000
G1 X41.795 Y41.478 0.00000
G1 X58.165 Y32.043 0.00000
G1 X43.184 Y43.557 0.00000
G1 X43.357 Y43.975 0.00000
G1 X62.092 Y41.523 0.00000
G1 X43.845 Y46.427 0.00000
G1 X43.845 Y46.879 0.00000
G1 X62.092 Y51.783 0.00000
G1 X43.357 Y49.331 0.00000
G1 X43.184 Y49.749 0.00000
G1 X58.165 Y61.263 0.00000
G1 X41.795 Y51.828 0.00000
G1 X41.475 Y52.147 0.00000
G1 X50.910 Y68.518 0.00000
G1 X39.396 Y53.536 0.00000
G1 X38.979 Y53.710 0.00000
G1 X41.431 Y72.445 0.00000
G1 X36.527 Y54.197 0.00000
G1 X36.074 Y54.197 0.00000
G1 X31.170 Y72.445 0.00000
G1 X33.622 Y53.710 0.00000
G1 X33.204 Y53.536 0.00000
G1 X21.691 Y68.518 0.00000
G1 X31.126 Y52.147 0.00000
G1 X30.806 Y51.828 0.00000
G1 X14.435 Y61.263 0.00000
G1 X29.417 Y49.749 0.00000
G1 X29.244 Y49.331 0.00000
G1 X10.509 Y51.783 0.00000
G1 X28.756 Y46.879 0.00000
G1 X28.756 Y46.427 0.00000
G1 X10.509 Y41.523 0.00000
G1 X29.244 Y43.975 0.00000
G1 X29.417 Y43.557 0.00000
G1 X14.435 Y32.043 0.00000
G1 X30.806 Y41.478 0.00000
G1 X31.064 Y41.220 0.00000
G1 X36.183 Y46.478 F900.000
G1 F900
G3 X36.124 Y46.541 I0.121 J0.172
G1 X35.965 Y46.151 F900.000
G1 F900
G3 X35.798 Y46.317 I0.334 J0.503
G1 X35.903 Y46.212 0.00000
G1 X35.746 Y45.823 F900.000
G1 F900
G3 X35.470 Y46.098 I0.553 J0.831
G1 X35.684 Y45.885 0.00000
G1 X35.527 Y45.496 F900.000
G1 F900
G1 X36.029 Y45.288 0.00000
G1 X36.572 Y45.288 0.00000
G1 X37.074 Y45.496 0.00000
G1 X37.458 Y45.880 0.00000
G1 X37.666 Y46.381 0.00000
G1 X37.666 Y46.925 0.00000
G1 X37.458 Y47.426 0.00000
G1 X37.074 Y47.810 0.00000
G1 X36.572 Y48.018 0.00000
G1 X36.029 Y48.018 0.00000
G1 X35.527 Y47.810 0.00000
G1 X35.143 Y47.426 0.00000
G1 X34.935 Y46.925 0.00000
G1 X34.935 Y46.381 0.00000
G1 X35.143 Y45.880 0.00000
G1 X35.466 Y45.557 0.00000
G1 X35.308 Y45.168 F900.000
G1 F900
G1 X35.952 Y44.901 0.00000
G1 X36.649 Y44.901 0.00000
G1 X37.293 Y45.168 0.00000
G1 X37.785 Y45.661 0.00000
G1 X38.052 Y46.305 0.00000
G1 X38.052 Y47.001 0.00000
G1 X37.785 Y47.645 0.00000
G1 X37.293 Y48.138 0.00000
G1 X36.649 Y48.405 0.00000
G1 X35.952 Y48.405 0.00000
G1 X35.308 Y48.138 0.00000
G1 X34.816 Y47.645 0.00000
G1 X34.549 Y47.001 0.00000
G1 X34.549 Y46.305 0.00000
G1 X34.816 Y45.661 0.00000
G1 X35.247 Y45.230 0.00000
G1 X35.089 Y44.841 F900.000
G1 F900
G1 X35.875 Y44.515 0.00000
G1 X36.726 Y44.515 0.00000
G1 X37.511 Y44.841 0.00000
G1 X38.113 Y45.442 0.00000
G1 X38.438 Y46.228 0.00000
G1 X38.438 Y47.078 0.00000
G1 X38.113 Y47.864 0.00000
G1 X37.511 Y48.465 0.00000
G1 X36.726 Y48.791 0.00000
G1 X35.875 Y48.791 0.00000
G1 X35.089 Y48.465 0.00000
G1 X34.488 Y47.864 0.00000
G1 X34.163 Y47.078 0.00000
G1 X34.163 Y46.228 0.00000
G1 X34.488 Y45.442 0.00000
G1 X35.028 Y44.902 0.00000
G1 X34.871 Y44.513 F900.000
G1 F900
G1 X35.798 Y44.129 0.00000
G1 X36.802 Y44.129 0.00000
G1 X37.730 Y44.513 0.00000
G1 X38.440 Y45.223 0.00000
G1 X38.825 Y46.151 0.00000
G1 X38.825 Y47.155 0.00000
G1 X38.440 Y48.083 0.00000
G1 X37.730 Y48.793 0.00000
G1 X36.802 Y49.177 0.00000
G1 X35.798 Y49.177 0.00000
G1 X34.871 Y48.793 0.00000
G1 X34.161 Y48.083 0.00000
G1 X33.776 Y47.155 0.00000
G1 X33.776 Y46.151 0.00000
G1 X34.161 Y45.223 0.00000
G1 X34.809 Y44.575 0.00000
G1 X34.652 Y44.186 F900.000
G1 F900
G1 X35.721 Y43.743 0.00000
G1 X36.879 Y43.743 0.00000
G1 X37.949 Y44.186 0.00000
G1 X38.768 Y45.004 0.00000
G1 X39.211 Y46.074 0.00000
G1 X39.211 Y47.232 0.00000
G1 X38.768 Y48.302 0.00000
G1 X37.949 Y49.120 0.00000
G1 X36.879 Y49.563 0.00000
G1 X35.722 Y49.563 0.00000
G1 X34.652 Y49.120 0.00000
G1 X33.833 Y48.302 0.00000
G1 X33.390 Y47.232 0.00000
G1 X33.390 Y46.074 0.00000
G1 X33.833 Y45.004 0.00000
G1 X34.590 Y44.247 0.00000
G1 X34.433 Y43.858 F900.000
G1 F900
G1 X35.645 Y43.356 0.00000
G1 X36.956 Y43.356 0.00000
G1 X38.168 Y43.858 0.00000
G1 X39.095 Y44.786 0.00000
G1 X39.597 Y45.997 0.00000
G1 X39.597 Y47.309 0.00000
G1 X39.095 Y48.520 0.00000
G1 X38.168 Y49.448 0.00000
G1 X36.956 Y49.950 0.00000
G1 X35.645 Y49.950 0.00000
G1 X34.433 Y49.448 0.00000
G1 X33.506 Y48.520 0.00000
G1 X33.004 Y47.309 0.00000
G1 X33.004 Y45.997 0.00000
G1 X33.506 Y44.786 0.00000
G1 X34.371 Y43.920 0.00000
G1 X34.214 Y43.531 F900.000
G1 F900
G1 X35.568 Y42.970 0.00000
G1 X37.033 Y42.970 0.00000
G1 X38.387 Y43.531 0.00000
G1 X39.423 Y44.567 0.00000
G1 X39.983 Y45.920 0.00000
G1 X39.983 Y47.386 0.00000
G1 X39.423 Y48.739 0.00000
G1 X38.387 Y49.775 0.00000
G1 X37.033 Y50.336 0.00000
G1 X35.568 Y50.336 0.00000
G1 X34.214 Y49.775 0.00000
G1 X33.178 Y48.739 0.00000
G1 X32.617 Y47.386 0.00000
G1 X32.617 Y45.920 0.00000
G1 X33.178 Y44.567 0.00000
G1 X34.153 Y43.592 0.00000
G1 X33.995 Y43.203 F900.000
G1 F900
G1 X35.491 Y42.584 0.00000
G1 X37.110 Y42.584 0.00000
G1 X38.605 Y43.203 0.00000
G1 X39.750 Y44.348 0.00000
G1 X40.370 Y45.844 0.00000
G1 X40.370 Y47.462 0.00000
G1 X39.750 Y48.958 0.00000
G1 X38.605 Y50.103 0.00000
G1 X37.110 Y50.722 0.00000
G1 X35.491 Y50.722 0.00000
G1 X33.995 Y50.103 0.00000
G1 X32.851 Y48.958 0.00000
G1 X32.231 Y47.462 0.00000
G1 X32.231 Y45.844 0.00000
G1 X32.851 Y44.348 0.00000
G1 X33.934 Y43.265 0.00000
G1 X33.777 Y42.876 F900.000
G1 F900
G1 X35.414 Y42.197 0.00000
G1 X37.187 Y42.197 0.00000
G1 X38.824 Y42.876 0.00000
G1 X40.078 Y44.129 0.00000
G1 X40.756 Y45.767 0.00000
G1 X40.756 Y47.539 0.00000
G1 X40.078 Y49.177 0.00000
G1 X38.824 Y50.430 0.00000
G1 X37.187 Y51.109 0.00000
G1 X35.414 Y51.109 0.00000
G1 X33.777 Y50.430 0.00000
G1 X32.523 Y49.177 0.00000
G1 X31.845 Y47.539 0.00000
G1 X31.845 Y45.767 0.00000
G1 X32.523 Y44.129 0.00000
G1 X33.715 Y42.937 0.00000
G1 X33.558 Y42.548 F900.000
G1 F900
G1 X35.337 Y41.811 0.00000
G1 X37.264 Y41.811 0.00000
G1 X39.043 Y42.548 0.00000
G1 X40.405 Y43.910 0.00000
G1 X41.142 Y45.690 0.00000
G1 X41.142 Y47.616 0.00000
G1 X40.405 Y49.396 0.00000
G1 X39.043 Y50.758 0.00000
G1 X37.263 Y51.495 0.00000
G1 X35.337 Y51.495 0.00000
G1 X33.558 Y50.758 0.00000
G1 X32.196 Y49.396 0.00000
G1 X31.459 Y47.616 0.00000
G1 X31.459 Y45.690 0.00000
G1 X32.196 Y43.910 0.00000
G1 X33.496 Y42.610 0.00000
G1 X33.339 Y42.221 F900.000
G1 F900
G1 X35.260 Y41.425 0.00000
G1 X37.340 Y41.425 0.00000
G1 X39.262 Y42.221 0.00000
G1 X40.733 Y43.692 0.00000
G1 X41.528 Y45.613 0.00000
G1 X41.528 Y47.693 0.00000
G1 X40.733 Y49.614 0.00000
G1 X39.262 Y51.085 0.00000
G1 X37.340 Y51.881 0.00000
G1 X35.260 Y51.881 0.00000
G1 X33.339 Y51.085 0.00000
G1 X31.868 Y49.614 0.00000
G1 X31.072 Y47.693 0.00000
G1 X31.072 Y45.613 0.00000
G1 X31.868 Y43.692 0.00000
G1 X33.277 Y42.282 0.00000
G1 X33.120 Y41.893 F900.000
G1 F900
G1 X35.184 Y41.039 0.00000
G1 X37.417 Y41.039 0.00000
G1 X39.481 Y41.893 0.00000
G1 X41.060 Y43.473 0.00000
G1 X41.915 Y45.536 0.00000
G1 X41.915 Y47.770 0.00000
G1 X41.060 Y49.833 0.00000
G1 X39.481 Y51.413 0.00000
G1 X37.417 Y52.267 0.00000
G1 X35.184 Y52.267 0.00000
G1 X33.120 Y51.413 0.00000
G1 X31.541 Y49.833 0.00000
G1 X30.686 Y47.770 0.00000
G1 X30.686 Y45.536 0.00000
G1 X31.541 Y43.473 0.00000
G1 X33.059 Y41.955 0.00000
G1 X32.901 Y41.566 F900.000
G1 F900
G1 X35.107 Y40.652 0.00000
G1 X37.494 Y40.652 0.00000
G1 X39.699 Y41.566 0.00000
G1 X41.387 Y43.254 0.00000
G1 X42.301 Y45.459 0.00000
G1 X42.301 Y47.847 0.00000
G1 X41.387 Y50.052 0.00000
G1 X39.699 Y51.740 0.00000
G1 X37.494 Y52.654 0.00000
G1 X35.107 Y52.654 0.00000
G1 X32.901 Y51.740 0.00000
G1 X31.213 Y50.052 0.00000
G1 X30.300 Y47.847 0.00000
G1 X30.300 Y45.459 0.00000
G1 X31.213 Y43.254 0.00000
G1 X32.840 Y41.627 0.00000
G1 X32.683 Y41.238 F900.000
G1 F900
G1 X35.030 Y40.266 0.00000
G1 X37.571 Y40.266 0.00000
G1 X39.918 Y41.238 0.00000
G1 X41.715 Y43.035 0.00000
G1 X42.687 Y45.383 0.00000
G1 X42.687 Y47.923 0.00000
G1 X41.715 Y50.271 0.00000
G1 X39.918 Y52.068 0.00000
G1 X37.571 Y53.040 0.00000
G1 X35.030 Y53.040 0.00000
G1 X32.683 Y52.068 0.00000
G1 X30.886 Y50.271 0.00000
G1 X29.914 Y47.923 0.00000
G1 X29.914 Y45.383 0.00000
G1 X30.886 Y43.035 0.00000
G1 X32.621 Y41.300 0.00000
G1 X32.089 Y41.286 F900.000
G1 F900
G1 X29.525 Y36.838 0.00000
G1 X29.825 Y36.637 0.00000
G1 X32.953 Y40.708 0.00000
G1 X34.464 Y40.083 0.00000
G1 X33.797 Y34.992 0.00000
G1 X34.151 Y34.922 0.00000
G1 X35.483 Y39.880 0.00000
G1 X37.118 Y39.880 0.00000
G1 X38.450 Y34.922 0.00000
G1 X38.804 Y34.992 0.00000
G1 X38.137 Y40.083 0.00000
G1 X39.648 Y40.708 0.00000
G1 X42.776 Y36.637 0.00000
G1 X43.075 Y36.838 0.00000
G1 X40.512 Y41.286 0.00000
G1 X41.668 Y42.442 0.00000
G1 X46.116 Y39.878 0.00000
G1 X46.316 Y40.177 0.00000
G1 X42.245 Y43.306 0.00000
G1 X42.871 Y44.816 0.00000
G1 X47.961 Y44.150 0.00000
G1 X48.032 Y44.503 0.00000
G1 X43.074 Y45.836 0.00000
G1 X43.074 Y47.470 0.00000
G1 X48.032 Y48.803 0.00000
G1 X47.961 Y49.156 0.00000
G1 X42.871 Y48.490 0.00000
G1 X42.245 Y50.000 0.00000
G1 X46.316 Y53.129 0.00000
G1 X46.116 Y53.428 0.00000
G1 X41.668 Y50.864 0.00000
G1 X40.512 Y52.020 0.00000
G1 X43.075 Y56.468 0.00000
G1 X42.776 Y56.669 0.00000
G1 X39.648 Y52.598 0.00000
G1 X38.137 Y53.223 0.00000
G1 X38.804 Y58.314 0.00000
G1 X38.450 Y58.384 0.00000
G1 X37.118 Y53.426 0.00000
G1 X35.483 Y53.426 0.00000
G1 X34.151 Y58.384 0.00000
G1 X33.797 Y58.314 0.00000
G1 X34.464 Y53.223 0.00000
G1 X32.953 Y52.598 0.00000
G1 X29.825 Y56.669 0.00000
G1 X29.525 Y56.468 0.00000
G1 X32.089 Y52.020 0.00000
G1 X30.933 Y50.864 0.00000
G1 X26.485 Y53.428 0.00000
G1 X26.285 Y53.129 0.00000
G1 X30.356 Y50.000 0.00000
G1 X29.730 Y48.490 0.00000
G1 X24.639 Y49.156 0.00000
G1 X24.569 Y48.803 0.00000
G1 X29.527 Y47.470 0.00000
G1 X29.527 Y45.836 0.00000
G1 X24.569 Y44.503 0.00000
G1 X24.639 Y44.150 0.00000
G1 X29.730 Y44.816 0.00000
G1 X30.356 Y43.306 0.00000
G1 X26.285 Y40.177 0.00000
G1 X26.485 Y39.878 0.00000
G1 X30.933 Y42.442 0.00000
G1 X32.027 Y41.347 0.00000
G1 X31.606 Y41.222 F900.000
G1 F900
G1 X24.922 Y29.625 0.00000
G1 X33.079 Y40.238 0.00000
G1 X34.042 Y39.839 0.00000
G1 X32.305 Y26.567 0.00000
G1 X35.779 Y39.494 0.00000
G1 X36.822 Y39.494 0.00000
G1 X40.296 Y26.567 0.00000
G1 X38.559 Y39.839 0.00000
G1 X39.522 Y40.238 0.00000
G1 X47.678 Y29.625 0.00000
G1 X40.994 Y41.222 0.00000
G1 X41.731 Y41.959 0.00000
G1 X53.329 Y35.275 0.00000
G1 X42.715 Y43.432 0.00000
G1 X43.114 Y44.395 0.00000
G1 X56.387 Y42.658 0.00000
G1 X43.460 Y46.132 0.00000
G1 X43.460 Y47.174 0.00000
G1 X56.387 Y50.648 0.00000
G1 X43.114 Y48.911 0.00000
G1 X42.715 Y49.874 0.00000
G1 X53.329 Y58.031 0.00000
G1 X41.731 Y51.347 0.00000
G1 X40.994 Y52.084 0.00000
G1 X47.678 Y63.681 0.00000
G1 X39.522 Y53.068 0.00000
G1 X38.559 Y53.467 0.00000
G1 X40.296 Y66.739 0.00000
G1 X36.822 Y53.812 0.00000
G1 X35.779 Y53.812 0.00000
G1 X32.305 Y66.739 0.00000
G1 X34.042 Y53.467 0.00000
G1 X33.079 Y53.068 0.00000
G1 X24.922 Y63.681 0.00000
G1 X31.606 Y52.084 0.00000
G1 X30.869 Y51.347 0.00000
G1 X19.272 Y58.031 0.00000
G1 X29.885 Y49.874 0.00000
G1 X29.486 Y48.911 0.00000
G1 X16.214 Y50.648 0.00000
G1 X29.141 Y47.174 0.00000
G1 X29.141 Y46.132 0.00000
G1 X16.214 Y42.658 0.00000
G1 X29.486 Y44.395 0.00000
G1 X29.885 Y43.432 0.00000
G1 X19.272 Y35.275 0.00000
G1 X30.869 Y41.959 0.00000
G1 X31.545 Y41.283 0.00000
; Filament-specific end gcode 
;END gcode for filament


M104 S0 ; set temperature
; filament used = 0.0mm (0.0cm3)
; total filament cost = 0.0

; avoid_crossing_perimeters = 0
; bed_shape = 0x0,250x0,250x250,0x250
; bed_temperature = 0
; before_layer_gcode = 
; between_objects_gcode = 
; bridge_acceleration = 0
; bridge_fan_speed = 0
; brim_connections_width = 0
; brim_width = 0
; complete_objects = 1
; cooling = 0
; default_acceleration = 0
; disable_fan_first_layers = 3
; duplicate_distance = 6
; end_filament_gcode = "; Filament-specific end gcode \n;END gcode for filament\n"
; end_gcode = 
; extruder_clearance_height = 20
; extruder_clearance_radius = 20
; extruder_offset = 0x0
; extrusion_axis = E
; extrusion_multiplier = 1
; fan_always_on = 0
; fan_below_layer_time = 60
; filament_colour = #FFFFFF
; filament_cost = 0
; filament_density = 0
; filament_diameter = 3
; filament_max_volumetric_speed = 0
; filament_notes = ""
; first_layer_acceleration = 0
; first_layer_bed_temperature = 0
; first_layer_extrusion_width = 100%
; first_layer_speed = 15
; first_layer_temperature = 0
; gcode_arcs = 0
; gcode_comments = 0
; gcode_flavor = no-extrusion
; has_heatbed = 0
; infill_acceleration = 0
; infill_first = 0
; interior_brim_width = 0
; layer_gcode = 
; max_fan_speed = 100
; max_layer_height = 10
; max_print_speed = 80
; max_volumetric_speed = 0
; min_fan_speed = 35
; min_layer_height = 0
; min_print_speed = 10
; min_skirt_length = 0
; notes = 
; nozzle_diameter = 0.58
; only_retract_when_crossing_perimeters = 0
; ooze_prevention = 0
; output_filename_format = [input_filename_base].gcode
; perimeter_acceleration = 0
; post_process = /Users/nathanbrown/Documents/School/Research/JohnsHopkins/Other/ArcWelderCode/ArcWelder
; pressure_advance = 0
; printer_notes = 
; resolution = 0
; retract_before_travel = 0
; retract_layer_change = 0
; retract_length = 0
; retract_length_toolchange = 10
; retract_lift = 2
; retract_lift_above = 0
; retract_lift_below = 0
; retract_restart_extra = 0
; retract_restart_extra_toolchange = 0
; retract_speed = 20
; skirt_distance = 6
; skirt_height = 1
; skirts = 0
; slowdown_below_layer_time = 5
; spiral_vase = 0
; standby_temperature_delta = -5
; start_filament_gcode = "; Filament gcode\n"
; start_gcode = 
; temperature = 0
; threads = 16
; toolchange_gcode = 
; travel_speed = 15
; use_firmware_retraction = 0
; use_relative_e_distances = 0
; use_set_and_wait_bed = 0
; use_set_and_wait_extruder = 0
; use_volumetric_e = 0
; vibration_limit = 0
; wipe = 0
; z_offset = -150
; z_steps_per_mm = 0
; adaptive_slicing = 0
; adaptive_slicing_quality = 75%
; dont_support_bridges = 1
; extrusion_width = 100%
; first_layer_height = 0.49
; infill_only_where_needed = 0
; interface_shells = 0
; layer_height = 0.49
; match_horizontal_surfaces = 0
; raft_layers = 0
; regions_overlap = 0
; seam_position = aligned
; sequential_print_priority = 0
; support_material = 0
; support_material_angle = 0
; support_material_buildplate_only = 0
; support_material_contact_distance = 0.2
; support_material_enforce_layers = 0
; support_material_extruder = 1
; support_material_extrusion_width = 0
; support_material_interface_extruder = 1
; support_material_interface_extrusion_width = 0
; support_material_interface_layers = 3
; support_material_interface_spacing = 0
; support_material_interface_speed = 100%
; support_material_max_layers = 0
; support_material_pattern = pillars
; support_material_spacing = 2.5
; support_material_speed = 15
; support_material_threshold = 60%
; xy_size_compensation = 0
; bottom_infill_pattern = rectilinear
; bottom_solid_layers = 0
; bridge_flow_ratio = 1
; bridge_speed = 15
; external_perimeter_extrusion_width = 100%
; external_perimeter_speed = 15
; external_perimeters_first = 0
; extra_perimeters = 0
; fill_angle = 45
; fill_density = 100%
; fill_gaps = 0
; fill_pattern = concentric
; gap_fill_speed = 15
; infill_every_layers = 1
; infill_extruder = 1
; infill_extrusion_width = 100%
; infill_overlap = 0
; infill_speed = 15
; overhangs = 0
; perimeter_extruder = 1
; perimeter_extrusion_width = 100%
; perimeter_speed = 15
; perimeters = 1
; small_perimeter_speed = 15
; solid_infill_below_area = 50
; solid_infill_every_layers = 0
; solid_infill_extruder = 1
; solid_infill_extrusion_width = 100%
; solid_infill_speed = 15
; thin_walls = 0
; top_infill_extrusion_width = 100%
; top_infill_pattern = rectilinear
; top_solid_infill_speed = 15
; top_solid_layers = 0
