DVAR $hFile
DVAR $cCheck
DVAR $press
DVAR $length
DVAR $lame
DVAR $comport
DVAR $COM5
DVAR $linepressure5


G71
G76
G91 ;G90 = absolute, G91 = relative
G68

RAMP TYPE SINE X Y
VELOCITY OFF
RAMP RATE 900

$linepressure5 = 20.0000
CALL setPress5 P$COM5 Q$linepressure5

ENABLE X Y D
'HOME X Y D
G90
G0 D-80 F60
G0 X0 Y0 D0 F60
G91

;Begin Motion
'G0 X150 Y50 F60
G0 D-149.5 F60
G1 F20

FILECLOSE
$hFile = FILEOPEN "COM5", 2
COMMINIT $hFile, "baud=115200 parity=N data=8 stop=1"
COMMSETTIMEOUT $hFile, -1, -1, 1000

;
FILEWRITE $hFile"\x05\x02\x30\x38\x50\x53\x20\x20\x30\x33\x34\x30\x45\x45\x03"

; generated by Slic3r 1.3.0 on 2023-06-06 at 09:31:50 
; external perimeters extrusion width = 0.50mm (2.95mm^3/s) 
; perimeters extrusion width = 0.50mm (2.95mm^3/s) 
; infill extrusion width = 0.50mm (2.95mm^3/s) 
; solid infill extrusion width = 0.50mm (2.95mm^3/s) 
; top infill extrusion width = 0.50mm (2.95mm^3/s) 
; Filament gcode 
; CW1 ; set units to millimeters 
G90 ; use absolute coordinates 
G1 D-149.500 ;not extruding 
G1 X18.790 Y23.220 ;not extruding 
FILEWRITE $hFile"\x05\x02\x30\x34\x44\x49\x20\x20\x43\x46\x03"
DWELL 0.15
G1 X18.790 Y22.398 ;extruding 
G1 X18.493 Y22.176 ;extruding 
G1 X18.211 Y21.876 ;extruding 
G1 X17.984 Y21.532 ;extruding 
G1 X17.819 Y21.154 ;extruding 
G1 X17.722 Y20.753 ;extruding 
G1 X17.694 Y20.342 ;extruding 
G1 X17.738 Y19.932 ;extruding 
G1 X17.851 Y19.536 ;extruding 
G1 X18.031 Y19.165 ;extruding 
G1 X18.271 Y18.830 ;extruding 
G1 X18.566 Y18.541 ;extruding 
G1 X18.905 Y18.308 ;extruding 
G1 X19.280 Y18.135 ;extruding 
G1 X19.678 Y18.030 ;extruding 
G1 X20.082 Y17.995 ;extruding 
G1 X20.499 Y18.030 ;extruding 
G1 X20.898 Y18.135 ;extruding 
G1 X21.273 Y18.308 ;extruding 
G1 X21.612 Y18.541 ;extruding 
G1 X21.907 Y18.830 ;extruding 
G1 X22.147 Y19.165 ;extruding 
G1 X22.327 Y19.536 ;extruding 
G1 X22.440 Y19.932 ;extruding 
G1 X22.484 Y20.342 ;extruding 
G1 X22.456 Y20.753 ;extruding 
G1 X22.359 Y21.154 ;extruding 
G1 X22.194 Y21.532 ;extruding 
G1 X21.967 Y21.876 ;extruding 
G1 X21.684 Y22.176 ;extruding 
G1 X21.388 Y22.398 ;extruding 
G1 X21.388 Y23.220 ;extruding 
G1 X18.877 Y23.220 ;extruding 
FILEWRITE $hFile"\x05\x02\x30\x34\x44\x49\x20\x20\x43\x46\x03"
G1 X19.183 Y22.827 ;not extruding 
FILEWRITE $hFile"\x05\x02\x30\x34\x44\x49\x20\x20\x43\x46\x03"
DWELL 0.15
G1 X19.183 Y22.165 ;extruding 
G1 X19.032 Y22.088 ;extruding 
G1 X18.756 Y21.882 ;extruding 
G1 X18.520 Y21.631 ;extruding 
G1 X18.330 Y21.344 ;extruding 
G1 X18.193 Y21.028 ;extruding 
G1 X18.111 Y20.693 ;extruding 
G1 X18.088 Y20.350 ;extruding 
G1 X18.125 Y20.007 ;extruding 
G1 X18.220 Y19.676 ;extruding 
G1 X18.370 Y19.366 ;extruding 
G1 X18.570 Y19.087 ;extruding 
G1 X18.816 Y18.846 ;extruding 
G1 X19.100 Y18.650 ;extruding 
G1 X19.413 Y18.506 ;extruding 
G1 X19.746 Y18.418 ;extruding 
G1 X20.083 Y18.389 ;extruding 
G1 X20.432 Y18.418 ;extruding 
G1 X20.765 Y18.506 ;extruding 
G1 X21.078 Y18.650 ;extruding 
G1 X21.362 Y18.846 ;extruding 
G1 X21.607 Y19.087 ;extruding 
G1 X21.808 Y19.366 ;extruding 
G1 X21.958 Y19.676 ;extruding 
G1 X22.053 Y20.007 ;extruding 
G1 X22.090 Y20.350 ;extruding 
G1 X22.067 Y20.693 ;extruding 
G1 X21.985 Y21.028 ;extruding 
G1 X21.848 Y21.344 ;extruding 
G1 X21.658 Y21.631 ;extruding 
G1 X21.422 Y21.882 ;extruding 
G1 X21.146 Y22.088 ;extruding 
G1 X20.995 Y22.165 ;extruding 
G1 X20.995 Y22.827 ;extruding 
G1 X19.270 Y22.827 ;extruding 
FILEWRITE $hFile"\x05\x02\x30\x34\x44\x49\x20\x20\x43\x46\x03"
G1 X18.607 Y22.895 ;not extruding 
G1 X15.426 Y32.942 ;not extruding 
FILEWRITE $hFile"\x05\x02\x30\x34\x44\x49\x20\x20\x43\x46\x03"
DWELL 0.15
G1 X14.683 Y32.665 ;extruding 
G1 X13.268 Y31.939 ;extruding 
G1 X12.001 Y31.088 ;extruding 
G1 X10.712 Y29.979 ;extruding 
G1 X9.673 Y28.842 ;extruding 
G1 X8.747 Y27.550 ;extruding 
G1 X7.979 Y26.158 ;extruding 
G1 X7.409 Y24.755 ;extruding 
G1 X6.956 Y23.116 ;extruding 
G1 X6.728 Y21.581 ;extruding 
G1 X6.681 Y20.017 ;extruding 
G1 X6.825 Y18.394 ;extruding 
G1 X7.150 Y16.854 ;extruding 
G1 X7.668 Y15.327 ;extruding 
G1 X8.342 Y13.914 ;extruding 
G1 X9.191 Y12.570 ;extruding 
G1 X10.192 Y11.336 ;extruding 
G1 X11.311 Y10.248 ;extruding 
G1 X12.666 Y9.222 ;extruding 
G1 X13.964 Y8.456 ;extruding 
G1 X15.418 Y7.816 ;extruding 
G1 X16.939 Y7.351 ;extruding 
G1 X18.462 Y7.076 ;extruding 
G1 X20.159 Y6.979 ;extruding 
G1 X21.675 Y7.070 ;extruding 
G1 X23.179 Y7.339 ;extruding 
G1 X24.806 Y7.834 ;extruding 
G1 X26.214 Y8.456 ;extruding 
G1 X27.582 Y9.264 ;extruding 
G1 X28.846 Y10.229 ;extruding 
G1 X29.934 Y11.284 ;extruding 
G1 X31.009 Y12.601 ;extruding 
G1 X31.836 Y13.913 ;extruding 
G1 X32.519 Y15.348 ;extruding 
G1 X33.028 Y16.854 ;extruding 
G1 X33.353 Y18.394 ;extruding 
G1 X33.497 Y20.017 ;extruding 
G1 X33.449 Y21.581 ;extruding 
G1 X33.221 Y23.117 ;extruding 
G1 X32.794 Y24.690 ;extruding 
G1 X32.199 Y26.158 ;extruding 
G1 X31.431 Y27.550 ;extruding 
G1 X30.505 Y28.842 ;extruding 
G1 X29.466 Y29.979 ;extruding 
G1 X28.177 Y31.088 ;extruding 
G1 X26.910 Y31.939 ;extruding 
G1 X25.495 Y32.665 ;extruding 
G1 X24.006 Y33.218 ;extruding 
G1 X22.462 Y33.592 ;extruding 
G1 X20.894 Y33.779 ;extruding 
G1 X20.089 Y33.804 ;extruding 
G1 X19.284 Y33.779 ;extruding 
G1 X17.716 Y33.592 ;extruding 
G1 X16.171 Y33.218 ;extruding 
G1 X15.508 Y32.972 ;extruding 
FILEWRITE $hFile"\x05\x02\x30\x34\x44\x49\x20\x20\x43\x46\x03"
G1 X15.290 Y33.310 ;not extruding 
FILEWRITE $hFile"\x05\x02\x30\x34\x44\x49\x20\x20\x43\x46\x03"
DWELL 0.15
G1 X14.524 Y33.025 ;extruding 
G1 X13.068 Y32.278 ;extruding 
G1 X11.763 Y31.401 ;extruding 
G1 X10.438 Y30.261 ;extruding 
G1 X9.368 Y29.089 ;extruding 
G1 X8.414 Y27.760 ;extruding 
G1 X7.624 Y26.327 ;extruding 
G1 X7.036 Y24.882 ;extruding 
G1 X6.571 Y23.197 ;extruding 
G1 X6.337 Y21.616 ;extruding 
G1 X6.288 Y20.006 ;extruding 
G1 X6.436 Y18.336 ;extruding 
G1 X6.770 Y16.750 ;extruding 
G1 X7.304 Y15.178 ;extruding 
G1 X7.998 Y13.724 ;extruding 
G1 X8.871 Y12.340 ;extruding 
G1 X9.902 Y11.070 ;extruding 
G1 X11.054 Y9.950 ;extruding 
G1 X12.447 Y8.895 ;extruding 
G1 X13.784 Y8.106 ;extruding 
G1 X15.281 Y7.447 ;extruding 
G1 X16.846 Y6.969 ;extruding 
G1 X18.416 Y6.685 ;extruding 
G1 X20.160 Y6.586 ;extruding 
G1 X21.722 Y6.680 ;extruding 
G1 X23.271 Y6.957 ;extruding 
G1 X24.943 Y7.466 ;extruding 
G1 X26.393 Y8.106 ;extruding 
G1 X27.802 Y8.938 ;extruding 
G1 X29.102 Y9.931 ;extruding 
G1 X30.224 Y11.018 ;extruding 
G1 X31.328 Y12.372 ;extruding 
G1 X32.180 Y13.724 ;extruding 
G1 X32.884 Y15.201 ;extruding 
G1 X33.408 Y16.750 ;extruding 
G1 X33.742 Y18.336 ;extruding 
G1 X33.890 Y20.006 ;extruding 
G1 X33.841 Y21.616 ;extruding 
G1 X33.606 Y23.198 ;extruding 
G1 X33.167 Y24.816 ;extruding 
G1 X32.554 Y26.327 ;extruding 
G1 X31.764 Y27.760 ;extruding 
G1 X30.810 Y29.089 ;extruding 
G1 X29.740 Y30.261 ;extruding 
G1 X28.415 Y31.401 ;extruding 
G1 X27.110 Y32.278 ;extruding 
G1 X25.654 Y33.025 ;extruding 
G1 X24.121 Y33.595 ;extruding 
G1 X22.531 Y33.979 ;extruding 
G1 X20.923 Y34.171 ;extruding 
G1 X20.089 Y34.197 ;extruding 
G1 X19.255 Y34.171 ;extruding 
G1 X17.647 Y33.979 ;extruding 
G1 X16.057 Y33.595 ;extruding 
G1 X15.371 Y33.340 ;extruding 
FILEWRITE $hFile"\x05\x02\x30\x34\x44\x49\x20\x20\x43\x46\x03"
G1 X15.178 Y32.741 ;not extruding 
G1 D-149.000 ;not extruding 
G1 X18.790 Y23.220 ;not extruding 
FILEWRITE $hFile"\x05\x02\x30\x34\x44\x49\x20\x20\x43\x46\x03"
DWELL 0.15
G1 X18.790 Y22.398 ;extruding 
G1 X18.493 Y22.176 ;extruding 
G1 X18.211 Y21.876 ;extruding 
G1 X17.984 Y21.532 ;extruding 
G1 X17.827 Y21.172 ;extruding 
G1 X17.722 Y20.756 ;extruding 
G1 X17.694 Y20.342 ;extruding 
G1 X17.738 Y19.932 ;extruding 
G1 X17.851 Y19.536 ;extruding 
G1 X18.031 Y19.165 ;extruding 
G1 X18.271 Y18.830 ;extruding 
G1 X18.566 Y18.541 ;extruding 
G1 X18.905 Y18.308 ;extruding 
G1 X19.280 Y18.135 ;extruding 
G1 X19.678 Y18.030 ;extruding 
G1 X20.069 Y17.996 ;extruding 
G1 X20.497 Y18.029 ;extruding 
G1 X20.898 Y18.135 ;extruding 
G1 X21.273 Y18.308 ;extruding 
G1 X21.612 Y18.541 ;extruding 
G1 X21.907 Y18.830 ;extruding 
G1 X22.147 Y19.165 ;extruding 
G1 X22.327 Y19.536 ;extruding 
G1 X22.440 Y19.932 ;extruding 
G1 X22.484 Y20.342 ;extruding 
G1 X22.456 Y20.753 ;extruding 
G1 X22.359 Y21.154 ;extruding 
G1 X22.194 Y21.532 ;extruding 
G1 X21.967 Y21.876 ;extruding 
G1 X21.698 Y22.162 ;extruding 
G1 X21.388 Y22.398 ;extruding 
G1 X21.388 Y23.220 ;extruding 
G1 X18.877 Y23.220 ;extruding 
FILEWRITE $hFile"\x05\x02\x30\x34\x44\x49\x20\x20\x43\x46\x03"
G1 X19.183 Y22.827 ;not extruding 
FILEWRITE $hFile"\x05\x02\x30\x34\x44\x49\x20\x20\x43\x46\x03"
DWELL 0.15
G1 X19.183 Y22.165 ;extruding 
G1 X19.032 Y22.088 ;extruding 
G1 X18.756 Y21.882 ;extruding 
G1 X18.520 Y21.631 ;extruding 
G1 X18.330 Y21.344 ;extruding 
G1 X18.200 Y21.044 ;extruding 
G1 X18.111 Y20.695 ;extruding 
G1 X18.088 Y20.350 ;extruding 
G1 X18.125 Y20.007 ;extruding 
G1 X18.220 Y19.676 ;extruding 
G1 X18.370 Y19.366 ;extruding 
G1 X18.570 Y19.087 ;extruding 
G1 X18.816 Y18.846 ;extruding 
G1 X19.100 Y18.650 ;extruding 
G1 X19.413 Y18.506 ;extruding 
G1 X19.746 Y18.418 ;extruding 
G1 X20.071 Y18.390 ;extruding 
G1 X20.431 Y18.418 ;extruding 
G1 X20.765 Y18.506 ;extruding 
G1 X21.078 Y18.650 ;extruding 
G1 X21.362 Y18.846 ;extruding 
G1 X21.607 Y19.087 ;extruding 
G1 X21.808 Y19.366 ;extruding 
G1 X21.958 Y19.676 ;extruding 
G1 X22.053 Y20.007 ;extruding 
G1 X22.090 Y20.350 ;extruding 
G1 X22.067 Y20.693 ;extruding 
G1 X21.985 Y21.028 ;extruding 
G1 X21.848 Y21.344 ;extruding 
G1 X21.658 Y21.631 ;extruding 
G1 X21.434 Y21.869 ;extruding 
G1 X21.147 Y22.088 ;extruding 
G1 X20.995 Y22.165 ;extruding 
G1 X20.995 Y22.827 ;extruding 
G1 X19.270 Y22.827 ;extruding 
FILEWRITE $hFile"\x05\x02\x30\x34\x44\x49\x20\x20\x43\x46\x03"
G1 X18.607 Y22.895 ;not extruding 
G1 X15.427 Y32.942 ;not extruding 
FILEWRITE $hFile"\x05\x02\x30\x34\x44\x49\x20\x20\x43\x46\x03"
DWELL 0.15
G1 X14.687 Y32.667 ;extruding 
G1 X13.170 Y31.879 ;extruding 
G1 X11.950 Y31.052 ;extruding 
G1 X10.746 Y30.014 ;extruding 
G1 X9.673 Y28.841 ;extruding 
G1 X8.769 Y27.584 ;extruding 
G1 X7.946 Y26.086 ;extruding 
G1 X7.382 Y24.686 ;extruding 
G1 X6.963 Y23.152 ;extruding 
G1 X6.728 Y21.580 ;extruding 
G1 X6.680 Y20.068 ;extruding 
G1 X6.830 Y18.365 ;extruding 
G1 X7.150 Y16.855 ;extruding 
G1 X7.687 Y15.283 ;extruding 
G1 X8.342 Y13.914 ;extruding 
G1 X9.191 Y12.570 ;extruding 
G1 X10.193 Y11.335 ;extruding 
G1 X11.271 Y10.283 ;extruding 
G1 X12.465 Y9.359 ;extruding 
G1 X12.789 Y9.147 ;extruding 
G1 X13.963 Y8.456 ;extruding 
G1 X15.418 Y7.816 ;extruding 
G1 X16.939 Y7.351 ;extruding 
G1 X18.386 Y7.087 ;extruding 
G1 X19.897 Y6.984 ;extruding 
G1 X20.283 Y6.984 ;extruding 
G1 X21.676 Y7.070 ;extruding 
G1 X23.073 Y7.317 ;extruding 
G1 X23.451 Y7.413 ;extruding 
G1 X24.712 Y7.798 ;extruding 
G1 X26.213 Y8.456 ;extruding 
G1 X27.582 Y9.264 ;extruding 
G1 X28.846 Y10.229 ;extruding 
G1 X29.844 Y11.193 ;extruding 
G1 X30.106 Y11.477 ;extruding 
G1 X31.049 Y12.660 ;extruding 
G1 X31.835 Y13.913 ;extruding 
G1 X32.519 Y15.348 ;extruding 
G1 X33.028 Y16.854 ;extruding 
G1 X33.348 Y18.365 ;extruding 
G1 X33.498 Y20.068 ;extruding 
G1 X33.450 Y21.580 ;extruding 
G1 X33.215 Y23.152 ;extruding 
G1 X32.796 Y24.686 ;extruding 
G1 X32.232 Y26.086 ;extruding 
G1 X31.409 Y27.584 ;extruding 
G1 X30.505 Y28.841 ;extruding 
G1 X29.432 Y30.014 ;extruding 
G1 X28.228 Y31.052 ;extruding 
G1 X27.008 Y31.879 ;extruding 
G1 X25.491 Y32.667 ;extruding 
G1 X24.007 Y33.218 ;extruding 
G1 X22.461 Y33.592 ;extruding 
G1 X20.933 Y33.776 ;extruding 
G1 X20.089 Y33.804 ;extruding 
G1 X19.245 Y33.776 ;extruding 
G1 X17.717 Y33.592 ;extruding 
G1 X16.171 Y33.218 ;extruding 
G1 X15.509 Y32.972 ;extruding 
FILEWRITE $hFile"\x05\x02\x30\x34\x44\x49\x20\x20\x43\x46\x03"
G1 X15.291 Y33.310 ;not extruding 
FILEWRITE $hFile"\x05\x02\x30\x34\x44\x49\x20\x20\x43\x46\x03"
DWELL 0.15
G1 X14.527 Y33.027 ;extruding 
G1 X12.969 Y32.216 ;extruding 
G1 X11.711 Y31.364 ;extruding 
G1 X10.472 Y30.296 ;extruding 
G1 X9.368 Y29.089 ;extruding 
G1 X8.436 Y27.794 ;extruding 
G1 X7.591 Y26.254 ;extruding 
G1 X7.009 Y24.812 ;extruding 
G1 X6.578 Y23.234 ;extruding 
G1 X6.337 Y21.615 ;extruding 
G1 X6.287 Y20.057 ;extruding 
G1 X6.440 Y18.307 ;extruding 
G1 X6.770 Y16.751 ;extruding 
G1 X7.322 Y15.134 ;extruding 
G1 X7.998 Y13.724 ;extruding 
G1 X8.871 Y12.340 ;extruding 
G1 X9.902 Y11.070 ;extruding 
G1 X11.013 Y9.986 ;extruding 
G1 X12.237 Y9.039 ;extruding 
G1 X12.582 Y8.813 ;extruding 
G1 X13.784 Y8.106 ;extruding 
G1 X15.281 Y7.447 ;extruding 
G1 X16.846 Y6.969 ;extruding 
G1 X18.337 Y6.697 ;extruding 
G1 X19.883 Y6.591 ;extruding 
G1 X20.296 Y6.591 ;extruding 
G1 X21.722 Y6.680 ;extruding 
G1 X23.156 Y6.933 ;extruding 
G1 X23.557 Y7.034 ;extruding 
G1 X24.841 Y7.427 ;extruding 
G1 X26.393 Y8.106 ;extruding 
G1 X27.802 Y8.938 ;extruding 
G1 X29.103 Y9.931 ;extruding 
G1 X30.125 Y10.918 ;extruding 
G1 X30.404 Y11.222 ;extruding 
G1 X31.370 Y12.433 ;extruding 
G1 X32.180 Y13.723 ;extruding 
G1 X32.884 Y15.201 ;extruding 
G1 X33.408 Y16.750 ;extruding 
G1 X33.738 Y18.307 ;extruding 
G1 X33.891 Y20.057 ;extruding 
G1 X33.841 Y21.615 ;extruding 
G1 X33.600 Y23.234 ;extruding 
G1 X33.169 Y24.812 ;extruding 
G1 X32.587 Y26.254 ;extruding 
G1 X31.742 Y27.794 ;extruding 
G1 X30.810 Y29.089 ;extruding 
G1 X29.706 Y30.296 ;extruding 
G1 X28.467 Y31.364 ;extruding 
G1 X27.209 Y32.216 ;extruding 
G1 X25.651 Y33.027 ;extruding 
G1 X24.121 Y33.595 ;extruding 
G1 X22.531 Y33.979 ;extruding 
G1 X20.963 Y34.168 ;extruding 
G1 X20.089 Y34.197 ;extruding 
G1 X19.215 Y34.168 ;extruding 
G1 X17.647 Y33.979 ;extruding 
G1 X16.057 Y33.595 ;extruding 
G1 X15.372 Y33.340 ;extruding 
FILEWRITE $hFile"\x05\x02\x30\x34\x44\x49\x20\x20\x43\x46\x03"
G1 X15.178 Y32.741 ;not extruding 
G1 D-148.500 ;not extruding 
G1 X18.790 Y23.220 ;not extruding 
FILEWRITE $hFile"\x05\x02\x30\x34\x44\x49\x20\x20\x43\x46\x03"
DWELL 0.15
G1 X18.790 Y22.398 ;extruding 
G1 X18.493 Y22.176 ;extruding 
G1 X18.211 Y21.876 ;extruding 
G1 X17.984 Y21.532 ;extruding 
G1 X17.832 Y21.184 ;extruding 
G1 X17.722 Y20.758 ;extruding 
G1 X17.694 Y20.342 ;extruding 
G1 X17.738 Y19.932 ;extruding 
G1 X17.851 Y19.536 ;extruding 
G1 X18.031 Y19.165 ;extruding 
G1 X18.271 Y18.830 ;extruding 
G1 X18.566 Y18.541 ;extruding 
G1 X18.905 Y18.308 ;extruding 
G1 X19.280 Y18.135 ;extruding 
G1 X19.678 Y18.030 ;extruding 
G1 X20.057 Y17.997 ;extruding 
G1 X20.495 Y18.029 ;extruding 
G1 X20.898 Y18.135 ;extruding 
G1 X21.273 Y18.308 ;extruding 
G1 X21.612 Y18.541 ;extruding 
G1 X21.907 Y18.830 ;extruding 
G1 X22.147 Y19.165 ;extruding 
G1 X22.327 Y19.536 ;extruding 
G1 X22.440 Y19.932 ;extruding 
G1 X22.484 Y20.342 ;extruding 
G1 X22.456 Y20.753 ;extruding 
G1 X22.359 Y21.154 ;extruding 
G1 X22.194 Y21.532 ;extruding 
G1 X21.967 Y21.876 ;extruding 
G1 X21.684 Y22.176 ;extruding 
G1 X21.388 Y22.398 ;extruding 
G1 X21.388 Y23.220 ;extruding 
G1 X18.877 Y23.220 ;extruding 
FILEWRITE $hFile"\x05\x02\x30\x34\x44\x49\x20\x20\x43\x46\x03"
G1 X19.183 Y22.827 ;not extruding 
FILEWRITE $hFile"\x05\x02\x30\x34\x44\x49\x20\x20\x43\x46\x03"
DWELL 0.15
G1 X19.183 Y22.165 ;extruding 
G1 X19.032 Y22.088 ;extruding 
G1 X18.756 Y21.882 ;extruding 
G1 X18.520 Y21.631 ;extruding 
G1 X18.330 Y21.344 ;extruding 
G1 X18.204 Y21.055 ;extruding 
G1 X18.111 Y20.695 ;extruding 
G1 X18.088 Y20.350 ;extruding 
G1 X18.125 Y20.007 ;extruding 
G1 X18.220 Y19.676 ;extruding 
G1 X18.370 Y19.366 ;extruding 
G1 X18.570 Y19.087 ;extruding 
G1 X18.816 Y18.846 ;extruding 
G1 X19.100 Y18.650 ;extruding 
G1 X19.413 Y18.506 ;extruding 
G1 X19.746 Y18.418 ;extruding 
G1 X20.059 Y18.391 ;extruding 
G1 X20.430 Y18.418 ;extruding 
G1 X20.765 Y18.506 ;extruding 
G1 X21.078 Y18.650 ;extruding 
G1 X21.362 Y18.846 ;extruding 
G1 X21.607 Y19.087 ;extruding 
G1 X21.808 Y19.366 ;extruding 
G1 X21.958 Y19.676 ;extruding 
G1 X22.053 Y20.007 ;extruding 
G1 X22.090 Y20.350 ;extruding 
G1 X22.067 Y20.693 ;extruding 
G1 X21.985 Y21.028 ;extruding 
G1 X21.848 Y21.344 ;extruding 
G1 X21.658 Y21.631 ;extruding 
G1 X21.422 Y21.882 ;extruding 
G1 X21.146 Y22.088 ;extruding 
G1 X20.995 Y22.165 ;extruding 
G1 X20.995 Y22.827 ;extruding 
G1 X19.270 Y22.827 ;extruding 
FILEWRITE $hFile"\x05\x02\x30\x34\x44\x49\x20\x20\x43\x46\x03"
G1 X18.607 Y22.895 ;not extruding 
G1 X15.428 Y32.942 ;not extruding 
FILEWRITE $hFile"\x05\x02\x30\x34\x44\x49\x20\x20\x43\x46\x03"
DWELL 0.15
G1 X14.686 Y32.667 ;extruding 
G1 X13.392 Y32.010 ;extruding 
G1 X13.120 Y31.848 ;extruding 
G1 X11.920 Y31.028 ;extruding 
G1 X10.746 Y30.014 ;extruding 
G1 X9.673 Y28.841 ;extruding 
G1 X8.781 Y27.604 ;extruding 
G1 X8.068 Y26.335 ;extruding 
G1 X7.930 Y26.051 ;extruding 
G1 X7.382 Y24.687 ;extruding 
G1 X6.963 Y23.152 ;extruding 
G1 X6.728 Y21.579 ;extruding 
G1 X6.679 Y20.104 ;extruding 
G1 X6.692 Y19.789 ;extruding 
G1 X6.833 Y18.339 ;extruding 
G1 X7.150 Y16.853 ;extruding 
G1 X7.584 Y15.546 ;extruding 
G1 X7.699 Y15.251 ;extruding 
G1 X8.342 Y13.915 ;extruding 
G1 X9.191 Y12.570 ;extruding 
G1 X10.193 Y11.335 ;extruding 
G1 X11.239 Y10.311 ;extruding 
G1 X11.480 Y10.107 ;extruding 
G1 X12.644 Y9.232 ;extruding 
G1 X13.963 Y8.456 ;extruding 
G1 X15.419 Y7.815 ;extruding 
G1 X16.895 Y7.362 ;extruding 
G1 X18.325 Y7.095 ;extruding 
G1 X18.640 Y7.056 ;extruding 
G1 X19.764 Y6.989 ;extruding 
G1 X20.089 Y6.976 ;extruding 
G1 X20.412 Y6.989 ;extruding 
G1 X21.674 Y7.070 ;extruding 
G1 X23.240 Y7.351 ;extruding 
G1 X24.761 Y7.816 ;extruding 
G1 X26.286 Y8.494 ;extruding 
G1 X27.540 Y9.236 ;extruding 
G1 X28.844 Y10.228 ;extruding 
G1 X29.978 Y11.327 ;extruding 
G1 X30.899 Y12.450 ;extruding 
G1 X31.082 Y12.707 ;extruding 
G1 X31.851 Y13.941 ;extruding 
G1 X32.519 Y15.348 ;extruding 
G1 X33.028 Y16.855 ;extruding 
G1 X33.344 Y18.339 ;extruding 
G1 X33.486 Y19.789 ;extruding 
G1 X33.499 Y20.104 ;extruding 
G1 X33.450 Y21.579 ;extruding 
G1 X33.215 Y23.152 ;extruding 
G1 X32.796 Y24.687 ;extruding 
G1 X32.248 Y26.051 ;extruding 
G1 X32.110 Y26.335 ;extruding 
G1 X31.397 Y27.604 ;extruding 
G1 X30.505 Y28.841 ;extruding 
G1 X29.432 Y30.014 ;extruding 
G1 X28.258 Y31.028 ;extruding 
G1 X27.058 Y31.848 ;extruding 
G1 X26.786 Y32.010 ;extruding 
G1 X25.492 Y32.667 ;extruding 
G1 X24.007 Y33.218 ;extruding 
G1 X22.461 Y33.592 ;extruding 
G1 X20.973 Y33.774 ;extruding 
G1 X20.089 Y33.804 ;extruding 
G1 X19.205 Y33.774 ;extruding 
G1 X17.717 Y33.592 ;extruding 
G1 X16.171 Y33.218 ;extruding 
G1 X15.510 Y32.973 ;extruding 
FILEWRITE $hFile"\x05\x02\x30\x34\x44\x49\x20\x20\x43\x46\x03"
G1 X15.292 Y33.311 ;not extruding 
FILEWRITE $hFile"\x05\x02\x30\x34\x44\x49\x20\x20\x43\x46\x03"
DWELL 0.15
G1 X14.529 Y33.027 ;extruding 
G1 X13.202 Y32.354 ;extruding 
G1 X12.909 Y32.180 ;extruding 
G1 X11.680 Y31.340 ;extruding 
G1 X10.472 Y30.296 ;extruding 
G1 X9.367 Y29.089 ;extruding 
G1 X8.450 Y27.816 ;extruding 
G1 X7.720 Y26.517 ;extruding 
G1 X7.571 Y26.211 ;extruding 
G1 X7.009 Y24.812 ;extruding 
G1 X6.578 Y23.234 ;extruding 
G1 X6.337 Y21.615 ;extruding 
G1 X6.286 Y20.102 ;extruding 
G1 X6.300 Y19.761 ;extruding 
G1 X6.445 Y18.279 ;extruding 
G1 X6.770 Y16.750 ;extruding 
G1 X7.215 Y15.412 ;extruding 
G1 X7.339 Y15.094 ;extruding 
G1 X7.998 Y13.724 ;extruding 
G1 X8.871 Y12.340 ;extruding 
G1 X9.902 Y11.070 ;extruding 
G1 X10.975 Y10.020 ;extruding 
G1 X11.235 Y9.800 ;extruding 
G1 X12.425 Y8.905 ;extruding 
G1 X13.784 Y8.106 ;extruding 
G1 X15.282 Y7.447 ;extruding 
G1 X16.801 Y6.980 ;extruding 
G1 X18.265 Y6.707 ;extruding 
G1 X18.604 Y6.664 ;extruding 
G1 X19.744 Y6.597 ;extruding 
G1 X20.089 Y6.583 ;extruding 
G1 X20.433 Y6.597 ;extruding 
G1 X21.721 Y6.680 ;extruding 
G1 X23.332 Y6.969 ;extruding 
G1 X24.897 Y7.447 ;extruding 
G1 X26.473 Y8.148 ;extruding 
G1 X27.755 Y8.907 ;extruding 
G1 X29.102 Y9.930 ;extruding 
G1 X30.268 Y11.061 ;extruding 
G1 X31.211 Y12.211 ;extruding 
G1 X31.409 Y12.489 ;extruding 
G1 X32.196 Y13.753 ;extruding 
G1 X32.884 Y15.200 ;extruding 
G1 X33.408 Y16.751 ;extruding 
G1 X33.733 Y18.279 ;extruding 
G1 X33.878 Y19.761 ;extruding 
G1 X33.892 Y20.102 ;extruding 
G1 X33.841 Y21.615 ;extruding 
G1 X33.600 Y23.234 ;extruding 
G1 X33.168 Y24.812 ;extruding 
G1 X32.607 Y26.211 ;extruding 
G1 X32.458 Y26.517 ;extruding 
G1 X31.728 Y27.816 ;extruding 
G1 X30.811 Y29.089 ;extruding 
G1 X29.706 Y30.296 ;extruding 
G1 X28.498 Y31.340 ;extruding 
G1 X27.269 Y32.180 ;extruding 
G1 X26.976 Y32.354 ;extruding 
G1 X25.649 Y33.027 ;extruding 
G1 X24.121 Y33.595 ;extruding 
G1 X22.531 Y33.979 ;extruding 
G1 X21.003 Y34.166 ;extruding 
G1 X20.089 Y34.197 ;extruding 
G1 X19.175 Y34.166 ;extruding 
G1 X17.647 Y33.979 ;extruding 
G1 X16.057 Y33.595 ;extruding 
G1 X15.373 Y33.341 ;extruding 
FILEWRITE $hFile"\x05\x02\x30\x34\x44\x49\x20\x20\x43\x46\x03"
G1 X15.179 Y32.741 ;not extruding 
G1 D-148.000 ;not extruding 
G1 X18.790 Y23.220 ;not extruding 
FILEWRITE $hFile"\x05\x02\x30\x34\x44\x49\x20\x20\x43\x46\x03"
DWELL 0.15
G1 X18.790 Y22.398 ;extruding 
G1 X18.530 Y22.203 ;extruding 
G1 X18.214 Y21.881 ;extruding 
G1 X17.984 Y21.532 ;extruding 
G1 X17.819 Y21.154 ;extruding 
G1 X17.722 Y20.753 ;extruding 
G1 X17.694 Y20.342 ;extruding 
G1 X17.739 Y19.925 ;extruding 
G1 X17.852 Y19.535 ;extruding 
G1 X18.031 Y19.165 ;extruding 
G1 X18.271 Y18.830 ;extruding 
G1 X18.566 Y18.541 ;extruding 
G1 X18.905 Y18.308 ;extruding 
G1 X19.280 Y18.135 ;extruding 
G1 X19.678 Y18.030 ;extruding 
G1 X20.044 Y17.998 ;extruding 
G1 X20.494 Y18.028 ;extruding 
G1 X20.898 Y18.135 ;extruding 
G1 X21.273 Y18.308 ;extruding 
G1 X21.612 Y18.541 ;extruding 
G1 X21.907 Y18.830 ;extruding 
G1 X22.147 Y19.165 ;extruding 
G1 X22.327 Y19.536 ;extruding 
G1 X22.440 Y19.932 ;extruding 
G1 X22.484 Y20.342 ;extruding 
G1 X22.456 Y20.753 ;extruding 
G1 X22.359 Y21.154 ;extruding 
G1 X22.194 Y21.532 ;extruding 
G1 X21.992 Y21.838 ;extruding 
G1 X21.690 Y22.172 ;extruding 
G1 X21.388 Y22.398 ;extruding 
G1 X21.388 Y23.220 ;extruding 
G1 X18.877 Y23.220 ;extruding 
FILEWRITE $hFile"\x05\x02\x30\x34\x44\x49\x20\x20\x43\x46\x03"
G1 X19.183 Y22.827 ;not extruding 
FILEWRITE $hFile"\x05\x02\x30\x34\x44\x49\x20\x20\x43\x46\x03"
DWELL 0.15
G1 X19.183 Y22.165 ;extruding 
G1 X19.032 Y22.088 ;extruding 
G1 X18.789 Y21.907 ;extruding 
G1 X18.521 Y21.633 ;extruding 
G1 X18.330 Y21.344 ;extruding 
G1 X18.193 Y21.028 ;extruding 
G1 X18.111 Y20.693 ;extruding 
G1 X18.088 Y20.350 ;extruding 
G1 X18.126 Y20.001 ;extruding 
G1 X18.220 Y19.676 ;extruding 
G1 X18.370 Y19.366 ;extruding 
G1 X18.570 Y19.087 ;extruding 
G1 X18.816 Y18.846 ;extruding 
G1 X19.100 Y18.650 ;extruding 
G1 X19.413 Y18.506 ;extruding 
G1 X19.746 Y18.418 ;extruding 
G1 X20.048 Y18.392 ;extruding 
G1 X20.430 Y18.418 ;extruding 
G1 X20.765 Y18.506 ;extruding 
G1 X21.078 Y18.650 ;extruding 
G1 X21.362 Y18.846 ;extruding 
G1 X21.607 Y19.087 ;extruding 
G1 X21.808 Y19.366 ;extruding 
G1 X21.958 Y19.676 ;extruding 
G1 X22.053 Y20.007 ;extruding 
G1 X22.090 Y20.350 ;extruding 
G1 X22.067 Y20.693 ;extruding 
G1 X21.985 Y21.028 ;extruding 
G1 X21.848 Y21.344 ;extruding 
G1 X21.681 Y21.597 ;extruding 
G1 X21.424 Y21.880 ;extruding 
G1 X21.146 Y22.088 ;extruding 
G1 X20.995 Y22.165 ;extruding 
G1 X20.995 Y22.827 ;extruding 
G1 X19.270 Y22.827 ;extruding 
FILEWRITE $hFile"\x05\x02\x30\x34\x44\x49\x20\x20\x43\x46\x03"
G1 X18.607 Y22.895 ;not extruding 
G1 X15.429 Y32.943 ;not extruding 
FILEWRITE $hFile"\x05\x02\x30\x34\x44\x49\x20\x20\x43\x46\x03"
DWELL 0.15
G1 X14.690 Y32.669 ;extruding 
G1 X13.265 Y31.938 ;extruding 
G1 X11.909 Y31.021 ;extruding 
G1 X10.852 Y30.115 ;extruding 
G1 X10.525 Y29.788 ;extruding 
G1 X9.605 Y28.756 ;extruding 
G1 X8.747 Y27.551 ;extruding 
G1 X7.978 Y26.156 ;extruding 
G1 X7.390 Y24.710 ;extruding 
G1 X7.014 Y23.374 ;extruding 
G1 X6.919 Y22.924 ;extruding 
G1 X6.725 Y21.546 ;extruding 
G1 X6.681 Y19.993 ;extruding 
G1 X6.823 Y18.408 ;extruding 
G1 X7.122 Y16.958 ;extruding 
G1 X7.552 Y15.632 ;extruding 
G1 X7.718 Y15.207 ;extruding 
G1 X8.341 Y13.915 ;extruding 
G1 X9.191 Y12.570 ;extruding 
G1 X10.193 Y11.334 ;extruding 
G1 X11.197 Y10.348 ;extruding 
G1 X11.546 Y10.053 ;extruding 
G1 X12.663 Y9.220 ;extruding 
G1 X13.963 Y8.457 ;extruding 
G1 X15.419 Y7.815 ;extruding 
G1 X16.878 Y7.366 ;extruding 
G1 X18.246 Y7.106 ;extruding 
G1 X18.701 Y7.049 ;extruding 
G1 X19.621 Y6.995 ;extruding 
G1 X20.089 Y6.976 ;extruding 
G1 X21.673 Y7.070 ;extruding 
G1 X23.240 Y7.351 ;extruding 
G1 X24.762 Y7.816 ;extruding 
G1 X25.907 Y8.309 ;extruding 
G1 X26.319 Y8.511 ;extruding 
G1 X27.520 Y9.222 ;extruding 
G1 X27.894 Y9.490 ;extruding 
G1 X28.844 Y10.227 ;extruding 
G1 X29.986 Y11.336 ;extruding 
G1 X30.989 Y12.572 ;extruding 
G1 X31.855 Y13.949 ;extruding 
G1 X32.460 Y15.206 ;extruding 
G1 X32.626 Y15.632 ;extruding 
G1 X33.056 Y16.958 ;extruding 
G1 X33.355 Y18.408 ;extruding 
G1 X33.497 Y19.993 ;extruding 
G1 X33.453 Y21.546 ;extruding 
G1 X33.259 Y22.924 ;extruding 
G1 X33.165 Y23.371 ;extruding 
G1 X32.788 Y24.710 ;extruding 
G1 X32.199 Y26.158 ;extruding 
G1 X31.431 Y27.551 ;extruding 
G1 X30.573 Y28.756 ;extruding 
G1 X29.653 Y29.788 ;extruding 
G1 X29.327 Y30.114 ;extruding 
G1 X28.230 Y31.050 ;extruding 
G1 X26.910 Y31.939 ;extruding 
G1 X25.486 Y32.669 ;extruding 
G1 X24.187 Y33.161 ;extruding 
G1 X23.749 Y33.291 ;extruding 
G1 X22.391 Y33.604 ;extruding 
G1 X20.875 Y33.781 ;extruding 
G1 X20.089 Y33.804 ;extruding 
G1 X19.303 Y33.781 ;extruding 
G1 X17.780 Y33.603 ;extruding 
G1 X17.331 Y33.509 ;extruding 
G1 X16.174 Y33.219 ;extruding 
G1 X15.511 Y32.973 ;extruding 
FILEWRITE $hFile"\x05\x02\x30\x34\x44\x49\x20\x20\x43\x46\x03"
G1 X15.292 Y33.311 ;not extruding 
FILEWRITE $hFile"\x05\x02\x30\x34\x44\x49\x20\x20\x43\x46\x03"
DWELL 0.15
G1 X14.532 Y33.029 ;extruding 
G1 X13.067 Y32.277 ;extruding 
G1 X11.668 Y31.331 ;extruding 
G1 X10.584 Y30.403 ;extruding 
G1 X10.241 Y30.059 ;extruding 
G1 X9.294 Y28.997 ;extruding 
G1 X8.414 Y27.760 ;extruding 
G1 X7.624 Y26.327 ;extruding 
G1 X7.018 Y24.837 ;extruding 
G1 X6.632 Y23.466 ;extruding 
G1 X6.532 Y22.991 ;extruding 
G1 X6.333 Y21.579 ;extruding 
G1 X6.288 Y19.981 ;extruding 
G1 X6.433 Y18.351 ;extruding 
G1 X6.742 Y16.858 ;extruding 
G1 X7.182 Y15.500 ;extruding 
G1 X7.358 Y15.050 ;extruding 
G1 X7.997 Y13.724 ;extruding 
G1 X8.871 Y12.340 ;extruding 
G1 X9.902 Y11.070 ;extruding 
G1 X10.933 Y10.058 ;extruding 
G1 X11.301 Y9.745 ;extruding 
G1 X12.445 Y8.892 ;extruding 
G1 X13.784 Y8.106 ;extruding 
G1 X15.282 Y7.447 ;extruding 
G1 X16.783 Y6.984 ;extruding 
G1 X18.185 Y6.718 ;extruding 
G1 X18.665 Y6.658 ;extruding 
G1 X19.602 Y6.603 ;extruding 
G1 X20.089 Y6.583 ;extruding 
G1 X21.721 Y6.679 ;extruding 
G1 X23.332 Y6.969 ;extruding 
G1 X24.898 Y7.447 ;extruding 
G1 X26.071 Y7.953 ;extruding 
G1 X26.506 Y8.165 ;extruding 
G1 X27.735 Y8.893 ;extruding 
G1 X28.129 Y9.175 ;extruding 
G1 X29.102 Y9.930 ;extruding 
G1 X30.276 Y11.070 ;extruding 
G1 X31.308 Y12.341 ;extruding 
G1 X32.202 Y13.763 ;extruding 
G1 X32.820 Y15.050 ;extruding 
G1 X32.996 Y15.500 ;extruding 
G1 X33.436 Y16.858 ;extruding 
G1 X33.744 Y18.351 ;extruding 
G1 X33.890 Y19.981 ;extruding 
G1 X33.844 Y21.579 ;extruding 
G1 X33.646 Y22.991 ;extruding 
G1 X33.546 Y23.465 ;extruding 
G1 X33.160 Y24.837 ;extruding 
G1 X32.554 Y26.327 ;extruding 
G1 X31.764 Y27.760 ;extruding 
G1 X30.884 Y28.997 ;extruding 
G1 X29.937 Y30.059 ;extruding 
G1 X29.594 Y30.402 ;extruding 
G1 X28.467 Y31.364 ;extruding 
G1 X27.110 Y32.278 ;extruding 
G1 X25.646 Y33.029 ;extruding 
G1 X24.312 Y33.533 ;extruding 
G1 X23.849 Y33.671 ;extruding 
G1 X22.458 Y33.991 ;extruding 
G1 X20.904 Y34.173 ;extruding 
G1 X20.089 Y34.197 ;extruding 
G1 X19.274 Y34.173 ;extruding 
G1 X17.717 Y33.991 ;extruding 
G1 X17.243 Y33.892 ;extruding 
G1 X16.058 Y33.595 ;extruding 
G1 X15.374 Y33.341 ;extruding 
FILEWRITE $hFile"\x05\x02\x30\x34\x44\x49\x20\x20\x43\x46\x03"
G1 X15.183 Y32.741 ;not extruding 
G1 D-147.500 ;not extruding 
G1 X18.790 Y23.220 ;not extruding 
FILEWRITE $hFile"\x05\x02\x30\x34\x44\x49\x20\x20\x43\x46\x03"
DWELL 0.15
G1 X18.790 Y22.398 ;extruding 
G1 X18.493 Y22.176 ;extruding 
G1 X18.251 Y21.918 ;extruding 
G1 X17.987 Y21.539 ;extruding 
G1 X17.819 Y21.154 ;extruding 
G1 X17.722 Y20.753 ;extruding 
G1 X17.694 Y20.342 ;extruding 
G1 X17.732 Y19.990 ;extruding 
G1 X17.848 Y19.543 ;extruding 
G1 X18.031 Y19.165 ;extruding 
G1 X18.271 Y18.830 ;extruding 
G1 X18.566 Y18.541 ;extruding 
G1 X18.857 Y18.340 ;extruding 
G1 X19.272 Y18.137 ;extruding 
G1 X19.678 Y18.030 ;extruding 
G1 X20.094 Y17.994 ;extruding 
G1 X20.500 Y18.030 ;extruding 
G1 X20.898 Y18.135 ;extruding 
G1 X21.273 Y18.308 ;extruding 
G1 X21.612 Y18.541 ;extruding 
G1 X21.907 Y18.830 ;extruding 
G1 X22.147 Y19.165 ;extruding 
G1 X22.327 Y19.536 ;extruding 
G1 X22.440 Y19.932 ;extruding 
G1 X22.484 Y20.342 ;extruding 
G1 X22.456 Y20.753 ;extruding 
G1 X22.359 Y21.154 ;extruding 
G1 X22.194 Y21.532 ;extruding 
G1 X21.967 Y21.876 ;extruding 
G1 X21.684 Y22.176 ;extruding 
G1 X21.388 Y22.398 ;extruding 
G1 X21.388 Y23.220 ;extruding 
G1 X18.877 Y23.220 ;extruding 
FILEWRITE $hFile"\x05\x02\x30\x34\x44\x49\x20\x20\x43\x46\x03"
G1 X19.183 Y22.827 ;not extruding 
FILEWRITE $hFile"\x05\x02\x30\x34\x44\x49\x20\x20\x43\x46\x03"
DWELL 0.15
G1 X19.183 Y22.165 ;extruding 
G1 X19.032 Y22.088 ;extruding 
G1 X18.756 Y21.882 ;extruding 
G1 X18.556 Y21.670 ;extruding 
G1 X18.331 Y21.347 ;extruding 
G1 X18.193 Y21.028 ;extruding 
G1 X18.111 Y20.693 ;extruding 
G1 X18.088 Y20.350 ;extruding 
G1 X18.119 Y20.060 ;extruding 
G1 X18.218 Y19.679 ;extruding 
G1 X18.370 Y19.366 ;extruding 
G1 X18.570 Y19.087 ;extruding 
G1 X18.816 Y18.846 ;extruding 
G1 X19.056 Y18.680 ;extruding 
G1 X19.410 Y18.507 ;extruding 
G1 X19.746 Y18.418 ;extruding 
G1 X20.094 Y18.388 ;extruding 
G1 X20.432 Y18.418 ;extruding 
G1 X20.765 Y18.506 ;extruding 
G1 X21.078 Y18.650 ;extruding 
G1 X21.362 Y18.846 ;extruding 
G1 X21.607 Y19.087 ;extruding 
G1 X21.808 Y19.366 ;extruding 
G1 X21.958 Y19.676 ;extruding 
G1 X22.053 Y20.007 ;extruding 
G1 X22.090 Y20.350 ;extruding 
G1 X22.067 Y20.693 ;extruding 
G1 X21.985 Y21.028 ;extruding 
G1 X21.848 Y21.344 ;extruding 
G1 X21.658 Y21.631 ;extruding 
G1 X21.422 Y21.882 ;extruding 
G1 X21.146 Y22.088 ;extruding 
G1 X20.995 Y22.165 ;extruding 
G1 X20.995 Y22.827 ;extruding 
G1 X19.270 Y22.827 ;extruding 
FILEWRITE $hFile"\x05\x02\x30\x34\x44\x49\x20\x20\x43\x46\x03"
G1 X18.607 Y22.895 ;not extruding 
G1 X15.430 Y32.943 ;not extruding 
FILEWRITE $hFile"\x05\x02\x30\x34\x44\x49\x20\x20\x43\x46\x03"
DWELL 0.15
G1 X14.693 Y32.670 ;extruding 
G1 X13.264 Y31.937 ;extruding 
G1 X12.388 Y31.362 ;extruding 
G1 X11.896 Y31.011 ;extruding 
G1 X10.885 Y30.146 ;extruding 
G1 X10.457 Y29.718 ;extruding 
G1 X9.973 Y29.190 ;extruding 
G1 X9.583 Y28.729 ;extruding 
G1 X8.743 Y27.545 ;extruding 
G1 X8.499 Y27.129 ;extruding 
G1 X7.981 Y26.161 ;extruding 
G1 X7.392 Y24.716 ;extruding 
G1 X7.029 Y23.439 ;extruding 
G1 X6.906 Y22.853 ;extruding 
G1 X6.724 Y21.536 ;extruding 
G1 X6.681 Y19.989 ;extruding 
G1 X6.767 Y18.882 ;extruding 
G1 X6.821 Y18.416 ;extruding 
G1 X7.116 Y16.982 ;extruding 
G1 X7.517 Y15.724 ;extruding 
G1 X7.737 Y15.163 ;extruding 
G1 X8.344 Y13.909 ;extruding 
G1 X8.624 Y13.444 ;extruding 
G1 X9.188 Y12.573 ;extruding 
G1 X10.194 Y11.334 ;extruding 
G1 X11.156 Y10.385 ;extruding 
G1 X11.616 Y9.996 ;extruding 
G1 X12.185 Y9.561 ;extruding 
G1 X12.679 Y9.208 ;extruding 
G1 X13.964 Y8.456 ;extruding 
G1 X15.028 Y7.973 ;extruding 
G1 X15.586 Y7.755 ;extruding 
G1 X16.939 Y7.351 ;extruding 
G1 X18.166 Y7.118 ;extruding 
G1 X18.763 Y7.043 ;extruding 
G1 X20.089 Y6.976 ;extruding 
G1 X21.683 Y7.070 ;extruding 
G1 X23.238 Y7.351 ;extruding 
G1 X24.592 Y7.755 ;extruding 
G1 X25.154 Y7.974 ;extruding 
G1 X25.810 Y8.263 ;extruding 
G1 X26.353 Y8.529 ;extruding 
G1 X27.500 Y9.209 ;extruding 
G1 X27.990 Y9.559 ;extruding 
G1 X28.843 Y10.226 ;extruding 
G1 X29.986 Y11.336 ;extruding 
G1 X30.990 Y12.573 ;extruding 
G1 X31.553 Y13.443 ;extruding 
G1 X31.862 Y13.961 ;extruding 
G1 X32.441 Y15.162 ;extruding 
G1 X32.661 Y15.724 ;extruding 
G1 X32.890 Y16.403 ;extruding 
G1 X33.062 Y16.982 ;extruding 
G1 X33.357 Y18.416 ;extruding 
G1 X33.411 Y18.882 ;extruding 
G1 X33.497 Y19.989 ;extruding 
G1 X33.453 Y21.536 ;extruding 
G1 X33.272 Y22.853 ;extruding 
G1 X33.149 Y23.439 ;extruding 
G1 X32.786 Y24.716 ;extruding 
G1 X32.195 Y26.168 ;extruding 
G1 X31.433 Y27.549 ;extruding 
G1 X30.595 Y28.729 ;extruding 
G1 X30.205 Y29.190 ;extruding 
G1 X29.721 Y29.718 ;extruding 
G1 X29.294 Y30.145 ;extruding 
G1 X28.224 Y31.055 ;extruding 
G1 X27.791 Y31.361 ;extruding 
G1 X26.914 Y31.937 ;extruding 
G1 X25.483 Y32.671 ;extruding 
G1 X24.242 Y33.142 ;extruding 
G1 X23.669 Y33.313 ;extruding 
G1 X22.372 Y33.607 ;extruding 
G1 X20.875 Y33.781 ;extruding 
G1 X20.089 Y33.804 ;extruding 
G1 X19.303 Y33.781 ;extruding 
G1 X17.801 Y33.607 ;extruding 
G1 X17.214 Y33.484 ;extruding 
G1 X16.175 Y33.220 ;extruding 
G1 X15.512 Y32.974 ;extruding 
FILEWRITE $hFile"\x05\x02\x30\x34\x44\x49\x20\x20\x43\x46\x03"
G1 X15.293 Y33.311 ;not extruding 
FILEWRITE $hFile"\x05\x02\x30\x34\x44\x49\x20\x20\x43\x46\x03"
DWELL 0.15
G1 X14.534 Y33.030 ;extruding 
G1 X13.066 Y32.277 ;extruding 
G1 X12.166 Y31.686 ;extruding 
G1 X11.655 Y31.321 ;extruding 
G1 X10.618 Y30.434 ;extruding 
G1 X10.173 Y29.990 ;extruding 
G1 X9.678 Y29.449 ;extruding 
G1 X9.273 Y28.970 ;extruding 
G1 X8.412 Y27.758 ;extruding 
G1 X8.157 Y27.321 ;extruding 
G1 X7.625 Y26.329 ;extruding 
G1 X7.021 Y24.845 ;extruding 
G1 X6.647 Y23.533 ;extruding 
G1 X6.519 Y22.920 ;extruding 
G1 X6.333 Y21.569 ;extruding 
G1 X6.288 Y19.979 ;extruding 
G1 X6.376 Y18.845 ;extruding 
G1 X6.433 Y18.354 ;extruding 
G1 X6.734 Y16.886 ;extruding 
G1 X7.148 Y15.590 ;extruding 
G1 X7.376 Y15.005 ;extruding 
G1 X7.999 Y13.722 ;extruding 
G1 X8.291 Y13.236 ;extruding 
G1 X8.870 Y12.342 ;extruding 
G1 X9.902 Y11.069 ;extruding 
G1 X10.890 Y10.095 ;extruding 
G1 X11.369 Y9.690 ;extruding 
G1 X11.952 Y9.245 ;extruding 
G1 X12.464 Y8.879 ;extruding 
G1 X13.785 Y8.106 ;extruding 
G1 X14.875 Y7.611 ;extruding 
G1 X15.458 Y7.383 ;extruding 
G1 X16.846 Y6.969 ;extruding 
G1 X18.105 Y6.730 ;extruding 
G1 X18.727 Y6.652 ;extruding 
G1 X20.089 Y6.583 ;extruding 
G1 X21.725 Y6.680 ;extruding 
G1 X22.071 Y6.729 ;extruding 
G1 X23.332 Y6.969 ;extruding 
G1 X24.719 Y7.383 ;extruding 
G1 X25.304 Y7.611 ;extruding 
G1 X25.975 Y7.907 ;extruding 
G1 X26.539 Y8.183 ;extruding 
G1 X27.714 Y8.880 ;extruding 
G1 X28.225 Y9.244 ;extruding 
G1 X29.101 Y9.930 ;extruding 
G1 X30.276 Y11.070 ;extruding 
G1 X31.308 Y12.342 ;extruding 
G1 X31.887 Y13.235 ;extruding 
G1 X32.208 Y13.775 ;extruding 
G1 X32.801 Y15.005 ;extruding 
G1 X33.030 Y15.590 ;extruding 
G1 X33.264 Y16.284 ;extruding 
G1 X33.444 Y16.886 ;extruding 
G1 X33.745 Y18.354 ;extruding 
G1 X33.802 Y18.845 ;extruding 
G1 X33.890 Y19.979 ;extruding 
G1 X33.845 Y21.569 ;extruding 
G1 X33.659 Y22.920 ;extruding 
G1 X33.531 Y23.533 ;extruding 
G1 X33.157 Y24.845 ;extruding 
G1 X32.552 Y26.331 ;extruding 
G1 X32.378 Y26.674 ;extruding 
G1 X31.764 Y27.760 ;extruding 
G1 X30.905 Y28.970 ;extruding 
G1 X30.500 Y29.449 ;extruding 
G1 X30.005 Y29.990 ;extruding 
G1 X29.561 Y30.434 ;extruding 
G1 X28.466 Y31.365 ;extruding 
G1 X28.012 Y31.686 ;extruding 
G1 X27.112 Y32.277 ;extruding 
G1 X25.643 Y33.030 ;extruding 
G1 X24.368 Y33.515 ;extruding 
G1 X23.769 Y33.693 ;extruding 
G1 X22.438 Y33.995 ;extruding 
G1 X20.904 Y34.173 ;extruding 
G1 X20.089 Y34.197 ;extruding 
G1 X19.274 Y34.173 ;extruding 
G1 X17.738 Y33.995 ;extruding 
G1 X17.125 Y33.866 ;extruding 
G1 X16.058 Y33.595 ;extruding 
G1 X15.375 Y33.342 ;extruding 
FILEWRITE $hFile"\x05\x02\x30\x34\x44\x49\x20\x20\x43\x46\x03"
G1 X15.185 Y32.742 ;not extruding 
G1 D-147.000 ;not extruding 
G1 X18.790 Y23.220 ;not extruding 
FILEWRITE $hFile"\x05\x02\x30\x34\x44\x49\x20\x20\x43\x46\x03"
DWELL 0.15
G1 X18.790 Y22.398 ;extruding 
G1 X18.493 Y22.176 ;extruding 
G1 X18.211 Y21.876 ;extruding 
G1 X17.984 Y21.532 ;extruding 
G1 X17.847 Y21.218 ;extruding 
G1 X17.722 Y20.763 ;extruding 
G1 X17.694 Y20.342 ;extruding 
G1 X17.738 Y19.932 ;extruding 
G1 X17.851 Y19.536 ;extruding 
G1 X18.031 Y19.165 ;extruding 
G1 X18.271 Y18.830 ;extruding 
G1 X18.566 Y18.541 ;extruding 
G1 X18.905 Y18.308 ;extruding 
G1 X19.280 Y18.135 ;extruding 
G1 X19.678 Y18.030 ;extruding 
G1 X20.019 Y18.001 ;extruding 
G1 X20.491 Y18.028 ;extruding 
G1 X20.898 Y18.135 ;extruding 
G1 X21.273 Y18.308 ;extruding 
G1 X21.612 Y18.541 ;extruding 
G1 X21.907 Y18.830 ;extruding 
G1 X22.147 Y19.165 ;extruding 
G1 X22.336 Y19.556 ;extruding 
G1 X22.440 Y19.936 ;extruding 
G1 X22.484 Y20.342 ;extruding 
G1 X22.456 Y20.753 ;extruding 
G1 X22.359 Y21.154 ;extruding 
G1 X22.194 Y21.532 ;extruding 
G1 X21.967 Y21.876 ;extruding 
G1 X21.684 Y22.176 ;extruding 
G1 X21.388 Y22.398 ;extruding 
G1 X21.388 Y23.220 ;extruding 
G1 X18.877 Y23.220 ;extruding 
FILEWRITE $hFile"\x05\x02\x30\x34\x44\x49\x20\x20\x43\x46\x03"
G1 X19.183 Y22.827 ;not extruding 
FILEWRITE $hFile"\x05\x02\x30\x34\x44\x49\x20\x20\x43\x46\x03"
DWELL 0.15
G1 X19.183 Y22.165 ;extruding 
G1 X19.032 Y22.088 ;extruding 
G1 X18.756 Y21.882 ;extruding 
G1 X18.520 Y21.631 ;extruding 
G1 X18.330 Y21.344 ;extruding 
G1 X18.219 Y21.087 ;extruding 
G1 X18.111 Y20.697 ;extruding 
G1 X18.088 Y20.350 ;extruding 
G1 X18.125 Y20.007 ;extruding 
G1 X18.220 Y19.676 ;extruding 
G1 X18.370 Y19.366 ;extruding 
G1 X18.570 Y19.087 ;extruding 
G1 X18.816 Y18.846 ;extruding 
G1 X19.100 Y18.650 ;extruding 
G1 X19.413 Y18.506 ;extruding 
G1 X19.746 Y18.418 ;extruding 
G1 X20.024 Y18.394 ;extruding 
G1 X20.429 Y18.417 ;extruding 
G1 X20.765 Y18.506 ;extruding 
G1 X21.078 Y18.650 ;extruding 
G1 X21.362 Y18.846 ;extruding 
G1 X21.607 Y19.087 ;extruding 
G1 X21.808 Y19.366 ;extruding 
G1 X21.967 Y19.694 ;extruding 
G1 X22.053 Y20.009 ;extruding 
G1 X22.090 Y20.350 ;extruding 
G1 X22.067 Y20.693 ;extruding 
G1 X21.985 Y21.028 ;extruding 
G1 X21.848 Y21.344 ;extruding 
G1 X21.658 Y21.631 ;extruding 
G1 X21.422 Y21.882 ;extruding 
G1 X21.146 Y22.088 ;extruding 
G1 X20.995 Y22.165 ;extruding 
G1 X20.995 Y22.827 ;extruding 
G1 X19.270 Y22.827 ;extruding 
FILEWRITE $hFile"\x05\x02\x30\x34\x44\x49\x20\x20\x43\x46\x03"
G1 X18.607 Y22.895 ;not extruding 
G1 X15.325 Y32.912 ;not extruding 
FILEWRITE $hFile"\x05\x02\x30\x34\x44\x49\x20\x20\x43\x46\x03"
DWELL 0.15
G1 X14.692 Y32.670 ;extruding 
G1 X14.022 Y32.342 ;extruding 
G1 X13.262 Y31.937 ;extruding 
G1 X12.928 Y31.729 ;extruding 
G1 X11.951 Y31.053 ;extruding 
G1 X10.916 Y30.176 ;extruding 
G1 X10.389 Y29.649 ;extruding 
G1 X9.561 Y28.701 ;extruding 
G1 X8.821 Y27.667 ;extruding 
G1 X8.190 Y26.575 ;extruding 
G1 X7.863 Y25.905 ;extruding 
G1 X7.395 Y24.726 ;extruding 
G1 X7.044 Y23.506 ;extruding 
G1 X6.892 Y22.778 ;extruding 
G1 X6.723 Y21.527 ;extruding 
G1 X6.677 Y20.256 ;extruding 
G1 X6.707 Y19.518 ;extruding 
G1 X6.846 Y18.256 ;extruding 
G1 X7.150 Y16.851 ;extruding 
G1 X7.487 Y15.804 ;extruding 
G1 X7.655 Y15.357 ;extruding 
G1 X8.309 Y13.974 ;extruding 
G1 X8.969 Y12.892 ;extruding 
G1 X9.399 Y12.290 ;extruding 
G1 X10.211 Y11.314 ;extruding 
G1 X11.330 Y10.230 ;extruding 
G1 X11.675 Y9.947 ;extruding 
G1 X12.594 Y9.265 ;extruding 
G1 X13.793 Y8.546 ;extruding 
G1 X14.463 Y8.218 ;extruding 
G1 X14.932 Y8.012 ;extruding 
G1 X15.626 Y7.741 ;extruding 
G1 X16.943 Y7.350 ;extruding 
G1 X17.572 Y7.221 ;extruding 
G1 X18.510 Y7.068 ;extruding 
G1 X18.814 Y7.038 ;extruding 
G1 X20.091 Y6.976 ;extruding 
G1 X21.353 Y7.037 ;extruding 
G1 X22.090 Y7.129 ;extruding 
G1 X23.336 Y7.375 ;extruding 
G1 X24.550 Y7.740 ;extruding 
G1 X25.246 Y8.012 ;extruding 
G1 X26.386 Y8.546 ;extruding 
G1 X27.479 Y9.195 ;extruding 
G1 X28.496 Y9.941 ;extruding 
G1 X29.064 Y10.423 ;extruding 
G1 X29.986 Y11.336 ;extruding 
G1 X30.779 Y12.290 ;extruding 
G1 X31.211 Y12.896 ;extruding 
G1 X31.869 Y13.973 ;extruding 
G1 X32.422 Y15.118 ;extruding 
G1 X32.691 Y15.806 ;extruding 
G1 X33.071 Y17.018 ;extruding 
G1 X33.357 Y18.416 ;extruding 
G1 X33.424 Y18.994 ;extruding 
G1 X33.497 Y19.988 ;extruding 
G1 X33.454 Y21.527 ;extruding 
G1 X33.285 Y22.782 ;extruding 
G1 X33.134 Y23.506 ;extruding 
G1 X32.783 Y24.723 ;extruding 
G1 X32.195 Y26.168 ;extruding 
G1 X31.992 Y26.567 ;extruding 
G1 X31.433 Y27.548 ;extruding 
G1 X30.619 Y28.698 ;extruding 
G1 X29.784 Y29.654 ;extruding 
G1 X29.262 Y30.176 ;extruding 
G1 X28.227 Y31.053 ;extruding 
G1 X27.250 Y31.729 ;extruding 
G1 X26.916 Y31.937 ;extruding 
G1 X26.156 Y32.342 ;extruding 
G1 X25.486 Y32.670 ;extruding 
G1 X24.298 Y33.124 ;extruding 
G1 X23.590 Y33.335 ;extruding 
G1 X22.352 Y33.611 ;extruding 
G1 X20.875 Y33.781 ;extruding 
G1 X20.089 Y33.804 ;extruding 
G1 X19.303 Y33.781 ;extruding 
G1 X17.822 Y33.610 ;extruding 
G1 X16.594 Y33.337 ;extruding 
G1 X15.880 Y33.124 ;extruding 
G1 X15.406 Y32.943 ;extruding 
FILEWRITE $hFile"\x05\x02\x30\x34\x44\x49\x20\x20\x43\x46\x03"
G1 X15.184 Y33.279 ;not extruding 
FILEWRITE $hFile"\x05\x02\x30\x34\x44\x49\x20\x20\x43\x46\x03"
DWELL 0.15
G1 X14.535 Y33.031 ;extruding 
G1 X13.843 Y32.692 ;extruding 
G1 X13.065 Y32.277 ;extruding 
G1 X12.712 Y32.057 ;extruding 
G1 X11.711 Y31.365 ;extruding 
G1 X10.650 Y30.465 ;extruding 
G1 X10.105 Y29.920 ;extruding 
G1 X9.250 Y28.942 ;extruding 
G1 X8.492 Y27.882 ;extruding 
G1 X7.842 Y26.756 ;extruding 
G1 X7.503 Y26.064 ;extruding 
G1 X7.023 Y24.853 ;extruding 
G1 X6.663 Y23.601 ;extruding 
G1 X6.505 Y22.847 ;extruding 
G1 X6.332 Y21.559 ;extruding 
G1 X6.284 Y20.256 ;extruding 
G1 X6.316 Y19.488 ;extruding 
G1 X6.458 Y18.193 ;extruding 
G1 X6.771 Y16.749 ;extruding 
G1 X7.116 Y15.675 ;extruding 
G1 X7.293 Y15.204 ;extruding 
G1 X7.963 Y13.787 ;extruding 
G1 X8.642 Y12.675 ;extruding 
G1 X9.088 Y12.050 ;extruding 
G1 X9.921 Y11.049 ;extruding 
G1 X10.850 Y10.131 ;extruding 
G1 X11.074 Y9.931 ;extruding 
G1 X11.433 Y9.637 ;extruding 
G1 X12.375 Y8.938 ;extruding 
G1 X13.606 Y8.200 ;extruding 
G1 X14.298 Y7.862 ;extruding 
G1 X14.781 Y7.649 ;extruding 
G1 X15.499 Y7.369 ;extruding 
G1 X16.848 Y6.968 ;extruding 
G1 X17.501 Y6.835 ;extruding 
G1 X18.459 Y6.679 ;extruding 
G1 X18.785 Y6.646 ;extruding 
G1 X20.090 Y6.583 ;extruding 
G1 X21.389 Y6.646 ;extruding 
G1 X22.153 Y6.741 ;extruding 
G1 X23.431 Y6.993 ;extruding 
G1 X24.679 Y7.369 ;extruding 
G1 X25.397 Y7.649 ;extruding 
G1 X26.573 Y8.200 ;extruding 
G1 X27.694 Y8.866 ;extruding 
G1 X28.742 Y9.635 ;extruding 
G1 X29.330 Y10.133 ;extruding 
G1 X30.276 Y11.070 ;extruding 
G1 X31.090 Y12.050 ;extruding 
G1 X31.538 Y12.677 ;extruding 
G1 X32.215 Y13.787 ;extruding 
G1 X32.783 Y14.960 ;extruding 
G1 X33.062 Y15.676 ;extruding 
G1 X33.452 Y16.919 ;extruding 
G1 X33.745 Y18.354 ;extruding 
G1 X33.815 Y18.957 ;extruding 
G1 X33.890 Y19.979 ;extruding 
G1 X33.846 Y21.559 ;extruding 
G1 X33.673 Y22.849 ;extruding 
G1 X33.515 Y23.601 ;extruding 
G1 X33.155 Y24.852 ;extruding 
G1 X32.552 Y26.331 ;extruding 
G1 X32.338 Y26.753 ;extruding 
G1 X31.765 Y27.759 ;extruding 
G1 X30.928 Y28.941 ;extruding 
G1 X30.071 Y29.922 ;extruding 
G1 X29.528 Y30.465 ;extruding 
G1 X28.467 Y31.365 ;extruding 
G1 X27.466 Y32.057 ;extruding 
G1 X27.113 Y32.277 ;extruding 
G1 X26.335 Y32.692 ;extruding 
G1 X25.642 Y33.031 ;extruding 
G1 X24.425 Y33.496 ;extruding 
G1 X23.689 Y33.716 ;extruding 
G1 X22.417 Y33.999 ;extruding 
G1 X20.904 Y34.173 ;extruding 
G1 X20.089 Y34.197 ;extruding 
G1 X19.274 Y34.173 ;extruding 
G1 X17.759 Y33.998 ;extruding 
G1 X16.492 Y33.716 ;extruding 
G1 X15.753 Y33.496 ;extruding 
G1 X15.266 Y33.310 ;extruding 
FILEWRITE $hFile"\x05\x02\x30\x34\x44\x49\x20\x20\x43\x46\x03"
G1 X15.085 Y32.707 ;not extruding 
G1 D-146.500 ;not extruding 
G1 X18.790 Y23.220 ;not extruding 
FILEWRITE $hFile"\x05\x02\x30\x34\x44\x49\x20\x20\x43\x46\x03"
DWELL 0.15
G1 X18.790 Y22.398 ;extruding 
G1 X18.560 Y22.226 ;extruding 
G1 X18.217 Y21.885 ;extruding 
G1 X17.984 Y21.532 ;extruding 
G1 X17.819 Y21.154 ;extruding 
G1 X17.722 Y20.753 ;extruding 
G1 X17.694 Y20.342 ;extruding 
G1 X17.738 Y19.932 ;extruding 
G1 X17.851 Y19.536 ;extruding 
G1 X18.031 Y19.165 ;extruding 
G1 X18.271 Y18.830 ;extruding 
G1 X18.566 Y18.541 ;extruding 
G1 X18.905 Y18.308 ;extruding 
G1 X19.280 Y18.135 ;extruding 
G1 X19.678 Y18.030 ;extruding 
G1 X20.006 Y18.002 ;extruding 
G1 X20.489 Y18.027 ;extruding 
G1 X20.898 Y18.135 ;extruding 
G1 X21.273 Y18.308 ;extruding 
G1 X21.612 Y18.541 ;extruding 
G1 X21.907 Y18.830 ;extruding 
G1 X22.147 Y19.165 ;extruding 
G1 X22.327 Y19.536 ;extruding 
G1 X22.440 Y19.932 ;extruding 
G1 X22.484 Y20.342 ;extruding 
G1 X22.456 Y20.753 ;extruding 
G1 X22.359 Y21.154 ;extruding 
G1 X22.194 Y21.532 ;extruding 
G1 X21.967 Y21.876 ;extruding 
G1 X21.741 Y22.115 ;extruding 
G1 X21.388 Y22.399 ;extruding 
G1 X21.388 Y23.220 ;extruding 
G1 X18.877 Y23.220 ;extruding 
FILEWRITE $hFile"\x05\x02\x30\x34\x44\x49\x20\x20\x43\x46\x03"
G1 X19.183 Y22.827 ;not extruding 
FILEWRITE $hFile"\x05\x02\x30\x34\x44\x49\x20\x20\x43\x46\x03"
DWELL 0.15
G1 X19.183 Y22.165 ;extruding 
G1 X19.032 Y22.088 ;extruding 
G1 X18.817 Y21.928 ;extruding 
G1 X18.522 Y21.635 ;extruding 
G1 X18.330 Y21.344 ;extruding 
G1 X18.193 Y21.028 ;extruding 
G1 X18.111 Y20.693 ;extruding 
G1 X18.088 Y20.350 ;extruding 
G1 X18.125 Y20.007 ;extruding 
G1 X18.220 Y19.676 ;extruding 
G1 X18.370 Y19.366 ;extruding 
G1 X18.570 Y19.087 ;extruding 
G1 X18.816 Y18.846 ;extruding 
G1 X19.100 Y18.650 ;extruding 
G1 X19.413 Y18.506 ;extruding 
G1 X19.746 Y18.418 ;extruding 
G1 X20.013 Y18.395 ;extruding 
G1 X20.428 Y18.417 ;extruding 
G1 X20.765 Y18.506 ;extruding 
G1 X21.078 Y18.650 ;extruding 
G1 X21.362 Y18.846 ;extruding 
G1 X21.607 Y19.087 ;extruding 
G1 X21.808 Y19.366 ;extruding 
G1 X21.958 Y19.676 ;extruding 
G1 X22.053 Y20.007 ;extruding 
G1 X22.090 Y20.350 ;extruding 
G1 X22.067 Y20.693 ;extruding 
G1 X21.985 Y21.028 ;extruding 
G1 X21.848 Y21.344 ;extruding 
G1 X21.658 Y21.631 ;extruding 
G1 X21.474 Y21.826 ;extruding 
G1 X21.150 Y22.086 ;extruding 
G1 X20.995 Y22.165 ;extruding 
G1 X20.995 Y22.827 ;extruding 
G1 X19.270 Y22.827 ;extruding 
FILEWRITE $hFile"\x05\x02\x30\x34\x44\x49\x20\x20\x43\x46\x03"
G1 X18.607 Y22.895 ;not extruding 
G1 X15.301 Y32.905 ;not extruding 
FILEWRITE $hFile"\x05\x02\x30\x34\x44\x49\x20\x20\x43\x46\x03"
DWELL 0.15
G1 X14.695 Y32.671 ;extruding 
G1 X13.898 Y32.282 ;extruding 
G1 X13.263 Y31.938 ;extruding 
G1 X12.862 Y31.688 ;extruding 
G1 X11.951 Y31.053 ;extruding 
G1 X10.952 Y30.210 ;extruding 
G1 X10.108 Y29.345 ;extruding 
G1 X9.540 Y28.675 ;extruding 
G1 X8.744 Y27.548 ;extruding 
G1 X8.226 Y26.645 ;extruding 
G1 X7.844 Y25.864 ;extruding 
G1 X7.398 Y24.733 ;extruding 
G1 X7.058 Y23.567 ;extruding 
G1 X6.963 Y23.158 ;extruding 
G1 X6.832 Y22.396 ;extruding 
G1 X6.722 Y21.516 ;extruding 
G1 X6.676 Y20.307 ;extruding 
G1 X6.712 Y19.428 ;extruding 
G1 X6.851 Y18.229 ;extruding 
G1 X7.150 Y16.850 ;extruding 
G1 X7.455 Y15.891 ;extruding 
G1 X7.660 Y15.344 ;extruding 
G1 X8.302 Y13.987 ;extruding 
G1 X8.927 Y12.953 ;extruding 
G1 X9.439 Y12.237 ;extruding 
G1 X10.214 Y11.311 ;extruding 
G1 X11.077 Y10.454 ;extruding 
G1 X11.330 Y10.230 ;extruding 
G1 X11.741 Y9.893 ;extruding 
G1 X12.593 Y9.266 ;extruding 
G1 X13.757 Y8.565 ;extruding 
G1 X14.848 Y8.046 ;extruding 
G1 X15.667 Y7.726 ;extruding 
G1 X16.943 Y7.350 ;extruding 
G1 X17.692 Y7.197 ;extruding 
G1 X18.509 Y7.069 ;extruding 
G1 X18.875 Y7.032 ;extruding 
G1 X20.090 Y6.976 ;extruding 
G1 X20.978 Y7.012 ;extruding 
G1 X21.680 Y7.070 ;extruding 
G1 X22.163 Y7.139 ;extruding 
G1 X23.351 Y7.379 ;extruding 
G1 X24.768 Y7.818 ;extruding 
G1 X25.329 Y8.045 ;extruding 
G1 X26.210 Y8.454 ;extruding 
G1 X27.461 Y9.183 ;extruding 
G1 X28.179 Y9.696 ;extruding 
G1 X28.851 Y10.233 ;extruding 
G1 X29.100 Y10.454 ;extruding 
G1 X29.987 Y11.336 ;extruding 
G1 X30.743 Y12.242 ;extruding 
G1 X30.988 Y12.569 ;extruding 
G1 X31.248 Y12.949 ;extruding 
G1 X31.835 Y13.912 ;extruding 
G1 X32.404 Y15.074 ;extruding 
G1 X32.724 Y15.893 ;extruding 
G1 X33.079 Y17.047 ;extruding 
G1 X33.357 Y18.415 ;extruding 
G1 X33.437 Y19.105 ;extruding 
G1 X33.498 Y20.000 ;extruding 
G1 X33.502 Y20.299 ;extruding 
G1 X33.456 Y21.514 ;extruding 
G1 X33.299 Y22.712 ;extruding 
G1 X33.118 Y23.573 ;extruding 
G1 X32.780 Y24.733 ;extruding 
G1 X32.334 Y25.864 ;extruding 
G1 X32.201 Y26.156 ;extruding 
G1 X31.952 Y26.645 ;extruding 
G1 X31.433 Y27.548 ;extruding 
G1 X30.640 Y28.672 ;extruding 
G1 X29.850 Y29.586 ;extruding 
G1 X29.229 Y30.207 ;extruding 
G1 X28.225 Y31.054 ;extruding 
G1 X27.587 Y31.506 ;extruding 
G1 X26.910 Y31.940 ;extruding 
G1 X26.280 Y32.282 ;extruding 
G1 X25.483 Y32.671 ;extruding 
G1 X24.354 Y33.106 ;extruding 
G1 X23.510 Y33.357 ;extruding 
G1 X22.332 Y33.614 ;extruding 
G1 X20.876 Y33.781 ;extruding 
G1 X20.089 Y33.804 ;extruding 
G1 X19.302 Y33.781 ;extruding 
G1 X17.843 Y33.614 ;extruding 
G1 X16.979 Y33.433 ;extruding 
G1 X16.165 Y33.217 ;extruding 
G1 X15.382 Y32.936 ;extruding 
FILEWRITE $hFile"\x05\x02\x30\x34\x44\x49\x20\x20\x43\x46\x03"
G1 X15.159 Y33.271 ;not extruding 
FILEWRITE $hFile"\x05\x02\x30\x34\x44\x49\x20\x20\x43\x46\x03"
DWELL 0.15
G1 X14.538 Y33.032 ;extruding 
G1 X13.718 Y32.631 ;extruding 
G1 X13.066 Y32.277 ;extruding 
G1 X12.646 Y32.016 ;extruding 
G1 X11.711 Y31.365 ;extruding 
G1 X10.684 Y30.497 ;extruding 
G1 X9.817 Y29.609 ;extruding 
G1 X9.229 Y28.915 ;extruding 
G1 X8.413 Y27.759 ;extruding 
G1 X7.880 Y26.832 ;extruding 
G1 X7.482 Y26.018 ;extruding 
G1 X7.026 Y24.861 ;extruding 
G1 X6.678 Y23.666 ;extruding 
G1 X6.578 Y23.236 ;extruding 
G1 X6.443 Y22.453 ;extruding 
G1 X6.331 Y21.548 ;extruding 
G1 X6.283 Y20.307 ;extruding 
G1 X6.321 Y19.397 ;extruding 
G1 X6.463 Y18.165 ;extruding 
G1 X6.771 Y16.749 ;extruding 
G1 X7.084 Y15.763 ;extruding 
G1 X7.295 Y15.199 ;extruding 
G1 X7.413 Y14.919 ;extruding 
G1 X7.956 Y13.799 ;extruding 
G1 X8.599 Y12.737 ;extruding 
G1 X9.128 Y11.996 ;extruding 
G1 X9.925 Y11.045 ;extruding 
G1 X10.808 Y10.168 ;extruding 
G1 X11.074 Y9.931 ;extruding 
G1 X11.500 Y9.583 ;extruding 
G1 X12.375 Y8.939 ;extruding 
G1 X13.571 Y8.218 ;extruding 
G1 X14.692 Y7.685 ;extruding 
G1 X15.539 Y7.354 ;extruding 
G1 X16.848 Y6.968 ;extruding 
G1 X17.622 Y6.810 ;extruding 
G1 X18.458 Y6.679 ;extruding 
G1 X18.846 Y6.640 ;extruding 
G1 X20.090 Y6.583 ;extruding 
G1 X21.002 Y6.620 ;extruding 
G1 X21.724 Y6.680 ;extruding 
G1 X22.230 Y6.752 ;extruding 
G1 X23.448 Y6.998 ;extruding 
G1 X24.900 Y7.448 ;extruding 
G1 X25.486 Y7.685 ;extruding 
G1 X26.392 Y8.105 ;extruding 
G1 X27.675 Y8.853 ;extruding 
G1 X28.416 Y9.383 ;extruding 
G1 X29.105 Y9.932 ;extruding 
G1 X29.369 Y10.168 ;extruding 
G1 X30.276 Y11.070 ;extruding 
G1 X31.052 Y11.998 ;extruding 
G1 X31.307 Y12.340 ;extruding 
G1 X31.578 Y12.735 ;extruding 
G1 X32.180 Y13.723 ;extruding 
G1 X32.764 Y14.916 ;extruding 
G1 X33.095 Y15.764 ;extruding 
G1 X33.460 Y16.950 ;extruding 
G1 X33.745 Y18.353 ;extruding 
G1 X33.828 Y19.069 ;extruding 
G1 X33.890 Y19.983 ;extruding 
G1 X33.895 Y20.303 ;extruding 
G1 X33.847 Y21.547 ;extruding 
G1 X33.686 Y22.778 ;extruding 
G1 X33.499 Y23.669 ;extruding 
G1 X33.152 Y24.861 ;extruding 
G1 X32.696 Y26.018 ;extruding 
G1 X32.555 Y26.326 ;extruding 
G1 X32.298 Y26.832 ;extruding 
G1 X31.765 Y27.759 ;extruding 
G1 X30.950 Y28.914 ;extruding 
G1 X30.138 Y29.853 ;extruding 
G1 X29.495 Y30.496 ;extruding 
G1 X28.466 Y31.365 ;extruding 
G1 X27.806 Y31.832 ;extruding 
G1 X27.110 Y32.278 ;extruding 
G1 X26.460 Y32.631 ;extruding 
G1 X25.640 Y33.032 ;extruding 
G1 X24.481 Y33.478 ;extruding 
G1 X23.608 Y33.738 ;extruding 
G1 X22.396 Y34.002 ;extruding 
G1 X20.904 Y34.173 ;extruding 
G1 X20.089 Y34.197 ;extruding 
G1 X19.274 Y34.173 ;extruding 
G1 X17.781 Y34.002 ;extruding 
G1 X16.889 Y33.815 ;extruding 
G1 X16.054 Y33.594 ;extruding 
G1 X15.241 Y33.302 ;extruding 
FILEWRITE $hFile"\x05\x02\x30\x34\x44\x49\x20\x20\x43\x46\x03"
G1 X15.065 Y32.699 ;not extruding 
G1 D-146.000 ;not extruding 
G1 X18.790 Y23.220 ;not extruding 
FILEWRITE $hFile"\x05\x02\x30\x34\x44\x49\x20\x20\x43\x46\x03"
DWELL 0.15
G1 X18.790 Y22.398 ;extruding 
G1 X18.493 Y22.176 ;extruding 
G1 X18.211 Y21.876 ;extruding 
G1 X17.984 Y21.532 ;extruding 
G1 X17.819 Y21.154 ;extruding 
G1 X17.722 Y20.753 ;extruding 
G1 X17.694 Y20.342 ;extruding 
G1 X17.738 Y19.932 ;extruding 
G1 X17.851 Y19.536 ;extruding 
G1 X17.989 Y19.251 ;extruding 
G1 X18.263 Y18.838 ;extruding 
G1 X18.566 Y18.541 ;extruding 
G1 X18.905 Y18.308 ;extruding 
G1 X19.280 Y18.135 ;extruding 
G1 X19.678 Y18.030 ;extruding 
G1 X19.994 Y18.003 ;extruding 
G1 X20.488 Y18.027 ;extruding 
G1 X20.898 Y18.135 ;extruding 
G1 X21.273 Y18.308 ;extruding 
G1 X21.612 Y18.541 ;extruding 
G1 X21.907 Y18.830 ;extruding 
G1 X22.147 Y19.165 ;extruding 
G1 X22.327 Y19.536 ;extruding 
G1 X22.440 Y19.932 ;extruding 
G1 X22.484 Y20.342 ;extruding 
G1 X22.456 Y20.753 ;extruding 
G1 X22.359 Y21.154 ;extruding 
G1 X22.194 Y21.532 ;extruding 
G1 X21.967 Y21.876 ;extruding 
G1 X21.684 Y22.176 ;extruding 
G1 X21.388 Y22.398 ;extruding 
G1 X21.388 Y23.220 ;extruding 
G1 X18.877 Y23.220 ;extruding 
FILEWRITE $hFile"\x05\x02\x30\x34\x44\x49\x20\x20\x43\x46\x03"
G1 X19.183 Y22.827 ;not extruding 
FILEWRITE $hFile"\x05\x02\x30\x34\x44\x49\x20\x20\x43\x46\x03"
DWELL 0.15
G1 X19.183 Y22.165 ;extruding 
G1 X19.032 Y22.088 ;extruding 
G1 X18.756 Y21.882 ;extruding 
G1 X18.520 Y21.631 ;extruding 
G1 X18.330 Y21.344 ;extruding 
G1 X18.193 Y21.028 ;extruding 
G1 X18.111 Y20.693 ;extruding 
G1 X18.088 Y20.350 ;extruding 
G1 X18.125 Y20.007 ;extruding 
G1 X18.220 Y19.676 ;extruding 
G1 X18.331 Y19.446 ;extruding 
G1 X18.567 Y19.090 ;extruding 
G1 X18.816 Y18.846 ;extruding 
G1 X19.100 Y18.650 ;extruding 
G1 X19.413 Y18.506 ;extruding 
G1 X19.746 Y18.418 ;extruding 
G1 X20.001 Y18.396 ;extruding 
G1 X20.428 Y18.417 ;extruding 
G1 X20.765 Y18.506 ;extruding 
G1 X21.078 Y18.650 ;extruding 
G1 X21.362 Y18.846 ;extruding 
G1 X21.607 Y19.087 ;extruding 
G1 X21.808 Y19.366 ;extruding 
G1 X21.958 Y19.676 ;extruding 
G1 X22.053 Y20.007 ;extruding 
G1 X22.090 Y20.350 ;extruding 
G1 X22.067 Y20.693 ;extruding 
G1 X21.985 Y21.028 ;extruding 
G1 X21.848 Y21.344 ;extruding 
G1 X21.658 Y21.631 ;extruding 
G1 X21.422 Y21.882 ;extruding 
G1 X21.146 Y22.088 ;extruding 
G1 X20.995 Y22.165 ;extruding 
G1 X20.995 Y22.827 ;extruding 
G1 X19.270 Y22.827 ;extruding 
FILEWRITE $hFile"\x05\x02\x30\x34\x44\x49\x20\x20\x43\x46\x03"
G1 X18.607 Y22.895 ;not extruding 
G1 X15.274 Y32.896 ;not extruding 
FILEWRITE $hFile"\x05\x02\x30\x34\x44\x49\x20\x20\x43\x46\x03"
DWELL 0.15
G1 X14.699 Y32.673 ;extruding 
G1 X13.670 Y32.167 ;extruding 
G1 X12.793 Y31.645 ;extruding 
G1 X11.857 Y30.981 ;extruding 
G1 X10.976 Y30.233 ;extruding 
G1 X10.749 Y30.018 ;extruding 
G1 X10.262 Y29.518 ;extruding 
G1 X9.676 Y28.846 ;extruding 
G1 X8.848 Y27.710 ;extruding 
G1 X8.325 Y26.831 ;extruding 
G1 X7.822 Y25.817 ;extruding 
G1 X7.381 Y24.684 ;extruding 
G1 X7.074 Y23.635 ;extruding 
G1 X6.963 Y23.155 ;extruding 
G1 X6.848 Y22.523 ;extruding 
G1 X6.728 Y21.583 ;extruding 
G1 X6.675 Y20.357 ;extruding 
G1 X6.718 Y19.338 ;extruding 
G1 X6.855 Y18.202 ;extruding 
G1 X7.151 Y16.848 ;extruding 
G1 X7.382 Y16.097 ;extruding 
G1 X7.660 Y15.343 ;extruding 
G1 X7.789 Y15.037 ;extruding 
G1 X8.295 Y13.998 ;extruding 
G1 X8.885 Y13.014 ;extruding 
G1 X9.479 Y12.184 ;extruding 
G1 X10.218 Y11.307 ;extruding 
G1 X11.036 Y10.492 ;extruding 
G1 X11.330 Y10.230 ;extruding 
G1 X11.806 Y9.839 ;extruding 
G1 X12.592 Y9.266 ;extruding 
G1 X13.726 Y8.581 ;extruding 
G1 X14.757 Y8.082 ;extruding 
G1 X15.707 Y7.712 ;extruding 
G1 X16.942 Y7.350 ;extruding 
G1 X17.811 Y7.173 ;extruding 
G1 X18.506 Y7.069 ;extruding 
G1 X18.936 Y7.026 ;extruding 
G1 X20.090 Y6.976 ;extruding 
G1 X21.118 Y7.018 ;extruding 
G1 X21.677 Y7.069 ;extruding 
G1 X22.242 Y7.150 ;extruding 
G1 X23.371 Y7.383 ;extruding 
G1 X24.755 Y7.813 ;extruding 
G1 X25.420 Y8.082 ;extruding 
G1 X26.209 Y8.453 ;extruding 
G1 X27.441 Y9.170 ;extruding 
G1 X28.274 Y9.765 ;extruding 
G1 X29.142 Y10.491 ;extruding 
G1 X29.987 Y11.336 ;extruding 
G1 X30.625 Y12.092 ;extruding 
G1 X30.989 Y12.571 ;extruding 
G1 X31.290 Y13.010 ;extruding 
G1 X31.835 Y13.912 ;extruding 
G1 X32.385 Y15.030 ;extruding 
G1 X32.756 Y15.980 ;extruding 
G1 X33.087 Y17.076 ;extruding 
G1 X33.357 Y18.415 ;extruding 
G1 X33.450 Y19.215 ;extruding 
G1 X33.498 Y19.998 ;extruding 
G1 X33.503 Y20.349 ;extruding 
G1 X33.457 Y21.504 ;extruding 
G1 X33.329 Y22.524 ;extruding 
G1 X33.215 Y23.155 ;extruding 
G1 X33.104 Y23.635 ;extruding 
G1 X32.797 Y24.684 ;extruding 
G1 X32.359 Y25.809 ;extruding 
G1 X31.911 Y26.725 ;extruding 
G1 X31.329 Y27.711 ;extruding 
G1 X30.501 Y28.847 ;extruding 
G1 X30.001 Y29.426 ;extruding 
G1 X29.202 Y30.233 ;extruding 
G1 X28.321 Y30.981 ;extruding 
G1 X27.385 Y31.645 ;extruding 
G1 X26.508 Y32.167 ;extruding 
G1 X25.479 Y32.673 ;extruding 
G1 X24.402 Y33.091 ;extruding 
G1 X24.009 Y33.219 ;extruding 
G1 X23.435 Y33.379 ;extruding 
G1 X22.465 Y33.591 ;extruding 
G1 X21.170 Y33.760 ;extruding 
G1 X20.089 Y33.804 ;extruding 
G1 X19.008 Y33.760 ;extruding 
G1 X17.713 Y33.591 ;extruding 
G1 X16.743 Y33.379 ;extruding 
G1 X16.169 Y33.219 ;extruding 
G1 X15.355 Y32.928 ;extruding 
FILEWRITE $hFile"\x05\x02\x30\x34\x44\x49\x20\x20\x43\x46\x03"
G1 X15.132 Y33.262 ;not extruding 
FILEWRITE $hFile"\x05\x02\x30\x34\x44\x49\x20\x20\x43\x46\x03"
DWELL 0.15
G1 X14.541 Y33.033 ;extruding 
G1 X13.482 Y32.513 ;extruding 
G1 X12.579 Y31.974 ;extruding 
G1 X11.616 Y31.291 ;extruding 
G1 X10.714 Y30.526 ;extruding 
G1 X10.473 Y30.298 ;extruding 
G1 X9.973 Y29.785 ;extruding 
G1 X9.369 Y29.091 ;extruding 
G1 X8.520 Y27.926 ;extruding 
G1 X7.981 Y27.022 ;extruding 
G1 X7.460 Y25.970 ;extruding 
G1 X7.009 Y24.811 ;extruding 
G1 X6.694 Y23.734 ;extruding 
G1 X6.578 Y23.235 ;extruding 
G1 X6.460 Y22.583 ;extruding 
G1 X6.337 Y21.617 ;extruding 
G1 X6.282 Y20.357 ;extruding 
G1 X6.326 Y19.306 ;extruding 
G1 X6.467 Y18.136 ;extruding 
G1 X6.771 Y16.748 ;extruding 
G1 X7.010 Y15.972 ;extruding 
G1 X7.295 Y15.198 ;extruding 
G1 X7.432 Y14.874 ;extruding 
G1 X7.950 Y13.811 ;extruding 
G1 X8.557 Y12.799 ;extruding 
G1 X9.168 Y11.943 ;extruding 
G1 X9.929 Y11.041 ;extruding 
G1 X10.766 Y10.206 ;extruding 
G1 X11.074 Y9.931 ;extruding 
G1 X11.566 Y9.529 ;extruding 
G1 X12.374 Y8.939 ;extruding 
G1 X13.539 Y8.236 ;extruding 
G1 X14.600 Y7.722 ;extruding 
G1 X15.580 Y7.340 ;extruding 
G1 X16.847 Y6.968 ;extruding 
G1 X17.743 Y6.786 ;extruding 
G1 X18.457 Y6.679 ;extruding 
G1 X18.907 Y6.634 ;extruding 
G1 X20.089 Y6.583 ;extruding 
G1 X21.144 Y6.626 ;extruding 
G1 X21.722 Y6.679 ;extruding 
G1 X22.310 Y6.763 ;extruding 
G1 X23.467 Y7.002 ;extruding 
G1 X24.601 Y7.341 ;extruding 
G1 X24.895 Y7.446 ;extruding 
G1 X25.578 Y7.722 ;extruding 
G1 X26.392 Y8.105 ;extruding 
G1 X27.654 Y8.840 ;extruding 
G1 X28.511 Y9.452 ;extruding 
G1 X29.104 Y9.932 ;extruding 
G1 X29.412 Y10.206 ;extruding 
G1 X30.277 Y11.071 ;extruding 
G1 X30.931 Y11.846 ;extruding 
G1 X31.308 Y12.341 ;extruding 
G1 X31.620 Y12.797 ;extruding 
G1 X32.180 Y13.723 ;extruding 
G1 X32.745 Y14.872 ;extruding 
G1 X33.127 Y15.851 ;extruding 
G1 X33.468 Y16.980 ;extruding 
G1 X33.745 Y18.353 ;extruding 
G1 X33.841 Y19.180 ;extruding 
G1 X33.890 Y19.983 ;extruding 
G1 X33.896 Y20.354 ;extruding 
G1 X33.848 Y21.537 ;extruding 
G1 X33.718 Y22.583 ;extruding 
G1 X33.600 Y23.235 ;extruding 
G1 X33.484 Y23.734 ;extruding 
G1 X33.169 Y24.811 ;extruding 
G1 X32.719 Y25.967 ;extruding 
G1 X32.257 Y26.912 ;extruding 
G1 X31.657 Y27.926 ;extruding 
G1 X30.809 Y29.091 ;extruding 
G1 X30.291 Y29.691 ;extruding 
G1 X29.464 Y30.526 ;extruding 
G1 X28.562 Y31.291 ;extruding 
G1 X27.599 Y31.974 ;extruding 
G1 X26.696 Y32.513 ;extruding 
G1 X25.637 Y33.033 ;extruding 
G1 X24.534 Y33.461 ;extruding 
G1 X24.122 Y33.595 ;extruding 
G1 X23.530 Y33.760 ;extruding 
G1 X22.533 Y33.979 ;extruding 
G1 X21.203 Y34.151 ;extruding 
G1 X20.089 Y34.197 ;extruding 
G1 X18.975 Y34.151 ;extruding 
G1 X17.645 Y33.979 ;extruding 
G1 X16.648 Y33.760 ;extruding 
G1 X16.056 Y33.595 ;extruding 
G1 X15.644 Y33.461 ;extruding 
G1 X15.213 Y33.294 ;extruding 
FILEWRITE $hFile"\x05\x02\x30\x34\x44\x49\x20\x20\x43\x46\x03"
G1 X15.039 Y32.690 ;not extruding 
G1 D-145.500 ;not extruding 
G1 X18.790 Y23.220 ;not extruding 
FILEWRITE $hFile"\x05\x02\x30\x34\x44\x49\x20\x20\x43\x46\x03"
DWELL 0.15
G1 X18.790 Y22.398 ;extruding 
G1 X18.493 Y22.176 ;extruding 
G1 X18.211 Y21.876 ;extruding 
G1 X17.984 Y21.532 ;extruding 
G1 X17.819 Y21.154 ;extruding 
G1 X17.722 Y20.753 ;extruding 
G1 X17.694 Y20.342 ;extruding 
G1 X17.738 Y19.932 ;extruding 
G1 X17.822 Y19.639 ;extruding 
G1 X18.023 Y19.175 ;extruding 
G1 X18.271 Y18.830 ;extruding 
G1 X18.566 Y18.541 ;extruding 
G1 X18.905 Y18.308 ;extruding 
G1 X19.280 Y18.135 ;extruding 
G1 X19.678 Y18.030 ;extruding 
G1 X19.982 Y18.004 ;extruding 
G1 X20.487 Y18.027 ;extruding 
G1 X20.898 Y18.135 ;extruding 
G1 X21.273 Y18.308 ;extruding 
G1 X21.612 Y18.541 ;extruding 
G1 X21.907 Y18.830 ;extruding 
G1 X22.147 Y19.165 ;extruding 
G1 X22.327 Y19.536 ;extruding 
G1 X22.440 Y19.932 ;extruding 
G1 X22.484 Y20.342 ;extruding 
G1 X22.456 Y20.753 ;extruding 
G1 X22.359 Y21.154 ;extruding 
G1 X22.194 Y21.532 ;extruding 
G1 X21.967 Y21.876 ;extruding 
G1 X21.684 Y22.176 ;extruding 
G1 X21.388 Y22.398 ;extruding 
G1 X21.388 Y23.220 ;extruding 
G1 X18.877 Y23.220 ;extruding 
FILEWRITE $hFile"\x05\x02\x30\x34\x44\x49\x20\x20\x43\x46\x03"
G1 X19.183 Y22.827 ;not extruding 
FILEWRITE $hFile"\x05\x02\x30\x34\x44\x49\x20\x20\x43\x46\x03"
DWELL 0.15
G1 X19.183 Y22.165 ;extruding 
G1 X19.032 Y22.088 ;extruding 
G1 X18.756 Y21.882 ;extruding 
G1 X18.520 Y21.631 ;extruding 
G1 X18.330 Y21.344 ;extruding 
G1 X18.193 Y21.028 ;extruding 
G1 X18.111 Y20.693 ;extruding 
G1 X18.088 Y20.350 ;extruding 
G1 X18.125 Y20.007 ;extruding 
G1 X18.192 Y19.772 ;extruding 
G1 X18.367 Y19.370 ;extruding 
G1 X18.570 Y19.087 ;extruding 
G1 X18.816 Y18.846 ;extruding 
G1 X19.100 Y18.650 ;extruding 
G1 X19.413 Y18.506 ;extruding 
G1 X19.746 Y18.418 ;extruding 
G1 X19.990 Y18.397 ;extruding 
G1 X20.427 Y18.417 ;extruding 
G1 X20.765 Y18.506 ;extruding 
G1 X21.078 Y18.650 ;extruding 
G1 X21.362 Y18.846 ;extruding 
G1 X21.607 Y19.087 ;extruding 
G1 X21.808 Y19.366 ;extruding 
G1 X21.958 Y19.676 ;extruding 
G1 X22.053 Y20.007 ;extruding 
G1 X22.090 Y20.350 ;extruding 
G1 X22.067 Y20.693 ;extruding 
G1 X21.985 Y21.028 ;extruding 
G1 X21.848 Y21.344 ;extruding 
G1 X21.658 Y21.631 ;extruding 
G1 X21.422 Y21.882 ;extruding 
G1 X21.146 Y22.088 ;extruding 
G1 X20.995 Y22.165 ;extruding 
G1 X20.995 Y22.827 ;extruding 
G1 X19.270 Y22.827 ;extruding 
FILEWRITE $hFile"\x05\x02\x30\x34\x44\x49\x20\x20\x43\x46\x03"
G1 X18.607 Y22.895 ;not extruding 
G1 X15.251 Y32.902 ;not extruding 
FILEWRITE $hFile"\x05\x02\x30\x34\x44\x49\x20\x20\x43\x46\x03"
DWELL 0.15
G1 X14.792 Y32.723 ;extruding 
G1 X13.697 Y32.197 ;extruding 
G1 X12.745 Y31.630 ;extruding 
G1 X11.842 Y30.985 ;extruding 
G1 X10.995 Y30.268 ;extruding 
G1 X10.211 Y29.483 ;extruding 
G1 X9.493 Y28.636 ;extruding 
G1 X8.849 Y27.733 ;extruding 
G1 X8.281 Y26.780 ;extruding 
G1 X7.793 Y25.783 ;extruding 
G1 X7.390 Y24.749 ;extruding 
G1 X7.073 Y23.686 ;extruding 
G1 X6.845 Y22.600 ;extruding 
G1 X6.721 Y21.601 ;extruding 
G1 X6.662 Y20.387 ;extruding 
G1 X6.708 Y19.281 ;extruding 
G1 X6.845 Y18.180 ;extruding 
G1 X7.073 Y17.094 ;extruding 
G1 X7.390 Y16.030 ;extruding 
G1 X7.793 Y14.996 ;extruding 
G1 X8.281 Y13.999 ;extruding 
G1 X8.849 Y13.046 ;extruding 
G1 X9.493 Y12.143 ;extruding 
G1 X10.144 Y11.375 ;extruding 
G1 X10.997 Y10.510 ;extruding 
G1 X11.842 Y9.794 ;extruding 
G1 X12.745 Y9.149 ;extruding 
G1 X13.610 Y8.634 ;extruding 
G1 X14.698 Y8.093 ;extruding 
G1 X15.729 Y7.690 ;extruding 
G1 X16.793 Y7.374 ;extruding 
G1 X17.879 Y7.146 ;extruding 
G1 X18.980 Y7.009 ;extruding 
G1 X20.089 Y6.963 ;extruding 
G1 X21.095 Y7.004 ;extruding 
G1 X22.301 Y7.146 ;extruding 
G1 X23.385 Y7.374 ;extruding 
G1 X24.449 Y7.690 ;extruding 
G1 X25.482 Y8.094 ;extruding 
G1 X26.479 Y8.581 ;extruding 
G1 X27.433 Y9.149 ;extruding 
G1 X28.336 Y9.794 ;extruding 
G1 X29.183 Y10.511 ;extruding 
G1 X29.967 Y11.296 ;extruding 
G1 X30.685 Y12.143 ;extruding 
G1 X31.329 Y13.046 ;extruding 
G1 X31.897 Y13.999 ;extruding 
G1 X32.339 Y14.903 ;extruding 
G1 X32.789 Y16.032 ;extruding 
G1 X33.105 Y17.094 ;extruding 
G1 X33.333 Y18.180 ;extruding 
G1 X33.457 Y19.178 ;extruding 
G1 X33.516 Y20.392 ;extruding 
G1 X33.470 Y21.498 ;extruding 
G1 X33.333 Y22.600 ;extruding 
G1 X33.105 Y23.686 ;extruding 
G1 X32.788 Y24.749 ;extruding 
G1 X32.385 Y25.783 ;extruding 
G1 X31.897 Y26.780 ;extruding 
G1 X31.382 Y27.645 ;extruding 
G1 X30.683 Y28.638 ;extruding 
G1 X29.967 Y29.483 ;extruding 
G1 X29.183 Y30.268 ;extruding 
G1 X28.336 Y30.985 ;extruding 
G1 X27.433 Y31.630 ;extruding 
G1 X26.479 Y32.198 ;extruding 
G1 X25.575 Y32.640 ;extruding 
G1 X24.447 Y33.089 ;extruding 
G1 X23.385 Y33.405 ;extruding 
G1 X22.299 Y33.633 ;extruding 
G1 X21.300 Y33.758 ;extruding 
G1 X20.087 Y33.816 ;extruding 
G1 X18.980 Y33.770 ;extruding 
G1 X17.879 Y33.633 ;extruding 
G1 X16.793 Y33.405 ;extruding 
G1 X15.729 Y33.089 ;extruding 
G1 X15.332 Y32.934 ;extruding 
FILEWRITE $hFile"\x05\x02\x30\x34\x44\x49\x20\x20\x43\x46\x03"
G1 X15.109 Y33.268 ;not extruding 
FILEWRITE $hFile"\x05\x02\x30\x34\x44\x49\x20\x20\x43\x46\x03"
DWELL 0.15
G1 X14.635 Y33.083 ;extruding 
G1 X13.511 Y32.543 ;extruding 
G1 X12.530 Y31.959 ;extruding 
G1 X11.601 Y31.295 ;extruding 
G1 X10.729 Y30.557 ;extruding 
G1 X9.921 Y29.749 ;extruding 
G1 X9.183 Y28.878 ;extruding 
G1 X8.520 Y27.948 ;extruding 
G1 X7.935 Y26.967 ;extruding 
G1 X7.433 Y25.941 ;extruding 
G1 X7.018 Y24.877 ;extruding 
G1 X6.692 Y23.782 ;extruding 
G1 X6.458 Y22.664 ;extruding 
G1 X6.329 Y21.635 ;extruding 
G1 X6.269 Y20.389 ;extruding 
G1 X6.316 Y19.248 ;extruding 
G1 X6.458 Y18.115 ;extruding 
G1 X6.692 Y16.997 ;extruding 
G1 X7.018 Y15.902 ;extruding 
G1 X7.433 Y14.838 ;extruding 
G1 X7.935 Y13.812 ;extruding 
G1 X8.520 Y12.831 ;extruding 
G1 X9.183 Y11.901 ;extruding 
G1 X9.854 Y11.110 ;extruding 
G1 X10.730 Y10.222 ;extruding 
G1 X11.601 Y9.484 ;extruding 
G1 X12.530 Y8.820 ;extruding 
G1 X13.422 Y8.289 ;extruding 
G1 X14.538 Y7.734 ;extruding 
G1 X15.602 Y7.319 ;extruding 
G1 X16.696 Y6.993 ;extruding 
G1 X17.814 Y6.758 ;extruding 
G1 X18.948 Y6.617 ;extruding 
G1 X20.089 Y6.570 ;extruding 
G1 X21.126 Y6.613 ;extruding 
G1 X22.364 Y6.759 ;extruding 
G1 X23.482 Y6.993 ;extruding 
G1 X24.576 Y7.319 ;extruding 
G1 X25.640 Y7.734 ;extruding 
G1 X26.666 Y8.236 ;extruding 
G1 X27.648 Y8.820 ;extruding 
G1 X28.577 Y9.484 ;extruding 
G1 X29.449 Y10.222 ;extruding 
G1 X30.256 Y11.030 ;extruding 
G1 X30.995 Y11.901 ;extruding 
G1 X31.658 Y12.831 ;extruding 
G1 X32.243 Y13.812 ;extruding 
G1 X32.699 Y14.744 ;extruding 
G1 X33.160 Y15.903 ;extruding 
G1 X33.486 Y16.997 ;extruding 
G1 X33.720 Y18.115 ;extruding 
G1 X33.849 Y19.145 ;extruding 
G1 X33.909 Y20.390 ;extruding 
G1 X33.862 Y21.531 ;extruding 
G1 X33.720 Y22.664 ;extruding 
G1 X33.486 Y23.782 ;extruding 
G1 X33.160 Y24.877 ;extruding 
G1 X32.745 Y25.941 ;extruding 
G1 X32.243 Y26.967 ;extruding 
G1 X31.712 Y27.858 ;extruding 
G1 X30.994 Y28.879 ;extruding 
G1 X30.256 Y29.749 ;extruding 
G1 X29.449 Y30.557 ;extruding 
G1 X28.577 Y31.295 ;extruding 
G1 X27.648 Y31.959 ;extruding 
G1 X26.666 Y32.544 ;extruding 
G1 X25.734 Y32.999 ;extruding 
G1 X24.575 Y33.461 ;extruding 
G1 X23.482 Y33.786 ;extruding 
G1 X22.364 Y34.021 ;extruding 
G1 X21.334 Y34.149 ;extruding 
G1 X20.088 Y34.209 ;extruding 
G1 X18.948 Y34.162 ;extruding 
G1 X17.814 Y34.021 ;extruding 
G1 X16.696 Y33.786 ;extruding 
G1 X15.602 Y33.461 ;extruding 
G1 X15.190 Y33.300 ;extruding 
FILEWRITE $hFile"\x05\x02\x30\x34\x44\x49\x20\x20\x43\x46\x03"
G1 X15.022 Y32.767 ;not extruding 
G1 D-145.000 ;not extruding 
G1 X18.790 Y23.220 ;not extruding 
FILEWRITE $hFile"\x05\x02\x30\x34\x44\x49\x20\x20\x43\x46\x03"
DWELL 0.15
G1 X18.790 Y22.398 ;extruding 
G1 X18.493 Y22.176 ;extruding 
G1 X18.211 Y21.876 ;extruding 
G1 X17.984 Y21.532 ;extruding 
G1 X17.833 Y21.185 ;extruding 
G1 X17.722 Y20.758 ;extruding 
G1 X17.694 Y20.342 ;extruding 
G1 X17.738 Y19.932 ;extruding 
G1 X17.851 Y19.536 ;extruding 
G1 X18.031 Y19.165 ;extruding 
G1 X18.271 Y18.830 ;extruding 
G1 X18.566 Y18.541 ;extruding 
G1 X18.905 Y18.308 ;extruding 
G1 X19.280 Y18.135 ;extruding 
G1 X19.678 Y18.030 ;extruding 
G1 X19.928 Y18.008 ;extruding 
G1 X20.089 Y17.995 ;extruding 
G1 X20.500 Y18.030 ;extruding 
G1 X20.898 Y18.135 ;extruding 
G1 X21.273 Y18.308 ;extruding 
G1 X21.612 Y18.541 ;extruding 
G1 X21.907 Y18.830 ;extruding 
G1 X22.147 Y19.165 ;extruding 
G1 X22.327 Y19.536 ;extruding 
G1 X22.440 Y19.932 ;extruding 
G1 X22.484 Y20.342 ;extruding 
G1 X22.456 Y20.753 ;extruding 
G1 X22.359 Y21.154 ;extruding 
G1 X22.194 Y21.532 ;extruding 
G1 X21.967 Y21.876 ;extruding 
G1 X21.684 Y22.176 ;extruding 
G1 X21.388 Y22.398 ;extruding 
G1 X21.388 Y23.220 ;extruding 
G1 X18.877 Y23.220 ;extruding 
FILEWRITE $hFile"\x05\x02\x30\x34\x44\x49\x20\x20\x43\x46\x03"
G1 X19.183 Y22.827 ;not extruding 
FILEWRITE $hFile"\x05\x02\x30\x34\x44\x49\x20\x20\x43\x46\x03"
DWELL 0.15
G1 X19.183 Y22.165 ;extruding 
G1 X19.032 Y22.088 ;extruding 
G1 X18.756 Y21.882 ;extruding 
G1 X18.520 Y21.631 ;extruding 
G1 X18.330 Y21.344 ;extruding 
G1 X18.205 Y21.057 ;extruding 
G1 X18.111 Y20.695 ;extruding 
G1 X18.088 Y20.350 ;extruding 
G1 X18.125 Y20.007 ;extruding 
G1 X18.220 Y19.676 ;extruding 
G1 X18.370 Y19.366 ;extruding 
G1 X18.570 Y19.087 ;extruding 
G1 X18.816 Y18.846 ;extruding 
G1 X19.100 Y18.650 ;extruding 
G1 X19.413 Y18.506 ;extruding 
G1 X19.746 Y18.418 ;extruding 
G1 X20.089 Y18.389 ;extruding 
G1 X20.432 Y18.418 ;extruding 
G1 X20.765 Y18.506 ;extruding 
G1 X21.078 Y18.650 ;extruding 
G1 X21.362 Y18.846 ;extruding 
G1 X21.607 Y19.087 ;extruding 
G1 X21.808 Y19.366 ;extruding 
G1 X21.958 Y19.676 ;extruding 
G1 X22.053 Y20.007 ;extruding 
G1 X22.090 Y20.350 ;extruding 
G1 X22.067 Y20.693 ;extruding 
G1 X21.985 Y21.028 ;extruding 
G1 X21.848 Y21.344 ;extruding 
G1 X21.658 Y21.631 ;extruding 
G1 X21.422 Y21.882 ;extruding 
G1 X21.146 Y22.088 ;extruding 
G1 X20.995 Y22.165 ;extruding 
G1 X20.995 Y22.827 ;extruding 
G1 X19.270 Y22.827 ;extruding 
FILEWRITE $hFile"\x05\x02\x30\x34\x44\x49\x20\x20\x43\x46\x03"
G1 X18.607 Y22.895 ;not extruding 
G1 X15.269 Y33.073 ;not extruding 
FILEWRITE $hFile"\x05\x02\x30\x34\x44\x49\x20\x20\x43\x46\x03"
DWELL 0.15
G1 X14.850 Y32.913 ;extruding 
G1 X13.623 Y32.330 ;extruding 
G1 X12.664 Y31.758 ;extruding 
G1 X11.665 Y31.037 ;extruding 
G1 X10.898 Y30.383 ;extruding 
G1 X10.217 Y29.709 ;extruding 
G1 X9.375 Y28.731 ;extruding 
G1 X8.722 Y27.816 ;extruding 
G1 X8.147 Y26.852 ;extruding 
G1 X7.655 Y25.846 ;extruding 
G1 X7.197 Y24.645 ;extruding 
G1 X6.929 Y23.732 ;extruding 
G1 X6.733 Y22.819 ;extruding 
G1 X6.557 Y21.508 ;extruding 
G1 X6.511 Y20.390 ;extruding 
G1 X6.557 Y19.268 ;extruding 
G1 X6.688 Y18.208 ;extruding 
G1 X6.968 Y16.904 ;extruding 
G1 X7.238 Y16.007 ;extruding 
G1 X7.566 Y15.150 ;extruding 
G1 X8.149 Y13.924 ;extruding 
G1 X8.722 Y12.963 ;extruding 
G1 X9.374 Y12.050 ;extruding 
G1 X10.094 Y11.200 ;extruding 
G1 X10.999 Y10.306 ;extruding 
G1 X11.748 Y9.675 ;extruding 
G1 X12.662 Y9.022 ;extruding 
G1 X13.626 Y8.448 ;extruding 
G1 X14.636 Y7.954 ;extruding 
G1 X15.514 Y7.608 ;extruding 
G1 X16.748 Y7.230 ;extruding 
G1 X17.911 Y6.987 ;extruding 
G1 X18.967 Y6.858 ;extruding 
G1 X20.089 Y6.811 ;extruding 
G1 X21.211 Y6.858 ;extruding 
G1 X22.275 Y6.989 ;extruding 
G1 X23.253 Y7.187 ;extruding 
G1 X24.473 Y7.540 ;extruding 
G1 X25.544 Y7.955 ;extruding 
G1 X26.552 Y8.448 ;extruding 
G1 X27.516 Y9.022 ;extruding 
G1 X28.429 Y9.674 ;extruding 
G1 X29.278 Y10.395 ;extruding 
G1 X30.173 Y11.299 ;extruding 
G1 X30.804 Y12.049 ;extruding 
G1 X31.456 Y12.963 ;extruding 
G1 X32.031 Y13.927 ;extruding 
G1 X32.523 Y14.933 ;extruding 
G1 X32.981 Y16.135 ;extruding 
G1 X33.249 Y17.047 ;extruding 
G1 X33.445 Y17.960 ;extruding 
G1 X33.621 Y19.271 ;extruding 
G1 X33.667 Y20.390 ;extruding 
G1 X33.621 Y21.511 ;extruding 
G1 X33.489 Y22.579 ;extruding 
G1 X33.211 Y23.874 ;extruding 
G1 X32.869 Y24.970 ;extruding 
G1 X32.524 Y25.843 ;extruding 
G1 X32.031 Y26.852 ;extruding 
G1 X31.457 Y27.815 ;extruding 
G1 X30.737 Y28.814 ;extruding 
G1 X30.082 Y29.581 ;extruding 
G1 X29.408 Y30.262 ;extruding 
G1 X28.430 Y31.104 ;extruding 
G1 X27.516 Y31.757 ;extruding 
G1 X26.552 Y32.331 ;extruding 
G1 X25.545 Y32.823 ;extruding 
G1 X24.344 Y33.282 ;extruding 
G1 X23.431 Y33.549 ;extruding 
G1 X22.518 Y33.746 ;extruding 
G1 X21.207 Y33.922 ;extruding 
G1 X20.089 Y33.968 ;extruding 
G1 X18.967 Y33.922 ;extruding 
G1 X17.907 Y33.791 ;extruding 
G1 X16.603 Y33.511 ;extruding 
G1 X15.707 Y33.240 ;extruding 
G1 X15.351 Y33.104 ;extruding 
FILEWRITE $hFile"\x05\x02\x30\x34\x44\x49\x20\x20\x43\x46\x03"
G1 X15.129 Y33.440 ;not extruding 
FILEWRITE $hFile"\x05\x02\x30\x34\x44\x49\x20\x20\x43\x46\x03"
DWELL 0.15
G1 X14.695 Y33.274 ;extruding 
G1 X13.438 Y32.676 ;extruding 
G1 X12.448 Y32.086 ;extruding 
G1 X11.422 Y31.346 ;extruding 
G1 X10.632 Y30.672 ;extruding 
G1 X9.932 Y29.980 ;extruding 
G1 X9.064 Y28.971 ;extruding 
G1 X8.393 Y28.031 ;extruding 
G1 X7.802 Y27.039 ;extruding 
G1 X7.295 Y26.003 ;extruding 
G1 X6.824 Y24.770 ;extruding 
G1 X6.548 Y23.829 ;extruding 
G1 X6.345 Y22.887 ;extruding 
G1 X6.165 Y21.542 ;extruding 
G1 X6.118 Y20.390 ;extruding 
G1 X6.165 Y19.236 ;extruding 
G1 X6.300 Y18.142 ;extruding 
G1 X6.587 Y16.806 ;extruding 
G1 X6.866 Y15.881 ;extruding 
G1 X7.204 Y14.996 ;extruding 
G1 X7.802 Y13.739 ;extruding 
G1 X8.393 Y12.748 ;extruding 
G1 X9.064 Y11.808 ;extruding 
G1 X9.806 Y10.933 ;extruding 
G1 X10.734 Y10.015 ;extruding 
G1 X11.507 Y9.365 ;extruding 
G1 X12.447 Y8.693 ;extruding 
G1 X13.439 Y8.102 ;extruding 
G1 X14.477 Y7.595 ;extruding 
G1 X15.384 Y7.237 ;extruding 
G1 X16.651 Y6.849 ;extruding 
G1 X17.847 Y6.599 ;extruding 
G1 X18.935 Y6.466 ;extruding 
G1 X20.089 Y6.418 ;extruding 
G1 X21.243 Y6.466 ;extruding 
G1 X22.338 Y6.601 ;extruding 
G1 X23.347 Y6.806 ;extruding 
G1 X24.599 Y7.167 ;extruding 
G1 X25.701 Y7.595 ;extruding 
G1 X26.739 Y8.102 ;extruding 
G1 X27.731 Y8.693 ;extruding 
G1 X28.670 Y9.364 ;extruding 
G1 X29.546 Y10.106 ;extruding 
G1 X30.463 Y11.034 ;extruding 
G1 X31.114 Y11.808 ;extruding 
G1 X31.785 Y12.748 ;extruding 
G1 X32.376 Y13.740 ;extruding 
G1 X32.883 Y14.777 ;extruding 
G1 X33.354 Y16.009 ;extruding 
G1 X33.630 Y16.950 ;extruding 
G1 X33.833 Y17.893 ;extruding 
G1 X34.013 Y19.237 ;extruding 
G1 X34.060 Y20.390 ;extruding 
G1 X34.013 Y21.544 ;extruding 
G1 X33.878 Y22.640 ;extruding 
G1 X33.591 Y23.973 ;extruding 
G1 X33.238 Y25.104 ;extruding 
G1 X32.884 Y26.001 ;extruding 
G1 X32.376 Y27.039 ;extruding 
G1 X31.786 Y28.031 ;extruding 
G1 X31.046 Y29.057 ;extruding 
G1 X30.372 Y29.847 ;extruding 
G1 X29.679 Y30.547 ;extruding 
G1 X28.671 Y31.415 ;extruding 
G1 X27.731 Y32.086 ;extruding 
G1 X26.739 Y32.677 ;extruding 
G1 X25.702 Y33.184 ;extruding 
G1 X24.469 Y33.654 ;extruding 
G1 X23.528 Y33.930 ;extruding 
G1 X22.586 Y34.133 ;extruding 
G1 X21.242 Y34.313 ;extruding 
G1 X20.089 Y34.361 ;extruding 
G1 X18.935 Y34.313 ;extruding 
G1 X17.842 Y34.179 ;extruding 
G1 X16.505 Y33.891 ;extruding 
G1 X15.580 Y33.612 ;extruding 
G1 X15.211 Y33.471 ;extruding 
FILEWRITE $hFile"\x05\x02\x30\x34\x44\x49\x20\x20\x43\x46\x03"
G1 X15.049 Y32.982 ;not extruding 
G1 D-144.500 ;not extruding 
G1 X18.790 Y23.220 ;not extruding 
FILEWRITE $hFile"\x05\x02\x30\x34\x44\x49\x20\x20\x43\x46\x03"
DWELL 0.15
G1 X18.790 Y22.398 ;extruding 
G1 X18.493 Y22.176 ;extruding 
G1 X18.211 Y21.876 ;extruding 
G1 X17.984 Y21.532 ;extruding 
G1 X17.819 Y21.154 ;extruding 
G1 X17.722 Y20.753 ;extruding 
G1 X17.694 Y20.342 ;extruding 
G1 X17.738 Y19.932 ;extruding 
G1 X17.851 Y19.536 ;extruding 
G1 X18.031 Y19.165 ;extruding 
G1 X18.271 Y18.830 ;extruding 
G1 X18.566 Y18.541 ;extruding 
G1 X18.905 Y18.308 ;extruding 
G1 X19.280 Y18.135 ;extruding 
G1 X19.678 Y18.030 ;extruding 
G1 X19.917 Y18.009 ;extruding 
G1 X20.089 Y17.995 ;extruding 
G1 X20.500 Y18.030 ;extruding 
G1 X20.898 Y18.135 ;extruding 
G1 X21.273 Y18.308 ;extruding 
G1 X21.612 Y18.541 ;extruding 
G1 X21.907 Y18.830 ;extruding 
G1 X22.147 Y19.165 ;extruding 
G1 X22.327 Y19.536 ;extruding 
G1 X22.440 Y19.932 ;extruding 
G1 X22.484 Y20.342 ;extruding 
G1 X22.456 Y20.753 ;extruding 
G1 X22.359 Y21.154 ;extruding 
G1 X22.194 Y21.532 ;extruding 
G1 X21.967 Y21.876 ;extruding 
G1 X21.684 Y22.176 ;extruding 
G1 X21.388 Y22.398 ;extruding 
G1 X21.388 Y23.220 ;extruding 
G1 X18.877 Y23.220 ;extruding 
FILEWRITE $hFile"\x05\x02\x30\x34\x44\x49\x20\x20\x43\x46\x03"
G1 X19.183 Y22.827 ;not extruding 
FILEWRITE $hFile"\x05\x02\x30\x34\x44\x49\x20\x20\x43\x46\x03"
DWELL 0.15
G1 X19.183 Y22.165 ;extruding 
G1 X19.032 Y22.088 ;extruding 
G1 X18.756 Y21.882 ;extruding 
G1 X18.520 Y21.631 ;extruding 
G1 X18.330 Y21.344 ;extruding 
G1 X18.193 Y21.028 ;extruding 
G1 X18.111 Y20.693 ;extruding 
G1 X18.088 Y20.350 ;extruding 
G1 X18.125 Y20.007 ;extruding 
G1 X18.220 Y19.676 ;extruding 
G1 X18.370 Y19.366 ;extruding 
G1 X18.570 Y19.087 ;extruding 
G1 X18.816 Y18.846 ;extruding 
G1 X19.100 Y18.650 ;extruding 
G1 X19.413 Y18.506 ;extruding 
G1 X19.746 Y18.418 ;extruding 
G1 X19.951 Y18.401 ;extruding 
G1 X20.089 Y18.389 ;extruding 
G1 X20.432 Y18.418 ;extruding 
G1 X20.765 Y18.506 ;extruding 
G1 X21.078 Y18.650 ;extruding 
G1 X21.362 Y18.846 ;extruding 
G1 X21.607 Y19.087 ;extruding 
G1 X21.808 Y19.366 ;extruding 
G1 X21.958 Y19.676 ;extruding 
G1 X22.053 Y20.007 ;extruding 
G1 X22.090 Y20.350 ;extruding 
G1 X22.067 Y20.693 ;extruding 
G1 X21.985 Y21.028 ;extruding 
G1 X21.848 Y21.344 ;extruding 
G1 X21.658 Y21.631 ;extruding 
G1 X21.422 Y21.882 ;extruding 
G1 X21.146 Y22.088 ;extruding 
G1 X20.995 Y22.165 ;extruding 
G1 X20.995 Y22.827 ;extruding 
G1 X19.270 Y22.827 ;extruding 
FILEWRITE $hFile"\x05\x02\x30\x34\x44\x49\x20\x20\x43\x46\x03"
G1 X18.607 Y22.895 ;not extruding 
G1 X15.479 Y32.890 ;not extruding 
FILEWRITE $hFile"\x05\x02\x30\x34\x44\x49\x20\x20\x43\x46\x03"
DWELL 0.15
G1 X15.348 Y32.842 ;extruding 
G1 X15.075 Y32.807 ;extruding 
G1 X14.808 Y32.844 ;extruding 
G1 X14.451 Y33.014 ;extruding 
G1 X14.358 Y33.111 ;extruding 
G1 X13.544 Y32.717 ;extruding 
G1 X12.897 Y32.351 ;extruding 
G1 X12.303 Y31.973 ;extruding 
G1 X11.951 Y31.719 ;extruding 
G1 X11.968 Y31.272 ;extruding 
G1 X11.791 Y30.837 ;extruding 
G1 X11.069 Y30.205 ;extruding 
G1 X10.555 Y29.709 ;extruding 
G1 X9.685 Y28.730 ;extruding 
G1 X9.323 Y28.538 ;extruding 
G1 X8.895 Y28.504 ;extruding 
G1 X8.765 Y28.541 ;extruding 
G1 X8.012 Y27.385 ;extruding 
G1 X7.553 Y26.525 ;extruding 
G1 X7.371 Y26.119 ;extruding 
G1 X7.452 Y26.043 ;extruding 
G1 X7.641 Y25.667 ;extruding 
G1 X7.669 Y25.242 ;extruding 
G1 X7.369 Y24.379 ;extruding 
G1 X7.172 Y23.691 ;extruding 
G1 X6.886 Y22.340 ;extruding 
G1 X6.608 Y21.986 ;extruding 
G1 X6.204 Y21.773 ;extruding 
G1 X6.141 Y20.885 ;extruding 
G1 X6.135 Y20.142 ;extruding 
G1 X6.165 Y19.438 ;extruding 
G1 X6.209 Y19.007 ;extruding 
G1 X6.604 Y18.798 ;extruding 
G1 X6.892 Y18.428 ;extruding 
G1 X7.078 Y17.486 ;extruding 
G1 X7.253 Y16.787 ;extruding 
G1 X7.459 Y16.132 ;extruding 
G1 X7.637 Y15.649 ;extruding 
G1 X7.672 Y15.375 ;extruding 
G1 X7.634 Y15.109 ;extruding 
G1 X7.465 Y14.752 ;extruding 
G1 X7.367 Y14.659 ;extruding 
G1 X7.762 Y13.845 ;extruding 
G1 X8.128 Y13.198 ;extruding 
G1 X8.506 Y12.604 ;extruding 
G1 X8.760 Y12.252 ;extruding 
G1 X9.207 Y12.269 ;extruding 
G1 X9.641 Y12.092 ;extruding 
G1 X10.273 Y11.369 ;extruding 
G1 X10.770 Y10.855 ;extruding 
G1 X11.748 Y9.986 ;extruding 
G1 X11.940 Y9.623 ;extruding 
G1 X11.975 Y9.195 ;extruding 
G1 X11.937 Y9.066 ;extruding 
G1 X13.094 Y8.313 ;extruding 
G1 X13.954 Y7.854 ;extruding 
G1 X14.359 Y7.672 ;extruding 
G1 X14.436 Y7.753 ;extruding 
G1 X14.811 Y7.942 ;extruding 
G1 X15.237 Y7.969 ;extruding 
G1 X16.100 Y7.670 ;extruding 
G1 X16.787 Y7.473 ;extruding 
G1 X18.139 Y7.187 ;extruding 
G1 X18.493 Y6.909 ;extruding 
G1 X18.705 Y6.506 ;extruding 
G1 X19.653 Y6.440 ;extruding 
G1 X20.400 Y6.436 ;extruding 
G1 X21.093 Y6.469 ;extruding 
G1 X21.472 Y6.509 ;extruding 
G1 X21.681 Y6.905 ;extruding 
G1 X22.051 Y7.193 ;extruding 
G1 X22.993 Y7.379 ;extruding 
G1 X23.691 Y7.553 ;extruding 
G1 X24.347 Y7.760 ;extruding 
G1 X24.830 Y7.937 ;extruding 
G1 X25.103 Y7.972 ;extruding 
G1 X25.370 Y7.935 ;extruding 
G1 X25.726 Y7.766 ;extruding 
G1 X25.820 Y7.668 ;extruding 
G1 X26.633 Y8.063 ;extruding 
G1 X27.281 Y8.429 ;extruding 
G1 X27.875 Y8.807 ;extruding 
G1 X28.227 Y9.061 ;extruding 
G1 X28.210 Y9.508 ;extruding 
G1 X28.386 Y9.942 ;extruding 
G1 X29.109 Y10.574 ;extruding 
G1 X29.623 Y11.071 ;extruding 
G1 X30.493 Y12.049 ;extruding 
G1 X30.855 Y12.241 ;extruding 
G1 X31.283 Y12.276 ;extruding 
G1 X31.413 Y12.238 ;extruding 
G1 X32.166 Y13.395 ;extruding 
G1 X32.625 Y14.254 ;extruding 
G1 X32.807 Y14.660 ;extruding 
G1 X32.726 Y14.736 ;extruding 
G1 X32.537 Y15.112 ;extruding 
G1 X32.509 Y15.537 ;extruding 
G1 X32.809 Y16.401 ;extruding 
G1 X33.006 Y17.088 ;extruding 
G1 X33.292 Y18.439 ;extruding 
G1 X33.570 Y18.793 ;extruding 
G1 X33.973 Y19.005 ;extruding 
G1 X34.037 Y19.894 ;extruding 
G1 X34.043 Y20.637 ;extruding 
G1 X34.013 Y21.341 ;extruding 
G1 X33.969 Y21.773 ;extruding 
G1 X33.574 Y21.982 ;extruding 
G1 X33.286 Y22.352 ;extruding 
G1 X33.100 Y23.293 ;extruding 
G1 X32.925 Y23.992 ;extruding 
G1 X32.719 Y24.648 ;extruding 
G1 X32.541 Y25.130 ;extruding 
G1 X32.506 Y25.404 ;extruding 
G1 X32.544 Y25.670 ;extruding 
G1 X32.713 Y26.027 ;extruding 
G1 X32.811 Y26.121 ;extruding 
G1 X32.416 Y26.934 ;extruding 
G1 X32.050 Y27.581 ;extruding 
G1 X31.672 Y28.176 ;extruding 
G1 X31.418 Y28.527 ;extruding 
G1 X30.971 Y28.511 ;extruding 
G1 X30.537 Y28.687 ;extruding 
G1 X29.905 Y29.410 ;extruding 
G1 X29.408 Y29.924 ;extruding 
G1 X28.430 Y30.793 ;extruding 
G1 X28.238 Y31.156 ;extruding 
G1 X28.203 Y31.584 ;extruding 
G1 X28.241 Y31.714 ;extruding 
G1 X27.084 Y32.467 ;extruding 
G1 X26.224 Y32.925 ;extruding 
G1 X25.819 Y33.107 ;extruding 
G1 X25.742 Y33.026 ;extruding 
G1 X25.367 Y32.837 ;extruding 
G1 X24.941 Y32.810 ;extruding 
G1 X24.078 Y33.110 ;extruding 
G1 X23.391 Y33.307 ;extruding 
G1 X22.039 Y33.592 ;extruding 
G1 X21.685 Y33.871 ;extruding 
G1 X21.473 Y34.274 ;extruding 
G1 X20.585 Y34.337 ;extruding 
G1 X19.841 Y34.344 ;extruding 
G1 X19.138 Y34.314 ;extruding 
G1 X18.706 Y34.270 ;extruding 
G1 X18.497 Y33.874 ;extruding 
G1 X18.127 Y33.586 ;extruding 
G1 X17.185 Y33.400 ;extruding 
G1 X16.487 Y33.226 ;extruding 
G1 X15.561 Y32.920 ;extruding 
FILEWRITE $hFile"\x05\x02\x30\x34\x44\x49\x20\x20\x43\x46\x03"
G1 X15.344 Y33.259 ;not extruding 
FILEWRITE $hFile"\x05\x02\x30\x34\x44\x49\x20\x20\x43\x46\x03"
DWELL 0.15
G1 X15.254 Y33.226 ;extruding 
G1 X15.077 Y33.203 ;extruding 
G1 X14.923 Y33.225 ;extruding 
G1 X14.685 Y33.338 ;extruding 
G1 X14.465 Y33.587 ;extruding 
G1 X14.012 Y33.389 ;extruding 
G1 X13.360 Y33.063 ;extruding 
G1 X12.695 Y32.687 ;extruding 
G1 X12.083 Y32.298 ;extruding 
G1 X11.474 Y31.858 ;extruding 
G1 X11.563 Y31.633 ;extruding 
G1 X11.573 Y31.342 ;extruding 
G1 X11.463 Y31.071 ;extruding 
G1 X10.803 Y30.495 ;extruding 
G1 X10.271 Y29.981 ;extruding 
G1 X9.439 Y29.044 ;extruding 
G1 X9.210 Y28.923 ;extruding 
G1 X8.935 Y28.901 ;extruding 
G1 X8.620 Y29.007 ;extruding 
G1 X8.325 Y28.606 ;extruding 
G1 X7.673 Y27.583 ;extruding 
G1 X7.201 Y26.698 ;extruding 
G1 X6.893 Y26.013 ;extruding 
G1 X7.133 Y25.804 ;extruding 
G1 X7.254 Y25.562 ;extruding 
G1 X7.272 Y25.296 ;extruding 
G1 X6.994 Y24.497 ;extruding 
G1 X6.791 Y23.786 ;extruding 
G1 X6.521 Y22.511 ;extruding 
G1 X6.349 Y22.292 ;extruding 
G1 X6.098 Y22.154 ;extruding 
G1 X5.848 Y22.116 ;extruding 
G1 X5.793 Y21.627 ;extruding 
G1 X5.749 Y20.899 ;extruding 
G1 X5.742 Y20.135 ;extruding 
G1 X5.773 Y19.410 ;extruding 
G1 X5.849 Y18.663 ;extruding 
G1 X6.089 Y18.627 ;extruding 
G1 X6.346 Y18.490 ;extruding 
G1 X6.525 Y18.260 ;extruding 
G1 X6.695 Y17.400 ;extruding 
G1 X6.874 Y16.681 ;extruding 
G1 X7.087 Y16.005 ;extruding 
G1 X7.253 Y15.555 ;extruding 
G1 X7.275 Y15.378 ;extruding 
G1 X7.254 Y15.223 ;extruding 
G1 X7.141 Y14.986 ;extruding 
G1 X6.892 Y14.766 ;extruding 
G1 X7.090 Y14.313 ;extruding 
G1 X7.415 Y13.661 ;extruding 
G1 X7.791 Y12.996 ;extruding 
G1 X8.181 Y12.383 ;extruding 
G1 X8.621 Y11.774 ;extruding 
G1 X8.846 Y11.863 ;extruding 
G1 X9.137 Y11.873 ;extruding 
G1 X9.407 Y11.763 ;extruding 
G1 X9.984 Y11.104 ;extruding 
G1 X10.498 Y10.572 ;extruding 
G1 X11.434 Y9.740 ;extruding 
G1 X11.555 Y9.511 ;extruding 
G1 X11.578 Y9.236 ;extruding 
G1 X11.472 Y8.921 ;extruding 
G1 X11.872 Y8.625 ;extruding 
G1 X12.896 Y7.973 ;extruding 
G1 X13.780 Y7.501 ;extruding 
G1 X14.466 Y7.194 ;extruding 
G1 X14.674 Y7.433 ;extruding 
G1 X14.916 Y7.555 ;extruding 
G1 X15.183 Y7.572 ;extruding 
G1 X15.982 Y7.295 ;extruding 
G1 X16.692 Y7.091 ;extruding 
G1 X17.968 Y6.822 ;extruding 
G1 X18.187 Y6.649 ;extruding 
G1 X18.324 Y6.400 ;extruding 
G1 X18.362 Y6.149 ;extruding 
G1 X18.905 Y6.089 ;extruding 
G1 X19.641 Y6.047 ;extruding 
G1 X20.408 Y6.044 ;extruding 
G1 X21.123 Y6.077 ;extruding 
G1 X21.816 Y6.150 ;extruding 
G1 X21.851 Y6.390 ;extruding 
G1 X21.988 Y6.646 ;extruding 
G1 X22.219 Y6.826 ;extruding 
G1 X23.078 Y6.995 ;extruding 
G1 X23.798 Y7.175 ;extruding 
G1 X24.474 Y7.388 ;extruding 
G1 X24.924 Y7.553 ;extruding 
G1 X25.101 Y7.576 ;extruding 
G1 X25.255 Y7.554 ;extruding 
G1 X25.493 Y7.442 ;extruding 
G1 X25.713 Y7.192 ;extruding 
G1 X26.166 Y7.390 ;extruding 
G1 X26.818 Y7.716 ;extruding 
G1 X27.483 Y8.092 ;extruding 
G1 X28.095 Y8.481 ;extruding 
G1 X28.704 Y8.921 ;extruding 
G1 X28.615 Y9.146 ;extruding 
G1 X28.605 Y9.437 ;extruding 
G1 X28.715 Y9.708 ;extruding 
G1 X29.375 Y10.285 ;extruding 
G1 X29.907 Y10.798 ;extruding 
G1 X30.739 Y11.735 ;extruding 
G1 X30.968 Y11.856 ;extruding 
G1 X31.243 Y11.878 ;extruding 
G1 X31.558 Y11.772 ;extruding 
G1 X31.853 Y12.173 ;extruding 
G1 X32.505 Y13.196 ;extruding 
G1 X32.977 Y14.081 ;extruding 
G1 X33.285 Y14.767 ;extruding 
G1 X33.045 Y14.975 ;extruding 
G1 X32.923 Y15.217 ;extruding 
G1 X32.906 Y15.484 ;extruding 
G1 X33.184 Y16.282 ;extruding 
G1 X33.387 Y16.993 ;extruding 
G1 X33.657 Y18.268 ;extruding 
G1 X33.829 Y18.487 ;extruding 
G1 X34.079 Y18.624 ;extruding 
G1 X34.330 Y18.663 ;extruding 
G1 X34.385 Y19.153 ;extruding 
G1 X34.429 Y19.880 ;extruding 
G1 X34.436 Y20.644 ;extruding 
G1 X34.405 Y21.369 ;extruding 
G1 X34.329 Y22.117 ;extruding 
G1 X34.089 Y22.152 ;extruding 
G1 X33.832 Y22.289 ;extruding 
G1 X33.653 Y22.519 ;extruding 
G1 X33.483 Y23.379 ;extruding 
G1 X33.304 Y24.098 ;extruding 
G1 X33.091 Y24.774 ;extruding 
G1 X32.925 Y25.224 ;extruding 
G1 X32.902 Y25.402 ;extruding 
G1 X32.924 Y25.556 ;extruding 
G1 X33.037 Y25.794 ;extruding 
G1 X33.286 Y26.013 ;extruding 
G1 X33.088 Y26.466 ;extruding 
G1 X32.763 Y27.119 ;extruding 
G1 X32.387 Y27.784 ;extruding 
G1 X31.997 Y28.396 ;extruding 
G1 X31.557 Y29.005 ;extruding 
G1 X31.332 Y28.916 ;extruding 
G1 X31.041 Y28.906 ;extruding 
G1 X30.771 Y29.016 ;extruding 
G1 X30.194 Y29.676 ;extruding 
G1 X29.680 Y30.207 ;extruding 
G1 X28.743 Y31.040 ;extruding 
G1 X28.623 Y31.268 ;extruding 
G1 X28.600 Y31.544 ;extruding 
G1 X28.706 Y31.858 ;extruding 
G1 X28.306 Y32.154 ;extruding 
G1 X27.282 Y32.806 ;extruding 
G1 X26.397 Y33.278 ;extruding 
G1 X25.712 Y33.586 ;extruding 
G1 X25.504 Y33.346 ;extruding 
G1 X25.262 Y33.224 ;extruding 
G1 X24.995 Y33.207 ;extruding 
G1 X24.196 Y33.484 ;extruding 
G1 X23.486 Y33.688 ;extruding 
G1 X22.210 Y33.958 ;extruding 
G1 X21.991 Y34.130 ;extruding 
G1 X21.854 Y34.380 ;extruding 
G1 X21.816 Y34.631 ;extruding 
G1 X21.326 Y34.686 ;extruding 
G1 X20.598 Y34.730 ;extruding 
G1 X19.835 Y34.737 ;extruding 
G1 X19.109 Y34.706 ;extruding 
G1 X18.362 Y34.629 ;extruding 
G1 X18.327 Y34.390 ;extruding 
G1 X18.190 Y34.133 ;extruding 
G1 X17.959 Y33.953 ;extruding 
G1 X17.100 Y33.784 ;extruding 
G1 X16.380 Y33.604 ;extruding 
G1 X15.425 Y33.289 ;extruding 
FILEWRITE $hFile"\x05\x02\x30\x34\x44\x49\x20\x20\x43\x46\x03"
G1 X15.326 Y33.165 ;not extruding 
G1 D-144.000 ;not extruding 
G1 X14.985 Y35.749 ;not extruding 
G1 X15.893 Y36.108 ;not extruding 
G1 X18.790 Y23.220 ;not extruding 
FILEWRITE $hFile"\x05\x02\x30\x34\x44\x49\x20\x20\x43\x46\x03"
DWELL 0.15
G1 X18.790 Y22.398 ;extruding 
G1 X18.493 Y22.176 ;extruding 
G1 X18.211 Y21.876 ;extruding 
G1 X17.984 Y21.532 ;extruding 
G1 X17.819 Y21.154 ;extruding 
G1 X17.722 Y20.753 ;extruding 
G1 X17.694 Y20.342 ;extruding 
G1 X17.738 Y19.932 ;extruding 
G1 X17.851 Y19.536 ;extruding 
G1 X18.031 Y19.165 ;extruding 
G1 X18.271 Y18.830 ;extruding 
G1 X18.566 Y18.541 ;extruding 
G1 X18.905 Y18.308 ;extruding 
G1 X19.280 Y18.135 ;extruding 
G1 X19.678 Y18.030 ;extruding 
G1 X20.005 Y18.002 ;extruding 
G1 X20.489 Y18.027 ;extruding 
G1 X20.898 Y18.135 ;extruding 
G1 X21.273 Y18.308 ;extruding 
G1 X21.612 Y18.541 ;extruding 
G1 X21.907 Y18.830 ;extruding 
G1 X22.147 Y19.165 ;extruding 
G1 X22.327 Y19.536 ;extruding 
G1 X22.440 Y19.932 ;extruding 
G1 X22.484 Y20.342 ;extruding 
G1 X22.456 Y20.753 ;extruding 
G1 X22.359 Y21.154 ;extruding 
G1 X22.194 Y21.532 ;extruding 
G1 X21.967 Y21.876 ;extruding 
G1 X21.684 Y22.176 ;extruding 
G1 X21.388 Y22.398 ;extruding 
G1 X21.388 Y23.220 ;extruding 
G1 X18.877 Y23.220 ;extruding 
FILEWRITE $hFile"\x05\x02\x30\x34\x44\x49\x20\x20\x43\x46\x03"
G1 X19.183 Y22.827 ;not extruding 
FILEWRITE $hFile"\x05\x02\x30\x34\x44\x49\x20\x20\x43\x46\x03"
DWELL 0.15
G1 X19.183 Y22.165 ;extruding 
G1 X19.032 Y22.088 ;extruding 
G1 X18.756 Y21.882 ;extruding 
G1 X18.520 Y21.631 ;extruding 
G1 X18.330 Y21.344 ;extruding 
G1 X18.193 Y21.028 ;extruding 
G1 X18.111 Y20.693 ;extruding 
G1 X18.088 Y20.350 ;extruding 
G1 X18.125 Y20.007 ;extruding 
G1 X18.220 Y19.676 ;extruding 
G1 X18.370 Y19.366 ;extruding 
G1 X18.570 Y19.087 ;extruding 
G1 X18.816 Y18.846 ;extruding 
G1 X19.100 Y18.650 ;extruding 
G1 X19.413 Y18.506 ;extruding 
G1 X19.746 Y18.418 ;extruding 
G1 X20.012 Y18.395 ;extruding 
G1 X20.428 Y18.417 ;extruding 
G1 X20.765 Y18.506 ;extruding 
G1 X21.078 Y18.650 ;extruding 
G1 X21.362 Y18.846 ;extruding 
G1 X21.607 Y19.087 ;extruding 
G1 X21.808 Y19.366 ;extruding 
G1 X21.958 Y19.676 ;extruding 
G1 X22.053 Y20.007 ;extruding 
G1 X22.090 Y20.350 ;extruding 
G1 X22.067 Y20.693 ;extruding 
G1 X21.985 Y21.028 ;extruding 
G1 X21.848 Y21.344 ;extruding 
G1 X21.658 Y21.631 ;extruding 
G1 X21.422 Y21.882 ;extruding 
G1 X21.146 Y22.088 ;extruding 
G1 X20.995 Y22.165 ;extruding 
G1 X20.995 Y22.827 ;extruding 
G1 X19.270 Y22.827 ;extruding 
FILEWRITE $hFile"\x05\x02\x30\x34\x44\x49\x20\x20\x43\x46\x03"
G1 X18.607 Y22.895 ;not extruding 
G1 X14.060 Y33.526 ;not extruding 
FILEWRITE $hFile"\x05\x02\x30\x34\x44\x49\x20\x20\x43\x46\x03"
DWELL 0.15
G1 X13.237 Y33.118 ;extruding 
G1 X12.676 Y32.801 ;extruding 
G1 X12.007 Y32.376 ;extruding 
G1 X11.732 Y32.177 ;extruding 
G1 X12.051 Y31.768 ;extruding 
G1 X12.193 Y31.348 ;extruding 
G1 X12.198 Y31.057 ;extruding 
G1 X12.127 Y30.751 ;extruding 
G1 X11.921 Y30.443 ;extruding 
G1 X11.316 Y29.926 ;extruding 
G1 X10.825 Y29.451 ;extruding 
G1 X9.951 Y28.476 ;extruding 
G1 X9.634 Y28.322 ;extruding 
G1 X9.371 Y28.277 ;extruding 
G1 X9.076 Y28.297 ;extruding 
G1 X8.793 Y28.392 ;extruding 
G1 X8.589 Y28.514 ;extruding 
G1 X8.300 Y28.752 ;extruding 
G1 X7.578 Y27.633 ;extruding 
G1 X7.096 Y26.727 ;extruding 
G1 X6.960 Y26.423 ;extruding 
G1 X7.306 Y26.284 ;extruding 
G1 X7.506 Y26.173 ;extruding 
G1 X7.720 Y25.990 ;extruding 
G1 X7.910 Y25.712 ;extruding 
G1 X8.006 Y25.407 ;extruding 
G1 X8.007 Y25.082 ;extruding 
G1 X7.724 Y24.264 ;extruding 
G1 X7.534 Y23.601 ;extruding 
G1 X7.390 Y22.956 ;extruding 
G1 X7.301 Y22.443 ;extruding 
G1 X7.150 Y22.130 ;extruding 
G1 X6.964 Y21.935 ;extruding 
G1 X6.720 Y21.781 ;extruding 
G1 X6.487 Y21.702 ;extruding 
G1 X6.186 Y21.665 ;extruding 
G1 X5.699 Y21.741 ;extruding 
G1 X5.640 Y20.820 ;extruding 
G1 X5.634 Y20.175 ;extruding 
G1 X5.667 Y19.384 ;extruding 
G1 X5.702 Y19.046 ;extruding 
G1 X6.216 Y19.117 ;extruding 
G1 X6.651 Y19.031 ;extruding 
G1 X6.905 Y18.890 ;extruding 
G1 X7.134 Y18.675 ;extruding 
G1 X7.299 Y18.343 ;extruding 
G1 X7.444 Y17.560 ;extruding 
G1 X7.609 Y16.898 ;extruding 
G1 X8.003 Y15.711 ;extruding 
G1 X8.010 Y15.390 ;extruding 
G1 X7.909 Y15.065 ;extruding 
G1 X7.734 Y14.806 ;extruding 
G1 X7.511 Y14.609 ;extruding 
G1 X7.303 Y14.493 ;extruding 
G1 X6.953 Y14.361 ;extruding 
G1 X7.003 Y14.244 ;extruding 
G1 X7.361 Y13.538 ;extruding 
G1 X7.678 Y12.976 ;extruding 
G1 X8.102 Y12.308 ;extruding 
G1 X8.302 Y12.033 ;extruding 
G1 X8.711 Y12.351 ;extruding 
G1 X9.131 Y12.494 ;extruding 
G1 X9.421 Y12.499 ;extruding 
G1 X9.727 Y12.427 ;extruding 
G1 X10.036 Y12.222 ;extruding 
G1 X10.553 Y11.617 ;extruding 
G1 X11.028 Y11.125 ;extruding 
G1 X12.002 Y10.251 ;extruding 
G1 X12.156 Y9.935 ;extruding 
G1 X12.202 Y9.672 ;extruding 
G1 X12.181 Y9.377 ;extruding 
G1 X12.086 Y9.094 ;extruding 
G1 X11.964 Y8.890 ;extruding 
G1 X11.727 Y8.600 ;extruding 
G1 X12.846 Y7.878 ;extruding 
G1 X13.751 Y7.396 ;extruding 
G1 X14.056 Y7.260 ;extruding 
G1 X14.195 Y7.607 ;extruding 
G1 X14.305 Y7.807 ;extruding 
G1 X14.489 Y8.020 ;extruding 
G1 X14.766 Y8.211 ;extruding 
G1 X15.072 Y8.307 ;extruding 
G1 X15.397 Y8.308 ;extruding 
G1 X16.214 Y8.025 ;extruding 
G1 X16.877 Y7.835 ;extruding 
G1 X17.523 Y7.691 ;extruding 
G1 X18.035 Y7.602 ;extruding 
G1 X18.349 Y7.451 ;extruding 
G1 X18.543 Y7.265 ;extruding 
G1 X18.697 Y7.020 ;extruding 
G1 X18.777 Y6.788 ;extruding 
G1 X18.814 Y6.487 ;extruding 
G1 X18.737 Y6.000 ;extruding 
G1 X19.711 Y5.939 ;extruding 
G1 X20.358 Y5.936 ;extruding 
G1 X21.141 Y5.971 ;extruding 
G1 X21.433 Y6.002 ;extruding 
G1 X21.361 Y6.517 ;extruding 
G1 X21.448 Y6.952 ;extruding 
G1 X21.589 Y7.206 ;extruding 
G1 X21.804 Y7.435 ;extruding 
G1 X22.136 Y7.599 ;extruding 
G1 X22.918 Y7.745 ;extruding 
G1 X23.580 Y7.910 ;extruding 
G1 X24.767 Y8.303 ;extruding 
G1 X25.088 Y8.311 ;extruding 
G1 X25.414 Y8.210 ;extruding 
G1 X25.673 Y8.035 ;extruding 
G1 X25.870 Y7.811 ;extruding 
G1 X25.986 Y7.604 ;extruding 
G1 X26.118 Y7.253 ;extruding 
G1 X26.234 Y7.304 ;extruding 
G1 X26.941 Y7.661 ;extruding 
G1 X27.502 Y7.979 ;extruding 
G1 X28.171 Y8.403 ;extruding 
G1 X28.446 Y8.602 ;extruding 
G1 X28.127 Y9.012 ;extruding 
G1 X27.985 Y9.432 ;extruding 
G1 X27.980 Y9.722 ;extruding 
G1 X28.051 Y10.028 ;extruding 
G1 X28.257 Y10.336 ;extruding 
G1 X28.862 Y10.853 ;extruding 
G1 X29.353 Y11.328 ;extruding 
G1 X30.227 Y12.303 ;extruding 
G1 X30.544 Y12.457 ;extruding 
G1 X30.807 Y12.502 ;extruding 
G1 X31.102 Y12.482 ;extruding 
G1 X31.385 Y12.387 ;extruding 
G1 X31.589 Y12.265 ;extruding 
G1 X31.878 Y12.028 ;extruding 
G1 X32.600 Y13.147 ;extruding 
G1 X33.082 Y14.052 ;extruding 
G1 X33.218 Y14.357 ;extruding 
G1 X32.872 Y14.495 ;extruding 
G1 X32.672 Y14.606 ;extruding 
G1 X32.458 Y14.789 ;extruding 
G1 X32.268 Y15.067 ;extruding 
G1 X32.172 Y15.373 ;extruding 
G1 X32.171 Y15.698 ;extruding 
G1 X32.454 Y16.515 ;extruding 
G1 X32.644 Y17.178 ;extruding 
G1 X32.788 Y17.823 ;extruding 
G1 X32.877 Y18.336 ;extruding 
G1 X33.027 Y18.649 ;extruding 
G1 X33.214 Y18.844 ;extruding 
G1 X33.458 Y18.998 ;extruding 
G1 X33.690 Y19.077 ;extruding 
G1 X33.991 Y19.114 ;extruding 
G1 X34.479 Y19.038 ;extruding 
G1 X34.538 Y19.959 ;extruding 
G1 X34.544 Y20.604 ;extruding 
G1 X34.511 Y21.395 ;extruding 
G1 X34.476 Y21.733 ;extruding 
G1 X33.962 Y21.662 ;extruding 
G1 X33.527 Y21.748 ;extruding 
G1 X33.273 Y21.889 ;extruding 
G1 X33.044 Y22.104 ;extruding 
G1 X32.879 Y22.436 ;extruding 
G1 X32.734 Y23.219 ;extruding 
G1 X32.569 Y23.881 ;extruding 
G1 X32.175 Y25.068 ;extruding 
G1 X32.168 Y25.389 ;extruding 
G1 X32.269 Y25.714 ;extruding 
G1 X32.444 Y25.973 ;extruding 
G1 X32.667 Y26.171 ;extruding 
G1 X32.875 Y26.286 ;extruding 
G1 X33.225 Y26.418 ;extruding 
G1 X33.174 Y26.535 ;extruding 
G1 X32.817 Y27.241 ;extruding 
G1 X32.500 Y27.803 ;extruding 
G1 X32.076 Y28.471 ;extruding 
G1 X31.876 Y28.747 ;extruding 
G1 X31.467 Y28.428 ;extruding 
G1 X31.047 Y28.285 ;extruding 
G1 X30.757 Y28.280 ;extruding 
G1 X30.451 Y28.352 ;extruding 
G1 X30.142 Y28.557 ;extruding 
G1 X29.625 Y29.162 ;extruding 
G1 X29.150 Y29.654 ;extruding 
G1 X28.176 Y30.528 ;extruding 
G1 X28.022 Y30.844 ;extruding 
G1 X27.976 Y31.107 ;extruding 
G1 X27.997 Y31.403 ;extruding 
G1 X28.092 Y31.685 ;extruding 
G1 X28.214 Y31.889 ;extruding 
G1 X28.451 Y32.179 ;extruding 
G1 X27.332 Y32.901 ;extruding 
G1 X26.427 Y33.383 ;extruding 
G1 X26.122 Y33.519 ;extruding 
G1 X25.983 Y33.173 ;extruding 
G1 X25.873 Y32.973 ;extruding 
G1 X25.689 Y32.759 ;extruding 
G1 X25.412 Y32.568 ;extruding 
G1 X25.106 Y32.472 ;extruding 
G1 X24.781 Y32.471 ;extruding 
G1 X23.963 Y32.755 ;extruding 
G1 X23.301 Y32.945 ;extruding 
G1 X22.655 Y33.088 ;extruding 
G1 X22.143 Y33.178 ;extruding 
G1 X21.829 Y33.328 ;extruding 
